RAMEL-ESPOL/ARCHIE/matlab/datos_plano_mesa.txt
Joint0,Joint1,Joint2,Joint3,Joint4,Joint5 
state: -0.5276112264065262,0.0,-0.17587040880217542,0.0,0.0,-0.35174081760435083
goals: 0.0,0.0,0.0,0.0,0.0,0.0
goals: 0.0,0.0,0.0,0.0,0.0,0.0
goals: 0.0,0.0,0.0,0.0,0.0,0.0
state: -0.35174081760435083,0.0,-0.17587040880217542,0.0,0.0,-0.35174081760435083
goals: 0.0,0.0,0.0,0.0,0.0,0.0
state: -0.35174081760435083,0.0,0.0,0.0,0.0,-0.35174081760435083
goals: 0.0,0.0,0.0,0.0,0.0,0.0
goals: 0.0,0.0,0.0,0.0,0.0,0.0
goals: 0.0,0.0,0.0,0.0,0.0,0.0
state: -0.35174081760435083,0.0,0.0,0.0,0.0,-0.35174081760435083
goals: 0.0,0.0,0.0,0.0,0.0,0.0
state: -0.35174081760435083,0.0,0.0,0.0,0.0,-0.35174081760435083
goals: 0.0,0.0,0.0,0.0,0.0,0.0
goals: 0.0,0.0,0.0,0.0,0.0,0.0
goals: 0.0,0.0,0.0,0.0,0.0,0.0
state: -0.17587040880217542,0.0,0.0,0.0,0.0,-0.35174081760435083
goals: 0.0,0.0,0.0,0.0,0.0,0.0
state: -0.17587040880217542,0.0,0.0,0.0,0.0,-0.35174081760435083
goals: 0.0,0.0,0.0,0.0,0.0,0.0
goals: 0.0,0.0,0.0,0.0,0.0,0.0
goals: 0.0,0.0,0.0,0.0,0.0,0.0
state: -0.17587040880217542,0.0,0.0,0.0,0.0,-0.35174081760435083
goals: 0.0,0.0,0.0,0.0,0.0,0.0
goals: 0.0,0.0,0.0,0.0,0.0,0.0
state: -0.17587040880217542,0.0,0.0,0.0,-0.17587040880217542,-0.35174081760435083
goals: 0.0,0.0,0.0,0.0,0.0,0.0
goals: 0.0,0.0,0.0,0.0,0.0,0.0
state: -0.17587040880217542,0.0,0.0,0.0,0.0,-0.35174081760435083
goals: 0.0,0.0,0.0,0.0,0.0,0.0
state: -0.17587040880217542,0.0,0.0,0.0,0.0,-0.35174081760435083
goals: 0.0,0.0,0.0,0.0,0.0,0.0
goals: 0.0,0.0,0.0,0.0,0.0,0.0
goals: 0.0,0.0,0.0,0.0,0.0,0.0
state: 0.0,0.0,0.0,0.0,0.0,-0.35174081760435083
goals: 0.0,0.0,0.0,0.0,0.0,0.0
state: 0.0,0.0,0.0,0.0,0.0,-0.35174081760435083
goals: 0.0,0.0,0.0,0.0,0.0,0.0
goals: 0.0,0.0,0.0,0.0,0.0,0.0
goals: 0.0,0.0,0.0,0.0,0.0,0.0
state: 0.0,0.0,0.0,0.0,0.0,-0.35174081760435083
goals: 0.0,0.0,0.0,0.0,0.0,0.0
state: 0.0,0.0,0.0,0.0,0.0,-0.35174081760435083
goals: 0.0,0.0,0.0,0.0,0.0,0.0
goals: 0.0,0.0,0.0,0.0,0.0,0.0
goals: 0.0,0.0,0.0,0.0,0.0,0.0
state: 0.0,0.0,0.0,0.0,0.0,-0.35174081760435083
goals: 0.0,0.0,0.0,0.0,0.0,0.0
state: 0.0,0.0,0.0,0.0,0.0,-0.35174081760435083
goals: 0.0,0.0,0.0,0.0,0.0,0.0
goals: 0.0,0.0,0.0,0.0,0.0,0.0
goals: 0.0,0.0,0.0,0.0,0.0,0.0
state: 0.0,0.0,0.0,0.0,0.0,-0.35174081760435083
goals: 0.0,0.0,0.0,0.0,0.0,0.0
goals: 0.0,0.0,0.0,0.0,0.0,0.0
state: 0.0,0.0,0.0,0.0,0.0,-0.35174081760435083
goals: 0.0,0.0,0.0,0.0,0.0,0.0
goals: 0.0,0.0,0.0,0.0,0.0,0.0
state: 0.0,0.0,0.0,0.0,0.0,-0.35174081760435083
goals: 0.0,0.0,0.0,0.0,0.0,0.0
state: 0.0,0.0,0.0,0.0,0.0,-0.35174081760435083
goals: 0.0,0.0,0.0,0.0,0.0,0.0
goals: 0.0,0.0,0.0,0.0,0.0,0.0
goals: 0.0,0.0,0.0,0.0,0.0,0.0
state: 0.0,0.0,0.0,0.0,0.0,-0.35174081760435083
goals: 0.0,0.0,0.0,0.0,0.0,0.0
state: 0.0,0.0,0.0,0.0,0.0,-0.35174081760435083
goals: 0.0,0.0,0.0,0.0,0.0,0.0
goals: 0.0,0.0,0.0,0.0,0.0,0.0
goals: 0.0,0.0,0.0,0.0,0.0,0.0
state: 0.0,0.0,0.0,0.0,0.0,-0.35174081760435083
goals: 0.0,0.0,0.0,0.0,0.0,0.0
state: 0.0,0.0,0.0,0.0,0.0,-0.35174081760435083
goals: 0.0,0.0,0.0,0.0,0.0,0.0
goals: 0.0,0.0,0.0,0.0,0.0,0.0
goals: 0.0,0.0,0.0,0.0,0.0,0.0
state: 0.0,0.0,0.0,0.0,0.0,-0.35174081760435083
goals: 0.0,0.0,0.0,0.0,0.0,0.0
state: 0.0,0.0,0.0,0.0,0.0,-0.35174081760435083
goals: 0.0,0.0,0.0,0.0,0.0,0.0
goals: 0.0,0.0,0.0,0.0,0.0,0.0
goals: 0.0,0.0,0.0,0.0,0.0,0.0
state: 0.0,0.0,0.0,0.0,0.0,-0.35174081760435083
goals: 0.0,0.0,0.0,0.0,0.0,0.0
state: 0.0,0.0,0.0,0.0,0.0,-0.35174081760435083
goals: 0.0,0.0,0.0,0.0,0.0,0.0
goals: 0.0,0.0,0.0,0.0,0.0,0.0
goals: 0.0,0.0,0.0,0.0,0.0,0.0
state: 0.0,0.0,0.0,0.0,0.0,-0.35174081760435083
goals: 0.0,0.0,0.0,0.0,0.0,0.0
state: 0.0,0.0,0.0,0.0,0.0,-0.35174081760435083
goals: 0.0,0.0,0.0,0.0,0.0,0.0
goals: 0.0,0.0,0.0,0.0,0.0,0.0
goals: 0.0,0.0,0.0,0.0,0.0,0.0
state: 0.0,0.0,0.0,0.0,0.0,-0.35174081760435083
goals: 0.0,0.0,0.0,0.0,0.0,0.0
state: 0.0,0.0,0.0,0.0,0.0,-0.35174081760435083
goals: 0.0,0.0,0.0,0.0,0.0,0.0
goals: 0.0,0.0,0.0,0.0,0.0,0.0
goals: 0.0,0.0,0.0,0.0,0.0,0.0
state: 0.0,0.0,0.0,0.0,0.0,-0.35174081760435083
goals: 0.0,0.0,0.0,0.0,0.0,0.0
goals: 0.0,0.0,0.0,0.0,0.0,0.0
state: 0.0,0.0,0.0,0.0,0.0,-0.35174081760435083
goals: 0.0,0.0,0.0,0.0,0.0,0.0
goals: 0.0,0.0,0.0,0.0,0.0,0.0
state: 0.0,0.0,0.0,0.0,0.0,-0.35174081760435083
goals: 0.0,0.0,0.0,0.0,0.0,0.0
state: 0.0,0.0,0.0,0.0,0.0,-0.35174081760435083
goals: 0.0,0.0,0.0,0.0,0.0,0.0
goals: 0.0,0.0,0.0,0.0,0.0,0.0
goals: 0.0,0.0,0.0,0.0,0.0,0.0
state: 0.0,0.0,0.0,0.0,0.0,-0.35174081760435083
goals: 0.0,0.0,0.0,0.0,0.0,0.0
state: 0.0,0.0,0.0,0.0,0.0,-0.35174081760435083
goals: 0.0,0.0,0.0,0.0,0.0,0.0
goals: 0.0,0.0,0.0,0.0,0.0,0.0
goals: 0.0,0.0,0.0,0.0,0.0,0.0
state: 0.0,0.0,0.0,0.0,0.0,-0.35174081760435083
goals: 0.0,0.0,0.0,0.0,0.0,0.0
state: 0.0,0.0,0.0,0.0,0.0,-0.35174081760435083
goals: 0.0,0.0,0.0,0.0,0.0,0.0
goals: 0.0,0.0,0.0,0.0,0.0,0.0
goals: 0.0,0.0,0.0,0.0,0.0,0.0
state: 0.0,0.0,0.0,0.0,0.0,-0.35174081760435083
goals: 0.0,0.0,0.0,0.0,0.0,0.0
state: 0.0,0.0,0.0,0.0,0.0,-0.35174081760435083
goals: 0.0,0.0,0.0,0.0,0.0,0.0
goals: 0.0,0.0,0.0,0.0,0.0,0.0
goals: 0.0,0.0,0.0,0.0,0.0,0.0
state: 0.0,0.0,0.0,0.0,0.0,-0.35174081760435083
goals: 0.0,0.0,0.0,0.0,0.0,0.0
goals: 0.0,0.0,0.0,0.0,0.0,0.0
state: 0.0,0.0,0.0,0.0,0.0,-0.35174081760435083
goals: 0.0,0.0,0.0,0.0,0.0,0.0
goals: 0.0,0.0,0.0,0.0,0.0,0.0
state: 0.0,0.0,0.0,0.0,0.0,-0.35174081760435083
goals: 0.0,0.0,0.0,0.0,0.0,0.0
state: 0.0,0.0,0.0,0.0,0.0,-0.35174081760435083
goals: 0.0,0.0,0.0,0.0,0.0,0.0
goals: 0.0,0.0,0.0,0.0,0.0,0.0
goals: 0.0,0.0,0.0,0.0,0.0,0.0
state: 0.0,0.0,0.0,0.0,0.0,-0.35174081760435083
goals: 0.0,0.0,0.0,0.0,0.0,0.0
state: 0.0,0.0,0.0,0.0,0.0,-0.35174081760435083
goals: 0.0,0.0,0.0,0.0,0.0,0.0
goals: 0.0,0.0,0.0,0.0,0.0,0.0
goals: 0.0,0.0,0.0,0.0,0.0,0.0
state: 0.0,0.0,0.0,0.0,0.0,-0.35174081760435083
goals: 0.0,0.0,0.0,0.0,0.0,0.0
state: 0.0,0.0,0.0,0.0,0.0,-0.35174081760435083
goals: 0.0,0.0,0.0,0.0,0.0,0.0
goals: 0.0,0.0,0.0,0.0,0.0,0.0
goals: 0.0,0.0,0.0,0.0,0.0,0.0
state: 0.0,0.0,0.0,0.0,0.0,-0.35174081760435083
goals: 0.0,0.0,0.0,0.0,0.0,0.0
state: 0.0,0.0,0.0,0.0,0.0,-0.35174081760435083
goals: 0.0,0.0,0.0,0.0,0.0,0.0
goals: 0.0,0.0,0.0,0.0,0.0,0.0
goals: 0.0,0.0,0.0,0.0,0.0,0.0
state: 0.0,0.0,0.0,0.0,0.0,-0.35174081760435083
goals: 0.0,0.0,0.0,0.0,0.0,0.0
state: 0.0,0.0,0.0,0.0,0.0,-0.35174081760435083
goals: 0.0,0.0,0.0,0.0,0.0,0.0
goals: 0.0,0.0,0.0,0.0,0.0,0.0
goals: 0.0,0.0,0.0,0.0,0.0,0.0
state: 0.0,0.0,0.0,0.0,0.0,-0.35174081760435083
goals: 0.0,0.0,0.0,0.0,0.0,0.0
state: 0.0,0.0,0.0,0.0,0.0,-0.35174081760435083
goals: 0.0,0.0,0.0,0.0,0.0,0.0
goals: 0.0,0.0,0.0,0.0,0.0,0.0
goals: 0.0,0.0,0.0,0.0,0.0,0.0
state: 0.0,0.0,0.0,0.0,0.0,-0.35174081760435083
goals: 0.0,0.0,0.0,0.0,0.0,0.0
state: 0.0,0.0,0.0,0.0,0.0,-0.35174081760435083
goals: 0.0,0.0,0.0,0.0,0.0,0.0
goals: 0.0,0.0,0.0,0.0,0.0,0.0
goals: 0.0,0.0,0.0,0.0,0.0,0.0
state: 0.0,0.0,0.0,0.0,0.0,-0.35174081760435083
goals: 0.0,0.0,0.0,0.0,0.0,0.0
state: 0.0,0.0,0.0,0.0,0.0,-0.35174081760435083
goals: 0.0,0.0,0.0,0.0,0.0,0.0
goals: 0.0,0.0,0.0,0.0,0.0,0.0
goals: 0.0,0.0,0.0,0.0,0.0,0.0
state: 0.0,0.0,0.0,0.0,0.0,-0.35174081760435083
goals: 0.0,0.0,0.0,0.0,0.0,0.0
state: 0.0,0.0,0.0,0.0,0.0,-0.35174081760435083
goals: 0.0,0.0,0.0,0.0,0.0,0.0
goals: 0.0,0.0,0.0,0.0,0.0,0.0
goals: 0.0,0.0,0.0,0.0,0.0,0.0
state: 0.0,0.0,0.0,0.0,0.0,-0.35174081760435083
goals: 0.0,0.0,0.0,0.0,0.0,0.0
state: 0.0,0.0,0.0,0.0,0.0,-0.35174081760435083
goals: 0.0,0.0,0.0,0.0,0.0,0.0
goals: 0.0,0.0,0.0,0.0,0.0,0.0
goals: 0.0,0.0,0.0,0.0,0.0,0.0
state: 0.0,0.0,0.0,0.0,0.0,-0.35174081760435083
goals: 0.0,0.0,0.0,0.0,0.0,0.0
state: 0.0,0.0,0.0,0.0,0.0,-0.35174081760435083
goals: 0.0,0.0,0.0,0.0,0.0,0.0
goals: 0.0,0.0,0.0,0.0,0.0,0.0
goals: 0.0,0.0,0.0,0.0,0.0,0.0
state: 0.0,0.0,0.0,0.0,0.0,-0.35174081760435083
goals: 0.0,0.0,0.0,0.0,0.0,0.0
state: 0.0,0.0,0.0,0.0,0.0,-0.35174081760435083
goals: 0.0,0.0,0.0,0.0,0.0,0.0
goals: 0.0,0.0,0.0,0.0,0.0,0.0
goals: 0.0,0.0,0.0,0.0,0.0,0.0
state: 0.0,0.0,0.0,0.0,0.0,-0.35174081760435083
goals: 0.0,0.0,0.0,0.0,0.0,0.0
state: 0.0,0.0,0.0,0.0,0.0,-0.35174081760435083
goals: 0.0,0.0,0.0,0.0,0.0,0.0
goals: 0.0,0.0,0.0,0.0,0.0,0.0
goals: 0.0,0.0,0.0,0.0,0.0,0.0
state: 0.0,0.0,0.0,0.0,0.0,-0.35174081760435083
goals: 0.0,0.0,0.0,0.0,0.0,0.0
state: 0.0,0.0,0.0,0.0,0.0,-0.35174081760435083
goals: 0.0,0.0,0.0,0.0,0.0,0.0
goals: 0.0,0.0,0.0,0.0,0.0,0.0
goals: 0.0,0.0,0.0,0.0,0.0,0.0
state: 0.0,0.0,0.0,0.0,0.0,-0.35174081760435083
goals: 0.0,0.0,0.0,0.0,0.0,0.0
state: 0.0,0.0,0.0,0.0,0.0,-0.35174081760435083
goals: 0.0,0.0,0.0,0.0,0.0,0.0
goals: 0.0,0.0,0.0,0.0,0.0,0.0
goals: 0.0,0.0,0.0,0.0,0.0,0.0
state: 0.0,0.0,0.0,0.0,0.0,-0.35174081760435083
goals: 0.0,0.0,0.0,0.0,0.0,0.0
state: 0.0,0.0,0.0,0.0,0.0,-0.35174081760435083
goals: 0.0,0.0,0.0,0.0,0.0,0.0
goals: 0.0,0.0,0.0,0.0,0.0,0.0
goals: 0.0,0.0,0.0,0.0,0.0,0.0
state: 0.0,0.0,0.0,0.0,0.0,-0.35174081760435083
goals: 0.0,0.0,0.0,0.0,0.0,0.0
state: 0.0,0.0,0.0,0.0,0.0,-0.35174081760435083
goals: 0.0,0.0,0.0,0.0,0.0,0.0
goals: 0.0,0.0,0.0,0.0,0.0,0.0
goals: 0.0,0.0,0.0,0.0,0.0,0.0
state: 0.0,0.0,0.0,0.0,0.0,-0.35174081760435083
goals: 0.0,0.0,0.0,0.0,0.0,0.0
state: 0.0,0.0,0.0,0.0,0.0,-0.35174081760435083
goals: 0.0,0.0,0.0,0.0,0.0,0.0
goals: 0.0,0.0,0.0,0.0,0.0,0.0
goals: 0.0,0.0,0.0,0.0,0.0,0.0
state: 0.0,0.0,0.0,0.0,0.0,-0.35174081760435083
goals: 0.0,0.0,0.0,0.0,0.0,0.0
state: 0.0,0.0,0.0,0.0,0.0,-0.35174081760435083
goals: 0.0,0.0,0.0,0.0,0.0,0.0
goals: 0.0,0.0,0.0,0.0,0.0,0.0
goals: 0.0,0.0,0.0,0.0,0.0,0.0
state: 0.0,0.0,0.0,0.0,0.0,-0.35174081760435083
goals: 0.0,0.0,0.0,0.0,0.0,0.0
state: 0.0,0.0,0.0,0.0,0.0,-0.35174081760435083
goals: 0.0,0.0,0.0,0.0,0.0,0.0
goals: 0.0,0.0,0.0,0.0,0.0,0.0
goals: 0.0,0.0,0.0,0.0,0.0,0.0
state: 0.0,0.0,0.0,0.0,0.0,-0.35174081760435083
goals: 0.0,0.0,0.0,0.0,0.0,0.0
state: 0.0,0.0,0.0,0.0,0.0,-0.35174081760435083
goals: 0.0,0.0,0.0,0.0,0.0,0.0
goals: 0.0,0.0,0.0,0.0,0.0,0.0
goals: 0.0,0.0,0.0,0.0,0.0,0.0
state: 0.0,0.0,0.0,0.0,0.0,-0.35174081760435083
goals: 0.0,0.0,0.0,0.0,0.0,0.0
state: 0.0,0.0,0.0,0.0,0.0,-0.35174081760435083
goals: 0.0,0.0,0.0,0.0,0.0,0.0
goals: 0.0,0.0,0.0,0.0,0.0,0.0
goals: 0.0,0.0,0.0,0.0,0.0,0.0
state: 0.0,0.0,0.0,0.0,0.0,-0.35174081760435083
goals: 0.0,0.0,0.0,0.0,0.0,0.0
state: 0.0,0.0,0.0,0.0,0.0,-0.35174081760435083
goals: 0.0,0.0,0.0,0.0,0.0,0.0
goals: 0.0,0.0,0.0,0.0,0.0,0.0
goals: 0.0,0.0,0.0,0.0,0.0,0.0
state: 0.0,0.0,0.0,0.0,0.0,-0.35174081760435083
goals: 0.0,0.0,0.0,0.0,0.0,0.0
state: 0.0,0.0,0.0,0.0,-0.17587040880217542,-0.35174081760435083
goals: 0.0,0.0,0.0,0.0,0.0,0.0
goals: 0.0,0.0,0.0,0.0,0.0,0.0
goals: 0.0,0.0,0.0,0.0,0.0,0.0
state: 0.0,0.0,0.0,0.0,0.0,-0.35174081760435083
goals: 0.0,0.0,0.0,0.0,0.0,0.0
state: 0.0,0.0,0.0,0.0,0.0,-0.35174081760435083
goals: 0.0,0.0,0.0,0.0,0.0,0.0
goals: 0.0,0.0,0.0,0.0,0.0,0.0
goals: 0.0,0.0,0.0,0.0,0.0,0.0
state: 0.0,0.0,0.0,0.0,0.0,-0.35174081760435083
goals: 0.0,0.0,0.0,0.0,0.0,0.0
state: 0.0,0.0,0.0,0.0,0.0,-0.35174081760435083
goals: 0.0,0.0,0.0,0.0,0.0,0.0
goals: 0.0,0.0,0.0,0.0,0.0,0.0
goals: 0.0,0.0,0.0,0.0,0.0,0.0
state: 0.0,0.0,0.0,0.0,0.0,-0.35174081760435083
goals: 0.0,0.0,0.0,0.0,0.0,0.0
state: 0.0,0.0,0.0,0.0,0.0,-0.35174081760435083
goals: 0.0,0.0,0.0,0.0,0.0,0.0
goals: 0.0,0.0,0.0,0.0,0.0,0.0
goals: 0.0,0.0,0.0,0.0,0.0,0.0
state: 0.0,0.0,0.0,0.0,0.0,-0.35174081760435083
goals: 0.0,0.0,0.0,0.0,0.0,0.0
state: 0.0,0.0,0.0,0.0,0.0,-0.35174081760435083
goals: 0.0,0.0,0.0,0.0,0.0,0.0
goals: 0.0,0.0,0.0,0.0,0.0,0.0
goals: 0.0,0.0,0.0,0.0,0.0,0.0
state: 0.0,0.0,0.0,0.0,0.0,-0.35174081760435083
goals: 0.0,0.0,0.0,0.0,0.0,0.0
state: 0.0,0.0,0.0,0.0,0.0,-0.35174081760435083
goals: 0.0,0.0,0.0,0.0,0.0,0.0
goals: 0.0,0.0,0.0,0.0,0.0,0.0
goals: 0.0,0.0,0.0,0.0,0.0,0.0
state: 0.0,0.0,0.0,0.0,0.0,-0.35174081760435083
goals: 0.0,0.0,0.0,0.0,0.0,0.0
state: 0.0,0.0,0.0,0.0,0.0,-0.35174081760435083
goals: 0.0,0.0,0.0,0.0,0.0,0.0
goals: 0.0,0.0,0.0,0.0,0.0,0.0
goals: 0.0,0.0,0.0,0.0,0.0,0.0
state: 0.0,0.0,0.0,0.0,0.0,-0.35174081760435083
goals: 0.0,0.0,0.0,0.0,0.0,0.0
state: 0.0,0.0,0.0,0.0,0.0,-0.35174081760435083
goals: 0.0,0.0,0.0,0.0,0.0,0.0
goals: 0.0,0.0,0.0,0.0,0.0,0.0
goals: 0.0,0.0,0.0,0.0,0.0,0.0
state: 0.0,0.0,0.0,0.0,0.0,-0.35174081760435083
goals: 0.0,0.0,0.0,0.0,0.0,0.0
state: 0.0,0.0,0.0,0.0,0.0,-0.35174081760435083
goals: 0.0,0.0,0.0,0.0,0.0,0.0
goals: 0.0,0.0,0.0,0.0,0.0,0.0
goals: 0.0,0.0,0.0,0.0,0.0,0.0
state: 0.0,0.0,0.0,0.0,0.0,-0.35174081760435083
goals: 0.0,0.0,0.0,0.0,0.0,0.0
state: 0.0,0.0,0.0,0.0,0.0,-0.35174081760435083
goals: 0.0,0.0,0.0,0.0,0.0,0.0
goals: 0.0,0.0,0.0,0.0,0.0,0.0
goals: 0.0,0.0,0.0,0.0,0.0,0.0
state: 0.0,0.0,0.0,0.0,0.0,-0.35174081760435083
goals: 0.00044982593703005364,3.170252132078893e-08,4.288765040172953e-09,7.159329480359128e-10,1.3797206216943816e-09,2.7828162572340157e-08
state: 0.0,0.0,0.0,0.0,0.0,-0.35174081760435083
goals: 2.6418284400108365,0.00018618895788509066,2.518792386775184e-05,4.204675336753e-06,8.103101394569255e-06,0.00016343484282441796
goals: 5.278059259981567,0.0003719834105759304,5.0322478476063726e-05,8.400441626055875e-06,1.618903358841893e-05,0.00032652339285495495
goals: 7.916759535235606,0.0005579519038285189,7.548057755483733e-05,1.2600138245416403e-05,2.4282540175157607e-05,0.000489764713985226
state: 5.627853081669613,0.0,0.0,0.0,0.0,-0.35174081760435083
goals: 10.548528979348282,0.0007434319307568205,0.00010057259617036626,1.6788803908215966e-05,3.2354788293088644e-05,0.0006525772641623666
state: 10.728094936932699,0.0,0.0,0.0,0.0,-0.35174081760435083
goals: 13.431192216460145,0.0009465942769269293,0.00012805670568068818,2.1376786546936862e-05,4.1196585944649575e-05,0.0008309111809064731
goals: 16.875973556429795,0.0011893731940273615,0.00016090020483381704,2.685942384514761e-05,5.1762530370541095e-05,0.0010440201354228829
goals: 20.312887268385964,0.0014315976218813795,0.000193668691842924,3.232953920174927e-05,6.230434295404557e-05,0.0012566423647120564
state: 17.059429653811016,0.0,0.17587040880217542,0.0,0.0,-0.35174081760435083
goals: 23.740028528127734,0.0016731333136061986,0.00022634400558663281,3.778410094094599e-05,7.281618115694019e-05,0.001468660028175728
state: 24.44598682350238,0.0,0.17587040880217542,0.0,0.0,-0.35174081760435083
goals: 27.176572570117553,0.001915331688115967,0.0002591089680599192,4.325362793905825e-05,8.335685987680139e-05,0.0016812593880946077
goals: 30.625922250842194,0.0021584325695769738,0.000291996023038777,4.874353610672118e-05,9.393681646479324e-05,0.0018946509597719023
goals: 34.05836208950758,0.0024003416908830325,0.0003247218549011168,5.4206530946183804e-05,0.00010446490663985033,0.0021069964160628668
state: 31.304932766787225,0.0,0.17587040880217542,0.0,0.0,-0.35174081760435083
goals: 37.50046070459535,0.0026429315367544307,0.0003575397762123769,5.9684898479191295e-05,0.00011502262252546183,0.00231993940570708
state: 38.16387871007206,0.0,0.17587040880217542,-0.17587040880217542,0.0,-0.35174081760435083
goals: 40.94245444074759,0.002885513991040738,0.00039035669757882485,6.516309908921966e-05,0.00012558001672301973,0.0025328759070903286
goals: 44.37818634378836,0.003127655128183276,0.00042311391689449026,7.063133350505922e-05,0.00013611820442410358,0.0027454250246091044
goals: 47.819262527075765,0.0033701729158132922,0.0004559220900578549,7.610807375837308e-05,0.00014667278427392186,0.002958304762235109
state: 45.022824653356906,0.0,0.17587040880217542,0.0,0.0,-0.35174081760435083
goals: 51.25258417714187,0.003612144184813449,0.0004886563293542623,8.157247206923154e-05,0.00015720357916934713,0.0031707047711629875
state: 52.05764100544392,0.0,0.17587040880217542,0.0,0.0,-0.35174081760435083
goals: 54.70370547060757,0.003855369924772093,0.0005215602753795517,8.706519989629618e-05,0.0001677889697050758,0.0033842059424060585
goals: 58.13582966723434,0.004097256800476832,0.0005542830978232944,9.25276923669165e-05,0.0001783160917326921,0.0035965318717261613
goals: 61.57855371992527,0.004339890725507114,0.0005871069822298463,9.800705533249064e-05,0.00018887572598069139,0.0038095135536241266
state: 58.56484613112441,0.0,0.17587040880217542,0.0,0.0,-0.35174081760435083
goals: 65.01375484225548,0.004581994454653786,0.0006198591409352444,0.0001034744449695667,0.0001994122856540613,0.00402202983477068
state: 65.59966248321143,0.0,0.17587040880217542,0.0,0.0,-0.35174081760435083
goals: 68.4548217389187,0.004824511587787525,0.0006526672255573627,0.00010895117044249622,0.00020996683701964634,0.004234908997886265
goals: 71.89507017443665,0.005066971037982662,0.0006854675067442907,0.00011442659327088631,0.00022051887797480994,0.004447737527483562
goals: 75.32871114467588,0.00530896481180916,0.0007182047905276479,0.00011989149980462407,0.0002310506522993688,0.004660157290927485
state: 72.81034924410062,0.0,0.17587040880217542,0.0,0.0,-0.35174081760435083
goals: 78.77432344068251,0.005551802292454531,0.0007510562122457245,0.0001253754596339658,0.00024161914546041665,0.004873317651949797
state: 79.31755436978112,0.0,0.17587040880217542,0.0,0.0,-0.35174081760435083
goals: 82.20729774176893,0.0057937490812335025,0.0007837871398207791,0.00013083930511192037,0.0002521488749558489,0.005085696172379393
goals: 85.65087158936537,0.006036442897521475,0.0008166191264072677,0.00013632002059214927,0.0002627111157221897,0.005298730426236502
goals: 89.09765571380785,0.006279362965480996,0.0008494817206621305,0.00014180584547754404,0.00027328320315320946,0.005511963281593926
state: 86.70411153947248,0.0,0.17587040880217542,0.0,0.0,-0.35174081760435083
goals: 92.53316697353688,0.006521488552276789,0.0008822368363033654,0.00014727372872240022,0.00028382071409001136,0.005724498749170702
state: 93.38718707395515,0.0,0.17587040880217542,0.0,0.0,-0.35174081760435083
goals: 95.97170209568164,0.006763827252756822,0.0009150207822861782,0.00015274642467936474,0.0002943674999151395,0.005937221285851269
goals: 99.42103725235742,0.007006927110601956,0.0009479076987887324,0.0001582363097308748,0.00030494741195450026,0.006150611959008583
goals: 102.8446157254067,0.007248211706710045,0.0009805490439375813,0.0001636852010180811,0.0003154483222631458,0.0063624092132002945
state: 100.0702626084378,0.0,0.17587040880217542,0.0,0.0,-0.35174081760435083
goals: 106.2916124851093,0.0074911467606303805,0.0010134136655158927,0.00016917136432902246,0.00032602106189589326,0.006575655223087281
state: 107.10507896052484,0.0,0.17587040880217542,0.0,0.0,-0.35174081760435083
goals: 109.72753724989367,0.0077333014901495144,0.0010461727236288248,0.00017463990569931996,0.00033655984114873725,0.006788216271861045
goals: 113.16662613952273,0.007975679218671358,0.0010789619493841707,0.00018011348302028534,0.00034710832550735306,0.0070009730669742904
goals: 116.60483630813161,0.008217995017300802,0.0011117427971699928,0.0001855856617884357,0.0003576541146245156,0.007213675500634819
state: 113.96402490380967,0.0,0.17587040880217542,0.0,0.0,-0.35174081760435083
goals: 120.04651657865563,0.008460555379373335,0.0011445567298683425,0.00019106336349354806,0.00036821054735018883,0.007426592609689291
state: 120.64710043829234,0.0,0.17587040880217542,0.0,0.0,-0.35174081760435083
goals: 123.48797871669528,0.008703100368055482,0.0011773685828311861,0.00019654071802385406,0.000378766311012871,0.007639496224132322
goals: 126.92925542426765,0.008945632288097385,0.0012101786678486086,0.00020201777742715607,0.0003893215059172433,0.007852388367051
goals: 130.36795526360962,0.009187982597402134,0.001242964184290789,0.00020749073554434498,0.000399868796968271,0.008065121093844153
state: 127.50604638157716,0.0,0.17587040880217542,0.0,0.0,-0.35174081760435083
goals: 133.79978513353532,0.00942984872975317,0.001275684200542265,0.0002129527595711397,0.00041039501622753736,0.008277428814851634
state: 134.5408627336642,0.0,0.17587040880217542,0.0,0.0,-0.35174081760435083
goals: 137.10154389907154,0.00966254780075743,0.0013071640828678816,0.00021820776532363332,0.0004205222772004104,0.00848168977923407
goals: 139.73555034533854,0.009848185485576606,0.0013322774296813744,0.00022239999134926496,0.0004286013867234962,0.008644640719962978
goals: 142.37341511281096,0.010034095094489538,0.0013574275627976063,0.000226598358193039,0.00043669233061382047,0.00880783035299689
state: 140.52045663293814,0.0,0.17587040880217542,0.0,0.0,-0.35174081760435083
goals: 145.01017076486045,0.01021992653593269,0.001382567121300283,0.0002307949597933955,0.00044477987258954903,0.008970951371391766
state: 145.79656889700343,0.0,0.17587040880217542,0.0,0.0,-0.35174081760435083
goals: 147.647924328148,0.010405828307473983,0.001407716194165024,0.00023499314964706437,0.00045287047539081083,0.009134134124857647
goals: 149.04891245550337,0.010504566179885039,0.0014210736029039907,0.00023722293116389552,0.00045716763135923624,0.009220805261758672
goals: 149.04891245550337,0.010504566179885039,0.0014210736029039907,0.00023722293116389552,0.00045716763135923624,0.009220805261758672
state: 149.66571789065128,0.0,0.17587040880217542,0.0,0.0,-0.35174081760435083
goals: 149.04891245550337,0.010504566179885039,0.0014210736029039907,0.00023722293116389552,0.00045716763135923624,0.009220805261758672
state: 149.66571789065128,0.0,0.17587040880217542,0.0,0.0,-0.35174081760435083
goals: 149.04891245550337,0.010504566179885039,0.0014210736029039907,0.00023722293116389552,0.00045716763135923624,0.009220805261758672
goals: 149.04891245550337,0.010504566179885039,0.0014210736029039907,0.00023722293116389552,0.00045716763135923624,0.009220805261758672
goals: 149.04891245550337,0.010504566179885039,0.0014210736029039907,0.00023722293116389552,0.00045716763135923624,0.009220805261758672
state: 149.66571789065128,0.0,0.17587040880217542,0.0,0.0,-0.35174081760435083
goals: 149.04891245550337,0.010504566179885039,0.0014210736029039907,0.00023722293116389552,0.00045716763135923624,0.009220805261758672
state: 149.66571789065128,0.0,0.17587040880217542,0.0,0.0,-0.35174081760435083
goals: 149.04891245550337,0.010504566179885039,0.0014210736029039907,0.00023722293116389552,0.00045716763135923624,0.009220805261758672
goals: 149.04891245550337,0.010504566179885039,0.0014210736029039907,0.00023722293116389552,0.00045716763135923624,0.009220805261758672
goals: 149.04891245550337,0.010504566179885039,0.0014210736029039907,0.00023722293116389552,0.00045716763135923624,0.009220805261758672
state: 150.01745870825562,0.17587040880217542,0.35174081760435083,0.0,0.35174081760435083,-0.35174081760435083
goals: 149.04891245550337,0.010504566179885039,0.0014210736029039907,0.00023722293116389552,0.00045716763135923624,0.009220805261758672
state: 149.84158829945346,0.5276112264065262,0.5276112264065262,0.17587040880217542,0.5276112264065262,-0.35174081760435083
goals: 149.04891245550337,0.010504566179885039,0.0014210736029039907,0.00023722293116389552,0.00045716763135923624,0.009220805261758672
goals: 149.04891245550337,0.010504566179885039,0.0014210736029039907,0.00023722293116389552,0.00045716763135923624,0.009220805261758672
goals: 149.04891245550337,0.010504566179885039,0.0014210736029039907,0.00023722293116389552,0.00045716763135923624,0.009220805261758672
state: 150.01745870825562,0.5276112264065262,0.35174081760435083,0.17587040880217542,0.5276112264065262,-0.35174081760435083
goals: 149.04891245550337,0.010504566179885039,0.0014210736029039907,0.00023722293116389552,0.00045716763135923624,0.009220805261758672
state: 150.01745870825562,0.5276112264065262,0.35174081760435083,-0.35174081760435083,0.17587040880217542,-0.5276112264065262
goals: 149.04891245550337,0.010504566179885039,0.0014210736029039907,0.00023722293116389552,0.00045716763135923624,0.009220805261758672
goals: 149.04891245550337,0.010504566179885039,0.0014210736029039907,0.00023722293116389552,0.00045716763135923624,0.009220805261758672
goals: 149.04891245550337,0.010504566179885039,0.0014210736029039907,0.00023722293116389552,0.00045716763135923624,0.009220805261758672
state: 150.01745870825562,0.5276112264065262,0.5276112264065262,-1.0552224528130525,0.17587040880217542,-0.5276112264065262
goals: 149.04891245550337,0.010504566179885039,0.0014210736029039907,0.00023722293116389552,0.00045716763135923624,0.009220805261758672
state: 150.01745870825562,0.5276112264065262,0.5276112264065262,-1.0552224528130525,0.17587040880217542,-0.5276112264065262
goals: 149.04891245550337,0.010504566179885039,0.0014210736029039907,0.00023722293116389552,0.00045716763135923624,0.009220805261758672
goals: 149.04891245550337,0.010504566179885039,0.0014210736029039907,0.00023722293116389552,0.00045716763135923624,0.009220805261758672
goals: 149.04891245550337,0.010504566179885039,0.0014210736029039907,0.00023722293116389552,0.00045716763135923624,0.009220805261758672
state: 150.01745870825562,0.35174081760435083,0.5276112264065262,-0.8793520440108771,0.0,-0.5276112264065262
goals: 149.04891245550337,0.010504566179885039,0.0014210736029039907,0.00023722293116389552,0.00045716763135923624,0.009220805261758672
state: 150.01745870825562,0.17587040880217542,0.35174081760435083,-0.7034816352087017,-0.17587040880217542,-0.5276112264065262
goals: 149.04891245550337,0.010504566179885039,0.0014210736029039907,0.00023722293116389552,0.00045716763135923624,0.009220805261758672
goals: 149.04891245550337,0.010504566179885039,0.0014210736029039907,0.00023722293116389552,0.00045716763135923624,0.009220805261758672
goals: 149.04891245550337,0.010504566179885039,0.0014210736029039907,0.00023722293116389552,0.00045716763135923624,0.009220805261758672
state: 150.01745870825562,0.35174081760435083,0.5276112264065262,-0.8793520440108771,-0.35174081760435083,-0.5276112264065262
goals: 149.04891245550337,0.010504566179885039,0.0014210736029039907,0.00023722293116389552,0.00045716763135923624,0.009220805261758672
state: 150.01745870825562,0.35174081760435083,-0.35174081760435083,-0.8793520440108771,-0.35174081760435083,-0.5276112264065262
goals: 149.04891245550337,0.010504566179885039,0.0014210736029039907,0.00023722293116389552,0.00045716763135923624,0.009220805261758672
goals: 149.04891245550337,0.010504566179885039,0.0014210736029039907,0.00023722293116389552,0.00045716763135923624,0.009220805261758672
goals: 149.04891245550337,0.010504566179885039,0.0014210736029039907,0.00023722293116389552,0.00045716763135923624,0.009220805261758672
state: 149.84158829945346,0.35174081760435083,0.35174081760435083,0.5276112264065262,0.17587040880217542,-0.5276112264065262
goals: 149.04891245550337,0.010504566179885039,0.0014210736029039907,0.00023722293116389552,0.00045716763135923624,0.009220805261758672
state: 149.66571789065128,0.35174081760435083,0.17587040880217542,0.5276112264065262,0.35174081760435083,-0.35174081760435083
goals: 149.04891245550337,0.010504566179885039,0.0014210736029039907,0.00023722293116389552,0.00045716763135923624,0.009220805261758672
goals: 149.04891245550337,0.010504566179885039,0.0014210736029039907,0.00023722293116389552,0.00045716763135923624,0.009220805261758672
goals: 149.04891245550337,0.010504566179885039,0.0014210736029039907,0.00023722293116389552,0.00045716763135923624,0.009220805261758672
state: 149.66571789065128,0.5276112264065262,0.17587040880217542,0.5276112264065262,0.35174081760435083,-0.5276112264065262
goals: 149.04891245550337,0.010504566179885039,0.0014210736029039907,0.00023722293116389552,0.00045716763135923624,0.009220805261758672
state: 149.66571789065128,0.35174081760435083,-0.17587040880217542,-0.8793520440108771,0.17587040880217542,-0.5276112264065262
goals: 149.04891245550337,0.010504566179885039,0.0014210736029039907,0.00023722293116389552,0.00045716763135923624,0.009220805261758672
goals: 149.04891245550337,0.010504566179885039,0.0014210736029039907,0.00023722293116389552,0.00045716763135923624,0.009220805261758672
goals: 149.04891245550337,0.010504566179885039,0.0014210736029039907,0.00023722293116389552,0.00045716763135923624,0.009220805261758672
state: 149.66571789065128,0.17587040880217542,0.35174081760435083,-1.231092861615228,0.17587040880217542,-0.5276112264065262
goals: 149.04891245550337,0.010504566179885039,0.0014210736029039907,0.00023722293116389552,0.00045716763135923624,0.009220805261758672
state: 150.01745870825562,0.17587040880217542,0.35174081760435083,-1.231092861615228,0.0,-0.7034816352087017
goals: 149.04891245550337,0.010504566179885039,0.0014210736029039907,0.00023722293116389552,0.00045716763135923624,0.009220805261758672
goals: 149.04891245550337,0.010504566179885039,0.0014210736029039907,0.00023722293116389552,0.00045716763135923624,0.009220805261758672
goals: 149.04891245550337,0.010504566179885039,0.0014210736029039907,0.00023722293116389552,0.00045716763135923624,0.009220805261758672
state: 150.01745870825562,-0.17587040880217542,0.35174081760435083,0.5276112264065262,0.0,-0.7034816352087017
goals: 149.04891245550337,0.010504566179885039,0.0014210736029039907,0.00023722293116389552,0.00045716763135923624,0.009220805261758672
state: 150.01745870825562,-0.17587040880217542,0.17587040880217542,0.5276112264065262,0.0,-0.7034816352087017
goals: 149.04891245550337,0.010504566179885039,0.0014210736029039907,0.00023722293116389552,0.00045716763135923624,0.009220805261758672
goals: 149.04891245550337,0.010504566179885039,0.0014210736029039907,0.00023722293116389552,0.00045716763135923624,0.009220805261758672
goals: 149.04891245550337,0.010504566179885039,0.0014210736029039907,0.00023722293116389552,0.00045716763135923624,0.009220805261758672
state: 149.84158829945346,0.17587040880217542,-0.35174081760435083,0.35174081760435083,0.5276112264065262,-0.5276112264065262
goals: 149.04891245550337,0.010504566179885039,0.0014210736029039907,0.00023722293116389552,0.00045716763135923624,0.009220805261758672
state: 148.6104954378382,0.0,-0.17587040880217542,0.17587040880217542,0.35174081760435083,0.35174081760435083
goals: 149.04891245550337,0.010504566179885039,0.0014210736029039907,0.00023722293116389552,0.00045716763135923624,0.009220805261758672
goals: 149.04891245550337,0.010504566179885039,0.0014210736029039907,0.00023722293116389552,0.00045716763135923624,0.009220805261758672
goals: 149.04891245550337,0.010504566179885039,0.0014210736029039907,0.00023722293116389552,0.00045716763135923624,0.009220805261758672
state: 147.90701380262954,0.0,-0.35174081760435083,0.17587040880217542,-0.8793520440108771,0.5276112264065262
goals: 149.04891245550337,0.010504566179885039,0.0014210736029039907,0.00023722293116389552,0.00045716763135923624,0.009220805261758672
state: 148.0828842114317,0.0,0.0,0.17587040880217542,0.17587040880217542,0.35174081760435083
goals: 149.04891245550337,0.010504566179885039,0.0014210736029039907,0.00023722293116389552,0.00045716763135923624,0.009220805261758672
goals: 149.04891245550337,0.010504566179885039,0.0014210736029039907,0.00023722293116389552,0.00045716763135923624,0.009220805261758672
goals: 149.04891245550337,0.010504566179885039,0.0014210736029039907,0.00023722293116389552,0.00045716763135923624,0.009220805261758672
state: 148.25875462023387,-0.17587040880217542,0.17587040880217542,0.35174081760435083,1.4069632704174033,0.35174081760435083
goals: 149.04891245550337,0.010504566179885039,0.0014210736029039907,0.00023722293116389552,0.00045716763135923624,0.009220805261758672
state: 149.13810666424476,0.0,0.5276112264065262,0.35174081760435083,1.4069632704174033,0.5276112264065262
goals: 149.04891245550337,0.010504566179885039,0.0014210736029039907,0.00023722293116389552,0.00045716763135923624,0.009220805261758672
goals: 149.04891245550337,0.010504566179885039,0.0014210736029039907,0.00023722293116389552,0.00045716763135923624,0.009220805261758672
goals: 149.04891245550337,0.010504566179885039,0.0014210736029039907,0.00023722293116389552,0.00045716763135923624,0.009220805261758672
state: 149.4898474818491,0.0,0.5276112264065262,0.35174081760435083,1.5828336792195785,0.5276112264065262
goals: 149.04891245550337,0.010504566179885039,0.0014210736029039907,0.00023722293116389552,0.00045716763135923624,0.009220805261758672
state: 149.4898474818491,-0.17587040880217542,0.5276112264065262,0.8793520440108771,1.5828336792195785,0.7034816352087017
goals: 149.04891245550337,0.010504566179885039,0.0014210736029039907,0.00023722293116389552,0.00045716763135923624,0.009220805261758672
goals: 149.04891245550337,0.010504566179885039,0.0014210736029039907,0.00023722293116389552,0.00045716763135923624,0.009220805261758672
goals: 149.04891245550337,0.010504566179885039,0.0014210736029039907,0.00023722293116389552,0.00045716763135923624,0.009220805261758672
state: 149.4898474818491,0.0,0.7034816352087017,2.9897969496369825,1.4069632704174033,0.7034816352087017
goals: 149.04891245550337,0.010504566179885039,0.0014210736029039907,0.00023722293116389552,0.00045716763135923624,0.009220805261758672
state: 149.4898474818491,0.17587040880217542,0.17587040880217542,2.9897969496369825,1.231092861615228,0.7034816352087017
goals: 149.04891245550337,0.010504566179885039,0.0014210736029039907,0.00023722293116389552,0.00045716763135923624,0.009220805261758672
goals: 149.04891245550337,0.010504566179885039,0.0014210736029039907,0.00023722293116389552,0.00045716763135923624,0.009220805261758672
goals: 149.04891245550337,0.010504566179885039,0.0014210736029039907,0.00023722293116389552,0.00045716763135923624,0.009220805261758672
state: 149.3139770730469,0.17587040880217542,-0.17587040880217542,2.8139265408348066,0.7034816352087017,0.5276112264065262
goals: 149.04891245550337,0.010504566179885039,0.0014210736029039907,0.00023722293116389552,0.00045716763135923624,0.009220805261758672
state: 148.7863658466404,0.0,-0.35174081760435083,1.9345744968239293,-0.35174081760435083,0.35174081760435083
goals: 149.04891245550337,0.010504566179885039,0.0014210736029039907,0.00023722293116389552,0.00045716763135923624,0.009220805261758672
goals: 149.04891245550337,0.010504566179885039,0.0014210736029039907,0.00023722293116389552,0.00045716763135923624,0.009220805261758672
goals: 149.04891245550337,0.010504566179885039,0.0014210736029039907,0.00023722293116389552,0.00045716763135923624,0.009220805261758672
state: 148.7863658466404,0.0,-0.5276112264065262,0.17587040880217542,-0.5276112264065262,0.35174081760435083
goals: 149.04891245550337,0.010504566179885039,0.0014210736029039907,0.00023722293116389552,0.00045716763135923624,0.009220805261758672
state: 148.6104954378382,-0.35174081760435083,-0.5276112264065262,0.17587040880217542,-0.5276112264065262,0.35174081760435083
goals: 149.04891245550337,0.010504566179885039,0.0014210736029039907,0.00023722293116389552,0.00045716763135923624,0.009220805261758672
goals: 149.04891245550337,0.010504566179885039,0.0014210736029039907,0.00023722293116389552,0.00045716763135923624,0.009220805261758672
goals: 149.04891245550337,0.010504566179885039,0.0014210736029039907,0.00023722293116389552,0.00045716763135923624,0.009220805261758672
state: 148.43462502903606,-0.35174081760435083,-0.8793520440108771,0.17587040880217542,-0.7034816352087017,0.35174081760435083
goals: 149.04891245550337,0.010504566179885039,0.0014210736029039907,0.00023722293116389552,0.00045716763135923624,0.009220805261758672
state: 148.43462502903606,-0.35174081760435083,-0.7034816352087017,0.17587040880217542,-0.7034816352087017,0.35174081760435083
goals: 149.04891245550337,0.010504566179885039,0.0014210736029039907,0.00023722293116389552,0.00045716763135923624,0.009220805261758672
goals: 149.04891245550337,0.010504566179885039,0.0014210736029039907,0.00023722293116389552,0.00045716763135923624,0.009220805261758672
goals: 149.04891245550337,0.010504566179885039,0.0014210736029039907,0.00023722293116389552,0.00045716763135923624,0.009220805261758672
state: 148.43462502903606,-0.35174081760435083,-0.8793520440108771,0.17587040880217542,-0.7034816352087017,0.35174081760435083
goals: 149.04891245550337,0.010504566179885039,0.0014210736029039907,0.00023722293116389552,0.00045716763135923624,0.009220805261758672
state: 148.43462502903606,-0.35174081760435083,-0.8793520440108771,0.17587040880217542,-0.7034816352087017,0.35174081760435083
goals: 149.04891245550337,0.010504566179885039,0.0014210736029039907,0.00023722293116389552,0.00045716763135923624,0.009220805261758672
goals: 149.04891245550337,0.010504566179885039,0.0014210736029039907,0.00023722293116389552,0.00045716763135923624,0.009220805261758672
goals: 149.04891245550337,0.010504566179885039,0.0014210736029039907,0.00023722293116389552,0.00045716763135923624,0.009220805261758672
state: 148.43462502903606,-0.35174081760435083,-0.8793520440108771,0.17587040880217542,-0.7034816352087017,0.35174081760435083
goals: 149.04891245550337,0.010504566179885039,0.0014210736029039907,0.00023722293116389552,0.00045716763135923624,0.009220805261758672
state: 148.43462502903606,-0.35174081760435083,-0.7034816352087017,0.17587040880217542,-0.7034816352087017,0.35174081760435083
goals: 149.04891245550337,0.010504566179885039,0.0014210736029039907,0.00023722293116389552,0.00045716763135923624,0.009220805261758672
goals: 149.04891245550337,0.010504566179885039,0.0014210736029039907,0.00023722293116389552,0.00045716763135923624,0.009220805261758672
goals: 149.04891245550337,0.010504566179885039,0.0014210736029039907,0.00023722293116389552,0.00045716763135923624,0.009220805261758672
state: 148.43462502903606,-0.35174081760435083,-0.7034816352087017,0.17587040880217542,-0.7034816352087017,0.35174081760435083
goals: 149.04891245550337,0.010504566179885039,0.0014210736029039907,0.00023722293116389552,0.00045716763135923624,0.009220805261758672
state: 148.43462502903606,-0.35174081760435083,-0.7034816352087017,0.17587040880217542,-0.5276112264065262,0.35174081760435083
goals: 149.04891245550337,0.010504566179885039,0.0014210736029039907,0.00023722293116389552,0.00045716763135923624,0.009220805261758672
goals: 149.04891245550337,0.010504566179885039,0.0014210736029039907,0.00023722293116389552,0.00045716763135923624,0.009220805261758672
goals: 149.04891245550337,0.010504566179885039,0.0014210736029039907,0.00023722293116389552,0.00045716763135923624,0.009220805261758672
state: 148.43462502903606,-0.35174081760435083,-0.5276112264065262,0.17587040880217542,-0.7034816352087017,0.35174081760435083
goals: 149.04891245550337,0.010504566179885039,0.0014210736029039907,0.00023722293116389552,0.00045716763135923624,0.009220805261758672
state: 148.43462502903606,-0.35174081760435083,-0.5276112264065262,0.17587040880217542,-0.5276112264065262,0.35174081760435083
goals: 149.04891245550337,0.010504566179885039,0.0014210736029039907,0.00023722293116389552,0.00045716763135923624,0.009220805261758672
goals: 149.04891245550337,0.010504566179885039,0.0014210736029039907,0.00023722293116389552,0.00045716763135923624,0.009220805261758672
goals: 149.04891245550337,0.010504566179885039,0.0014210736029039907,0.00023722293116389552,0.00045716763135923624,0.009220805261758672
state: 148.43462502903606,-0.35174081760435083,-0.35174081760435083,0.17587040880217542,-0.5276112264065262,0.35174081760435083
goals: 149.04891245550337,0.010504566179885039,0.0014210736029039907,0.00023722293116389552,0.00045716763135923624,0.009220805261758672
state: 148.43462502903606,-0.35174081760435083,-0.35174081760435083,0.17587040880217542,-0.5276112264065262,0.35174081760435083
goals: 149.04891245550337,0.010504566179885039,0.0014210736029039907,0.00023722293116389552,0.00045716763135923624,0.009220805261758672
goals: 149.04891245550337,0.010504566179885039,0.0014210736029039907,0.00023722293116389552,0.00045716763135923624,0.009220805261758672
goals: 149.04891245550337,0.010504566179885039,0.0014210736029039907,0.00023722293116389552,0.00045716763135923624,0.009220805261758672
state: 148.43462502903606,-0.35174081760435083,-0.35174081760435083,0.17587040880217542,-0.5276112264065262,0.35174081760435083
goals: 149.04891245550337,0.010504566179885039,0.0014210736029039907,0.00023722293116389552,0.00045716763135923624,0.009220805261758672
state: 148.6104954378382,-0.35174081760435083,-0.35174081760435083,0.17587040880217542,-0.5276112264065262,0.35174081760435083
goals: 149.04891245550337,0.010504566179885039,0.0014210736029039907,0.00023722293116389552,0.00045716763135923624,0.009220805261758672
goals: 149.04891245550337,0.010504566179885039,0.0014210736029039907,0.00023722293116389552,0.00045716763135923624,0.009220805261758672
goals: 149.04891245550337,0.010504566179885039,0.0014210736029039907,0.00023722293116389552,0.00045716763135923624,0.009220805261758672
state: 148.6104954378382,-0.17587040880217542,-0.35174081760435083,0.17587040880217542,-0.35174081760435083,0.35174081760435083
goals: 149.04891245550337,0.010504566179885039,0.0014210736029039907,0.00023722293116389552,0.00045716763135923624,0.009220805261758672
state: 148.43462502903606,-0.17587040880217542,-0.35174081760435083,0.17587040880217542,-0.35174081760435083,0.35174081760435083
goals: 149.04891245550337,0.010504566179885039,0.0014210736029039907,0.00023722293116389552,0.00045716763135923624,0.009220805261758672
goals: 149.04891245550337,0.010504566179885039,0.0014210736029039907,0.00023722293116389552,0.00045716763135923624,0.009220805261758672
goals: 149.04891245550337,0.010504566179885039,0.0014210736029039907,0.00023722293116389552,0.00045716763135923624,0.009220805261758672
state: 148.43462502903606,-0.17587040880217542,-0.17587040880217542,0.17587040880217542,-0.35174081760435083,0.35174081760435083
goals: 149.04891245550337,0.010504566179885039,0.0014210736029039907,0.00023722293116389552,0.00045716763135923624,0.009220805261758672
state: 148.43462502903606,-0.17587040880217542,-0.17587040880217542,0.17587040880217542,-0.17587040880217542,0.35174081760435083
goals: 149.04891245550337,0.010504566179885039,0.0014210736029039907,0.00023722293116389552,0.00045716763135923624,0.009220805261758672
goals: 149.04891245550337,0.010504566179885039,0.0014210736029039907,0.00023722293116389552,0.00045716763135923624,0.009220805261758672
goals: 149.04891245550337,0.010504566179885039,0.0014210736029039907,0.00023722293116389552,0.00045716763135923624,0.009220805261758672
state: 148.43462502903606,-0.17587040880217542,-0.17587040880217542,0.17587040880217542,-0.17587040880217542,0.35174081760435083
goals: 149.04891245550337,0.010504566179885039,0.0014210736029039907,0.00023722293116389552,0.00045716763135923624,0.009220805261758672
state: 148.43462502903606,-0.17587040880217542,-0.17587040880217542,0.17587040880217542,-0.17587040880217542,0.35174081760435083
goals: 149.04891245550337,0.010504566179885039,0.0014210736029039907,0.00023722293116389552,0.00045716763135923624,0.009220805261758672
goals: 149.04891245550337,0.010504566179885039,0.0014210736029039907,0.00023722293116389552,0.00045716763135923624,0.009220805261758672
goals: 149.04891245550337,0.010504566179885039,0.0014210736029039907,0.00023722293116389552,0.00045716763135923624,0.009220805261758672
state: 148.43462502903606,-0.17587040880217542,-0.17587040880217542,0.17587040880217542,-0.17587040880217542,0.35174081760435083
goals: 149.04889242067162,0.010524707359795937,0.0014088227210595267,0.0002301518991721103,0.00045858153149630737,0.009227177029225568
state: 148.6104954378382,-0.17587040880217542,-0.17587040880217542,0.17587040880217542,-0.17587040880217542,0.35174081760435083
goals: 148.60229056392623,0.45684691655035364,-0.26900763305075753,-0.15664302942643335,0.03154285833808451,0.14939854143674905
goals: 147.7135387062675,1.329429310945813,-0.7915083935810991,-0.46438113934068664,0.09097620427478446,0.4173936881548191
goals: 146.81541006243867,2.190501757500326,-1.2989937743847253,-0.7693999932291765,0.14809920786313707,0.6737520900812071
state: 148.25875462023387,1.4069632704174033,-0.17587040880217542,0.0,-0.17587040880217542,0.35174081760435083
goals: 145.905794967639,3.041826917366959,-1.7926590864872864,-1.072258992833841,0.20334332749111478,0.9189787159603723
state: 146.50005053221213,2.9897969496369825,-1.0552224528130525,-0.5276112264065262,0.17587040880217542,0.35174081760435083
goals: 144.9966603602371,3.872283216940773,-2.2663392753574754,-1.368916479893169,0.25631596347583974,1.1499910890204288
goals: 144.07745939878438,4.691632100917698,-2.725900129639991,-1.6627726193382455,0.3079636945487241,1.3696519289983082
goals: 143.1556063917346,5.4932828318010465,-3.1678922754579553,-1.9513853825279799,0.3581804364694936,1.5763013217956952
state: 144.38960562658602,4.924371446460912,-2.110444905626105,-1.0552224528130525,0.17587040880217542,0.7034816352087017
goals: 142.22491670853228,6.282674622749648,-3.595573416912113,-2.2366333880669083,0.40761033925330026,1.7714718159033123
state: 142.63090153856427,6.331334716878314,-2.9897969496369825,-1.5828336792195785,0.35174081760435083,1.231092861615228
goals: 141.29493493612503,7.051874693276288,-4.004935052036814,-2.515567332433263,0.45604823836860936,1.9533796792350222
goals: 140.35754701891688,7.8077996940240215,-4.399957282801214,-2.790612210679981,0.5042101362807601,2.123861652209957
goals: 139.41282409682077,8.55034534416683,-4.780781791236852,-3.0616608381171253,0.5523671824608364,2.2829901012646445
state: 140.52045663293814,8.090038804900068,-4.22088981125221,-2.110444905626105,0.35174081760435083,1.7587040880217542
goals: 138.46628179939293,9.27529940709358,-5.145502487774296,-3.32710000254557,0.6005080049457354,2.430036523486765
state: 138.5858821361142,9.321131666515297,-4.748501037658736,-2.462185723230456,0.5276112264065262,1.9345744968239293
goals: 137.50988244215742,9.988863967433348,-5.497459422569565,-3.5891294447674396,0.6493028805481851,2.5664035630704847
goals: 136.55504781020443,10.682659675133554,-5.832767969087668,-3.844599123903281,0.6984187732344196,2.690680531214218
goals: 135.58990490817087,11.365442189830675,-6.155897793237442,-4.09666176570323,0.7487081710917838,2.8046247415913705
state: 136.82717804809246,10.903965345734875,-5.627853081669613,-2.9897969496369825,0.5276112264065262,2.110444905626105
goals: 134.61911549268768,12.033831111439158,-6.465401459960323,-4.344007078083058,0.8001686719271933,2.907767184809805
state: 134.71673314246635,12.135058207350104,-6.15546430807614,-3.165667358439157,0.7034816352087017,2.286315314428281
goals: 133.645236608072,12.686189834923047,-6.760745867208732,-4.585961264477772,0.852888524881644,3.000049536277251
goals: 132.67050389919237,13.32127374515032,-7.041634095706318,-4.8219927195347605,0.9069515708766959,3.081553298892808
goals: 131.6823415238591,13.947242053279655,-7.311827949410077,-5.0550730325880044,0.9632731055018489,3.1534506945480305
state: 132.4304178280381,13.36615106896533,-7.034816352087017,-3.5174081760435083,0.7034816352087017,2.462185723230456
goals: 130.69688465568188,14.553933680397373,-7.567123770039598,-5.281357117871346,1.0211346101626853,3.2147467470738857
state: 130.49584333121416,14.773114339382737,-7.562427578493542,-3.8691489936478587,0.8793520440108771,2.638056132032631
goals: 129.70748945477297,15.14574920768044,-7.8096457836040525,-5.502420779535594,1.0810942461263793,3.2661830689729787
goals: 128.71289310043633,15.723539428534282,-8.039926642153869,-5.718522694630988,1.1434087341941248,3.3080273956594133
goals: 127.70823134144119,16.290067520505822,-8.259186217743009,-5.930640754071962,1.2085756672730457,3.3405982455831795
state: 128.56126883439023,16.00420720099796,-7.914168396097894,-4.22088981125221,1.0552224528130525,2.638056132032631
goals: 126.70087177611609,16.841180035722914,-8.465955233630291,-6.1371643738124675,1.2762956421807252,3.36380945486476
state: 126.45082392876414,17.235300062613188,-8.617650031306594,-4.572630628856562,1.0552224528130525,2.8139265408348066
goals: 125.69377370933447,17.37551404556335,-8.659955312512157,-6.337526310845341,1.346504131369886,3.3778883134982913
goals: 124.67302918588504,17.900433218582226,-8.843981334786937,-6.5344347870192765,1.42033866688053,3.383177053690054
goals: 123.65715777303137,18.40650424844783,-9.014883919920383,-6.724299503775375,1.4966024257932597,3.3797847919549606
state: 124.34037902313801,17.93878169782189,-8.793520440108772,-4.748501037658736,1.231092861615228,2.8139265408348066
goals: 122.63448552843042,18.899797784608527,-9.174934058571088,-6.909347683221079,1.5762791647814456,3.367965586565472
state: 122.22993411751192,18.994004150634943,-9.145261257713123,-4.924371446460912,1.4069632704174033,2.8139265408348066
goals: 121.60635883335905,19.379667937922267,-9.32403465320808,-7.089288445847543,1.6594079182747514,3.3478964828563025
goals: 120.57589622426443,19.844763934270137,-9.461916339308154,-7.263568628563125,1.7458548920264867,3.3198526792071124
goals: 119.53966199079714,20.296731744179596,-9.589209383536076,-7.4327599578851995,1.8360217227780442,3.2839509039447976
state: 120.29535962068799,19.873356194645822,-9.497002075317472,-5.1002418552630875,1.5828336792195785,2.8139265408348066
goals: 118.49934508657024,20.734887201208917,-9.705840574520757,-7.596562541543399,1.929876890453674,3.2404394615964884
state: 118.1849147150619,20.7527082386567,-9.672872484119647,-5.1002418552630875,1.7587040880217542,2.8139265408348066
goals: 117.45093300421526,21.160917534559843,-9.812350080240773,-7.755563909055401,2.027904206275035,3.189315918964674
goals: 116.40909252745634,21.569092424375352,-9.907497128266261,-7.907588512997443,2.1287950465434413,3.1315684454631696
goals: 115.35361824779325,21.96743117560757,-9.99328206882573,-8.055585510686948,2.2345914718156066,3.066292641466717
state: 115.89859940063359,21.632060282667577,-10.024613301724,-5.276112264065262,2.110444905626105,2.8139265408348066
goals: 114.2960238723427,22.351502551777976,-10.068786944619093,-8.19786815040771,2.3442632156125245,2.9943320099588524
state: 113.78815449500749,22.687282735480625,-10.200483710526175,-5.451982672867437,2.110444905626105,2.8139265408348066
goals: 113.24067677220727,22.719967883444113,-10.13394425821663,-8.333911311072184,2.4573944072802747,2.916260778930945
goals: 112.17558874366244,23.07709537309132,-10.189619668811414,-8.465258820178091,2.5753417885931644,2.831398569942372
goals: 111.10872323216027,23.420208607563428,-10.235456780901487,-8.590893152512612,2.6973120322877446,2.740549843186653
state: 111.6777095893814,23.214893961887157,-10.200483710526175,-5.803723490471789,2.462185723230456,2.8139265408348066
goals: 110.0455408552957,23.74781698957591,-10.271460579072535,-8.710248342396536,2.822692084837523,2.6444573618738656
state: 109.56726468375528,23.74250518829368,-10.37635411932835,-5.979593899273965,2.8139265408348066,2.8139265408348066
goals: 108.97267292219465,24.064138590690046,-10.298205473079458,-8.824836408873308,2.9531082110805125,2.5421244197839576
goals: 107.89346746985825,24.368081370380743,-10.31558871126089,-8.934229366885786,3.088253750302208,2.434006537671117
goals: 106.8125190181703,24.658400662150783,-10.323616272656233,-9.037956384242273,3.227606559253798,2.320758807632589
state: 107.45681977812917,24.44598682350238,-10.37635411932835,-6.15546430807614,2.8139265408348066,2.638056132032631
goals: 105.73306593264692,24.934424359222803,-10.322437999705341,-9.135765299133064,3.3707549007088056,2.2029662301681783
state: 105.1705044637009,24.97359804990891,-10.37635411932835,-6.331334716878314,3.3415377672413324,2.462185723230456
goals: 104.64557889204097,25.19866081027475,-10.312129422235603,-9.228528071886878,3.518999074256807,2.0797911247187355
goals: 103.55587200354694,25.449691116705054,-10.292776043045185,-9.315727001414649,3.6716009366015636,1.952069002767651
goals: 102.46677616021177,25.687017562064845,-10.264559781118892,-9.397183259632783,3.8281663680755544,1.8203588189407356
state: 103.0600595580748,25.501209276315436,-10.37635411932835,-6.50720512568049,3.3415377672413324,2.286315314428281
goals: 101.37806360315751,25.910883858732465,-10.227627776662914,-9.472980736073033,3.9887132988535376,1.684869321802969
state: 100.94961465244869,26.02882050272196,-10.37635411932835,-6.683075534482665,4.045019402450034,1.9345744968239293
goals: 100.27686598148475,26.123885318480987,-10.181532832787099,-9.543981423498579,4.155194037625854,1.5441657882233226
goals: 99.1794499990052,26.322881461330027,-10.12697814667997,-9.609128790001376,4.325182540291092,1.4005094701125775
goals: 98.07943795050195,26.5092088008838,-10.063778086576699,-9.668869633580353,4.4996421971552385,1.2532936599244087
state: 98.66329933802041,26.38056132032631,-10.37635411932835,-6.858945943284841,4.22088981125221,1.5828336792195785
goals: 96.98018980994227,26.682418144135585,-9.992214059443576,-9.723066743420418,4.678029583008272,1.103178294025448
state: 96.5528544323943,26.556431729128487,-10.37635411932835,-6.858945943284841,4.572630628856562,1.4069632704174033
goals: 95.86996981962162,26.844324399414614,-9.911506773540875,-9.77228105530129,4.862282851164115,0.9487364390869052
goals: 94.75984559497896,26.993262161876114,-9.822430727430122,-9.815999475202258,5.050600448129809,0.7916811179486434
goals: 93.64845484416516,27.129529960859184,-9.724950885429962,-9.85432650846938,5.243192332695934,0.6320280479381356
state: 94.26653911796602,27.084042955535015,-10.37635411932835,-7.034816352087017,4.924371446460912,1.0552224528130525
goals: 92.54187142775734,27.252570647856576,-9.61971704127838,-9.887136429826603,5.438958142090545,0.4708682373015152
state: 91.98022380353774,27.25991336433719,-10.37635411932835,-7.210686760889191,5.276112264065262,0.7034816352087017
goals: 91.43109942054528,27.363516150072375,-9.505951052980752,-9.914758471577048,5.6394554841646976,0.3070977550526487
goals: 90.31605581469219,27.462346009007565,-9.383614352889786,-9.937191857513564,5.844712894574518,0.14088419338960273
goals: 89.20050539788299,27.548754585920634,-9.253123169967367,-9.954384575174732,6.054029435239526,-0.027022307285932693
state: 89.86977889791163,27.61165418194154,-10.200483710526175,-7.210686760889191,5.979593899273965,0.35174081760435083
goals: 88.0793195144329,27.623139358760533,-9.113859067720297,-9.96643033781538,6.268364997614663,-0.19720723698537332
state: 87.58346358348335,27.61165418194154,-9.848742892921823,-7.386557169691368,6.15546430807614,0.0
goals: 86.95957391055148,27.68505723220399,-8.966695960365582,-9.97328136315914,6.486352912844039,-0.36840722615789206
goals: 85.83785064929424,27.734778877594927,-8.811212367632525,-9.975012570876453,6.70862380414696,-0.5409501398504515
goals: 84.7155787542761,27.77228324979251,-8.64760507481169,-9.97166183065476,6.934869158158624,-0.7144261263952537
state: 85.29714826905509,27.61165418194154,-9.672872484119647,-7.386557169691368,6.858945943284841,-0.35174081760435083
goals: 83.59175678692968,27.79764722715392,-8.475724219217689,-9.963269280366195,7.165262144851885,-0.8888003071183938
state: 83.18670336342898,27.61165418194154,-9.145261257713123,-7.386557169691368,7.034816352087017,-0.5276112264065262
goals: 82.47266533780883,27.81085168246694,-8.296575873044821,-9.949959991739707,7.398458803938245,-1.0629065269963551
goals: 81.34848762079623,27.81207090752629,-8.108588449056406,-9.931671465710666,7.636465712090236,-1.2380842300488828
goals: 80.22499553771463,27.801285498251683,-7.912676310825453,-9.908525083541281,7.878041417349111,-1.4132489012319545
state: 80.9003880490007,27.96339499954589,-8.617650031306594,-7.386557169691368,7.562427578493542,-1.0552224528130525
goals: 79.1059963759456,27.778667900943464,-7.7095494691892545,-9.880689592583456,8.122299170740698,-1.5876221053291095
state: 78.43820232577023,27.96339499954589,-8.090038804900068,-7.562427578493542,8.265909213702244,-1.4069632704174033
goals: 77.98511609740389,27.74417385548801,-7.4980598540633245,-9.848078214622818,8.370575684712948,-1.7620144324546536
goals: 76.85900601604149,27.697628612993277,-7.277475583551506,-9.810605486526006,8.62360310187664,-1.9367607609645106
goals: 75.74055457070351,27.639634259527423,-7.05031448640419,-9.768770577370653,8.878430863990767,-2.1096811792368446
state: 76.32775742014412,27.96339499954589,-7.738297987295717,-7.562427578493542,8.617650031306594,-1.7587040880217542
goals: 74.61658905602691,27.569569422992004,-6.813886115021979,-9.722150528810056,9.13800551038241,-2.2826325389052338
state: 74.21731251451803,27.78752459074372,-6.858945943284841,-7.562427578493542,8.969390848910946,-1.9345744968239293
goals: 73.49300131522338,27.487738772877524,-6.569326098849666,-9.671013557415977,9.40094617709064,-2.4545209176103806
goals: 72.375552359445,27.394679479325276,-6.317907413345788,-9.615717314465064,9.665829536297633,-2.6242940521098355
goals: 71.24985208822142,27.28916634129128,-6.056307156112888,-9.555592732031899,9.936031056555331,-2.793953338779332
state: 71.93099720008975,27.78752459074372,-6.50720512568049,-7.738297987295717,9.497002075317472,-2.286315314428281
goals: 70.1290769066189,27.172384050934962,-5.787482657150081,-9.491380174942918,10.208356936635157,-2.9613259420978757
state: 69.64468188566147,27.435783773139363,-5.803723490471789,-7.738297987295717,10.37635411932835,-2.638056132032631
goals: 69.01031311219471,27.044131119678784,-5.5107361699863455,-9.42300833949541,10.483438888779476,-3.1266804788047673
goals: 67.88682821458617,26.903582847469742,-5.224289229284735,-9.350106933356978,10.7628970957095,-3.290823832780741
goals: 66.7616196768243,26.750993177455967,-4.92873981785322,-9.27289015198192,11.045966689098934,-3.4531173236420964
state: 67.35836657123318,27.084042955535015,-5.276112264065262,-7.738297987295717,10.903965345734875,-2.9897969496369825
goals: 65.64436461995409,26.587747987538467,-4.626603114684307,-9.192113415175928,11.330139389139186,-3.61199938259655
state: 65.24792166560708,26.90817254673284,-4.924371446460912,-7.914168396097894,11.255706163339227,-3.3415377672413324
goals: 64.51915777616507,26.411492281430625,-4.313470861410509,-9.10668407954715,11.619412326908973,-3.7695460254677458
goals: 63.398453184863534,26.224083950066653,-3.9926527641124903,-9.01758606934692,11.910549413749582,-3.9238153468083854
goals: 62.27588108144034,26.024454482595857,-3.662232982641737,-8.924384821558643,12.205145476142427,-4.075504612690696
state: 62.9616063511788,26.38056132032631,-4.045019402450034,-7.914168396097894,11.783317389745752,-3.693278584845684
goals: 61.15378892709585,25.81294754885486,-3.3227534782658608,-8.827326109132839,12.502540030796357,-4.224100722509589
state: 60.67529103675052,25.852950093919787,-3.5174081760435083,-7.914168396097894,12.486799024954456,-4.045019402450034
goals: 60.02999077842112,25.58907271329871,-2.9733964951144127,-8.72627337336374,12.803266382686878,-4.369694830912396
goals: 58.908836134663964,25.35364441473055,-2.6153748579691976,-8.621681390438512,13.106105865655003,-4.511531908740299
goals: 57.78640194291696,25.105789287419757,-2.247294878620387,-8.51325145420723,13.412060314591006,-4.6499169372254325
state: 58.38897572232224,25.501209276315436,-2.638056132032631,-8.090038804900068,13.01441025136098,-4.045019402450034
goals: 56.66676288348647,24.84635026208735,-1.870343001635163,-8.401444662599681,13.719960675719099,-4.784154465170581
state: 56.27853081669613,24.797727641106732,-1.7587040880217542,-8.090038804900068,13.542021477767507,-4.572630628856562
goals: 55.547853083357786,24.574819150835346,-1.4836925618924253,-8.286132953933148,14.030308262618437,-4.914307648241097
goals: 54.42280269188297,24.289344344767812,-1.0847083953623138,-8.166644771996463,14.34497210712663,-5.04093897300037
goals: 53.30051407166844,23.992023788105197,-0.6763007495169246,-8.043972526862486,14.661417494801084,-5.162815530845993
state: 53.992215502267854,24.270116414700208,-1.231092861615228,-8.090038804900068,14.245503112976209,-4.572630628856562
goals: 52.18094537233071,23.68282759899843,-0.25832119968844514,-7.918201183432841,14.97957943931289,-5.27976025283586
state: 51.705900187839575,23.566634779491505,-0.17587040880217542,-8.265909213702244,15.124855156987085,-5.1002418552630875
goals: 51.05660276426411,23.35953103784572,0.1722796487095742,-7.7885447661542955,15.301534677503877,-5.392323329182356
goals: 49.95676839820335,23.030764416171717,0.6042292441272799,-7.658531644897979,15.6187753547018,-5.497484875971494
goals: 48.85607838327023,22.689218152916542,1.047377314665765,-7.525330102272699,15.9384834735846,-5.597611999289872
state: 49.41958487341129,22.8631531442828,0.7034816352087017,-8.090038804900068,15.652466383393612,-5.276112264065262
goals: 47.768272908933334,22.33922497271208,1.4962536637787396,-7.390716887879057,16.256571738002357,-5.69132224748914
state: 47.48501037658736,22.1596715090741,1.4069632704174033,-7.914168396097894,16.180077609800136,-5.451982672867437
goals: 46.677306876445506,21.975647528347604,1.9575816875979526,-7.25281121730219,16.577641507585454,-5.779848642248173
goals: 45.59023186988753,21.600696881884044,2.4286296158119147,-7.112572650591221,16.899552228235535,-5.862400476922608
goals: 44.499151949750576,21.211489719433487,2.9130931439027274,-6.969049960742868,17.22457606045699,-5.939347378577127
state: 45.19869506215908,21.456189873865398,2.286315314428281,-7.562427578493542,17.059429653811016,-5.451982672867437
goals: 43.42018861510049,20.8137536942827,3.40396688596785,-6.824462230903884,17.547821894834186,-6.0093864368745455
state: 42.912379747730796,20.928578647458874,3.5174081760435083,-7.386557169691368,17.411170471415367,-5.627853081669613
goals: 42.34265034038422,20.403615984110914,3.906186264792144,-6.677495481526742,17.872389118880687,-6.073090496009444
goals: 41.264394976460586,19.98009270801833,4.4210432181523345,-6.527930542958078,18.19884929180715,-6.130352338354148
goals: 40.19474924940378,19.54680186328292,4.9442657535134265,-6.3771597040602055,18.524286358100827,-6.1805042774677235
state: 40.977805250906876,19.873356194645822,4.572630628856562,-7.034816352087017,18.290522515426247,-5.627853081669613
goals: 39.12552017661971,19.10039379190297,5.48003235317824,-6.224131251509441,18.851096323931067,-6.22376635047918
state: 38.69148993647859,18.818133741832767,5.627853081669613,-6.858945943284841,18.818133741832767,-5.627853081669613
goals: 38.0558887943437,18.640319607283462,6.029097055402549,-6.068802706069964,19.179449486012143,-6.259916894174082
goals: 36.99648960813749,18.171125043334015,6.586175001023954,-5.91282485707828,19.505979386647784,-6.288436650876299
goals: 35.93675803523411,17.68809804655621,7.15700340944168,-5.754749722006019,19.833837946104925,-6.30944882842026
state: 36.58104503085249,18.114652106624067,6.683075534482665,-6.50720512568049,19.52161537704147,-5.627853081669613
goals: 34.88287491866301,17.19393107879394,7.7385282525137455,-5.595594144620675,20.161014430707493,-6.322621305311427
state: 34.64647053402855,17.059429653811016,7.562427578493542,-6.15546430807614,20.049226603448,-5.627853081669613
goals: 33.833540133451365,16.68797887737042,8.331656485905297,-5.435271218415729,20.487803364093402,-6.327811573567311
goals: 32.78419183135957,16.16788200460999,8.939286049911422,-5.2731788733403455,20.81552194345891,-6.324813599841542
goals: 31.743263326758708,15.637731904068206,9.556783362686524,-5.110725447087655,21.141424815000924,-6.313465467327923
state: 32.36015521960027,15.828336792195788,9.145261257713123,-5.803723490471789,20.928578647458874,-5.627853081669613
goals: 30.706131573224944,15.095156374255188,10.187070672907751,-4.94730489897154,21.46684048584529,-6.293573969606617
state: 30.24971031397417,14.773114339382737,10.37635411932835,-5.451982672867437,21.632060282667577,-5.627853081669613
goals: 29.670760424543598,14.538928995574611,10.831718905048426,-4.782697752966896,21.79229254168465,-6.264873095338505
goals: 28.639353565457675,13.970065566255581,11.489701751139677,-4.617357621092205,22.11696860801823,-6.22719332982536
goals: 27.61284365632019,13.388972958885384,12.160709861603346,-4.451545172840125,22.440448943756895,-6.180376336708179
state: 28.31513581715024,13.89376229537186,11.783317389745752,-5.276112264065262,22.1596715090741,-5.627853081669613
goals: 26.589268284211673,12.794401068801857,12.846350388695685,-4.2850539806862935,22.763222071344202,-6.124121715366405
state: 26.38056132032631,12.486799024954456,13.01441025136098,-4.924371446460912,22.687282735480625,-5.627853081669613
goals: 25.57685053706224,12.191121790930639,13.541294985160684,-4.119343048866867,23.082560031949722,-6.05875828183207
goals: 24.55803581154994,11.568450224121877,14.258021721014536,-3.951648275057071,23.403860673156206,-5.982889764778313
goals: 23.55297556160134,10.938529935793564,14.982728230055017,-3.785400303785147,23.720625553757728,-5.897789761448385
state: 24.094246005898032,11.255706163339227,14.773114339382737,-4.572630628856562,23.566634779491505,-5.627853081669613
goals: 22.54881970248519,10.293296580838126,15.72487717687528,-3.6185983328540927,24.036757594750398,-5.802250526730327
state: 22.33554191787628,10.024613301724,16.00420720099796,-4.22088981125221,24.094246005898032,-5.627853081669613
goals: 21.55171715975057,9.636526505597843,16.480310552312083,-3.4523815752960227,24.350166942693377,-5.696632072921808
goals: 20.55723401433351,8.965156439567407,17.252743169585166,-3.286132392663811,24.66208804262202,-5.580262707291633
goals: 19.5761736204072,8.286488713000384,18.033964979065345,-3.1217825938863846,24.968976123584113,-5.454310973584071
state: 20.225097012250174,8.617650031306594,17.587040880217543,-3.8691489936478587,24.797727641106732,-5.627853081669613
goals: 18.989230850399927,7.872527141649208,18.510747141978673,-3.0233415570718405,25.152113756414572,-5.373508538393399
state: 18.642263333030595,7.562427578493542,18.46639292422842,-3.5174081760435083,24.97359804990891,-5.627853081669613
goals: 18.394375744248947,7.446817109003398,19.00131706001716,-2.923518306684353,25.3373140155889,-5.287354176986728
goals: 17.422405978065996,6.7376145044924725,19.819247053978664,-2.7603642676644853,25.638928807306,-5.1371213777993
goals: 16.44798655973799,6.009300520277949,20.660239821874622,-2.5968515496064333,25.93988621624975,-4.974388890797812
state: 17.235300062613188,6.331334716878314,20.225097012250174,-3.3415377672413324,25.677079685117608,-5.627853081669613
goals: 15.472026581003202,5.261994273222103,21.52440210481357,-2.4332662070202487,26.239678323115207,-4.798827788815218
state: 15.124855156987085,4.748501037658736,21.983801100271926,-2.8139265408348066,26.38056132032631,-5.627853081669613
goals: 14.496216797352533,4.496475505944252,22.411086843057998,-2.270031686082296,26.537548422927927,-4.61029361346082
goals: 13.519661810156213,3.711522337679121,23.32197754944944,-2.1071450387204687,26.833517419097962,-4.408162431258373
goals: 12.541742740679728,2.9060453164477855,24.258627084095817,-1.9446586444267242,27.12749656652263,-4.191804809058611
state: 13.190280660163156,3.5174081760435083,23.566634779491505,-2.462185723230456,26.90817254673284,-5.1002418552630875
goals: 11.564903303933088,2.0814906068442123,25.2196541241868,-1.783140271200289,27.4184616016016,-3.961280338289219
state: 11.255706163339227,1.7587040880217542,25.677079685117608,-2.286315314428281,27.25991336433719,-4.572630628856562
goals: 10.602513996775134,1.2490452195767514,26.19227782819208,-1.624946774094344,27.702192489746015,-3.7196053545230616
goals: 9.654114764347733,0.40861552386762473,27.176818417798145,-1.4701275155178422,27.97864310681484,-3.4668252601772527
goals: 8.713911872005031,-0.44482328769905266,28.179395723146776,-1.3178678761918585,28.249289689009426,-3.2014233537548438
state: 9.321131666515297,0.17587040880217542,27.435783773139363,-1.9345744968239293,28.139265408348066,-4.045019402450034
goals: 7.784640500522764,-1.3087769026968037,29.197325962097263,-1.1687448589615508,28.51311341250556,-2.924135868493225
state: 7.386557169691368,-1.5828336792195785,29.370358269963294,-1.5828336792195785,28.66687663475459,-3.5174081760435083
goals: 6.882504519818149,-2.16753519797515,30.21224725018958,-1.0254436826631337,28.76540062450009,-2.6402354046247902
goals: 6.002274890329451,-3.0250473838982557,31.22890281379051,-0.8871791584363614,29.007586599149544,-2.3488053020317596
goals: 5.148026464842507,-3.8763316190399233,32.241445316769834,-0.7546233796833649,29.238539620252133,-2.0519216018861877
state: 5.627853081669613,-3.3415377672413324,31.656673584391577,-1.4069632704174033,29.01861745235894,-2.9897969496369825
goals: 4.311331795753887,-4.7288994257640455,33.258873795531635,-0.6264989562580188,29.4605170856972,-1.747298626899816
state: 3.8691489936478587,-4.924371446460912,33.76711849001768,-1.0552224528130525,29.546228678765473,-2.286315314428281
goals: 3.4978359160251333,-5.576185656579687,34.27341554117394,-0.5036953786416638,29.672000143384977,-1.4375882671068552
goals: 2.704519342803451,-6.4204128770811675,35.28775990725247,-0.38576055815122084,29.873793354964285,-1.1223250731404402
goals: 1.9135558492879576,-7.280327904071794,36.32458499502081,-0.27011180390127987,30.070285718962996,-0.7946004514294898
state: 2.462185723230456,-6.683075534482665,35.70169298684161,-0.7034816352087017,29.722099087567646,-1.9345744968239293
goals: 1.1423615896341701,-8.136773577851738,37.36094054475072,-0.15935745075310687,30.257009667875497,-0.4618119311126326
state: 0.7034816352087017,-8.44177962250442,37.81213789246772,0.0,30.073839905171997,-1.0552224528130525
goals: 0.4185272110885899,-8.957302989278208,38.35737221746703,-0.05733400395802897,30.42759044685591,-0.1372156441980882
goals: 0.07148466787066662,-9.356576567401367,38.84350948994516,-0.00911863693636606,30.507677529536185,0.022714234100519294
goals: -0.05895445811637284,-9.366272157717935,38.84089309317096,0.031252539284050584,30.554513416122568,-0.0028711048488106287
state: -0.17587040880217542,-9.497002075317472,39.04323075408294,0.0,30.24971031397417,-0.5276112264065262
goals: -0.5567966220236548,-8.751288524982831,37.9708497789078,0.2894525303094499,30.80892085611905,-0.5026158480191928
state: -0.5276112264065262,-8.969390848910946,38.69148993647859,0.17587040880217542,30.777321540380697,-0.7034816352087017
goals: -1.296643218935186,-7.852721500195405,36.702029847124734,0.6737267450120342,31.176194166305237,-1.247431155536129
goals: -2.0557694414574565,-6.949296163869872,35.429184189328765,1.0686963255103241,31.53999145531568,-2.0142726062917666
goals: -2.8363337528230503,-6.039329487999207,34.14989952146099,1.4754698901789607,31.900923819386747,-2.8052880157049094
state: -2.286315314428281,-7.034816352087017,35.87756339564378,0.8793520440108771,31.656673584391577,-1.4069632704174033
goals: -3.6229259265716105,-5.141197105062336,32.889909556656455,1.886042460272031,32.25152990754209,-3.6049969444195065
state: -4.045019402450034,-5.1002418552630875,33.23950726361115,1.4069632704174033,32.53602562840245,-2.638056132032631
goals: -4.419191714053431,-4.250690587010319,31.643119561324255,2.30226665278515,32.59366575685482,-4.4169494877591555
goals: -5.224958284783545,-3.3681051048925963,30.409793655983897,2.7240594061892818,32.92713619151024,-5.241053549143051
goals: -6.0474244829724535,-2.4858698808869617,29.17920457319125,3.15514811905235,33.254905299620404,-6.084568351438935
state: -5.627853081669613,-3.3415377672413324,30.601451131578518,2.462185723230456,33.23950726361115,-3.8691489936478587
goals: -6.885011677255441,-1.6061933376446387,27.95432523781698,3.5947163172174017,33.57594482489157,-6.946001019275406
state: -7.386557169691368,-1.5828336792195785,27.96339499954589,3.3415377672413324,33.76711849001768,-4.572630628856562
goals: -7.731247457121836,-0.7360936692719142,26.744763658847717,4.0393297062421425,33.88776447254412,-7.818627943418421
goals: -8.597262732380436,0.1355127819625707,25.534956153428546,4.4948024220078056,34.194364861055256,-8.71388445211474
goals: -9.477996817143355,1.0029675170044734,24.332631272403912,4.958468094758808,34.493531090676626,-9.626650629838139
state: -8.969390848910946,0.17587040880217542,25.677079685117608,4.045019402450034,34.2947297164242,-5.627853081669613
goals: -10.368112937356198,1.8608115537055654,23.145172213834663,5.427470607845548,34.78345895154081,-10.551327166923691
state: -10.728094936932699,1.9345744968239293,23.039023553084977,5.1002418552630875,34.99821135163291,-5.803723490471789
goals: -11.281222343881705,2.7217073497116764,21.954880911575383,5.908939316789598,35.06842863859521,-11.502019066164234
goals: -12.207387700949212,3.5757136157683758,20.77535008406847,6.397610249247975,35.34492260371103,-12.468472552078977
goals: -13.145537016676915,4.421633125632639,19.608031283511597,6.892861009713834,35.61263224921287,-13.44950060785419
state: -12.662669433756628,3.5174081760435083,20.7527082386567,5.979593899273965,35.349952169237255,-7.562427578493542
goals: -14.109035519660237,5.270948240557864,18.43688777328513,7.401692998150916,35.875156951917376,-14.459052155317096
state: -14.59724393058056,5.276112264065262,18.114652106624067,7.034816352087017,36.05343380444596,-10.37635411932835
goals: -15.082869919570916,6.109900796947744,17.280705936244093,7.916130874934825,36.12803248038248,-15.481465580771951
goals: -15.860007040860584,6.765728339544924,16.377226661622426,8.326719066916636,36.32117154089416,-16.298740081067084
goals: -16.268543934131962,7.105731145713543,15.908907124937603,8.54256941622695,36.41974150076206,-16.728825586156624
state: -16.355948018602312,6.683075534482665,16.355948018602312,7.914168396097894,36.40517462205031,-12.838539842558804
goals: -17.191937490172055,7.862356421499343,14.866835025205262,9.030434749843346,36.63504705752201,-17.702088354390884
state: -17.587040880217543,7.914168396097894,14.59724393058056,8.617650031306594,36.93278584845684,-14.069632704174033
goals: -18.22928970305619,8.69317815186672,13.722554112426284,9.57843157540401,36.86500416154807,-18.797246417162214
goals: -19.29318517831402,9.524750201176099,12.576973089393299,10.140285954510093,37.08819360883767,-19.922272943507537
goals: -20.374006052123374,10.348882477739114,11.441106505195265,10.71082290478686,37.302287475478465,-21.066992165310765
state: -19.873356194645822,9.672872484119647,12.31092861615228,9.672872484119647,37.108656257259014,-16.00420720099796
goals: -21.448923641536222,11.148423813424154,10.33833867257154,11.27790491801993,37.50308808299906,-22.207114891654907
state: -21.80793069146975,11.255706163339227,10.024613301724,10.37635411932835,37.636267483665534,-17.76291128901972
goals: -22.529275481158383,11.93235962235156,9.256060633852139,11.847424931094716,37.69302589799848,-23.35460428696801
goals: -23.622810564650553,12.706336848999452,8.18622164038501,12.423372710522422,37.873645365442215,-24.51760040886421
goals: -24.71897826253268,13.462973874833283,7.138783895829652,13.000094493438837,38.04335880355528,-25.68481328976939
state: -24.270116414700208,12.662669433756628,7.914168396097894,11.255706163339227,38.16387871007206,-18.290522515426247
goals: -25.81207522610954,14.198829988117012,6.118311054366476,13.574505795858098,38.20167985047194,-26.85007230542145
state: -26.38056132032631,14.069632704174033,5.803723490471789,11.783317389745752,38.51561952767642,-18.818133741832767
goals: -26.864951741958116,14.890421152839957,5.157302751227836,14.12704803422349,38.34421136179127,-27.9736138549067
goals: -27.408030183669908,15.24068247623451,4.669787265143972,14.41174266320491,38.413982869307326,-28.553568094057578
goals: -26.997763576882214,15.348184646233847,4.579473769403346,14.200410117678667,38.44724182009295,-28.126727723886937
state: -27.78752459074372,15.124855156987085,4.572630628856562,12.135058207350104,38.69148993647859,-22.687282735480625
goals: -25.905146020573238,15.603960583805952,4.3734790934486405,13.636406176392082,38.52814820404855,-26.989001521510566
state: -27.25991336433719,15.300725565789259,4.22088981125221,12.135058207350104,38.69148993647859,-24.270116414700208
goals: -24.67425577114225,15.878350705360631,4.153008679493885,12.99944450612662,38.61509621149693,-25.706845587314593
goals: -23.431822462568185,16.140701901985615,3.942718467934397,12.354873822058549,38.69831587875589,-24.412205936541117
goals: -22.183604655808253,16.38966555759244,3.743603419343932,11.705758105867629,38.77748390805449,-23.111116005810803
state: -24.44598682350238,15.828336792195788,3.8691489936478587,12.135058207350104,38.69148993647859,-24.62185723230456
goals: -20.933005944025204,16.62457403056695,3.556136559117545,11.05391505328525,38.852273096407515,-21.807138029870753
state: -21.632060282667577,16.531818427404488,3.5174081760435083,11.255706163339227,38.69148993647859,-23.91837559709586
goals: -19.684699674128854,16.844700348131397,3.3808207969077055,10.401873114887062,38.922474012756155,-20.505176538804363
goals: -18.437180501185175,17.050503216681257,3.2172198521277986,9.748938206064102,38.98823558338583,-19.203691099396977
goals: -17.187089719170256,17.242632416204827,3.0647668332669533,9.093417890200376,39.04965710827958,-17.899195463597405
state: -19.16987455943712,17.059429653811016,3.165667358439157,10.37635411932835,38.69148993647859,-23.39076437068933
goals: -15.933569797972805,17.421245784114753,2.9232658802274964,8.434958106755653,39.106895131607196,-16.59082714871192
state: -16.531818427404488,17.411170471415367,2.9897969496369825,9.497002075317472,38.69148993647859,-21.280319465063226
goals: -14.676747190585534,17.586321616039033,2.7926902768027233,7.773690200390124,39.15986560861552,-15.278735415188654
goals: -13.417351723792542,17.73776708426228,2.673073471339046,7.110067987935059,39.20846024873338,-13.963700683066639
goals: -12.151789394838689,17.875972163540197,2.5640488070151903,6.442289912099982,39.25291604136851,-12.641999026164408
state: -14.069632704174033,17.587040880217543,2.638056132032631,8.969390848910946,38.86736034528077,-18.818133741832767
goals: -10.89514152886971,17.999416534422423,2.4667896829913984,5.778387393511542,39.29260646349395,-11.32939776464496
state: -11.255706163339227,17.93878169782189,2.462185723230456,8.090038804900068,39.04323075408294,-15.300725565789259
goals: -9.635438518477565,18.109454082742765,2.38017746359647,5.1121407617238885,39.3280766799937,-10.01342442320819
goals: -8.37812485068595,18.20566580807178,2.304517658728025,4.446507134160604,39.35911881187733,-8.699785487787368
goals: -7.118339650447036,18.28847970582065,2.2394534566052764,3.778994115941499,39.385798287663675,-7.383422241422106
state: -8.793520440108772,18.114652106624067,2.286315314428281,6.858945943284841,39.04323075408294,-12.838539842558804
goals: -5.861150563026663,18.357620843439797,2.1851619935088302,3.1123807272969004,39.40814268945065,-6.069655512757265
state: -6.15546430807614,18.290522515426247,2.110444905626105,5.451982672867437,39.04323075408294,-10.200483710526175
goals: -4.6004313215279895,18.413448482590866,2.1413565297124846,2.443495798913969,39.426135390052416,-4.7521010884124975
goals: -3.3401049534642984,18.45577977208632,2.108149497104891,1.7745106037187177,39.439837079685645,-3.4348823431758784
goals: -2.0857475696679026,18.484549644899108,2.085595046364027,1.1084673454243168,39.44909610040851,-2.1238464449516994
state: -3.3415377672413324,18.290522515426247,2.110444905626105,4.396760220054386,39.21910116288512,-8.265909213702244
goals: -0.8237219161254519,18.50006705750393,2.0734274093539007,0.4382127406371799,39.45413574063332,-0.8047619877836298
state: -0.8793520440108771,18.46639292422842,2.110444905626105,3.165667358439157,39.39497157168729,-5.451982672867437
goals: 0.4301153684549308,18.502152236103093,2.071790841261067,-0.22774919040578123,39.45483259210645,0.505777697620544
goals: 1.6954438958440474,18.490783543150307,2.080709241831447,-0.899784667969238,39.45111725879265,1.8283208860945848
goals: 2.953759269194993,18.466054310175675,2.100097493681401,-1.5679816247614968,39.443146510726024,3.1435064090864953
state: 1.7587040880217542,18.46639292422842,2.110444905626105,1.7587040880217542,39.39497157168729,-2.110444905626105
goals: 4.208073055107646,18.428060161358687,2.129902865801037,-2.233853432175487,39.43082756801642,4.454460203115895
state: 4.22088981125221,18.46639292422842,2.110444905626105,0.5276112264065262,39.39497157168729,0.7034816352087017
goals: 5.4507941961367194,18.377262012335596,2.1697590499007156,-2.893295350979223,39.41443943409843,5.753231152183023
goals: 6.68712593475974,18.31369786169903,2.2196576381352275,-3.548991366295396,39.393936384040636,7.045237637644818
goals: 7.919249381580979,18.23738289748793,2.279611477054966,-4.202018005185614,39.369267170301384,8.332737881723013
state: 6.858945943284841,18.46639292422842,2.110444905626105,-0.7034816352087017,39.39497157168729,3.3415377672413324
goals: 9.154662832302957,18.147825730580283,2.3500123660464927,-4.856278118580502,39.34040723572711,9.623551290858739
state: 9.321131666515297,18.46639292422842,2.110444905626105,-1.9345744968239293,39.39497157168729,5.803723490471789
goals: 10.389904190150373,18.04517027179435,2.430786317790943,-5.509846890024897,39.307295346326434,10.914035115892537
goals: 11.626621998143879,17.929199788237334,2.522121022479355,-6.163523456630572,39.26996786703313,12.205894689619683
goals: 12.852203907465642,17.801182165305082,2.6230531531483217,-6.810567427406228,39.228809709167535,13.485935122159788
state: 11.783317389745752,18.290522515426247,2.110444905626105,-3.3415377672413324,39.39497157168729,8.44177962250442
goals: 14.07643451324438,17.66021369597984,2.7343379835381376,-7.456068072440365,39.1834705320034,14.764353135043518
state: 14.069632704174033,17.93878169782189,2.110444905626105,-4.748501037658736,39.39497157168729,10.903965345734875
goals: 15.298312267838687,17.50639227020766,2.8559215463387453,-8.09943865557027,39.134120601161456,16.040090064586092
goals: 16.523442339233192,17.33890208693173,2.988499741050663,-8.743543521703083,39.08044955234907,17.318972289680193
goals: 17.74650498246263,17.15834853269387,3.1316484521152628,-9.385495839086806,39.02260470297622,18.595418908435374
state: 16.531818427404488,17.587040880217543,2.110444905626105,-6.683075534482665,39.39497157168729,13.542021477767507
goals: 18.96705251476276,16.96476957986199,3.28537282221744,-10.025007749948777,38.96073534202899,19.868950609200652
state: 18.994004150634943,17.411170471415367,2.286315314428281,-8.090038804900068,39.21910116288512,16.00420720099796
goals: 20.18914506933166,16.757417309305257,3.4503293981924834,-10.664120411444877,38.894558878258586,21.143775960886554
goals: 21.399143295497947,16.538653691405347,3.6247022486284153,-11.29562697645242,38.82478231387892,22.405641120779023
goals: 22.611459498783475,16.305911953401928,3.8105812384215847,-11.927012558205398,38.75072916128562,23.669567445372135
state: 21.456189873865398,16.531818427404488,2.9897969496369825,-9.497002075317472,39.04323075408294,18.642263333030595
goals: 23.824635722866443,16.05927507970171,4.0079769288577705,-12.557423899908068,38.67238149324158,24.93400216690959
state: 24.094246005898032,16.180077609800136,3.3415377672413324,-10.552224528130523,38.69148993647859,21.104449056261046
goals: 24.822595225579224,15.845988410597801,4.179030421855316,-13.074876870189103,38.60471826759143,25.973815665702375
goals: 25.290371698655395,15.74275362499644,4.261943531447612,-13.317054814325397,38.57196907459065,26.461105723345383
goals: 26.31144488740428,15.510130461402404,4.449043037134176,-13.844874499721746,38.49832863217547,27.52454795771561
state: 25.325338867513256,15.652466383393612,3.693278584845684,-11.07983575453705,38.69148993647859,23.039023553084977
goals: 27.239268040164305,15.29001840065415,4.626434363480715,-14.32347182746489,38.428742040406895,28.490579998049483
state: 27.25991336433719,15.124855156987085,4.396760220054386,-11.95918779854793,38.51561952767642,24.797727641106732
goals: 27.33083616833884,15.191359688220986,4.738524024320637,-14.369883748630073,38.40417417920807,28.583558258514433
goals: 26.553692345889022,14.687901894684797,5.438974306218448,-13.962377922063993,38.30305242118227,27.75378906518819
goals: 25.46000504253329,13.964033763616422,6.444181348489175,-13.388174905937221,38.151838846644175,26.58706081186732
state: 27.25991336433719,14.59724393058056,5.1002418552630875,-12.31092861615228,38.16387871007206,26.38056132032631
goals: 24.361562090019298,13.218557644510945,7.477370325554767,-12.810719158449022,37.98923558362757,25.416521397265793
state: 25.325338867513256,13.01441025136098,7.386557169691368,-12.486799024954456,37.988008301269886,26.556431729128487
goals: 23.269925706214718,12.45890402688758,8.528441025759538,-12.236174359758408,37.81660737742755,24.254581425540913
goals: 22.170170715129423,11.67415484123954,9.612702602795403,-11.656769561178207,37.63117594745519,23.085455963579204
goals: 21.061653409344853,10.862865974101494,10.732338227873578,-11.072240579097103,37.432138255733435,21.908601613964386
state: 22.687282735480625,11.4315765721414,9.672872484119647,-12.31092861615228,37.636267483665534,25.149468458711084
goals: 19.961953130322996,10.03734257408682,11.870600762561402,-10.491946604134387,37.2222014680143,20.74279485516502
state: 20.576837829854522,9.848742892921823,11.95918779854793,-10.903965345734875,37.108656257259014,23.91837559709586
goals: 18.869465870950897,9.196247934660141,13.02959985549358,-9.915139841111378,37.00086727355229,19.586415902569506
goals: 17.783763395020845,8.33904814543283,14.210339898124646,-9.341689496033434,36.76781183617357,18.439099497027325
goals: 16.724281752767467,7.481446105767315,15.391468247257464,-8.781957610402419,36.52731444899198,17.321423351052736
state: 18.290522515426247,8.090038804900068,14.245503112976209,-9.848742892921823,36.93278584845684,22.33554191787628
goals: 15.665900834327644,6.603294888669482,16.60100441355997,-8.222763302910593,36.27368052319465,16.206939119820557
state: 16.180077609800136,6.331334716878314,16.88355924500884,-8.617650031306594,36.229304213248135,20.225097012250174
goals: 14.619090624520684,5.7130195288536,17.82761686904481,-7.669723209507408,36.00914389613296,15.106766685474849
goals: 13.59455460722106,4.820120919903734,19.05847516841741,-7.128571327833523,35.736551669926726,14.032184226312863
goals: 12.594737876959378,3.9275592937272363,20.28972611225798,-6.600663256853743,35.45703885800113,12.98570465317576
state: 14.069632704174033,4.572630628856562,19.345744968239295,-7.386557169691368,35.70169298684161,17.587040880217543
goals: 11.623424314879946,3.039746364274805,21.51549957069832,-6.088062428924717,35.172099725551256,11.971306631924135
state: 11.95918779854793,2.8139265408348066,21.80793069146975,-6.50720512568049,34.99821135163291,15.476595974591435
goals: 10.68038732661732,2.1576630839048714,22.734606842235095,-5.590690429085115,34.88240205421046,10.98865267892891
goals: 9.751758662438567,1.2690845106142237,23.964122636652128,-5.101275887781769,34.58408011986349,10.023264560641147
goals: 8.8454532962889,0.3821678165949399,25.192929366835838,-4.62402128571757,34.280031130355674,9.08331887235895
state: 10.024613301724,1.0552224528130525,24.270116414700208,-5.451982672867437,34.470600125226376,13.542021477767507
goals: 7.963656371169579,-0.5000342704936243,26.416943104335832,-4.160117997167791,33.97138103488985,8.171102105491437
state: 8.090038804900068,-0.7034816352087017,26.73230213793066,-4.396760220054386,33.942988898819856,11.4315765721414
goals: 7.097444423397511,-1.3857214518742196,27.647670488150492,-3.704888104796322,33.65546840260374,7.277307809772646
goals: 6.253009334464116,-2.2679066419886005,28.875525379665465,-3.261595134638935,33.33497139377158,6.4082470531296085
goals: 5.4322536449725405,-3.143671124995631,30.096542231631844,-2.8312644152957906,33.01103652907141,5.565891636127059
state: 6.331334716878314,-2.462185723230456,29.370358269963294,-3.3415377672413324,33.23950726361115,9.672872484119647
goals: 4.6147281804811975,-4.034494553588291,31.34080543273009,-2.403183461245104,32.6758135949518,4.729207868156449
state: 4.748501037658736,-4.22088981125221,31.832543993193752,-2.462185723230456,32.1842848107981,7.914168396097894
goals: 3.8164574570288945,-4.922716827424432,32.58379599817801,-1.9857525621791583,32.33598628293313,3.9145674678618647
goals: 3.0290866417329814,-5.817176241084992,33.83800828348593,-1.5746342476093724,31.988122250702006,3.11351354189981
goals: 2.2501265374370325,-6.720591146474792,35.107400742256964,-1.1685213015677802,31.631244067562417,2.323438387178657
state: 3.165667358439157,-6.15546430807614,34.2947297164242,-1.7587040880217542,31.832543993193752,6.331334716878314
goals: 1.4811974220437778,-7.631024494859368,36.38942508154082,-0.7683016313159494,31.265937954195476,1.5461167704008152
state: 1.4069632704174033,-7.914168396097894,36.75691543965466,-0.7034816352087017,30.95319194918287,4.924371446460912
goals: 0.7521909380026601,-8.511841952194205,37.63246151035817,-0.3894780839066087,30.907319868202446,0.8115266266037571
goals: 0.3009735309949981,-9.06587697812271,38.41573726364259,-0.15532742770090283,30.67913675324432,0.3580823945107978
goals: 0.12656603974082178,-9.28188226112345,38.72142283091536,-0.06490539214783453,30.58956952798897,0.18313060616778054
state: 0.17587040880217542,-9.321131666515297,38.69148993647859,-0.5276112264065262,30.777321540380697,3.165667358439157
goals: 0.008696379074763906,-9.428451540628876,38.92893626421418,-0.0038069534542408095,30.52866457759585,0.0649370869050781
state: 0.17587040880217542,-9.321131666515297,39.04323075408294,-0.5276112264065262,30.425580722776346,1.7587040880217542
goals: -0.0001524096904844321,-9.439473025744295,38.944543495086194,0.000779197754239667,30.52407947041418,0.05606653678266123
goals: -0.0001524096904844321,-9.439473025744295,38.944543495086194,0.000779197754239667,30.52407947041418,0.05606653678266123
goals: -0.0001524096904844321,-9.439473025744295,38.944543495086194,0.000779197754239667,30.52407947041418,0.05606653678266123
state: 0.0,-9.497002075317472,39.04323075408294,-0.35174081760435083,30.425580722776346,0.35174081760435083
goals: -0.0001524096904844321,-9.439473025744295,38.944543495086194,0.000779197754239667,30.52407947041418,0.05606653678266123
state: 0.0,-9.497002075317472,39.04323075408294,-0.35174081760435083,30.425580722776346,0.35174081760435083
goals: -0.0001524096904844321,-9.439473025744295,38.944543495086194,0.000779197754239667,30.52407947041418,0.05606653678266123
goals: -0.0001524096904844321,-9.439473025744295,38.944543495086194,0.000779197754239667,30.52407947041418,0.05606653678266123
goals: 0.0003467142280517347,-9.439441392810323,38.94441309867099,0.0007791572248280485,30.523977235294463,0.05606631382318588
state: 0.0,-9.497002075317472,39.04323075408294,-0.35174081760435083,30.425580722776346,0.35174081760435083
goals: 2.2375274369640237,-9.29765578114439,38.359948328369185,0.0005974956874634249,30.06573744646602,0.055066961514715886
state: 1.231092861615228,-9.497002075317472,38.86736034528077,-0.35174081760435083,30.24971031397417,0.35174081760435083
goals: 4.445895442255305,-9.15769623061207,37.78301089732608,0.0004181737744722197,29.613399341584362,0.054080479894518425
goals: 6.671325195689911,-9.016655359124313,37.20161607461668,0.00023746642875028124,29.157566493615224,0.053086376763362864
goals: 8.950888498510109,-8.872183670298787,36.606078830516935,5.236337922826518e-05,28.690645517634383,0.05206809208666011
state: 5.1002418552630875,-9.321131666515297,37.81213789246772,-0.35174081760435083,29.546228678765473,0.35174081760435083
goals: 12.403955361954075,-8.653338946499266,35.70396309589206,-0.0002280294512038345,27.983356824220326,0.05052560143929579
state: 11.607446980943578,-8.617650031306594,36.05343380444596,-0.5276112264065262,28.31513581715024,0.35174081760435083
goals: 15.825539950310771,-8.436489472160156,34.810072124018994,-0.0005058658862433014,27.282516617931698,0.048997173975993735
goals: 19.2779941441651,-8.217683577468911,33.908116449682204,-0.0007862089672302986,26.575353417098775,0.04745495700914281
goals: 22.709806105197746,-8.00018592380488,33.01155357072489,-0.0010648758761892985,25.872418346927372,0.045921960961644824
state: 18.818133741832767,-8.090038804900068,34.11885930762203,-0.17587040880217542,26.73230213793066,0.35174081760435083
goals: 26.158045141416526,-7.781647172799234,32.110699108781986,-0.0013448766817362623,25.16611853318033,0.04438162691264263
state: 26.02882050272196,-7.738297987295717,32.36015521960027,-0.35174081760435083,25.325338867513256,0.35174081760435083
goals: 29.58902456088606,-7.564202283050769,31.214353731794237,-0.0016234759874038786,24.463353991775875,0.04284900276283023
goals: 33.03241125365151,-7.345971058601897,30.314766947412224,-0.0019030827773209955,23.758048079333623,0.04131083626362956
goals: 36.477142999075504,-7.12765458886552,29.414828767237672,-0.0021827987869946124,23.05246666092087,0.03977206892719403
state: 33.23950726361115,-7.210686760889191,30.601451131578518,-0.5276112264065262,23.74250518829368,0.35174081760435083
goals: 39.90945564673318,-6.910125203227999,28.518135083607177,-0.002461506352258718,22.34942903554193,0.03823884922215715
state: 39.92258279809381,-7.034816352087017,28.66687663475459,-0.5276112264065262,22.1596715090741,0.35174081760435083
goals: 43.34658791478091,-6.692290364920492,27.62018227133518,-0.0027406052760039126,21.6454042114949,0.036703476584764916
goals: 46.785727801829665,-6.474328289914958,26.721704967426742,-0.003019867220621967,20.940968168587567,0.03516720714066287
goals: 50.22901560924502,-6.256103332514475,25.82214401690019,-0.0032994659809398043,20.23568251074589,0.03362908481371073
state: 47.13326955898301,-6.50720512568049,26.556431729128487,-0.5276112264065262,20.40096742105235,0.35174081760435083
goals: 53.66621125779106,-6.038264477346537,24.924174646435993,-0.003578570051251231,19.531644704526304,0.03209368386414565
state: 53.64047468466351,-6.331334716878314,24.62185723230456,-0.5276112264065262,18.994004150634943,0.35174081760435083
goals: 57.108744076166104,-5.8200873688220085,24.02481093723713,-0.0038581075056279045,18.826513690435526,0.030555898792039595
goals: 60.55328177352531,-5.6017831972532655,23.12492345223282,-0.004137807758385055,18.12097201871973,0.02901721813719377
goals: 63.98354063264459,-5.3843839743965995,22.22876632205737,-0.004416348553759041,17.418355069067417,0.02748491586287497
state: 61.02703185435487,-5.979593899273965,22.8631531442828,-0.5276112264065262,17.76291128901972,0.35174081760435083
goals: 67.42733674146756,-5.166126802421205,21.32907257749124,-0.004695988588710711,16.712965296288882,0.02594656647684802
state: 67.53423698003536,-6.15546430807614,20.928578647458874,-0.35174081760435083,16.355948018602312,0.35174081760435083
goals: 70.86125353023317,-4.948495751269641,20.4319598110595,-0.004974826411998611,16.009599096076858,0.024412630199339792
goals: 74.30482461408101,-4.7302528406828825,19.53232485439953,-0.005254448174674595,15.304255414968985,0.022874381332339343
goals: 77.73814041005421,-4.512659878600213,18.63536909768578,-0.005533237196686182,14.601012315589848,0.021340713519299982
state: 74.56905333212238,-5.451982672867437,19.345744968239295,-0.35174081760435083,14.948984748184909,0.35174081760435083
goals: 81.18735880221233,-4.294059059036813,17.734258778431787,-0.00581331752701349,13.894511901214408,0.019799941990388866
state: 81.42799927540722,-4.924371446460912,17.411170471415367,-0.35174081760435083,13.542021477767507,0.35174081760435083
goals: 84.62332838490784,-4.076297908139609,16.836609718387056,-0.006092322039428205,13.190725229000552,0.018265088726455804
goals: 88.06222050110334,-3.8583515360862877,15.93819714475872,-0.006371563864780232,12.48633993678239,0.016728929962001433
goals: 91.50141445502487,-3.6403860344891728,15.039705715848191,-0.006650830199687875,11.781892819404359,0.015192636366138386
state: 88.81455644509859,-4.396760220054386,15.652466383393612,-0.35174081760435083,12.135058207350104,0.35174081760435083
goals: 94.94048094143079,-3.4224286113899125,14.141247587900558,-0.006930086184092931,11.077471811087097,0.013656399710224221
state: 95.49763197958124,-3.8691489936478587,13.89376229537186,-0.35174081760435083,10.728094936932699,0.35174081760435083
goals: 98.37820830424292,-3.204556057812329,13.243139306773834,-0.007209233430188072,10.373325094295145,0.012120761243021942
goals: 101.82590596466463,-2.986051617534354,12.342426279574072,-0.0074891902754243705,9.667136170083495,0.010580669027478718
goals: 105.25675273588678,-2.7686151346225385,11.446115557018413,-0.007767778809908282,8.964398798904599,0.009048104131856596
state: 102.18070751406393,-3.3415377672413324,11.95918779854793,-0.35174081760435083,9.145261257713123,0.35174081760435083
goals: 108.70201822942553,-2.5502648375774597,10.546037934837177,-0.008047538160516364,8.258708053328014,0.007509098369260325
state: 109.21552386615093,-2.8139265408348066,10.024613301724,-0.35174081760435083,7.914168396097894,0.35174081760435083
goals: 112.13693192294734,-2.3325706056782725,9.6486647264557,-0.008326456933567858,7.555137657978639,0.005974716772757842
goals: 115.57383157197052,-2.114750510046823,8.750772686039706,-0.008605536968392195,6.851160481084822,0.004439448046666462
goals: 119.01721657938566,-1.8965193924102541,7.851186341956447,-0.00888514362145701,6.1458549138514185,0.002901282300314549
state: 116.25034021823795,-2.462185723230456,8.265909213702244,-0.35174081760435083,6.50720512568049,0.35174081760435083
goals: 122.45421132312116,-1.6786932699693433,6.953269457991339,-0.009164231378076664,5.44185825879009,0.0013659710952587864
state: 122.75754534391845,-1.9345744968239293,6.683075534482665,-0.35174081760435083,4.924371446460912,0.35174081760435083
goals: 125.91176074932142,-1.459564455172715,6.049982651228611,-0.00944498819753896,4.733651405930981,-0.00017852192026150112
goals: 129.35040959189394,-1.2416335010510287,5.151633632976354,-0.009724210268805005,4.029315943238211,-0.0017145720139883573
goals: 132.78050231862383,-1.024244807152622,4.255519904984647,-0.010002737574046097,3.3267330223392513,-0.003246800076695573
state: 130.1441025136098,-1.4069632704174033,4.748501037658736,-0.35174081760435083,3.693278584845684,0.17587040880217542
goals: 136.21758944707247,-0.8064128296536318,3.357578885459272,-0.010281832832406157,2.62271744419718,-0.004782152550154657
state: 136.82717804809246,-0.8793520440108771,3.165667358439157,-0.35174081760435083,2.286315314428281,0.17587040880217542
goals: 139.65346181628826,-0.5886578398468346,2.4599552224928947,-0.010560829450979303,1.9189506841361421,-0.006316962388666422
goals: 142.08968291248945,-0.4342576634248318,1.8234910383860665,-0.010758653285772052,1.4199416280875268,-0.007405226359336847
goals: 144.3176939815547,-0.2930531961167311,1.2414218454606978,-0.010939570237164698,0.9635800514745766,-0.008400482568430255
state: 142.63090153856427,-0.5276112264065262,1.7587040880217542,-0.35174081760435083,1.231092861615228,0.17587040880217542
goals: 146.53375873431392,-0.15260584947724404,0.6624736346467909,-0.011119517134522845,0.5096654284786168,-0.009390402338380937
state: 146.85179134981647,-0.17587040880217542,0.35174081760435083,-0.35174081760435083,0.17587040880217542,0.17587040880217542
goals: 148.75903847528,-0.011574485316898352,0.08111800278239606,-0.011300212299067204,0.05386330743341308,-0.010384438458720065
goals: 149.0400240394168,0.006233512792309188,0.007710360059407865,-0.01132302863618276,-0.0036907221831286416,-0.010509955172373612
goals: 149.0400240394168,0.006233512792309188,0.007710360059407865,-0.01132302863618276,-0.0036907221831286416,-0.010509955172373612
state: 149.4898474818491,-0.17587040880217542,0.0,-0.35174081760435083,-0.5276112264065262,0.17587040880217542
goals: 149.0400240394168,0.006233512792309188,0.007710360059407865,-0.01132302863618276,-0.0036907221831286416,-0.010509955172373612
state: 149.4898474818491,-0.17587040880217542,0.0,-0.17587040880217542,-0.5276112264065262,0.17587040880217542
goals: 149.0400240394168,0.006233512792309188,0.007710360059407865,-0.01132302863618276,-0.0036907221831286416,-0.010509955172373612
goals: 149.0400240394168,0.006233512792309188,0.007710360059407865,-0.01132302863618276,-0.0036907221831286416,-0.010509955172373612
goals: 149.0400240394168,0.006233512792309188,0.007710360059407865,-0.01132302863618276,-0.0036907221831286416,-0.010509955172373612
state: 149.4898474818491,-0.17587040880217542,0.0,-0.17587040880217542,-0.5276112264065262,0.17587040880217542
