RAMEL-ESPOL/ARCHIE/matlab/joint_goals_espol_t0_h0.3.txt
Joint0,Joint1,Joint2,Joint3,Joint4,Joint5 
0.0053758101895535725,-0.0027387607956965297,-0.00254484950801643,-0.004502357693081985,0.0034088116327270985,-0.0005142715403273832
0.0053758101895535725,-0.0027387607956965297,-0.00254484950801643,-0.004502357693081985,0.0034088116327270985,-0.0005142715403273832
0.0053758101895535725,-0.0027387607956965297,-0.00254484950801643,-0.004502357693081985,0.0034088116327270985,-0.0005142715403273832
0.0053758101895535725,-0.0027387607956965297,-0.00254484950801643,-0.004502357693081985,0.0034088116327270985,-0.0005142715403273832
0.0053758101895535725,-0.0027387607956965297,-0.00254484950801643,-0.004502357693081985,0.0034088116327270985,-0.0005142715403273832
0.0053758101895535725,-0.0027387607956965297,-0.00254484950801643,-0.004502357693081985,0.0034088116327270985,-0.0005142715403273832
0.0053758101895535725,-0.0027387607956965297,-0.00254484950801643,-0.004502357693081985,0.0034088116327270985,-0.0005142715403273832
0.0053758101895535725,-0.0027387607956965297,-0.00254484950801643,-0.004502357693081985,0.0034088116327270985,-0.0005142715403273832
0.0053758101895535725,-0.0027387607956965297,-0.00254484950801643,-0.004502357693081985,0.0034088116327270985,-0.0005142715403273832
0.0053758101895535725,-0.0027387607956965297,-0.00254484950801643,-0.004502357693081985,0.0034088116327270985,-0.0005142715403273832
0.0053758101895535725,-0.0027387607956965297,-0.00254484950801643,-0.004502357693081985,0.0034088116327270985,-0.0005142715403273832
0.0053758101895535725,-0.0027387607956965297,-0.00254484950801643,-0.004502357693081985,0.0034088116327270985,-0.0005142715403273832
0.0053758101895535725,-0.0027387607956965297,-0.00254484950801643,-0.004502357693081985,0.0034088116327270985,-0.0005142715403273832
0.005674338453478425,-0.0030636106106989155,-0.002040560165880387,-0.004502352181292279,0.0032295309883805835,-0.00021568959810649183
0.16046960716414288,-0.17204449334855137,0.26027938739099316,-0.004499683801590376,-0.09002647050836488,0.15460764257136667
0.6193043632948866,-0.6819805108472348,1.0519052015665378,-0.0044949532229093,-0.37146592346476975,0.6135267301861109
1.3158804101922787,-1.4812786851390485,2.2930954081014137,-0.004496488612035999,-0.8129701737374253,1.3102324858270327
2.1732247359896886,-2.508865471372012,3.890164043596731,-0.004513327114331528,-1.3819616714202976,2.167738940714929
3.104459252365159,-3.6835732155617897,5.7189071172475625,-0.004551174403166974,-2.0354475898959232,3.0991521113797043
4.08230975684835,-4.98810976200599,7.754891092755158,-0.004614037395754119,-2.7662985244952267,4.077192278740826
5.00546978188939,-6.292483607569239,9.797267096982676,-0.004696417956498233,-3.5037183631555604,5.000532336686445
5.8950078650693785,-7.622534531045775,11.887759258840443,-0.0047982512018662484,-4.263580200925041,5.8902436649056975
6.744442330454953,-8.966316041587715,14.008848222335097,-0.0049174067504788015,-5.0403168371444345,6.73984215684119
7.556465089140416,-10.324842243503696,16.16313731905097,-0.005052594025576775,-5.8355174113662205,7.552019103809481
8.275456685596668,-11.594134126581896,18.185463133697734,-0.005190807848672422,-6.588039259554617,8.271143856030186
8.873117223551743,-12.701221941841847,19.95717872374106,-0.00531974139564043,-7.252230948774289,8.868911660676874
9.34387453275839,-13.609351988276552,21.41609437472624,-0.0054308032545506745,-7.802666112888899,9.33975066460286
9.673106423215488,-14.264625195333823,22.471972880506197,-0.005513670539655483,-8.20302258402817,9.669037938733945
10.00082620081238,-14.934361148638084,23.55394726902381,-0.005600577081721425,-8.615010215272303,9.996811184219467
10.262892890782807,-15.483053474258663,24.442487442257125,-0.005673339648770978,-8.95465525235388,10.258919288294113
10.567943192689137,-16.137303400269655,25.504494668100584,-0.005761850401141741,-9.36217388996854,10.564016104811362
10.773755665573809,-16.588497788731193,26.238489214265538,-0.005823933122719313,-9.644811442156463,10.769858842609391
10.850994511057758,-16.757108258970387,26.500969115351865,-0.005847469917816302,-9.738619516811006,10.847110296198514
10.85096458430674,-16.710721515629952,26.21900676782737,-0.0058432158905134075,-9.503043910900457,10.84710563389986
10.856924115764755,-16.659806957894737,25.892174679055152,-0.005838993498245731,-9.227127024490368,10.853094612029205
11.199740960022757,-16.768165253369645,26.016503913123863,-0.00587487116479907,-9.243135025190579,11.195904028101708
12.044523555141671,-17.05121119409685,26.342118522432067,-0.005962391099193019,-9.285795916115672,12.040668036999351
13.258945952321902,-17.498093865070206,26.85866991651713,-0.006085969372653128,-9.35559940459612,13.255062936947922
14.405059691447896,-17.96439960336627,27.400885218434286,-0.006200159169568349,-9.431638476844602,14.401149733411994
15.134678857935999,-18.28447490363579,27.774963371502487,-0.0062716147203209244,-9.48572492634126,15.13075116428771
15.373905633467034,-18.424554143716374,27.987840291435496,-0.006295863056296551,-9.5585502060102,15.369965791525846
15.350227472531794,-18.642566526354127,28.598670586463438,-0.0063012244322279915,-9.951365377543196,15.346242745683636
15.306591043524428,-19.056160832852694,29.744409958024562,-0.006312110858987043,-10.683505393877518,15.302522444178475
15.249535849092805,-19.620702006733204,31.282993150057262,-0.006328425345964328,-11.6575408154592,15.24535518273277
15.181795918048193,-20.32801020217784,33.17332724923342,-0.00635108230073161,-12.840558894168884,15.177478298808692
15.12464756018814,-20.95838935204924,34.82634180470011,-0.006373230822175256,-13.863187704055882,15.120210707999107
15.082683146021365,-21.44225716312836,36.07669613960062,-0.0063914143357004195,-14.629669387982881,15.078156352799978
15.053963201547205,-21.78428345382097,36.95145437827947,-0.006404866375533613,-15.162398025254763,15.049373581882165
15.043600392628926,-21.909887841746333,37.27093780088647,-0.006409925060094236,-15.356275865676144,15.038987842823605
15.071115034023341,-21.730453179733768,37.065696734280905,-0.0064117991610130425,-15.33047262801326,15.06650486378649
15.168942123048383,-21.0834930572035,36.27484984719772,-0.006416836507452503,-15.186597133694212,15.164346672197755
15.28339248835871,-20.342770958428577,35.37725609079192,-0.006423105760394999,-15.029738681198888,15.278812923524425
15.367664527091875,-19.808149056618177,34.73469274870114,-0.0064279643923782,-14.921806977899436,15.36309577971829
15.377160212452562,-19.648610489148126,34.23372417965708,-0.0064184310820337,-14.58037807658329,15.37263212994995
15.377154841235525,-19.4274163059456,33.252691219014174,-0.006396099991964919,-13.820539304258197,15.372717343468105
15.377147234896473,-19.1228304602078,31.82783649988898,-0.006365557189467954,-12.70027043838046,15.372842215351838
15.377138993247328,-18.806724742291046,30.233954397464984,-0.006334108023101842,-11.422494062398382,15.37298365178754
15.377132778282931,-18.580024013624563,28.99533921305005,-0.00631170557117006,-10.410579613375862,15.373095003210162
15.37712896046748,-18.446632595868305,28.21790034811251,-0.006298581622758312,-9.766532170465611,15.373165607144525
15.37833240255555,-18.387512641738727,27.895692828061808,-0.0062935876202510595,-9.503444745610688,15.374399345861324
15.457427212763724,-17.909906273203376,27.33722167477859,-0.006299582703874111,-9.42258911046708,15.45350222560517
15.613464566672931,-16.987092879677693,26.26817771871963,-0.00631164966195269,-9.276376627926737,15.609554021634596
15.841093019105193,-15.683402677696863,24.77982144290038,-0.006329745425551623,-9.091737000186784,15.837200356729793
16.114018848802264,-14.182001327320288,23.09761308507567,-0.0063520957667576785,-8.910961811887672,16.110143098887526
16.349135960719142,-12.938516530607668,21.73029996230184,-0.006371828191995939,-8.787160993207134,16.34527120316113
16.51907634139029,-12.066508680718524,20.78545267139741,-0.006386324593182921,-8.714341489294318,16.515217653217135
16.644351614320513,-11.437302782885794,20.110841797358905,-0.006397121842060125,-8.6689512395279,16.640496463073436
16.694215602171337,-11.190035787385085,19.847409828851852,-0.006401444273342215,-8.65279213523628,16.690361642408373
16.681006834913834,-11.27948757356414,20.078884220001477,-0.0064027265251055425,-8.794813183472494,16.677136478531235
16.62278245615684,-11.646054300090277,20.886952855997055,-0.006405378392863887,-9.236308236797065,16.61886134270015
16.531673105266197,-12.23446136722573,22.1784001099631,-0.0064105628859259444,-9.939337706051056,16.52767105032533
16.41517151031064,-13.014510972978261,23.880278883187014,-0.006419156828596947,-10.861153188300268,16.411063060779117
16.289700538060803,-13.8918028329831,25.78126391978388,-0.006431110380444988,-11.884831650397878,16.28547350535071
16.18695312752274,-14.641245776981537,27.39491842059245,-0.00644320235932832,-12.749031176484628,16.18262555937516
16.110710222385986,-15.21663387322449,28.62774875921656,-0.006453635343329313,-13.406464502519349,16.106305872237876
16.047143336634228,-15.709780855525205,29.68032587941149,-0.006463368529743575,-13.96588721369244,16.042673421916174
16.01811654701149,-15.939158120203885,30.168690704431125,-0.006468140040925072,-14.224871384900327,16.013616203495697
16.03254568456179,-15.872422891364568,30.139446833409067,-0.006470617481131187,-14.26236442538995,16.02804049500516
16.124012112879743,-15.366306524295092,29.565857208807255,-0.006477352742059889,-14.194901845326608,16.11951289464936
16.30624922601612,-14.380766260713674,28.460354096876365,-0.006491159988712039,-14.07496031069662,16.3017602219821
16.517648897071048,-13.273529489403417,27.23631345473673,-0.006507759229993118,-13.958181231101829,16.51316913750096
16.65410129850211,-12.578152447109604,26.477260763946035,-0.006518770047170888,-13.894521622396748,16.649626137592705
16.700250203939554,-12.324930002391463,26.12820283415243,-0.0065203291041470044,-13.798691569202076,16.695785599698937
16.70024765302721,-12.213259807544423,25.608389147390252,-0.006508681816395228,-13.390548080161558,16.695832362412375
16.700242582395255,-11.994565316237587,24.55206846182401,-0.006485962791450882,-12.552921891787546,16.695927977878643
16.700235782919027,-11.709361267387496,23.08305771729241,-0.006456543603825534,-11.369115204394998,16.696062361364397
16.70022924781315,-11.44649233853397,21.608820219710505,-0.006429632525350714,-10.157746644119566,16.69619907562079
16.700224690503173,-11.27149397439025,20.54092537884958,-0.00641182205115272,-9.264850173617997,16.696299401086396
16.700222305830266,-11.183187227746089,19.968057455011703,-0.0064028653334908285,-8.780288999793123,16.696353706848814
16.560086928358164,-11.098353124933249,19.750052595022968,-0.006387550639171271,-8.64710175110743,16.556235830142814
15.898328711944083,-10.813930961446435,19.448556369734106,-0.006325602564980239,-8.629950222894514,15.894488862526007
14.802407781712576,-10.372243536017063,18.98279494179716,-0.006221119341296621,-8.605749492505229,14.798586297016893
13.48066189604059,-9.886849404349682,18.47436907013035,-0.0060919931931823915,-8.582567559619747,13.476862255292092
12.453263428422712,-9.544288795295216,18.117714855215663,-0.005989294203253705,-8.568359258542142,12.449480634692897
11.900423161893576,-9.372211774923985,17.93923092331873,-0.005933200309283939,-8.56189138404754,11.896649411684065
11.804994701899657,-9.395315491275076,18.02024731170735,-0.005924409100509158,-8.619793586616376,11.801216130197835
11.773020282376068,-9.67229969797739,18.62126266041477,-0.005926468948155107,-8.943821224916643,11.769207101165405
11.713856685093875,-10.195544882813548,19.75302283879835,-0.005930960121965571,-9.552329740138475,11.709978427267787
11.634203375004384,-10.922863859338799,21.318724488180205,-0.005938497458925937,-10.390703700882655,11.630235251617716
11.542045019546306,-11.798963743958979,23.193888928020954,-0.005949520547797158,-11.389758190184189,11.537969434686673
11.461014469162746,-12.602311748670763,24.903534297830717,-0.005961462380141601,-12.29604671717524,11.456840982653713
11.401122962538155,-13.21739415267973,26.206523449836542,-0.005971772485929996,-12.983946940180545,11.39687485903231
11.348767555266296,-13.770930078750379,27.37486431289366,-0.0059819099279072524,-13.598746178424088,11.344452512890657
11.318908493580553,-14.093503660787311,28.053926899033197,-0.005988187020444385,-13.95523193461084,11.31455452103543
11.310864698973022,-14.165990439582222,28.169374086578,-0.005988482051619369,-13.99819146901295,11.306506146755499
11.31086119290506,-14.08667988744412,27.806729722261373,-0.0059808847527034826,-13.714857658342513,11.306534212875528
11.31085205637642,-13.885854618903732,26.860214019677695,-0.005961695691725243,-12.969167228256513,11.306607808743847
11.31083899802279,-13.613580966902823,25.5030497074572,-0.005935849016336426,-11.88427657376673,11.306714231576622
11.310824225612102,-13.328017887001103,23.96265988031668,-0.005908944857278974,-10.629449833120136,11.306836469702072
11.310813002819765,-13.12831271837365,22.789654279971632,-0.005890250630268025,-9.656149406494034,11.306930729739939
11.31080638808893,-13.018000810517,22.09748357942913,-0.005879965544720229,-9.074290616844428,11.306986877660822
11.310803332794263,-12.968973410387008,21.777626850205063,-0.005875403535322987,-8.803461289161895,11.30701296477928
11.69914001567592,-13.08695875774241,21.8923307914683,-0.005915278099325749,-8.80022217207967,11.695343890028706
12.583986690874847,-13.37855918816702,22.211541275470548,-0.006005641771655234,-8.827929575521608,12.580173775758544
13.835529982149199,-13.831263000549551,22.709663195012315,-0.006130971255542069,-8.87348769409583,13.83169286038387
15.004472237814864,-14.297957711617206,23.22643468525428,-0.006245374495026486,-8.923697646827474,15.000611890101856
15.758118834018255,-14.621982249769852,23.587170596105025,-0.006317763759006207,-8.960496083934817,15.754243123038774
16.012141828231552,-14.744424344806712,23.772593523920573,-0.006342820422002872,-9.02350647037574,16.008255099445947
16.01214440989629,-14.830033239972256,24.314258272821636,-0.006351258082867325,-9.47956232103852,16.008204817872556
16.01214951610724,-15.006470231864917,25.36637272849803,-0.006368699515676529,-10.355239778914216,16.008108021514428
16.012156799536168,-15.271734428268466,26.824749071634727,-0.006395098733701523,-11.54835191757724,16.007975544026753
16.012164653385888,-15.572553192476082,28.34512072832774,-0.006425289995628011,-12.767904801783319,16.007839313751486
16.012170546430816,-15.806442361656288,29.452812566250014,-0.0064489480485711735,-13.641707464570748,16.007741130305
16.012173945761333,-15.944053821874448,30.07951379976337,-0.006462942779903822,-14.130797234523643,16.007685944036346
15.94190709007621,-15.978105033468458,30.259884317559784,-0.006460514827867273,-14.27710834551675,15.937403172005116
15.42313625392462,-15.921123592962214,30.19501347581797,-0.006410374297938942,-14.2691586854714,15.418645591142491
14.42358111771647,-15.832870055420152,30.094638732432852,-0.006312284021713699,-14.256922620156487,14.419115981395098
13.079939099208627,-15.758450345381755,30.010087434762017,-0.006177389893654525,-14.246639267362479,13.075508293368129
11.489751659231421,-15.73557782100811,29.984109139844694,-0.006013311738686767,-14.243357893538183,11.485361576046913
9.827278654240397,-15.787119561608623,30.042620541830043,-0.005836744485388893,-14.250148755218705,9.822931316498233
8.175204276255792,-15.91503549779706,30.188030024855617,-0.0056563150269547755,-14.267469613080188,8.170899629861049
6.673390054093202,-16.098359314030912,30.396872607129136,-0.005488112762377625,-14.292835840695748,6.669124412039596
5.4768632503716965,-16.290698504939098,30.61654659839197,-0.005351329995309215,-14.3200522103163,5.472628813085133
4.6290012638692755,-16.452192244575055,30.80143385540384,-0.00525295245041373,-14.343363502361342,4.6247890022325375
4.289922545027584,-16.52149651733631,30.87705551527437,-0.005213181755416661,-14.349648402101835,4.285719557973137
4.289919919081546,-16.43297029259787,30.481651773467778,-0.0052058021548212425,-14.042770886376994,4.285746892498073
4.289914130847561,-16.242488803584912,29.606015685464754,-0.005189950271826699,-13.357616290377974,4.285807710266209
4.289905344989741,-15.965362024514777,28.26470934931214,-0.005167031767015509,-12.293436737920924,4.285901630784083
4.289895184339211,-15.66485375709351,26.695733925126355,-0.005142368875324752,-11.024969586641673,4.286012808120388
4.289887257090472,-15.447017056815007,25.45890186940463,-0.005124610960614774,-10.005974235586304,4.286101585296921
4.289882448866604,-15.322637558165805,24.703516101608823,-0.005114515392172748,-9.374967969149901,4.286156350276157
4.289880159269607,-15.265587278791429,24.342482319485857,-0.005109895120126489,-9.070984467705282,4.286182680895719
4.543970697828378,-15.290096512864178,24.335834285403017,-0.005138834853409848,-9.039851473108598,4.5402715286116075
5.315279971888477,-15.395605817324364,24.45471709424848,-0.0052276399952990065,-9.053299440484949,5.311565590425628
6.499761982751347,-15.590527090877588,24.674785375981042,-0.005362102231980986,-9.078563080345452,6.496024020117448
7.742945933125617,-15.838450382967045,24.955520674781663,-0.005500696504175775,-9.11150041700348,7.739182865142447
8.6159545351085,-16.039491875460705,25.18385016073736,-0.005596448065020982,-9.138878176352438,8.612173569311482
8.972983975416374,-16.128213479071302,25.28480860449306,-0.005635227901831016,-9.1511521398475,8.969195616049266
8.99796830417628,-16.19422995945679,25.66673406191836,-0.005643174576646529,-9.467063720152545,8.994146836328818
8.997974272308369,-16.34698095598624,26.58025100046815,-0.005656589947010829,-10.227829658238807,8.99407385900368
8.997983195118488,-16.59066408288083,27.93303887313714,-0.0056781190730440965,-11.33693439826186,8.993967009248662
8.99799379185508,-16.901594288041085,29.51877588211296,-0.005705814202044788,-12.61174119543832,8.993843424245895
8.998002445557916,-17.17086892266196,30.79664644940495,-0.005730000083297181,-13.620337122831039,8.993744981309508
8.998007987536791,-17.34982626708996,31.606840894121362,-0.0057461764291390355,-14.251574219802745,8.993683039087777
8.998010096299815,-17.41915729655189,31.91344789855664,-0.005752465282171387,-14.488850193526565,8.99365968589907
8.998007545759725,-17.36258901558984,31.66410812292965,-0.00574729509129035,-14.296078699790986,8.993677849922797
8.997999632855336,-17.1902782276847,30.886518631166034,-0.005731543411989392,-13.690799998847586,8.993734754273255
8.99798676596118,-16.92264049930106,29.62185090546938,-0.005707220465582457,-12.693770006311833,8.993827929227953
8.997970673694,-16.61094725911015,28.04076843816367,-0.005679108046720922,-11.424380785240249,8.993945648221787
8.997957032696286,-16.3681033211392,26.702142604153504,-0.0056573612889857785,-10.328598894387602,8.994046544387839
8.997948026428537,-16.21918711073324,25.81967473256057,-0.005644091611942579,-9.59504723665938,8.994113756476095
8.997943594258063,-16.149341753614,25.385892061548756,-0.00563788443676787,-9.23110992447935,8.994147013854171
9.020936458168148,-15.901614601253824,25.027057385157818,-0.005638512519584877,-9.12000480219367,9.017150975349255
9.096346040043075,-15.149228167615298,24.177316964923925,-0.005645028582080368,-9.022658697695297,9.09256934608969
9.214110188382266,-14.005143098849029,22.901631631112636,-0.005655537697534945,-8.891070762704143,9.210345150760448
9.31447508778383,-13.058221972498046,21.86081022790057,-0.005664782192741095,-8.797181014259518,9.310718132062387
9.367348707770256,-12.569241687455259,21.328652483155473,-0.005669748799812912,-8.754009108468702,9.363595370069957
9.380112728073918,-12.458510362395565,21.243862455987774,-0.005671521422890528,-8.77995174761711,9.3763564881437
9.365904687022708,-12.630170443062845,21.656368307678413,-0.005673849659422866,-9.020796023679708,9.362123655525153
9.333024778608523,-13.03501775978878,22.624471023322055,-0.005679746272482982,-9.584047964402009,9.329185682540503
9.285362391111143,-13.64067582148718,24.061298673679058,-0.005689618574176021,-10.415212543623328,9.281437367272622
9.226708346913323,-14.418110532528983,25.88687059793775,-0.005704064974010248,-11.463343597840176,9.222674491072649
9.170475086156602,-15.199193459072648,27.701245951299466,-0.005720521007103045,-12.496630125751665,9.166333340908578
9.127768754885794,-15.817439793592252,29.12431936377057,-0.005734880887488217,-13.301452727624554,9.123542508008738
9.09544916013485,-16.300671924894406,30.22903097114621,-0.005746908721214714,-13.92292881846874,9.091157352033614
9.077633572776493,-16.57292405617279,30.84863213227087,-0.005753988769048394,-14.270275983075624,9.07330499719781
9.078569526668895,-16.591026860264073,30.96061119645958,-0.005756569518166548,-14.364152340371092,9.074230843918278
9.110640227433006,-16.26646299789451,30.58864225061294,-0.0057588175978940635,-14.31675061082409,9.106305770496444
9.19565540134271,-15.421521880525507,29.628169749598488,-0.005765050459985409,-14.201228127098512,9.191331077284877
9.301378080284715,-14.399759570504333,28.481469357739197,-0.005773298330708688,-14.076301131494457,9.297064381413401
9.369448202465232,-13.758031429329414,27.769540739363848,-0.005778875097575075,-14.006107803077587,9.365140263821164
9.382395046669215,-13.586065557305222,27.402734215030925,-0.00577522004276801,-13.811268512518692,9.378107754742294
9.382389777589891,-13.418290739928711,26.61880185574299,-0.00575969430495099,-13.195110973894636,9.378168638347875
9.382381489338549,-13.163880433259378,25.371132739468976,-0.005736290189939774,-12.201852169569936,9.378266286023283
9.382371310396382,-12.869094258634316,23.814804065755332,-0.005709375045718706,-10.940309677157812,9.378389518423662
9.382362906255812,-12.64245124915539,22.509899790830374,-0.005688826812223597,-9.862048417396275,9.378494230794034
9.382357517909986,-12.506007683542148,21.663909184177754,-0.0056765150085284505,-9.15250138008855,9.37856286732837
9.3823549088316,-12.442652179799147,21.251651846822355,-0.0056708128758691965,-8.803599548308856,9.378596546482434
9.19554761550371,-12.38550319620416,21.12975867793104,-0.005649814614784711,-8.73883574508741,9.191799015808016
8.481308106132378,-12.217996047787732,20.94876676526165,-0.00557269122105543,-8.725276566246997,8.47757257888015
7.335932954931195,-11.978753968209132,20.69100306350595,-0.005447133752272395,-8.706637600287301,7.33221829729808
6.019639478713227,-11.747953700964269,20.443159748020836,-0.0053000166716178744,-8.689462786989042,6.015948727877152
5.0334671644322295,-11.60546967256784,20.29055764629125,-0.005187857897164043,-8.67924819530879,5.029794312898641
4.547638163510657,-11.544769369961154,20.225640405663782,-0.005132003051868003,-8.67498441161017,4.543974135180641
4.472245028805823,-11.61765635868625,20.393789608392016,-0.005124663068334523,-8.770239395793919,4.468573341165288
4.458428149620915,-11.94945664894626,21.114987442781423,-0.0051287523448270925,-9.15963561591815,4.4547199975908365
4.435411356088391,-12.51507132145514,22.34009777772986,-0.005136302183862886,-9.819129073570533,4.431641306606715
4.405518656612093,-13.27503709641001,23.97794837603371,-0.005147588939642353,-10.697011034989787,4.401665907256942
4.37132396578293,-14.18186220268029,25.92068689250744,-0.00516273501986096,-11.732921173451173,4.367373125016265
4.341815074991399,-14.99917142846435,27.66143702347371,-0.00517792643352627,-12.656359256983121,4.337776272837303
4.319886886403562,-15.628984814000436,28.996585821057923,-0.005190617273662393,-13.361692573295656,4.315780531840927
4.302078276603307,-16.155594024023486,30.108918886496824,-0.005201885064314093,-13.94741472735015,4.297915562093425
4.292614219519921,-16.441170877678328,30.710656222346806,-0.005208241798779106,-14.26357430562329,4.288420979348459
4.293235191689058,-16.451305504017032,30.80024822579399,-0.005210218175162022,-14.343031741489453,4.289034182239923
4.308545937564987,-16.122389604720965,30.42401658592251,-0.005210882983751008,-14.295717460787424,4.304349100737917
4.348352591601406,-15.282418210522149,29.471024257342016,-0.005212864868826881,-14.182700324081825,4.344165633092783
4.406235342766113,-14.097262644825964,28.14499593578955,-0.005216332239289217,-14.041833095940293,4.40206047265664
4.452780919400862,-13.17347540685506,27.126460421453512,-0.005219573332762242,-13.947089269345907,4.448613974226415
4.475714304891882,-12.72345540322792,26.621222161701354,-0.005220973124096073,-13.891873207289544,4.471552102390223
4.4757107177915625,-12.627057967074922,26.176129743386834,-0.005212868789306889,-13.543178226599792,4.471582534096255
4.475702997831603,-12.425835144899112,25.215662278200515,-0.005195994729973278,-12.78393358678428,4.471648544238423
4.475691711799542,-12.147002789897755,23.80445097247704,-0.005172768908099906,-11.651554640805449,4.47174640550661
4.475679724176547,-11.872608902688862,22.29727678431928,-0.005150086968178308,-10.418774344994738,4.471852226879862
4.475670705190202,-11.682184257989872,21.158545339382247,-0.005134444230639835,-9.470467548694165,4.471933188340106
4.4756655504576885,-11.579966400604754,20.506118871997636,-0.005126079548294819,-8.920258940974188,4.471980007187959
4.475923228081306,-11.531288750057538,20.211205412295218,-0.0051225329893787,-8.674023157711714,4.472260888475972
4.502814689542317,-11.022761582004835,19.669555300272915,-0.005125167621406848,-8.640902787423265,4.49915500127894
4.5560272225352865,-10.037514681870302,18.631558932587264,-0.005130561426718522,-8.588158416785275,4.552371584295794
4.618811042215945,-8.908617301610189,17.460403203657307,-0.005137203206285957,-8.545906088942202,4.615158310984521
4.657471016438511,-8.230712530748223,16.76648315427924,-0.005141430506213552,-8.529894521685613,4.653819135747093
4.675632327725558,-7.916570482770573,16.447276609798656,-0.005143449965555914,-8.524831769626195,4.6719806152336485
4.673968983964437,-7.962718988581482,16.596191079455007,-0.0051446979656474745,-8.627597573089211,4.670307589253353
4.6582557175970924,-8.302602656307599,17.322328698183366,-0.005148459220485285,-9.013850012677763,4.654558061201036
4.632377315439116,-8.875003676654497,18.541552748818923,-0.005155367577850619,-9.660670554824023,4.628618807630488
4.598541772540514,-9.648447068629615,20.181946931850593,-0.00516583936992063,-10.52761809461259,4.594701424299328
4.5608304773041475,-10.546198543409012,22.076349897311413,-0.00517961014347343,-11.524265964175237,4.556895594745391
4.529786477767442,-11.315602602605221,23.692131986516838,-0.005192776057193771,-12.370641015297696,4.525770887081329
4.5063449884739475,-11.916071664521352,24.94838885128569,-0.005203918641586286,-13.026426569983737,4.502266563972991
4.487290224488746,-12.417185818191486,25.993733062273538,-0.005213793089210989,-13.570654800603203,4.483159441117993
4.477901475768414,-12.668641622236706,26.517247860362858,-0.005218947659898825,-13.84271289484111,4.473744440410143
4.480612167177577,-12.632868876724608,26.53651938992805,-0.005220544572590047,-13.897757428946042,4.4764496855973075
4.5025347183905495,-12.212966509200287,26.081373934054955,-0.005222295772620981,-13.862516438636431,4.498375059653019
4.552807416953861,-11.269506773448887,25.06881767147161,-0.00522658743131603,-13.79342472655885,4.548653095325617
4.617962278792511,-10.084653814389284,23.816744101535107,-0.005232669075605325,-13.726210363101842,4.6138127082329845
4.663705835654841,-9.27694123956268,22.97568824951063,-0.005237257676735763,-13.692871477022292,4.659558255288091
4.678281685626545,-9.000320176346182,22.606149360108,-0.005236813496289415,-13.599955051322572,4.674142796090858
4.678276916858722,-8.878197959821307,22.028772989731213,-0.005226476810659721,-13.144700899393728,4.67418249859882
4.678267874121876,-8.654873087142361,20.9294651587116,-0.005207660856912251,-12.268717944741292,4.674258562692189
4.678255689261294,-8.371984298187572,19.43928009398225,-0.0051840010704389235,-11.061421674027107,4.674362750120574
4.678244277375838,-8.127537565263093,18.03534216933176,-0.005163709586962632,-9.901930487140243,4.674462193985852
4.678236421271365,-7.971785062518432,17.0647639472074,-0.005150852329209171,-9.087104771151289,4.674531763203046
4.678232182751753,-7.892232159129364,16.53989839100112,-0.005144306000850829,-8.64179212018431,4.674569687151286
4.761046486104088,-7.881446742413308,16.41178355961214,-0.0051521671646748615,-8.524470661571813,4.757393668985572
5.301942918833224,-7.948512954222906,16.479775926068758,-0.005214145306674524,-8.52544910103368,5.2982808224302635
6.320623966636274,-8.094821939230574,16.628341558550076,-0.005329511661379958,-8.52780578044985,6.316944541356483
7.664533842326994,-8.32811177494744,16.865900525111368,-0.005478949047831902,-8.532209955705058,7.660831824621668
8.826328012260351,-8.567226238305958,17.110247930042572,-0.005605553916413377,-8.5375624081358,8.82260667436114
9.579769895623373,-8.741158145401744,17.288532561419885,-0.005686355606387865,-8.541993985320795,9.576036112067781
9.796812351147608,-8.835741509322004,17.431857526902892,-0.005710176397687397,-8.590758493930817,9.793070046888188
9.770809505144015,-9.105396982966822,18.01384798877819,-0.005712354223555565,-8.903090728463964,9.76703496391678
9.721659901591796,-9.625595281164884,19.133213250345275,-0.005717110185406112,-9.502252490268054,9.71782343526368
9.656050098061385,-10.341858727151653,20.667668374389425,-0.0057248331219853284,-10.320437231623108,9.652128866958869
9.577424963873892,-11.235279891073366,22.571174260700474,-0.005736339528426202,-11.33051365159328,9.573398704192973
9.509252454337968,-12.043167820481544,24.28301502242734,-0.005748500913913031,-12.234459294362958,9.505131778352151
9.45865981936086,-12.664184814446482,25.593117146816,-0.005758968918973169,-12.923539094720132,9.454466861002965
9.414576567419068,-13.221134296172185,26.763983100408886,-0.005769175267807573,-13.53745092610933,9.410318962089171
9.388575232365923,-13.556883740788276,27.468021296539625,-0.005775699273396292,-13.905736942223474,9.384278723865588
9.270094875049601,-13.668539116661497,27.670783878725874,-0.00576516022238962,-13.996831702002583,9.265791679588018
8.65013421523183,-13.848980986628012,27.870085353593662,-0.005697768493570693,-14.015626597050991,8.6458454358144
7.591681822848747,-14.183402830551985,28.240791319530793,-0.005581136069905812,-14.051801897811654,7.587417736346928
6.220859866737261,-14.667232257514561,28.780178314204413,-0.005427194371772427,-14.10722169290729,6.2166278587913
4.76838401167948,-15.244487253971082,29.42845206368779,-0.005260639090926005,-14.178098440856598,4.764186025332592
3.570960761067984,-15.772451190091966,30.025881709753918,-0.005120755396570203,-14.247450222888457,3.566790771208435
2.7728638499749247,-16.1515006266013,30.457462579797898,-0.005026268893669122,-14.299907326473834,2.768712459929014
2.435299001883842,-16.318532806886022,30.648347645118285,-0.0049860104607314555,-14.323729162701667,2.4311554585452892
2.3866529996803583,-16.29975524201974,30.48437580659161,-0.004976758604025027,-14.178530432435227,2.3825244889578876
2.386650913832799,-16.139367589281175,29.754714500660135,-0.004963959109059815,-13.609256781769654,2.382575459628218
2.3866475679079926,-15.882692817381667,28.534405662275223,-0.004943590116352045,-12.645622719549637,2.382661347336057
2.386643706602769,-15.588658388025934,27.038061734796873,-0.00492042710880543,-11.443313226729126,2.382767879099364
2.3866407283031723,-15.364862204608816,25.80753863471415,-0.004902916580789461,-10.436586314488993,2.3828566068020978
2.3866387961082487,-15.22188037527876,24.967205040773713,-0.004891782011546971,-9.739234552937816,2.382917843328908
2.3866373504200338,-15.116437841408967,24.31396181264168,-0.00488359627862119,-9.191433861075698,2.382965832317897
2.3901901608628804,-14.948931098652436,23.95245960248891,-0.004881236714657104,-8.997438719418186,2.386536045956015
2.4075257147876146,-14.300523775722334,23.228993925200577,-0.004882247062794119,-8.922381950810935,2.403878031353227
2.4375047572496555,-13.206064210638274,22.022334173037844,-0.004884255513829388,-8.810184507403518,2.433866618844168
2.479182506642321,-11.73756510662894,20.431855405363677,-0.004887537800702174,-8.688208660970085,2.475554591273661
2.523473913935204,-10.239679791931932,18.843341100411855,-0.004891570258819029,-8.59758373104563,2.519853366868527
2.559608659391352,-9.061972208753481,17.618363990379105,-0.0048952227899817045,-8.550317519623757,2.5559917306694246
2.583103646180173,-8.316295246727481,16.853678546216422,-0.004897754723864849,-8.531311194574377,2.5794880165069447
2.599552275837514,-7.803256684261101,16.332476147646798,-0.004899595711338518,-8.523148869275179,2.5959370928653396
2.6021790973340497,-7.730482189020535,16.308389723315116,-0.004900557824258938,-8.57183718126606,2.5985594769615576
2.596341678176877,-7.955680206075995,16.78894693327127,-0.004903328750677095,-8.82719583669134,2.5926991176582397
2.5840203597684748,-8.439657389402226,17.81924204669766,-0.004909632715034617,-9.373512632516904,2.5803286308837357
2.5666280470127205,-9.14292731894039,19.31074252389264,-0.004919630761624824,-10.161741579532753,2.5628651451368274
2.54579084715923,-10.018356870688697,21.158508983073588,-0.0049334447679791355,-11.134076569982366,2.541939728663026
2.5250482561503307,-10.928144623889338,23.068964033384454,-0.004949392316965611,-12.134741959553681,2.521105807198691
2.5087785490387366,-11.670565335705868,24.620959707857885,-0.004963594961411828,-12.944315426513706,2.504761763039267
2.4973122633889924,-12.210078556989375,25.745013300863597,-0.0049745829996433715,-13.528854744385484,2.4932415326002992
2.4910304326276584,-12.511687067162782,26.372053697799245,-0.004980971352952714,-13.85428605388398,2.486929564071564
2.480861833365032,-12.874896333130508,26.80000175958298,-0.004981185253822465,-13.919023917633176,2.4767552199722633
2.45792636208739,-13.68735214921541,27.691359307717093,-0.004980185843028868,-13.997923548478672,2.453813051947912
2.426108976272519,-14.847784449194107,28.98223169607578,-0.004979290674071258,-14.128360723642512,2.4219844214232036
2.402749142357416,-15.725854958225748,29.972841523892527,-0.004979033713880357,-14.240897904833846,2.3986147676542187
2.3902575449984225,-16.204924039500753,30.518319848159816,-0.004979047685836046,-14.307306005184007,2.386117337469847
2.3866909452951814,-16.328592436409817,30.612401226719452,-0.004977929814584714,-14.2777186608783,2.3825536107629532
2.3866875369533394,-16.237718686705147,30.20457363506528,-0.004970676214474157,-13.960764820132951,2.382579795331689
2.3866794847788873,-16.02941397328726,29.240282415146464,-0.004954094941348655,-13.2047783164944,2.3826419996974666
2.386667816109677,-15.743444039724155,27.840399239989775,-0.0049314819800846165,-12.090865079095812,2.382733061943097
2.386654846347873,-15.44920694076995,26.282123816122464,-0.004908393329559131,-10.826826758914704,2.382835631996649
2.3866451704557097,-15.247100259421828,25.118903787070074,-0.004892636080370284,-9.865713414791323,2.382913143122513
2.386639481924485,-15.135587692907286,24.435068551711844,-0.004883976315406153,-9.293390748074037,2.3829591265339505
2.385652396985296,-15.083475091381631,24.103512881923074,-0.004879825274608238,-9.013947590866586,2.3819972269410323
2.033110024288568,-15.061918811585745,24.079313455698806,-0.0048377454961497,-9.01127231282988,2.029461681243034
1.1822178600273616,-15.024276469599926,24.037072085850745,-0.004735393420355873,-9.00659678489513,1.1785859500662017
-0.052869095917358847,-15.005134567833421,24.01559704092152,-0.004584867493591781,-9.00415528705623,-0.056477235236703185
-1.2605023051412276,-15.02701171520587,24.040132445428718,-0.004435497949726107,-9.006710717054416,-1.2640872681618796
-2.0864342000672234,-15.065122191296652,24.082895233942644,-0.004332124629236267,-9.011294503661578,-2.0900033366584143
-2.3853481001056003,-15.0920816155027,24.158652615911894,-0.0042950550422404445,-9.06006802375444,-2.3889152173094055
-2.385343612600074,-15.16661537423139,24.629461867614896,-0.00430010176016217,-9.456343515635695,-2.3889423090474415
-2.3853341598779294,-15.333002062994723,25.62491688097705,-0.004311394431095566,-10.285411837942036,-2.38899916086029
-2.385320684560827,-15.591095343209469,27.051340220999315,-0.004329024985898756,-11.453741894504114,-2.3890797173730394
-2.3853063556667404,-15.891302973939636,28.57648889059861,-0.004349703454420416,-12.67868292994848,-2.389164809595783
-2.385295595039455,-16.13335855027718,29.726731340918338,-0.00436650871306414,-13.586869801374574,-2.389228369492826
-2.3852892349526034,-16.282876087438574,30.408315394047857,-0.004376948237962655,-14.118936315837749,-2.3892658111539085
-2.3852868327932577,-16.340535700208147,30.666043409226425,-0.004380985840626551,-14.31900471767936,-2.389279930315012
-2.3852892970890625,-16.27455825255342,30.371549612837004,-0.004376328449335199,-14.090488369616411,-2.389263503040374
-2.385296300997558,-16.092798040289406,29.538719673104616,-0.004363508883748212,-13.439418644053786,-2.389216888966499
-2.385307308195301,-15.821149190964592,28.231135461555976,-0.004344465753106027,-12.403483284845786,-2.389143179537654
-2.385319947658752,-15.531489501396043,26.732556101815497,-0.004324311022435957,-11.194563618170589,-2.3890578083592464
-2.3853295683204125,-15.327858570418536,25.594765621678626,-0.004310233198775592,-10.2604040716988,-2.388992262745333
-2.3853364143312934,-15.192245876699971,24.78700248897981,-0.004300898254936738,-9.58825363464563,-2.3889453037934287
-2.3853412223644246,-15.101771917745772,24.22077366547385,-0.0042946879633651526,-9.11249877145488,-2.388912158944414
-2.3915770061284416,-14.847686838188665,23.839040885195505,-0.004292290129165145,-8.984850564228223,-2.3951376541657106
-2.411764070845377,-14.09537168309943,23.00139539500044,-0.004288683881095285,-8.89951858877581,-2.4153175354520307
-2.4431851445352026,-12.954730397410469,21.74774937315539,-0.004283333131726949,-8.786511301116427,-2.446729022062752
-2.469664844188325,-12.020702254371644,20.735926836026284,-0.004279048323900951,-8.708714758385764,-2.4732020413075078
-2.4845637413550183,-11.505494576458439,20.183436793297908,-0.004276719006224965,-8.671431185271539,-2.4880976989279784
-2.488599690060705,-11.369811393833672,20.053388562376725,-0.004276276067882589,-8.677065809685377,-2.492134016885488
-2.484275735104071,-11.554454370296279,20.45461960277815,-0.004279426578577232,-8.893654223424866,-2.4878273069957126
-2.474281212955118,-11.98862961188753,21.395623697702128,-0.004287051716045889,-9.400483885422727,-2.477873233718432
-2.45959714019345,-12.644415233639329,22.811104080418033,-0.004299141315148576,-10.160179834798756,-2.463250045996423
-2.441484937057999,-13.484618799433088,24.61480345009135,-0.004315636389599756,-11.12367710504001,-2.4452155360496097
-2.4229508532942186,-14.382786655712778,26.53144689992432,-0.0043345040784210686,-12.142154199669365,-2.4267642004220344
-2.4083269784777817,-15.121163548366376,28.098683471208098,-0.004350968049307894,-12.97101506307542,-2.4122081781681883
-2.397121417260852,-15.706019201866358,29.334919249681498,-0.004364619069512551,-13.622396096109304,-2.401056284309842
-2.3890350752027163,-16.13885537699124,30.247029043745698,-0.004375065796068396,-14.101670370454787,-2.3930096308517195
-2.3855354415201178,-16.329102527090573,30.647198568238004,-0.004379750332971948,-14.311593028526357,-2.389527436455393
-2.3889800707930386,-16.199359698462466,30.51179541273469,-0.004379187907029206,-14.305932421642753,-2.392971486343042
-2.404042793829639,-15.622311150095323,29.855278302408752,-0.00437562893848051,-14.226462635777585,-2.4080271641672635
-2.4316377923471393,-14.590050422346819,28.693676210793353,-0.004369463692286791,-14.097119030920036,-2.43561062102755
-2.459364056112957,-13.583602535565621,27.576954046478978,-0.004363690136900934,-13.986842503324917,-2.4633269363461614
-2.477868428442111,-12.928252853566574,26.8582730294132,-0.004360052017502891,-13.923509667474336,-2.481825525574018
-2.4888568824487125,-12.539473268568983,26.416071614971916,-0.004357583165534538,-13.870086947225355,-2.4928092503816965
-2.4888611100953484,-12.447132476187889,25.989268068003685,-0.0043510521790743415,-13.535624193559022,-2.492786035530338
-2.4888705786302605,-12.24741151877141,25.035530901255157,-0.004336961631772089,-12.781607986294967,-2.492733917632256
-2.488884473925455,-11.971774355049961,23.64058819442031,-0.0043176443161149995,-11.662302446233335,-2.492657064382205
-2.488899632232673,-11.69596324777674,22.126274927399457,-0.00429846192954236,-10.423800289840562,-2.4925726658344254
-2.488911210054816,-11.503584601175527,20.975635491995977,-0.0042851664854721755,-9.465539503620803,-2.492507765196789
-2.488917806580379,-11.401325476303796,20.32261929126841,-0.004278126541374663,-8.914782429244845,-2.4924706031913098
-2.475702682908287,-11.35550048386589,20.023498074533766,-0.004276706027170609,-8.661487277101221,-2.479235651817903
-2.0975144197192095,-11.332955328424038,19.99947176301222,-0.004324396128644314,-8.660036902406782,-2.101054458980904
-1.2200879361271688,-11.295259557085549,19.959320812313855,-0.0044342518036393835,-8.657654335674467,-1.2236443294949373
0.04692300504550106,-11.27604558180491,19.93887557935142,-0.004590900682704499,-8.656530847378372,0.043343119668998537
1.291483389437956,-11.297632504457011,19.96188483831594,-0.004742428850211082,-8.658062351551747,1.2878805630842018
2.1398454228810424,-11.335421249190036,20.002161290985963,-0.004844347952796221,-8.660626332300309,2.1362270285493437
2.465009296382997,-11.35484730684934,20.022873024274578,-0.004883113658527513,-8.661941635011374,2.461384948540994
2.4865465116703755,-11.516180595214049,20.37173836095624,-0.004888230829140753,-8.849475650213103,2.4829049005736152
2.477032743294252,-11.92845654056455,21.265620992883452,-0.00489391473254059,-9.331081463208683,2.4733478959905977
2.4628248813900098,-12.560893540947363,22.631380016038122,-0.004903329734403614,-10.064402181662327,2.459073999980414
2.4451435204454937,-13.377389339748078,24.38533447187314,-0.004916705471236181,-11.001859215972134,2.4413078379787656
2.4258574595289324,-14.30808583246471,26.372548745791523,-0.0049336069016298004,-12.05837522775631,2.4219256267869858
2.4111564508214567,-15.047892364386051,27.943525420033215,-0.004948283605692732,-12.889544021713181,2.4071484963920344
2.39944596621954,-15.657400063310197,29.23234669734143,-0.00496119342237736,-13.56885652625815,2.3953754552019686
2.391143269046276,-16.101068859913536,30.16749989755411,-0.004971054229859487,-14.060340168642592,2.3870272925118954
2.3870146185580614,-16.325395777963536,30.639396370444235,-0.004976187928453443,-14.307909344988621,2.3828756719475934
2.213123895779484,-16.33143285345195,30.66298889716176,-0.004955472649982984,-14.32544892109882,2.208988537708092
1.5295846025642637,-16.295361230290276,30.621729998780566,-0.004871873226118803,-14.320199840072991,1.5254703833882062
0.4136758672875968,-16.264875101704728,30.586881087922045,-0.004733870718358647,-14.315738246540418,0.4095961589022029
-1.0103413569572621,-16.276906906042203,30.600652351784138,-0.004555087721580513,-14.317355419088118,-1.0143769843717911
-2.4132196272022393,-16.344695283970598,30.678214212209788,-0.004376104490546883,-14.327012673979038,-2.417211738957415
-3.502750739198613,-16.435831263259203,30.78259345758279,-0.004235203308267212,-14.340168624774185,-3.50670897114507
-4.149772538888178,-16.505987040340262,30.86302926052921,-0.0041507643277990435,-14.350398034481508,-4.153710610602312
-4.288550066618557,-16.49554446114682,30.762226935396654,-0.004130781998954451,-14.260027550528187,-4.292476549239833
-4.288553801489768,-16.36516794620339,30.17420149541627,-0.004122076228619895,-13.802378626777433,-4.29244455573358
-4.28856077323573,-16.130167350580443,29.073110784538095,-0.004106454881032382,-12.936288513946725,-4.292384297235614
-4.2885702749781,-15.828183862848256,27.56565421669886,-0.004086523987548613,-11.730815437195753,-4.292300996129941
-4.288579426758744,-15.559021536431684,26.107362470156524,-0.004068892173886206,-10.541686020362341,-4.292219402257622
-4.2885859331612,-15.381641026069511,25.067483667947002,-0.004057339058542066,-9.67918773089347,-4.292160534733714
-4.288589573756691,-15.287801112808832,24.484694294210474,-0.00405124794061959,-9.190238271762906,-4.292127268075476
-4.340683772945118,-15.265195290134336,24.30772101421182,-0.00404266916325275,-9.035866798867223,-4.3442087800536715
-4.817737557280703,-15.325706959433768,24.375850649351,-0.003981045272525645,-9.043448246303896,-4.821253433152994
-5.783047843841073,-15.467893703148198,24.53615723265058,-0.0038554415118823354,-9.06149574902443,-5.7865452404575635
-7.070547432400191,-15.69888527213081,24.7972393701768,-0.003686070476023878,-9.091493114252845,-7.074020167683948
-8.171176095570711,-15.934363332684093,25.06422473155685,-0.0035396676677838536,-9.122923741536363,-8.174627728883037
-8.841001139358259,-16.09510805115419,25.246960293865254,-0.003449863620493151,-9.14486929204855,-8.844439918509742
-8.996704770506254,-16.14866528761229,25.38262895569783,-0.0034296993355678144,-9.226970335205195,-9.00014549391312
-8.996698082638602,-16.24852351285973,25.998981936663096,-0.003435148140563364,-9.743465090079038,-9.00017208780895
-8.996686066718423,-16.440794120357378,27.115333552390553,-0.0034456792831908814,-10.667546096792222,-9.000219876025492
-8.996670003370063,-16.722970007878004,28.624944480383967,-0.003461244289302998,-11.894981135235511,-9.000283813711563
-8.996654280982758,-17.026345527300276,30.120945212571794,-0.003478121732000787,-13.087606346010167,-9.000346511343896
-8.996642935941017,-17.261557195715934,31.211357666482538,-0.0034913081817382337,-13.942807130064553,-9.000391859531273
-8.996637061127844,-17.388658070296906,31.779522726352795,-0.0034984705898472306,-14.3838713146061,-9.00041538609
-8.996636271219334,-17.3995238943142,31.827727526032447,-0.0034990774744113546,-14.421210290224572,-9.000417085364292
-8.99663932488471,-17.30241894449749,31.396146361301255,-0.00349354817636412,-14.086734075971883,-9.00039779779077
-8.996646461578814,-17.08301013948714,30.389097768991988,-0.003481096180823199,-13.299094290224863,-9.000352584996884
-8.996656580702519,-16.789808765068074,28.964795441984926,-0.0034645684769200095,-12.16799333985117,-9.000288118260634
-8.996667598299778,-16.495748150170613,27.4199834707109,-0.003448118983012639,-10.917241985905852,-9.000217400958494
-8.996675908389165,-16.292187781346467,26.259740599773234,-0.0034368041426129825,-9.960559485641454,-9.000163664380736
-8.996680700127483,-16.182243625072793,25.592933318903075,-0.0034307167915630125,-9.403696362117682,-9.000132511412948
-8.99676392617383,-16.133461937404306,25.29059311195859,-0.0034280544196705932,-9.15013783795025,-9.0001994079764
-9.046093633838797,-15.635942794836316,24.725857935827516,-0.0034207064193166924,-9.082918532921061,-9.049523738282028
-9.142098340554778,-14.687633517925661,23.660060570838734,-0.003406552776352427,-8.965424094037072,-9.145518880230497
-9.283789213958299,-13.332539681986047,22.160733202938676,-0.0033859729246082495,-8.821181228163349,-9.287197594909303
-9.457361152032657,-11.739698252245711,20.434041072165787,-0.0033611916078012,-8.687319156716386,-9.460757479143886
-9.611455251125392,-10.38260150168773,18.993308445676547,-0.0033395231383768864,-8.603673245041458,-9.614843177289922
-9.727786979432054,-9.391183669950696,17.958544716262207,-0.00332334191708292,-8.560319807723307,-9.731169838453603
-9.787537105249625,-8.89248709062543,17.443715879432826,-0.003315083881997862,-8.54418369002609,-9.790917752160805
-9.793832010853686,-8.851326797714632,17.46532995457763,-0.003314809343892053,-8.606957651500398,-9.797216434747007
-9.771610349022303,-9.081716088343947,17.962607216413232,-0.0033203354770155306,-8.87384705573854,-9.77501184722554
-9.724711002429537,-9.577256547903378,19.029211147529615,-0.0033323582095307314,-9.444913555545984,-9.728149199533597
-9.660012045951518,-10.2817148944505,20.538981681132736,-0.0033497782934954284,-10.250229928491645,-9.663502380315368
-9.582029065903042,-11.165007671858769,22.421769615347838,-0.003372178818653305,-11.249730143474837,-9.585584755094942
-9.512607281922495,-11.985146047430721,24.160304040012836,-0.0033935487698991728,-12.168130707236292,-9.516223676827682
-9.460534048560913,-12.622775347767838,25.505887943937466,-0.003410552813051271,-12.8760887045508,-9.464197681502782
-9.415870067047727,-13.185959643505301,26.690162680124242,-0.0034258608006940863,-13.497182060802896,-9.419575468365716
-9.387824368548308,-13.547701609205319,27.448819620018234,-0.0034358395629961506,-13.894098868252017,-9.391556626719154
-9.277557596834516,-13.68618002526258,27.690063506673823,-0.0034526562999720196,-13.996871558640796,-9.281300265748934
-8.673758646816731,-13.981590721122373,28.016707950431858,-0.0035361543628778243,-14.028145337508105,-8.677523492710332
-7.618929532960429,-14.527835646750384,28.62425407051584,-0.003681139674225036,-14.089518490564798,-7.622733559845173
-6.34792367696961,-15.239137127651773,29.422300798515877,-0.00385432620081359,-14.176353846470182,-6.351775827174688
-5.3861374672731674,-15.817729354539317,30.077224046084538,-0.003984277445958055,-14.252755499094018,-5.390026855574103
-4.797949080106744,-16.18938365266334,30.500633187403174,-0.004063285124750068,-14.30455456463483,-4.801861657009079
-4.3983533457989985,-16.44983757614521,30.79862919055299,-0.004116759727825439,-14.342127130212242,-4.402281878970996
-4.288483610150857,-16.505359946550293,30.80571398653595,-0.004130289112344714,-14.29369799901021,-4.292411937204239
-4.288491454325456,-16.39601295143186,30.314617108151694,-0.004122988730303269,-13.911948116453006,-4.292389967786636
-4.288507972617119,-16.17523145829526,29.28864859647845,-0.004108300059535484,-13.10676109939884,-4.29234392503012
-4.288531533652272,-15.88210453864858,27.843726168070887,-0.0040889316508189,-11.954965592732595,-4.292278702858453
-4.288556713058967,-15.597472684047407,26.32378877168945,-0.004070267144293549,-10.719660053168617,-4.292209504336104
-4.288575474911309,-15.40483031148556,25.207663367635867,-0.004057712241508522,-9.79617702331589,-4.292158223389553
-4.288586304816225,-15.30126441208231,24.569834660988082,-0.004050987711990643,-9.261914217013416,-4.292128713562584
-4.28967262765042,-15.236161453512842,24.27504734249665,-0.0040480752551371015,-9.03222977412725,-4.293197709882994
-4.3145018697081605,-14.715688350637816,23.691431578020108,-0.004044127039597063,-8.969085199619766,-4.31802169973716
-4.362246427684794,-13.735952205115279,22.60420233718366,-0.004036712036201051,-8.861588429731718,-4.365757227362218
-4.432325029947398,-12.344574908878007,21.085250909306826,-0.004026200900604072,-8.734008913706981,-4.435824885080562
-4.514008121334924,-10.78762403811081,19.420387016901035,-0.004014432210212118,-8.626089629697772,-4.517498320373816
-4.582884459281044,-9.525081523235729,18.097473480495548,-0.004004857717119118,-8.565713339105676,-4.586368828780928
-4.632020785731219,-8.650598991117786,17.19539233564272,-0.003998198694578965,-8.538110973825562,-4.635502157656715
-4.6653966440925485,-8.068471956469274,16.60135305674336,-0.003993750009146787,-8.526196183703252,-4.668876490538152
-4.676208105862979,-7.884212008995639,16.428185491512604,-0.003992473095626345,-8.537287741720476,-4.679688567453356
-4.668396636488187,-8.051564204086299,16.786184376521057,-0.003995593884537348,-8.727935026356214,-4.67189139428837
-4.648889140675263,-8.476170979845353,17.692534674704067,-0.0040036729899913005,-9.209680034530965,-4.652420114246731
-4.620007050556731,-9.121464089660185,19.065164577341868,-0.004016399329318231,-9.937019028573163,-4.6235929552910795
-4.584036336635358,-9.95475508437394,20.829457797371823,-0.004033640140945479,-10.868023997828642,-4.587693025080347
-4.547692892069324,-10.832223582977445,22.6778562260116,-0.00405277288218951,-11.83895670298531,-4.5514239948836375
-4.519598846816754,-11.536932599167251,24.155679352564356,-0.004068870000466427,-12.612072960448616,-4.5233896660109325
-4.497273900988597,-12.114466536782336,25.36259127359662,-0.004082550085276373,-13.241452651228165,-4.501113653671085
-4.481489640358989,-12.532616194094071,26.23415256592894,-0.004092728865953151,-13.694865494011953,-4.485364829266704
-4.474543169353548,-12.71930095242599,26.62266544221881,-0.004097347485245497,-13.896694143653553,-4.4784341827535155
-4.481927377687747,-12.578806361110919,26.47758801997208,-0.004096289234194338,-13.892110746724594,-4.485817801748099
-4.515152905955246,-11.94540696293785,25.792724726295884,-0.004090963064600555,-13.840644306131445,-4.519038298919611
-4.574439136091223,-10.84374349932561,24.616317982420764,-0.004081783654269687,-13.765896490545954,-4.578316893467378
-4.635193125237162,-9.750749018243138,23.467718910844965,-0.004072768470214418,-13.710287260479552,-4.639064697767434
-4.6711180456590915,-9.120777207698556,22.81415979108787,-0.004067608202631759,-13.686697211664,-4.6749866832352085
-4.67672972030595,-8.972384433076032,22.475839346626945,-0.004063427738005913,-13.496769114747808,-4.680583594880218
-4.676738422112812,-8.808519403409981,21.69236406067451,-0.004052551324259655,-12.877158859866956,-4.680544860530626
-4.6767522729563025,-8.56137488165481,20.450669483582114,-0.00403624584294218,-11.882608806773321,-4.680483059245866
-4.6767694306835095,-8.279386994843069,18.92248802885027,-0.004017783342494243,-10.63641524164553,-4.680406201947623
-4.676783780352745,-8.064895530866123,17.65364968144306,-0.004003838221926109,-9.58206836056391,-4.680341616395934
-4.676792981316832,-7.937958585754639,16.844837238942358,-0.003995624070345614,-8.900192864688039,-4.680300034133748
-4.676797320772103,-7.881078938372919,16.464752198594244,-0.003991952524482517,-8.576987472437631,-4.680280371210167
-4.877972233143769,-7.8953643443423775,16.425797232106298,-0.003965312955556875,-8.523731794709919,-4.881447470432864
-5.604012434001924,-7.989256594257055,16.521011868044972,-0.003870880355386088,-8.524999698038854,-5.6074737604432565
-6.758372956276255,-8.165861098548326,16.70046863249004,-0.0037193271118945424,-8.527767781706439,-6.7618119983890415
-8.0999834831124,-8.413733889096006,16.953146828661037,-0.0035410886590617357,-8.532479169977998,-8.103396392746184
-9.137522176762962,-8.637399632619493,17.181954116480203,-0.0034017551717192523,-8.537550854573055,-9.1409147243248
-9.712615693313133,-8.77351853013702,17.3215745938468,-0.003323985009402472,-8.541014788157733,-9.71599690367918
-9.789816765820456,-8.8931781569137,17.556007835426612,-0.003314573279146811,-8.655783405576976,-9.793203556351147
-9.754774817580625,-9.258667443090443,18.344150591235557,-0.0033233689657012904,-9.078439135128203,-9.75818867591072
-9.69931820369067,-9.851194972178078,19.61739562716694,-0.003337846949336161,-9.759160224274982,-9.702775914282613
-9.628630723924243,-10.632837229027228,21.288907127317163,-0.0033573670899485785,-10.649034044040054,-9.63214625159028
-9.549669736524013,-11.5434033499909,23.22512011575341,-0.0033807268733760357,-11.674686037259763,-9.553252617513966
-9.485875622974818,-12.310148373012227,24.846860403453253,-0.003400928714981996,-12.52968545362349,-9.489515257342848
-9.43827316931505,-12.901616498679482,26.092760896852944,-0.0034168516739751078,-13.18412092537701,-9.441956628156264
-9.39940821882437,-13.397553680315461,27.13412198277795,-0.003430436248861624,-13.72954736780464,-9.403128465208312
-9.388981127884442,-13.658906470574728,27.65998380942249,-0.003436002234614895,-13.99405708528087,-9.39271902933677
-9.538114175330087,-14.07077759662166,28.115488772423987,-0.0034161179443949847,-14.037681183929044,-9.5418499508726
-9.847398987223846,-14.943618108373252,29.089654161332057,-0.0033749508835192064,-14.138986030180217,-9.851130934721523
-10.249030327527915,-16.11588154998292,30.41655134376046,-0.00332165005005722,-14.293594094654024,-10.252758507364625
-10.55916826532437,-17.053059022107263,31.49263212781747,-0.003280637740880728,-14.432477839374652,-10.562894529103403
-10.740213766749106,-17.61378506596389,32.14295352149659,-0.003256765201897617,-14.522061871661526,-10.743939336968443
-10.839728637123601,-17.926419131239673,32.50763325795568,-0.0032436668880104053,-14.574101354722433,-10.84345396408608
-10.849700856305986,-17.91757594595079,32.368405750336876,-0.003240228345416559,-14.443716413521383,-10.85341771430172
-10.849699571362516,-17.758827032491986,31.6597962085394,-0.003231833896536772,-13.893855786508345,-10.853382295661921
-10.849697224322119,-17.501453939186423,30.461813526794867,-0.003218298868556157,-12.953246200332579,-10.85332193234068
-10.849693848056878,-17.18896024682327,28.906784831564508,-0.0032019874364139934,-11.710711200447664,-10.853242586769278
-10.84969045715578,-16.927490474421422,27.494761913716694,-0.0031884399839422865,-10.560158057757171,-10.853169463529637
-10.84968792022073,-16.759218076660492,26.514940757107215,-0.003179768555193469,-9.748609300849509,-10.853118060056875
-10.849686583888577,-16.6787125362052,26.021222522358507,-0.0031756327463392416,-9.335396607543649,-10.853091936588015
-10.866643102602668,-16.51423416424667,25.725070789442935,-0.0031720270203666194,-9.203722195862982,-10.870040196035674
-10.94937686679888,-15.823858536376063,24.93866445333086,-0.00315975940778126,-9.107686369506416,-10.952766416474088
-11.085723666357136,-14.714566600948096,23.69011161385174,-0.0031397364140332484,-8.968417065750293,-11.089101997031133
-11.272753702471416,-13.247284602692845,22.06732013434174,-0.0031126143452702526,-8.8128961339226,-11.27611888503916
-11.47642075194364,-11.715526527499891,20.408132052569023,-0.003083458671522394,-8.68545375238132,-11.479774218896202
-11.647314321361849,-10.479169978101726,19.09490200865959,-0.0030592480461410793,-8.60856994993696,-11.650659789586856
-11.762479855328976,-9.669631558388545,18.247661336873495,-0.0030430446500833673,-8.570860790478559,-11.765820778229317
-11.80620954317734,-9.366980099517168,17.933463389817252,-0.0030369132500455446,-8.559311687680585,-11.809548904112322
-11.796732877767795,-9.453792027895313,18.14708927147777,-0.0030393046792503335,-8.686126206405833,-11.800079702310109
-11.75557023118583,-9.812314828221178,18.924403307801096,-0.00304868536424102,-9.104919901899551,-11.75894199359735
-11.68904987280506,-10.406017824665126,20.206836541642616,-0.0030643753341104457,-9.79365412243053,-11.69246292663944
-11.60534431011037,-11.179366049549428,21.868842069308837,-0.0030851136345543,-10.682316452166221,-11.608811161031165
-11.513193726054057,-12.06702161962734,23.76532886019068,-0.003109358013339603,-11.691153226178498,-11.516722377804411
-11.438507868959848,-12.816491091198051,25.357806797028278,-0.0031302132887174607,-12.534166206856698,-11.442088774664196
-11.382095162722063,-13.401643239164157,26.595857513341077,-0.00314675114194586,-13.187068194517531,-11.385716930089115
-11.335327348688477,-13.89994339615368,27.646638094257245,-0.003161016917782536,-13.739551458822639,-11.33898396664856
-11.314052981188706,-14.130729929604104,28.13224498157518,-0.003167682133068906,-13.994373106452722,-11.31772575891687
-11.323818021745067,-14.069391620069808,28.11393062072867,-0.003166940640127892,-14.037396460374623,-11.327493076949846
-11.390570610966787,-13.556701460774542,27.547204318962113,-0.0031567915553889184,-13.983356259682672,-11.394240119925476
-11.52352269617042,-12.55857363054266,26.455616725000414,-0.003136791020617401,-13.889888444524292,-11.52718206692812
-11.679025969661108,-11.42789288180747,25.237759256508454,-0.0031137212491421464,-13.802702360975724,-11.682674885674677
-11.777081652868269,-10.734097809895296,24.500264631904958,-0.0030993331883455637,-13.758996933212577,-11.780724681241123
-11.809354654411774,-10.486340567438722,24.158455185817708,-0.003093472807049836,-13.664942800954142,-11.81299101818007
-11.809361450578503,-10.371624007025469,23.619187797884486,-0.0030875885959807162,-13.240391973918197,-11.81297265008371
-11.80937499147841,-10.153246839103764,22.552405039906688,-0.0030764349760153803,-12.391986384822472,-11.812936166470715
-11.809393907190152,-9.870774692394352,21.079018522867514,-0.0030621106010169444,-11.201072015826915,-11.812885408445142
-11.809412553169219,-9.618588947541475,19.64623091090293,-0.003049417798581513,-10.020470150024034,-11.812835553314445
-11.809425859420854,-9.454851094663635,18.635865997260485,-0.003041223485944869,-9.173843090190822,-11.812800049150406
-11.809433329395295,-9.368934442674082,18.07313830641249,-0.003036938005696865,-8.697032051854647,-11.812780134462791
-11.883731919414728,-9.367211343591581,17.93381051689687,-0.0030254926554891533,-8.559422926579504,-11.887069308077326
-12.463751757544888,-9.547695010957439,18.121004882571782,-0.002945320783301916,-8.56609943823777,-12.467077574726078
-13.489282540162115,-9.890009292128763,18.477412952755405,-0.0028027372039926314,-8.58013475308823,-13.492587844817848
-14.81248019695234,-10.376376413703754,18.986872987585517,-0.0026172625470735175,-8.603155966207982,-14.815758948509663
-15.897797689166826,-10.814063267757254,19.448424308576396,-0.002463928314604069,-8.626964803907825,-15.901054598732868
-16.545175601818556,-11.092200585694782,19.74324074125039,-0.002371975551307337,-8.643612107554814,-16.54841945859395
-16.69896551533081,-11.179194494060125,19.943441698508508,-0.0023508204852351272,-8.75681174823518,-16.702211193968406
-16.69895637110521,-11.28279379218411,20.614339771760342,-0.0023548314452981984,-9.32411052304444,-16.702227740081216
-16.698940905548895,-11.472343979255317,21.761833789816706,-0.0023622037866242902,-10.28205435348722,-16.70225584533999
-16.69892070580001,-11.74698157051155,23.28491963563449,-0.002372964971047293,-11.53050260733228,-16.702292828664895
-16.698902808890022,-12.015677524341141,24.65736905174272,-0.002383582727085212,-12.634256068966977,-16.70232590691626
-16.698890513457535,-12.213991870813382,25.61279651844351,-0.002391475531476307,-13.391369188747356,-16.70234882828704
-16.6988842279064,-12.319675975405342,26.105176303402992,-0.0023957011991460886,-13.778064868883764,-16.702360613947768
-16.69888270337096,-12.345714372817985,26.224974518648448,-0.002396744238700299,-13.871824686660325,-16.702363479243726
-16.69888270337096,-12.345714372817985,26.224974518648448,-0.002396744238700299,-13.871824686660325,-16.702363479243726
-16.69888270337096,-12.345714372817985,26.224974518648448,-0.002396744238700299,-13.871824686660325,-16.702363479243726
-16.69888270337096,-12.345714372817985,26.224974518648448,-0.002396744238700299,-13.871824686660325,-16.702363479243726
-16.69888270337096,-12.345714372817985,26.224974518648448,-0.002396744238700299,-13.871824686660325,-16.702363479243726
-16.69888270337096,-12.345714372817985,26.224974518648448,-0.002396744238700299,-13.871824686660325,-16.702363479243726
-16.698567885183436,-12.345481611364383,26.2244799518963,-0.0023967256726832227,-13.87156304391442,-16.702048603641938
-16.21665504541118,-11.989178394011658,25.46741419956048,-0.0023683054531180997,-13.471049338918078,-16.22004787608531
-15.737424346700367,-11.634858222991623,24.71456198331038,-0.0023400434095374703,-13.072764738782999,-15.740729778739645
-15.048526916227665,-11.12552053649328,23.632331736592946,-0.002299416527213406,-12.500227882592421,-15.051706712127324
-13.961085048634038,-10.321518227090673,21.924004156028175,-0.0022352859747759085,-11.596464099158283,-13.964066524737076
-12.861498401551504,-9.508536650798264,20.196597613746874,-0.0021704391988408016,-10.682606891710448,-12.864279342980717
-11.773186921577514,-8.70389139175124,18.48690390699362,-0.002106257362078118,-9.778120380746294,-11.77576938461648
-10.677110892168605,-7.893505397623851,16.76501240434376,-0.002041617620521138,-8.867180818099028,-10.679493460774854
-9.584423777590937,-7.085625004422717,15.048444751038794,-0.001977177736066195,-7.959057754044371,-9.586607069810286
-8.485874301760315,-6.273410262759941,13.322667563216067,-0.0019123921260355277,-7.046062530894392,-8.487857248457644
-7.396331719865017,-5.467854786056835,11.611039844696913,-0.0018481376865446678,-6.140552861485314,-7.398115963652619
-6.2985307689653895,-4.656193467791761,9.88643855953388,-0.001783396219855147,-5.2281797311053415,-6.300114803741546
-5.2067158708565975,-3.84895794957307,8.171241123336054,-0.0017190077732983217,-4.320781558816737,-5.208100788314397
-4.114187550970243,-3.041194961543044,6.45492293012537,-0.0016545772535658358,-3.412790467693494,-4.115373221000973
-3.020098025314942,-2.232277692920104,4.736152145237363,-0.0015900546636350111,-2.503501871595952,-3.021084163197167
-1.9216689612239937,-1.4201519779167413,3.0105641194305948,-0.0015252761547392324,-1.5906067216293407,-1.9224547755440238
-1.087934472021095,-0.8037287237421734,1.7008006596833918,-0.0014761076842470175,-0.8976970049849561,-1.0885682358644388
-0.607070685183031,-0.44820112576452764,0.9453829274527022,-0.0014477493312939967,-0.49805515905260855,-0.607616752560705
-0.12631764956198016,-0.09275541191963528,0.19013918094413954,-0.0014193975097583713,-0.09850535752455568,-0.12677604067199164
-0.0039080345534295655,-0.002251619401746587,-0.002161417071429811,-0.0014121785526185922,0.003228243218308197,-0.004344101481637148
-0.0039080345534295655,-0.002251619401746587,-0.002161417071429811,-0.0014121785526185922,0.003228243218308197,-0.004344101481637148
-0.0039080345534295655,-0.002251619401746587,-0.002161417071429811,-0.0014121785526185922,0.003228243218308197,-0.004344101481637148
-0.0039080345534295655,-0.002251619401746587,-0.002161417071429811,-0.0014121785526185922,0.003228243218308197,-0.004344101481637148
-0.0039080345534295655,-0.002251619401746587,-0.002161417071429811,-0.0014121785526185922,0.003228243218308197,-0.004344101481637148
-0.0039080345534295655,-0.002251619401746587,-0.002161417071429811,-0.0014121785526185922,0.003228243218308197,-0.004344101481637148
-0.0039080345534295655,-0.002251619401746587,-0.002161417071429811,-0.0014121785526185922,0.003228243218308197,-0.004344101481637148
-0.0039080345534295655,-0.002251619401746587,-0.002161417071429811,-0.0014121785526185922,0.003228243218308197,-0.004344101481637148
-0.0039080345534295655,-0.002251619401746587,-0.002161417071429811,-0.0014121785526185922,0.003228243218308197,-0.004344101481637148
-0.0039080345534295655,-0.002251619401746587,-0.002161417071429811,-0.0014121785526185922,0.003228243218308197,-0.004344101481637148
-0.0039080345534295655,-0.002251619401746587,-0.002161417071429811,-0.0014121785526185922,0.003228243218308197,-0.004344101481637148
-0.0039080345534295655,-0.002251619401746587,-0.002161417071429811,-0.0014121785526185922,0.003228243218308197,-0.004344101481637148
-0.0039080345534295655,-0.002251619401746587,-0.002161417071429811,-0.0014121785526185922,0.003228243218308197,-0.004344101481637148
