RAMEL-ESPOL/ARCHIE/matlab/joint_goals_triangle_45.txt
Joint0,Joint1,Joint2,Joint3,Joint4,Joint5 
0.002615403438483916,0.005024938398658527,-0.001956725562780548,0.0017490089233272467,-0.001364800539898317,0.004333691200788906
0.002615403438483916,0.005024938398658527,-0.001956725562780548,0.0017490089233272467,-0.001364800539898317,0.004333691200788906
0.002615403438483916,0.005024938398658527,-0.001956725562780548,0.0017490089233272467,-0.001364800539898317,0.004333691200788906
0.002615403438483916,0.005024938398658527,-0.001956725562780548,0.0017490089233272467,-0.001364800539898317,0.004333691200788906
0.002615403438483916,0.005024938398658527,-0.001956725562780548,0.0017490089233272467,-0.001364800539898317,0.004333691200788906
0.002615403438483916,0.005024938398658527,-0.001956725562780548,0.0017490089233272467,-0.001364800539898317,0.004333691200788906
0.002615403438483916,0.005024938398658527,-0.001956725562780548,0.0017490089233272467,-0.001364800539898317,0.004333691200788906
0.002615403438483916,0.005024938398658527,-0.001956725562780548,0.0017490089233272467,-0.001364800539898317,0.004333691200788906
0.002615403438483916,0.005024938398658527,-0.001956725562780548,0.0017490089233272467,-0.001364800539898317,0.004333691200788906
0.002615403438483916,0.005024938398658527,-0.001956725562780548,0.0017490089233272467,-0.001364800539898317,0.004333691200788906
0.002615403438483916,0.005024938398658527,-0.001956725562780548,0.0017490089233272467,-0.001364800539898317,0.004333691200788906
0.002615403438483916,0.005024938398658527,-0.001956725562780548,0.0017490089233272467,-0.001364800539898317,0.004333691200788906
0.002615396530747925,0.0051555056168854614,-0.0020009124713512142,0.0017490286138839262,-0.0013236551191146016,0.004333755540954819
0.002600371800171553,0.28891817803431175,-0.09736709757754962,0.0017915962719879856,0.08774353910654528,0.004473793599206589
0.002557895528900739,1.0882123044513956,-0.35769669857082836,0.0019086752653764115,0.3342673187724429,0.004870876473381827
0.002493444108208433,2.292526864200788,-0.7271298445154436,0.0020772661209889722,0.6940769255500379,0.005476664939444275
0.002413557287581565,3.769879332131119,-1.1419142930535264,0.002270800528840641,1.1167916455789968,0.006233077742461323
0.0023225140633452617,5.43083289561478,-1.555947775799208,0.0024700937514964,1.568241606008473,0.007102684680942211
0.0022290454208313,7.108481484917162,-1.9154928326619223,0.002650610296982672,1.9996520879571682,0.00800387978942037
0.0021357925306246532,8.751983197077667,-2.2076281768616806,0.002805877782171801,2.39942696785128,0.008911493441008826
0.002042221113344843,10.368303431310792,-2.4335712865194163,0.002936257013841524,2.771683489482556,0.009830687180128715
0.0019474249854522833,11.969905294358046,-2.593540733813213,0.0030419003276107785,3.1213249888143455,0.010770479087836722
0.0018518795029430443,13.545316342456267,-2.684347835004919,0.00312099101586189,3.4478882560093154,0.01172628863271278
0.001755453884809007,15.093416385254624,-2.7040889715414105,0.0031724705813309583,3.7534056637404984,0.012699477910186047
0.0016574488599559979,16.62154245532473,-2.6498811252141965,0.0031951297218916256,4.0415166059034915,0.013697243289935863
0.0015582277856855615,18.119878937507576,-2.5185295203701936,0.00318712784699794,4.312650019890174,0.014716033048978585
0.0014570666479430737,19.59479202508407,-2.3050974999481846,0.0031463819571013636,4.570335665051988,0.01576345728490413
0.0013544069858780988,21.03490141640769,-2.0060149860624383,0.003070798133855326,4.815078357065628,0.01683513895101513
0.00125017705194733,22.436441860345617,-1.616836209874278,0.002958130119286611,5.048920757106456,0.017931951368832785
0.0011435498915975753,23.804772010397862,-1.1288390271528208,0.002804673126374219,5.275529954564372,0.019062812746885666
0.0010344190777022832,25.134321104395397,-0.5343039256186024,0.0026067519179157114,5.49692091751296,0.020229153599282613
0.000922428079458016,26.42163830422534,0.17706193964393824,0.0023596886752210427,5.715693175751208,0.021435087467651243
0.0008071264569907157,27.662686195174437,1.0182920266012578,0.0020576529443222706,5.9346397364081,0.022685776180520582
0.0006872267570731888,28.859346020397517,2.01239904361396,0.0016909314105169745,6.158106283359021,0.0239955315191283
0.0005622915734947129,30.000746348846366,3.1805216238089202,0.0012501799434344895,6.38881188346847,0.025369348385005763
0.00045128543247506157,30.921183780748294,4.334304506844569,0.0008071140730873883,6.593564504600968,0.02659666202086172
0.0003702705153214634,31.535410493899104,5.246563026749125,0.0004526404887426364,6.743459974821676,0.027495520248768533
0.000327055609606091,31.842679391807565,5.757735667368896,0.0002527122733660783,6.823669766398133,0.02797578576601686
0.00030136399690506264,32.01851832308809,6.069793302611055,0.00013026143904370748,6.871447749520991,0.028261495363633878
0.00029356865311400826,31.998429796994262,5.892902553817038,0.0001252816665586733,7.108021375688793,0.028278281988240662
0.0002748036673825168,31.881210644619077,5.238422571527474,0.00013852341660045787,7.879720510406713,0.028264362989118625
0.000247911151992552,31.67733426672523,4.254442039335678,0.00015755270927964,9.06757742056724,0.028243864043430406
0.0002243070553055678,31.4566219277295,3.34343804393589,0.00017432856389301902,10.199293755027474,0.02822526824867416
0.00021035842441119305,31.304559352867543,2.7833356886419094,0.00018428593338751568,10.911458685221346,0.028213983210920432
0.00019963888772120435,31.175170902231343,2.3414480866390655,0.00019196602003645872,11.482734737889444,0.028205145913482024
0.00019329183238021188,31.093034846006592,2.075074278550561,0.00019652638484741162,11.83124460221988,0.028199842493094204
0.26911970713520117,31.20880324016271,1.8882515483477094,-0.19413645021195985,11.902100172040958,0.25841727907404394
1.1270145691624727,31.612648681176267,1.4411290165820876,-0.8141769310223392,11.939050340613017,0.9934930007476744
2.4253713236140566,32.20109924507233,0.7883725328634411,-1.7525903003689445,11.978965258953199,2.107452603883581
4.1540003341921405,32.944854127156354,-0.039546443353027066,-3.0013933861893562,12.00293782297875,3.592693774249115
6.217244219354984,33.77788399281417,-0.9721612317328726,-4.489749378590106,11.989044197648486,5.367434249325304
8.50292165522026,34.63793988177389,-1.9430870109622753,-6.1338898923180665,11.921506887088531,7.334405063346822
10.673315567619728,35.399159980777526,-2.8115564103012387,-7.688575668755342,11.807988350500528,9.201495135343368
12.523222619975808,36.009215444069866,-3.5154329491355463,-9.007256714835453,11.6743964831636,10.791324396246972
13.95128183076197,36.45755878115186,-4.0381393782658215,-10.020424635869574,11.548620073753922,12.017114937499413
14.915906580297426,36.749780379808456,-4.381704739813986,-10.702117130757754,11.452580496584828,12.84417910385068
15.947205381114818,37.05330184224852,-4.741190296784457,-11.428380652282355,11.340338899286165,13.727471273939143
16.80424107480514,37.29865371623628,-5.0339702732614695,-12.029751708606321,11.239486784315936,14.460681321380058
17.404304954474373,37.46684409998116,-5.235892499187881,-12.449576442367484,11.164833814184382,14.973566105900195
17.544347797945125,37.53643660917005,-5.313027766382616,-12.547380394947696,11.146524979103877,15.093114337069956
17.23328233190511,37.56447932999674,-5.322055606438199,-12.329946291478278,11.184651458055328,14.82703633560155
16.316271889356702,37.643692065663316,-5.347481656267276,-11.687416043860168,11.29340291098912,14.042401269660804
14.883761812749432,37.75735407646701,-5.383771635772999,-10.679301131144449,11.452223879284126,12.815928467064055
12.991965716548613,37.88940089251775,-5.425645586308971,-9.340490325064666,11.640936970019181,11.194811769906769
10.733741784947922,38.02142145794983,-5.467204777741146,-7.732612166799097,11.834257795789782,9.257650108071909
8.153895517372181,38.13950032768019,-5.504113462236962,-5.884880086227132,12.011258976901157,7.04209063220399
5.359893533021334,38.229834347513496,-5.532183550010911,-3.8738290336162082,12.149346645011276,4.64014239789094
2.3209790530626875,38.28510278071843,-5.549286083747854,-1.678773897882386,12.235007808758146,2.025616318888759
-0.9069372752495576,38.29585263421661,-5.552606303707103,0.6565680777841064,12.251774551824438,-0.7525405477412312
-4.115420394233058,38.257753688116715,-5.540829778973433,2.976308924560045,12.192508958194043,-3.513551642260261
-7.094410786152068,38.17819916624089,-5.5161561847327985,5.123975225869005,12.070129645557415,-6.075433165161458
-9.792945500074426,38.06832256629233,-5.481894046474802,7.060631269216257,11.904098549414481,-8.393879405261302
-12.107324983196461,37.94426132575206,-5.442952153365072,8.712415157531172,11.72069466879124,-10.380094630681958
-13.893157948642644,37.82890623345608,-5.406499716840139,9.979879149869872,11.553902077279998,-11.911153247942664
-15.215623527334674,37.731916018930775,-5.375667989735678,10.913878978167718,11.416394094304025,-13.044026895376891
-16.307824379864954,37.644226834454074,-5.347651383099192,11.682060040702853,11.294137974896737,-13.979057600585461
-17.180689494188417,37.56894430617809,-5.323489110161125,12.293704625347667,11.19074501757143,-14.725928204369053
-17.525949503293322,37.53790890676261,-5.3134997456085316,12.535078638712871,11.148520693946347,-15.021261639916737
-17.428160560436023,37.47346861086859,-5.243962059645444,12.466880829925604,11.161776889978952,-14.937864379898867
-16.785670303686345,37.293526514190305,-5.027879669562009,12.017423999513595,11.24186842071729,-14.388738452263059
-15.594052660880697,36.95049210888617,-4.619158478918953,11.18066762187948,11.379988489831064,-13.369052249282346
-13.923864170123668,36.44920676076661,-4.028412390293799,10.001685091403722,11.551289173869119,-11.937528525950357
-11.890017176156455,35.804346231684036,-3.2782159251803926,8.557309257432772,11.723996864367061,-10.191293990553673
-9.565532459363496,35.017101212158074,-2.374494019329302,6.896640182559483,11.871898484534292,-8.192628099656215
-7.514387464479298,34.273756741422815,-1.5308277495904403,5.4242274242519875,11.957421889709222,-6.427636598139423
-5.771155502294687,33.60262481767334,-0.7754246936831158,4.168907719686562,11.995960952806428,-4.927540120047314
-4.4310430358145245,33.06008722691397,-0.16821578690204184,3.2020841102631654,12.003758490332277,-3.774834682282955
-3.5280093815136246,32.68058397015638,0.2550319225825966,2.54996671417293,11.998082488084636,-2.998546735943936
-2.4269485117022893,32.20184673496475,0.7875146902919636,1.754402466540449,11.979040542136374,-2.0527401186182224
-1.561913761990824,31.812779658050708,1.2192881682689984,1.1291928276258143,11.954582018309978,-1.310376783299314
-0.8658162835505865,31.491080312416734,1.5757672680560615,0.6260591355877322,11.92876465755703,-0.7135275225567496
-0.32427764756848604,31.235162707664035,1.8590627401870008,0.23467089256885304,11.90475074104046,-0.24958546024832076
0.0007236168105021499,31.0880011805165,2.058991751560338,-0.0001927924293140574,11.852592753588281,0.028681911572912402
0.0006985120001383563,31.170580241839563,2.3256962292332357,-0.00017415726610689477,11.503309214829736,0.028657994821319557
0.0006310287938102383,31.370079955036264,3.0185624589214526,-0.00012293823376686823,10.61088592701905,0.028588246079489937
0.0005259483024256742,31.63105026874922,4.052121035448248,-4.479947250199203e-05,9.31629900536961,0.028487045011333867
0.00041866969114483476,31.84463363790364,5.049337159297428,3.416682237756299e-05,8.105441355547747,0.028387885227110887
0.00034562129404789015,31.96483885358597,5.697651651744176,8.732507955181467e-05,7.336892667498538,0.028323671531962632
0.00030583856725874877,32.022795858457805,6.040486781938195,0.00011615946679586078,6.936085673417572,0.028289445147080112
0.00029953509600034973,32.03138452850481,6.0929910883396445,0.00012102493670672279,6.874978550655995,0.02828267331303625
0.00029953509600034973,32.03138452850481,6.0929910883396445,0.00012102493670672279,6.874978550655995,0.02828267331303625
0.00029953509600034973,32.03138452850481,6.0929910883396445,0.00012102493670672279,6.874978550655995,0.02828267331303625
0.00029953509600034973,32.03138452850481,6.0929910883396445,0.00012102493670672279,6.874978550655995,0.02828267331303625
0.00029953509600034973,32.03138452850481,6.0929910883396445,0.00012102493670672279,6.874978550655995,0.02828267331303625
0.00029953509600034973,32.03138452850481,6.0929910883396445,0.00012102493670672279,6.874978550655995,0.02828267331303625
0.00029942295960326564,32.03008256227687,6.092743265837778,0.00012120715892035163,6.8746992912375315,0.028281429398472696
0.0002019374053130226,30.898220805532443,5.877299265598218,0.00027962167875091043,6.631925669937372,0.0272000347409782
0.00010476913665113714,29.770042912221093,5.66255646960876,0.00043752060782721483,6.389942202435319,0.026122159691962143
7.93820954030009e-06,28.645781742811792,5.448559201648907,0.0005948713551732384,6.148798835095378,0.025048026729183485
-8.97032127992758e-05,27.512110270921134,5.232770731540942,0.0007535391613739857,5.905637047045211,0.023964903047557665
-0.00023428337013305282,25.83345385806457,4.913247211589315,0.0009884826498509167,5.545581153434922,0.022361094043661902
-0.0003823312470388423,24.114535283339492,4.586059998470606,0.001229061200208625,5.176889407628066,0.020718818074622787
-0.0005304487978852121,22.394807755232982,4.258718805281925,0.0014697529710729208,4.808024148986532,0.019075769221563482
-0.0006783493177302618,20.67760007832094,3.9318572526660507,0.001710092065460042,4.439699374548105,0.017435127865358935
-0.0008260130456628962,18.963141687822876,3.605519012424061,0.0019500463717893007,4.071964295993237,0.015797113211242594
-0.0009744890746554517,17.239252028134402,3.277385579129909,0.002191320671458107,3.702206299567732,0.014150087806427125
-0.00112252300877875,15.52049533690478,2.95022917969284,0.0024318765647235977,3.3335492762366408,0.012507966502872614
-0.001270546305941738,13.801862146727904,2.623096288039014,0.0026724151728746708,2.9649187427110704,0.010865963193744409
-0.0014181291174735846,12.088343240856178,2.2969368738107634,0.002912237989642521,2.597385174705997,0.009228846134806687
-0.0015665390255811954,10.36522128158789,1.9689495682999063,0.0031534048425381567,2.227791842745892,0.007582554200424331
-0.0017147591235349767,8.644303124264678,1.6413817450305455,0.00339426325297176,1.8586712054197791,0.005938367805552768
-0.0018624993546772117,6.928956488755902,1.31487443196923,0.003634341877404379,1.4907456067271236,0.004299504511217414
-0.002010565258899034,5.20982860681867,0.9876473783109878,0.003874949722242012,1.1220089665066544,0.0026570285674908816
-0.00212643374744804,3.8645307116050334,0.7315769188828475,0.004063236603417601,0.8334553160256036,0.0013717143955490117
-0.002223382328469136,2.738903514556838,0.5173196346646418,0.004220778538964127,0.5920189487015991,0.00029627631314608284
-0.0023204613341101634,1.6117620147946226,0.30277411079849526,0.004378532415179106,0.350257777794969,-0.0007806085527134061
-0.0024176560037863807,0.48327759095494444,0.08797296831678676,0.004536474246037514,0.1082085623992714,-0.0018587764647701307
-0.002459139595888013,0.0016299071101409236,-0.003706163958264244,0.004603885293463692,0.004899698307805327,-0.0023189485917995824
-0.002459139595888013,0.0016299071101409236,-0.003706163958264244,0.004603885293463692,0.004899698307805327,-0.0023189485917995824
-0.002459139595888013,0.0016299071101409236,-0.003706163958264244,0.004603885293463692,0.004899698307805327,-0.0023189485917995824
-0.002459139595888013,0.0016299071101409236,-0.003706163958264244,0.004603885293463692,0.004899698307805327,-0.0023189485917995824
-0.002459139595888013,0.0016299071101409236,-0.003706163958264244,0.004603885293463692,0.004899698307805327,-0.0023189485917995824
-0.002459139595888013,0.0016299071101409236,-0.003706163958264244,0.004603885293463692,0.004899698307805327,-0.0023189485917995824
-0.002459139595888013,0.0016299071101409236,-0.003706163958264244,0.004603885293463692,0.004899698307805327,-0.0023189485917995824
-0.002459139595888013,0.0016299071101409236,-0.003706163958264244,0.004603885293463692,0.004899698307805327,-0.0023189485917995824
-0.002459139595888013,0.0016299071101409236,-0.003706163958264244,0.004603885293463692,0.004899698307805327,-0.0023189485917995824
-0.002459139595888013,0.0016299071101409236,-0.003706163958264244,0.004603885293463692,0.004899698307805327,-0.0023189485917995824
-0.002459139595888013,0.0016299071101409236,-0.003706163958264244,0.004603885293463692,0.004899698307805327,-0.0023189485917995824
-0.002459139595888013,0.0016299071101409236,-0.003706163958264244,0.004603885293463692,0.004899698307805327,-0.0023189485917995824
-0.002459139595888013,0.0016299071101409236,-0.003706163958264244,0.004603885293463692,0.004899698307805327,-0.0023189485917995824
