RAMEL-ESPOL/ARCHIE/matlab/joint_goals_square_t0_h25_p12.txt
Joint0,Joint1,Joint2,Joint3,Joint4,Joint5 
0.003806276095321957,0.002165776026120962,0.003419639430232699,0.0008892152603989949,-0.0035992024408057753,-0.0031207633561927905
0.003806276095321957,0.002165776026120962,0.003419639430232699,0.0008892152603989949,-0.0035992024408057753,-0.0031207633561927905
0.003806276095321957,0.002165776026120962,0.003419639430232699,0.0008892152603989949,-0.0035992024408057753,-0.0031207633561927905
0.003806276095321957,0.002165776026120962,0.003419639430232699,0.0008892152603989949,-0.0035992024408057753,-0.0031207633561927905
0.003806276095321957,0.002165776026120962,0.003419639430232699,0.0008892152603989949,-0.0035992024408057753,-0.0031207633561927905
0.003806276095321957,0.002165776026120962,0.003419639430232699,0.0008892152603989949,-0.0035992024408057753,-0.0031207633561927905
0.003806276095321957,0.002165776026120962,0.003419639430232699,0.0008892152603989949,-0.0035992024408057753,-0.0031207633561927905
0.003806276095321957,0.002165776026120962,0.003419639430232699,0.0008892152603989949,-0.0035992024408057753,-0.0031207633561927905
0.003806276095321957,0.002165776026120962,0.003419639430232699,0.0008892152603989949,-0.0035992024408057753,-0.0031207633561927905
0.003806276095321957,0.002165776026120962,0.003419639430232699,0.0008892152603989949,-0.0035992024408057753,-0.0031207633561927905
0.003806276095321957,0.002165776026120962,0.003419639430232699,0.0008892152603989949,-0.0035992024408057753,-0.0031207633561927905
0.0038276867141504556,0.002169064895612793,0.0035213167344956223,0.0008892142767540453,-0.003704168439467848,-0.003099351493965613
0.05835255014453986,0.009917831011247637,0.2629920340466063,0.0008867134067033353,-0.2709232066575695,0.051428670631826524
0.2202561063157164,0.023568748301828514,1.0415132270931842,0.0008793697626454138,-1.063094008986319,0.21334145516128078
0.46957180412449995,0.01859200192165684,2.263051249917093,0.0008682944716422505,-2.279653312386728,0.4626709327904484
0.778291111050899,-0.030879086543424757,3.814234146389269,0.000854949733974058,-3.7813627464352537,0.7714066062077645
1.1266896255817644,-0.14386073958397913,5.617147577809773,0.0008403472740266077,-5.471291937924072,1.1198227068621673
1.492417227235,-0.3271626858162897,7.5710078506137455,0.0008255003717660009,-7.241847654123677,1.4855678140616155
1.8524029877427395,-0.572014225213988,9.557478087368919,0.0008113314618419587,-8.983463887306517,1.8455699020455272
2.177989851936876,-0.848613158385725,11.410355646862397,0.0007988701984140028,-10.559740374989982,2.1711708015806073
2.452715695402605,-1.1229269306422949,13.017009566078297,0.0007886010858247474,-11.892078783970529,2.445907973408549
2.662067635993267,-1.3572664675668291,14.268884883765946,0.0007809192465943816,-12.909613281210532,2.655268243965512
2.8029664498351803,-1.5274614148300745,15.125335235883442,0.0007758171132960523,-13.59586784223705,2.7961725208098747
2.8617961493270845,-1.601456156382536,15.486250256603121,0.0007737023545069108,-13.88278777375516,2.855004468546392
2.8622381609161995,-1.4020686276792484,14.554231987139868,0.0007719440474499124,-13.150157030370638,2.8554390757989054
2.8622381609161995,-1.4020686276792484,14.554231987139868,0.0007719440474499124,-13.150157030370638,2.8554390757989054
2.862236200350832,-1.1537933226145285,13.332825647154404,0.0007697940113595128,-12.177025995436319,2.8554273550686986
2.8622336301287117,-0.8618225217225037,11.788621505125256,0.0007672866698327749,-10.924792654282284,2.8554123301637597
2.862231445473177,-0.641766075200866,10.522425833978394,0.0007654115725094251,-9.878653429643352,2.8553998221019024
2.8622299775119,-0.5077284375292237,9.693754047535892,0.0007642754376314262,-9.184019280863586,2.855391536457306
2.862229278819121,-0.4476665909710688,9.305196471128493,0.0007637677542184203,-8.855523551010183,2.85538762307266
2.877699034368781,-0.05912919258597863,8.952658490035281,0.0007630970111162647,-8.891522877507777,2.870857618569859
2.9144594331926372,0.8450426839510176,8.150397229222111,0.0007615284523961323,-8.993433278244629,2.907618743641881
2.9706193690518665,2.1821023842751144,6.98681608109576,0.0007591609300798961,-9.16691150411191,2.9637799506554154
3.0373164340304415,3.70504296514467,5.69436514014941,0.0007563907509337386,-9.397400759777108,3.0304787427682705
3.0912014008176882,4.887164462769884,4.715286932331061,0.000754183075518329,-9.600443741761485,3.0843652504452383
3.129070051537197,5.693529949148828,4.059516988280981,0.0007526467448263376,-9.751039069166652,3.122235050453733
3.161248032009233,6.36362222489356,3.521995770689252,0.0007513505794514579,-9.88360994560163,3.154414045230049
3.1716170767358958,6.741245296657799,3.2220128233346754,0.0007509909662769715,-9.96125001157956,3.164783750165932
2.808985229657368,6.762836837066087,3.2049358987103784,0.0007680513486889446,-9.965766701167642,2.802154897444721
1.92329930906697,6.804242545235248,3.172213015045701,0.0008096587504470971,-9.974455037156215,1.9164762669582478
0.6004314540247795,6.837181776039602,3.146215108311538,0.0008716238148322681,-9.981405771251875,0.5936192244989358
-0.8912879547746223,6.832938532848538,3.1496051548270265,0.000941198171285629,-9.980564870401814,-0.8980881340097671
-2.1356579260202273,6.795733443704126,3.17904262139211,0.0009989552114446241,-9.972808869218435,-2.142448198225462
-2.9222239126555736,6.756448680241727,3.2101347584134894,0.0010353173494032448,-9.964624223616752,-2.9290080020511637
-3.178213977673806,6.702917498348422,3.252508228121039,0.0010471050648456787,-9.953469214875751,-3.1849961871809547
-3.1553868841547397,6.234078707307887,3.6253978840090517,0.0010458074298290393,-9.857519835303794,-3.1621706966035714
-3.108328643185527,5.24552230203451,4.422677759953674,0.0010431580022022674,-9.666242803407805,-3.1151156500369725
-3.04427519835132,3.850918633840662,5.572447654420577,0.0010396081941049392,-9.421408348439614,-3.0510662967492093
-2.980754891616122,2.4084856278933007,6.792502239923548,0.001036154862290911,-9.199029255644758,-2.9875497190869678
-2.9362969363508102,1.3613528320699069,7.697906174974759,0.0010337793661527757,-9.057299926202496,-2.9430941551660172
-2.9020665880452943,0.5328546349944943,8.426023965617288,0.001031974621359309,-8.956919159987988,-2.9088655130354732
-2.8751675870925286,-0.13244586770032,9.018281383626531,0.0010305718280683366,-8.883875793234267,-2.881967763730061
-2.8572577831883876,-0.4467968042343742,9.30042083631266,0.001029675370987907,-8.851664121897112,-2.8640585535093104
-2.4865929900577255,-0.4248949198947599,9.280721906329955,0.0010126077984613806,-8.853863237997219,-2.4933963564448276
-1.6091240413319219,-0.3853709315960079,9.245197671242346,0.0009721034141755389,-8.857854337559493,-1.6159335900391185
-0.3298759716733643,-0.358142617903973,9.220755856661278,0.0009128146679169783,-8.860629322624392,-0.3366946173272167
1.0850656544095365,-0.3699041959120421,9.231362645069568,0.0008469423748284517,-8.859463324714396,1.0782368479740225
2.158505912957473,-0.4081501531151278,9.265777928224797,0.0007967875955610227,-8.855625220237771,2.151669341821192
2.7546270490339895,-0.4403515548869041,9.294763426842643,0.0007688749953634904,-8.852405591921066,2.747786148949481
2.8622405865029377,-0.4685975957252411,9.442739178829532,0.0007640130296423913,-8.972134660953765,2.855400080622946
2.862240590500413,-0.5779163932248514,10.134410447507742,0.0007649253439709344,-9.554487132147003,2.8554057880386385
2.862240578830129,-0.7749466182557497,11.301163983152101,0.0007665785911142526,-10.524210442785053,2.855415317081849
2.8622405287693473,-1.0536589118976873,12.817876737417572,0.0007689366600449295,-11.762210903440414,2.8554275346506026
2.862240451290206,-1.3201755994429207,14.158911471363213,0.0007712126785648539,-12.836728949868876,2.8554381935636246
2.8622403812414645,-1.510103116050532,15.063821403101935,0.0007728471857518743,-13.551711365018889,2.8554453175671513
2.862240348531851,-1.5897909744537158,15.432745082854636,0.0007735360961419322,-13.84094718637611,2.8554482072200957
2.862240343385809,-1.602022761826405,15.488978170534187,0.0007736419644984734,-13.884948486684147,2.855448647126999
2.862240343385809,-1.602022761826405,15.488978170534187,0.0007736419644984734,-13.884948486684147,2.855448647126999
2.862240343385809,-1.602022761826405,15.488978170534187,0.0007736419644984734,-13.884948486684147,2.855448647126999
2.862240343385809,-1.602022761826405,15.488978170534187,0.0007736419644984734,-13.884948486684147,2.855448647126999
2.862240343385809,-1.602022761826405,15.488978170534187,0.0007736419644984734,-13.884948486684147,2.855448647126999
2.862240343385809,-1.602022761826405,15.488978170534187,0.0007736419644984734,-13.884948486684147,2.855448647126999
2.862207049045636,-1.6020041599178425,15.48879774659007,0.0007735763209668222,-13.884786761836205,2.8554154453778766
2.7030361197957027,-1.513073637300818,14.626241327231364,0.00045975295405273727,-13.111625491895413,2.6966871680449978
2.544433193988775,-1.4244604643611045,13.766762951195592,0.00014704946973117614,-12.341223257573716,2.5385253145462467
2.3847397686429783,-1.335238017514641,12.901375095445205,-0.0001678040569286346,-11.565524000659298,2.379275994171147
2.0653466338666875,-1.156789612835511,11.17056533012806,-0.0007975235000271406,-10.014094962343808,2.060771086812193
1.7513768132655583,-0.9813712725417951,9.469144816215227,-0.0014165502700206867,-8.489009280159458,1.74767441147472
1.4344921497040164,-0.8043243779069216,7.7519286006703565,-0.0020413239803391604,-6.949764959236422,1.4316709993104757
1.1160618645758862,-0.6264139277576549,6.0263365729690666,-0.0026691450571980405,-5.403012893407315,1.1141262639295537
0.7992136483237117,-0.4493873966293922,4.309317867489705,-0.0032938469075519177,-3.863945612651911,0.798159197715268
0.48238181389699575,-0.27237001820449275,2.5923879360646067,-0.0039185164592967095,-2.3249579054281537,0.4822084677688352
0.322683510721802,-0.1831448460618986,1.726973647076196,-0.004233379603145111,-1.5492349548104358,0.32295428312950714
0.1634116906861563,-0.09415795466985408,0.8638704947475941,-0.004547401887576434,-0.7755836151793168,0.1641253955866462
0.0053631690467235045,-0.005854533344890494,0.007396466778679153,-0.004859012301804766,-0.007874358980075295,0.006516404465889241
0.003637411620924439,-0.004890333974378936,-0.0019555119582269557,-0.004862414826426526,0.0005083828260333909,0.0047954463450669005
0.003637411620924439,-0.004890333974378936,-0.0019555119582269557,-0.004862414826426526,0.0005083828260333909,0.0047954463450669005
0.003637411620924439,-0.004890333974378936,-0.0019555119582269557,-0.004862414826426526,0.0005083828260333909,0.0047954463450669005
0.003637411620924439,-0.004890333974378936,-0.0019555119582269557,-0.004862414826426526,0.0005083828260333909,0.0047954463450669005
0.003637411620924439,-0.004890333974378936,-0.0019555119582269557,-0.004862414826426526,0.0005083828260333909,0.0047954463450669005
0.003637411620924439,-0.004890333974378936,-0.0019555119582269557,-0.004862414826426526,0.0005083828260333909,0.0047954463450669005
0.003637411620924439,-0.004890333974378936,-0.0019555119582269557,-0.004862414826426526,0.0005083828260333909,0.0047954463450669005
0.003637411620924439,-0.004890333974378936,-0.0019555119582269557,-0.004862414826426526,0.0005083828260333909,0.0047954463450669005
0.003637411620924439,-0.004890333974378936,-0.0019555119582269557,-0.004862414826426526,0.0005083828260333909,0.0047954463450669005
0.003637411620924439,-0.004890333974378936,-0.0019555119582269557,-0.004862414826426526,0.0005083828260333909,0.0047954463450669005
0.003637411620924439,-0.004890333974378936,-0.0019555119582269557,-0.004862414826426526,0.0005083828260333909,0.0047954463450669005
0.003637411620924439,-0.004890333974378936,-0.0019555119582269557,-0.004862414826426526,0.0005083828260333909,0.0047954463450669005
0.003637411620924439,-0.004890333974378936,-0.0019555119582269557,-0.004862414826426526,0.0005083828260333909,0.0047954463450669005
