RAMEL-ESPOL/ARCHIE/matlab/data/3_joint_real_states_precision_x0_y30_z22.txt
Joint0,Joint1,Joint2,Joint3,Joint4,Joint5 
-12.83203125,39.90234375,-37.96875,-0.17578125,-1.9335937499999998,-10.8984375
-12.83203125,39.90234375,-37.96875,-0.17578125,-1.9335937499999998,-10.986328124999998
-12.83203125,39.90234375,-37.96875,-0.17578125,-1.9335937499999998,-10.986328124999998
-12.83203125,39.90234375,-37.96875,-0.17578125,-1.9335937499999998,-10.986328124999998
-12.83203125,39.90234375,-37.96875,-0.17578125,-1.9335937499999998,-10.8984375
-12.83203125,39.90234375,-37.96875,-0.17578125,-1.9335937499999998,-10.986328124999998
-12.83203125,39.90234375,-37.96875,-0.17578125,-1.9335937499999998,-10.986328124999998
-12.83203125,39.90234375,-37.96875,-0.17578125,-1.9335937499999998,-10.8984375
-12.83203125,39.90234375,-37.96875,-0.17578125,-1.9335937499999998,-10.8984375
-12.83203125,39.90234375,-37.96875,-0.17578125,-1.9335937499999998,-10.986328124999998
-12.744140625,39.90234375,-37.96875,-0.17578125,-1.9335937499999998,-10.8984375
-12.744140625,39.90234375,-37.96875,-0.17578125,-1.9335937499999998,-10.986328124999998
-12.744140625,39.90234375,-37.96875,-0.17578125,-1.9335937499999998,-10.986328124999998
-12.744140625,39.90234375,-37.96875,-0.17578125,-1.9335937499999998,-10.986328124999998
-12.568359375,38.583984375,-37.44140625,-0.17578125,-1.8457031250000002,-10.986328124999998
-11.865234375,38.232421875,-37.08984375,-0.17578125,-1.8457031250000002,-10.986328124999998
-11.865234375,37.001953125,-36.650390625,-0.17578125,-1.7578125,-10.986328124999998
-11.513671875,36.73828125,-36.298828125,-0.17578125,-1.1425781250000002,-10.986328124999998
-11.07421875,34.013671875,-34.62890625,-0.17578125,-0.87890625,-10.986328124999998
-9.755859375,31.113281250000004,-32.87109375,0.0,0.9667968749999999,-10.986328124999998
-9.84375,29.443359374999996,-31.728515624999996,-0.087890625,1.23046875,-10.722656249999998
-9.31640625,27.59765625,-30.937499999999996,-0.087890625,1.9335937499999998,-10.37109375
-8.701171875,26.630859375,-29.8828125,0.0,3.1640624999999996,-9.931640625
-8.613281249999998,25.400390625,-29.35546875,-0.087890625,3.076171875,-9.755859375
-8.26171875,24.082031250000004,-28.828124999999996,-0.087890625,3.6914062500000004,-9.4921875
-7.998046875,23.994140625,-28.388671875,-0.087890625,4.130859375,-9.140625000000002
-7.646484374999999,21.357421875,-27.24609375,-0.087890625,4.306640624999999,-8.7890625
-6.50390625,19.248046875,-26.103515625,0.0,5.44921875,-8.4375
-6.591796875,17.75390625,-25.224609375,0.0,5.888671875,-8.0859375
-6.240234375,16.875,-24.609375,-0.087890625,6.416015625,-7.734374999999999
-5.625,15.820312500000002,-23.642578125,0.0,6.943359375000001,-7.470703125
-5.273437499999999,14.326171875,-22.67578125,-0.087890625,7.646484374999999,-7.119140625
-5.009765625,12.3046875,-21.708984374999996,-0.087890625,8.173828124999998,-6.855468749999999
-4.74609375,12.392578125,-21.357421875,-0.087890625,8.613281249999998,-6.50390625
-4.39453125,9.228515625,-19.423828125,0.0,8.876953125,-6.15234375
-3.515625,7.119140625,-17.666015625,-0.263671875,10.1953125,-5.537109375
-2.9003906250000004,5.712890624999999,-15.732421875,-0.263671875,10.01953125,-5.09765625
-2.9882812500000004,5.361328124999999,-15.292968749999998,-0.263671875,10.107421875000002,-4.74609375
-2.9882812500000004,4.482421875,-14.589843750000002,-0.263671875,10.01953125,-4.39453125
-2.9003906250000004,2.9003906250000004,-13.095703125000002,-0.263671875,10.01953125,-4.130859375
-2.8125,1.1425781250000002,-11.513671875,-0.263671875,10.01953125,-3.779296875
-2.548828125,-1.40625,-9.4921875,-0.263671875,9.931640625,-3.4277343749999996
-2.2851562500000004,-1.9335937499999998,-7.734374999999999,-0.17578125,9.66796875,-3.076171875
-2.197265625,-3.076171875,-6.855468749999999,-0.17578125,9.66796875,-2.724609375
-2.109375,-4.21875,-5.976562500000001,-0.17578125,9.66796875,-2.2851562500000004
-1.6699218749999998,-6.064453125,-4.21875,-0.17578125,9.755859375,-2.021484375
-1.40625,-7.470703125,-2.021484375,-0.17578125,9.66796875,-1.8457031250000002
-1.3183593749999998,-8.613281249999998,-1.3183593749999998,-0.17578125,9.66796875,-1.5820312499999998
-1.1425781250000002,-10.458984375,0.17578125,-0.17578125,9.66796875,-1.40625
-0.703125,-12.3046875,2.4609375,-0.17578125,9.66796875,-1.1425781250000002
-0.439453125,-13.798828125,3.9550781250000004,-0.17578125,9.580078124999998,-0.7910156249999999
-0.263671875,-15.1171875,5.185546875,-0.17578125,9.580078124999998,-0.52734375
-0.17578125,-15.820312500000002,6.064453125,-0.263671875,9.580078124999998,-0.263671875
-0.263671875,-15.732421875,6.15234375,-0.263671875,9.580078124999998,-0.263671875
-0.263671875,-15.820312500000002,6.15234375,-0.17578125,9.580078124999998,-0.263671875
-0.263671875,-15.732421875,6.15234375,-0.17578125,9.580078124999998,-0.263671875
-0.263671875,-15.732421875,6.15234375,-0.17578125,9.580078124999998,-0.263671875
-0.17578125,-15.820312500000002,6.15234375,-0.17578125,9.580078124999998,-0.263671875
-0.263671875,-15.732421875,6.15234375,-0.17578125,9.580078124999998,-0.263671875
-0.263671875,-15.820312500000002,6.15234375,-0.17578125,9.4921875,-0.263671875
-0.263671875,-15.820312500000002,6.15234375,-0.17578125,9.4921875,-0.263671875
-0.263671875,-15.732421875,6.15234375,-0.17578125,9.580078124999998,-0.263671875
-0.263671875,-15.732421875,6.064453125,-0.17578125,9.580078124999998,-0.263671875
-0.263671875,-15.732421875,5.976562500000001,-0.17578125,9.4921875,-0.263671875
