RAMEL-ESPOL/ARCHIE/matlab/data/3_joint_goals_precision_x0_y20_z20.txt
Joint0,Joint1,Joint2,Joint3,Joint4,Joint5 
47.75070823263465,9.68353628870421,-3.564412135256208,0.004184007095480628,-6.112743674900787,47.74698629633951
47.75070823263465,9.68353628870421,-3.564412135256208,0.004184007095480628,-6.112743674900787,47.74698629633951
47.75070823263465,9.68353628870421,-3.564412135256208,0.004184007095480628,-6.112743674900787,47.74698629633951
47.75070823263465,9.68353628870421,-3.564412135256208,0.004184007095480628,-6.112743674900787,47.74698629633951
47.75070823263465,9.68353628870421,-3.564412135256208,0.004184007095480628,-6.112743674900787,47.74698629633951
47.75070823263465,9.68353628870421,-3.564412135256208,0.004184007095480628,-6.112743674900787,47.74698629633951
47.75070823263465,9.68353628870421,-3.564412135256208,0.004184007095480628,-6.112743674900787,47.74698629633951
47.75070823263465,9.68353628870421,-3.564412135256208,0.004184007095480628,-6.112743674900787,47.74698629633951
47.75070823263465,9.68353628870421,-3.564412135256208,0.004184007095480628,-6.112743674900787,47.74698629633951
47.75070823263465,9.68353628870421,-3.564412135256208,0.004184007095480628,-6.112743674900787,47.74698629633951
47.75070823263465,9.68353628870421,-3.564412135256208,0.004184007095480628,-6.112743674900787,47.74698629633951
47.75009914961592,9.683767603525467,-3.564826831184429,0.0041840647381892705,-6.112560350366255,47.74637719923152
46.3165652069126,10.22818870463128,-4.540852546432429,0.004319732252875427,-5.6810888847382115,46.31281009614402
44.88039729491467,10.773610122800358,-5.518671607263773,0.004455649042487915,-5.248824635236615,44.87660896283317
43.43044081363301,11.32426810206401,-6.50587865522014,0.00459287076173623,-4.812410240404981,43.426618941282584
42.01896556523064,11.860311851031497,-7.4668856448969105,0.00472645067448714,-4.387578099369363,42.01511104275585
40.58643350200026,12.404352462837693,-8.442229227619096,0.004862023372793955,-3.9564081839116354,40.5825458423167
39.15470626829132,12.948087420092426,-9.417024839842709,0.004997519903235005,-3.5254805096474,39.150785490016226
37.722086472928,13.492161350415193,-10.392428155240395,0.0051331009043800585,-3.0942841881794196,37.718132555414705
36.28922823237,14.036325836386187,-11.36799381673589,0.005268704471622772,-2.663016098408959,36.28524117010282
34.85756455253436,14.58003665743553,-12.342746158121757,0.005404194987420023,-2.23210755287411,34.85354437314576
33.425459547841804,15.123915082862688,-13.31779897680801,0.005539727269543639,-1.801066175407519,33.42140624112311
31.993175483656344,15.667861510702197,-14.292973708665926,0.005675276497590654,-1.3699709038129,31.98908904546555
30.5367668447121,16.220969861508888,-15.284573726757102,0.005813108839418855,-0.9316145096743701,30.532646717001622
29.127572058822057,16.756147546635805,-16.244028056961778,0.0059464729325981675,-0.507468752457927,29.123419333738696
27.695841559329235,17.29988374415532,-17.21882589270376,0.006081969772108134,-0.0765400952434323,27.691655715578786
26.26333191255406,17.843915842740547,-18.194154213117837,0.006217540348955056,0.35462307320922565,26.25911293211337
24.81259785947717,18.296462135897897,-19.109163407340848,0.00634776262232081,0.8169461147182311,24.808338832084228
23.398456185603546,18.032980562162365,-19.48035166841711,0.006424055956658155,1.451443004236977,23.39411166105037
21.966535646257988,17.76618644659292,-19.856206580848305,0.006501308465703839,2.093916912642533,21.962104549657578
20.533804420645172,17.499241284705093,-20.23227428470725,0.00657860471149781,2.7367545596497136,20.529286702984493
19.100955903339017,17.232274269137037,-20.608372775651027,0.006655907285211071,3.3796448330775433,19.09635155752676
17.66963939687797,16.965592696418096,-20.984069139670716,0.006733127206515613,4.0218477240925035,17.664948515537514
16.23545634101588,16.698377030855895,-21.360517924404057,0.0068105017789529855,4.665336778093969,16.230678750839388
14.804883259643454,16.4318339724145,-21.736019151917283,0.0068876815922684275,5.307206109243581,14.800019178885277
13.372444883702371,16.164943374007695,-22.11200998769262,0.006964962038741631,5.9499123605007815,13.367494199589235
11.93959827136572,15.897976713371797,-22.488107978614142,0.007042264509681259,6.592801779207162,11.934560959216178
10.508119183635772,15.631264848660633,-22.863847017465922,0.007119493202290215,7.235077617163234,10.502995326128577
9.07604030265268,15.364441231023173,-23.239743491897713,0.007196754253911029,7.8776225702726945,9.07082986352512
7.643728413821601,15.097574199578162,-23.61570112694693,0.007274027876369672,8.520272069310975,7.638431378986325
6.211504511664372,14.830723561729151,-23.991635666983065,0.007351296751922932,9.162882090500672,6.206120886440939
4.7790592606454085,14.563831682364167,-24.367628307350024,0.007428577569308488,9.805591426466862,4.773589031651355
3.3468584043221723,14.296985338393714,-24.743556798244683,0.007505845201532631,10.44819110745497,3.3413015863332807
1.914120919523865,14.030039010300216,-25.119626145033905,0.00758314178501139,11.091031562832626,1.9084774800962792
0.4815459157329008,13.763122955518302,-25.495652843307997,0.007660429602594874,11.733799116254508,0.4758158646900093
-0.0014670639344377375,13.673128422177921,-25.622435577536372,0.007686488286408426,11.95051731278189,-0.0072263173117752995
-0.0014670639344377375,13.673128422177921,-25.622435577536372,0.007686488286408426,11.95051731278189,-0.0072263173117752995
-0.0014670639344377375,13.673128422177921,-25.622435577536372,0.007686488286408426,11.95051731278189,-0.0072263173117752995
-0.0014670639344377375,13.673128422177921,-25.622435577536372,0.007686488286408426,11.95051731278189,-0.0072263173117752995
-0.0014670639344377375,13.673128422177921,-25.622435577536372,0.007686488286408426,11.95051731278189,-0.0072263173117752995
-0.0014670639344377375,13.673128422177921,-25.622435577536372,0.007686488286408426,11.95051731278189,-0.0072263173117752995
-0.0014670639344377375,13.673128422177921,-25.622435577536372,0.007686488286408426,11.95051731278189,-0.0072263173117752995
-0.0014670639344377375,13.673128422177921,-25.622435577536372,0.007686488286408426,11.95051731278189,-0.0072263173117752995
-0.0014670639344377375,13.673128422177921,-25.622435577536372,0.007686488286408426,11.95051731278189,-0.0072263173117752995
-0.0014670639344377375,13.673128422177921,-25.622435577536372,0.007686488286408426,11.95051731278189,-0.0072263173117752995
-0.0014670639344377375,13.673128422177921,-25.622435577536372,0.007686488286408426,11.95051731278189,-0.0072263173117752995
-0.0014670639344377375,13.673128422177921,-25.622435577536372,0.007686488286408426,11.95051731278189,-0.0072263173117752995
-0.0014670639344377375,13.673128422177921,-25.622435577536372,0.007686488286408426,11.95051731278189,-0.0072263173117752995
