RAMEL-ESPOL/ARCHIE/matlab/data/3_joint_goals_precision_x_15_y15_z20.txt
Joint0,Joint1,Joint2,Joint3,Joint4,Joint5 
-44.278008077399846,0.43493159397226694,30.86450865036931,0.005200871084184248,-31.30023091796621,-44.27902566799179
-44.278008077399846,0.43493159397226694,30.86450865036931,0.005200871084184248,-31.30023091796621,-44.27902566799179
-44.278008077399846,0.43493159397226694,30.86450865036931,0.005200871084184248,-31.30023091796621,-44.27902566799179
-44.278008077399846,0.43493159397226694,30.86450865036931,0.005200871084184248,-31.30023091796621,-44.27902566799179
-44.278008077399846,0.43493159397226694,30.86450865036931,0.005200871084184248,-31.30023091796621,-44.27902566799179
-44.278008077399846,0.43493159397226694,30.86450865036931,0.005200871084184248,-31.30023091796621,-44.27902566799179
-44.278008077399846,0.43493159397226694,30.86450865036931,0.005200871084184248,-31.30023091796621,-44.27902566799179
-44.278008077399846,0.43493159397226694,30.86450865036931,0.005200871084184248,-31.30023091796621,-44.27902566799179
-44.278008077399846,0.43493159397226694,30.86450865036931,0.005200871084184248,-31.30023091796621,-44.27902566799179
-44.278008077399846,0.43493159397226694,30.86450865036931,0.005200871084184248,-31.30023091796621,-44.27902566799179
-44.278008077399846,0.43493159397226694,30.86450865036931,0.005200871084184248,-31.30023091796621,-44.27902566799179
-44.27777178805014,0.43517181449176906,30.864168528298084,0.005200867047288568,-31.300130997832152,-44.27878938829552
-43.280703335699386,1.4488285955076834,29.428957895234443,0.005183832587913888,-30.878498734040566,-43.281761670487164
-42.28662308533819,2.4594474595153755,27.998048570931527,0.005166849180606168,-30.458130097000538,-42.287722032587425
-41.291769354304286,3.4708526726719344,26.56602587504083,0.005149852558734228,-30.037434376693298,-41.292908945615004
-40.296697733541976,4.482479400610344,25.133689542052995,0.005132852214315739,-29.616646516935415,-40.29787797781592
-39.294479944667216,5.501371188182715,23.691066797498852,0.005115729780877075,-29.192836743254198,-39.29570113385613
-38.30646756898222,6.505821225669635,22.26889175641878,0.005098850040438383,-28.775034040107766,-38.30772912273377
-37.297168383836535,7.531912223418762,20.816075834855567,0.005081606624576888,-28.34822974269703,-37.29847117180861
-36.31024361583632,8.53525655858187,19.395466329331374,0.0050647454654190295,-27.93088695831463,-36.311586723937566
-35.32029167725975,9.541678427664309,17.970499422478284,0.005047832588433693,-27.512264068459046,-35.32167522916315
-34.32575726772269,10.552759006739993,16.53893636765491,0.005030841422023765,-27.091703380250426,-34.32718145064191
-33.33090889039148,11.564158777123781,15.106921378046556,0.005013844891617392,-26.671009923873783,-33.332373717153445
-32.33580984434183,12.575813386626804,13.674545568266623,0.004996844078650389,-26.250210466731637,-32.33731532518746
-31.3406092869148,13.587571196362273,12.242023639924952,0.0049798415314078375,-25.82936808327711,-31.342155425991262
-30.345446712913652,14.599290390737751,10.80955638608089,0.004962839633094781,-25.408541761947312,-30.347033508669163
-29.350406497886766,15.61088519044034,9.377265259463105,0.0049458398252289456,-24.98776718279348,-29.352033945322436
-28.35523011173076,16.622618426764905,7.944778123983552,0.004928837690941527,-24.566935020691055,-28.356898216409753
-27.360243354121714,17.63415887967319,6.512563945597669,0.004911838796371274,-24.146183047178845,-27.361952108296904
-26.298516141232646,18.575520187965527,5.153940958265487,0.004889233542606128,-23.728838883201433,-26.3002666406715
-24.866205334656136,19.125294851573972,4.206287900006904,0.004835436593692965,-23.330854491747075,-24.86800364116632
-23.433728971924815,19.67513306185044,3.2585253056087464,0.004781633426565177,-22.932824098569334,-23.43557509103219
-22.001052646923092,20.225048025153853,2.3106304111146843,0.004727822748944557,-22.534738143524617,-22.002946585301924
-20.566629932238804,20.775633318385562,1.3615800610337474,0.004673946477713875,-22.136166933581407,-20.56857174817935
-19.12564024746518,21.328739261294153,0.4081848374378757,0.004619823554043801,-21.73577101381774,-19.12763016015703
-17.70414042395583,21.874364263703555,-0.5323154009722945,0.00456643266078636,-21.340790581069307,-17.706177782874537
-16.27172565418745,22.424178832288337,-1.4800372439082465,0.004512631807062525,-20.942777302220218,-16.273810823647526
-14.839349258267376,22.973978671549393,-2.4277336977355373,0.004458832394643153,-20.544774685995883,-14.841482236988004
-13.407047389832464,23.523749904363513,-3.375380842293558,0.0044050357814425616,-20.146792778109216,-13.409228175326088
-11.97462849476796,24.07356605639183,-4.323105414629767,0.0043512347727744614,-19.748778352998112,-11.976857090940651
-10.541545484323478,24.623637120837166,-5.271269382499396,0.004297408820231746,-19.35057939562338,-10.543821913341796
-9.10970998920961,25.173229342060708,-6.2186079626718485,0.004243629723803082,-18.952727075045217,-9.112034209434512
-7.6774451481721915,25.72298636236948,-7.1662306089671235,0.004189834501334868,-18.554755455656128,-7.6798171739342065
-6.243556544744235,26.273366643647822,-8.114927577531152,0.004135978291082458,-18.15633265480286,-6.245976430240627
-4.8124327061833725,26.822685704367206,-9.06179530772761,0.0040822259241534604,-17.758678076362003,-4.8149003591329755
-3.3801606315537924,27.372445501200232,-10.009422739950425,0.0040284304299947815,-17.360704447034312,-3.3826760902819486
-1.9478890869101724,27.92220509460475,-10.957049821521124,0.003974634955742137,-16.96273096496945,-1.9504523513991878
-0.5140740225020414,28.407876169772504,-11.867082227632974,0.003917428881026948,-16.538266454807548,-0.5166855244594374
0.9172837845851012,28.265131378317413,-12.4008744414717,0.00382779113994218,-15.86165486558883,0.914620438952733
2.3495646553283773,28.1222945326405,-12.93501089082588,0.00373809559266765,-15.184606938534648,2.346849432587739
3.7817270240756393,27.979469504793215,-13.469103147566248,0.003648407466494389,-14.507615028098705,3.7789599285188635
5.214407002895183,27.836592857328906,-14.00338843516516,0.0035586869253670097,-13.830378440216023,5.211588015774472
6.646511130482551,27.693773637688476,-14.537458972194688,0.0034690024465040045,-13.15341406073255,6.643640272655193
8.078886052247928,27.5509274126003,-15.071630495730213,0.003379301009352656,-12.476321675185023,8.07596331390578
9.51129381881892,27.408077912003435,-15.605814267986098,0.0032895975153192565,-11.799213763697013,9.508319198772343
10.943742337013102,27.265224347375952,-16.140013237629415,0.0031998914692451088,-11.122086588667493,10.940715833786077
12.37634455113588,27.12235545513914,-16.674269524660172,0.003110175798075276,-10.444886760632565,12.37326615916155
13.816879179723434,26.978695488271722,-17.21148402455515,0.003019963365221922,-9.763937231767573,13.81374861169033
15.240859037928264,26.836686476346646,-17.742524800809242,0.0029307876628170528,-9.090813244107123,15.237676893448956
16.67335532647863,26.69382814773248,-18.276741585316227,0.0028410786251591115,-8.413663487738084,16.670121297088635
18.105901576948746,26.550964836573925,-18.810977001980465,0.002751366458672302,-7.736490114064028,18.102615660838445
19.538084586500588,26.408137750284414,-19.345076956237634,0.002661677039883674,-7.059488446593526,19.534746796826543
20.972872190570175,26.26505091601336,-19.88014823455291,0.002571824510258707,-6.3812555713654655,20.969482432994166
22.406612886156175,26.122068486617476,-20.414829092251917,0.0024820375425157015,-5.703517576180219,22.403171198597146
23.835485646369555,25.979571521035133,-20.947694564596887,0.00239255542568306,-5.028080683816622,23.831992205143774
25.26763644136935,25.836747647401115,-21.481782505172383,0.002302868024307311,-4.351094244361887,25.264091127746628
26.700508059838928,25.18260891282395,-21.79638143121096,0.002207118113599651,-3.382298304026328,26.6969232125033
28.13268877669898,23.962873698269487,-21.86757139704258,0.0021047535460035956,-2.091333007005131,28.129078101713485
29.564821135921132,22.743179668122227,-21.938758959142213,0.0020023924347511665,-0.8004112994776572,29.561184634157847
30.9971840247121,21.523289304488728,-22.009957980265096,0.0019000148464861993,0.4907182070166373,30.993521692013687
32.42977555231114,20.303204217659786,-22.08116836642644,0.0017976209163500917,1.7820538081492063,32.42608738455438
33.861991634991085,19.083438883347803,-22.15236009020067,0.0016952538209956197,3.0730509838611626,33.85827763894668
35.294632336692885,17.863311916758818,-22.223572920678336,0.0015928563761593724,4.364430910447508,35.290892504703336
36.727048696770055,16.643376013613434,-22.29477459971931,0.0014904749660547255,5.65560861586955,36.723283032881106
38.1600012737236,15.422983434436158,-22.36600293270183,0.0013880552300544425,6.947269666284937,38.156209768265214
39.59182758753957,14.203550051813878,-22.43717528208302,0.0012857159932800732,8.237915504996385,39.58801026082255
41.02410481914019,12.983732639233425,-22.50837004541051,0.0011833445273299428,9.528967800242912,41.02026166303276
42.4563930945023,11.763905821090777,-22.579565357694566,0.0010809722720311935,10.820030050317536,42.45252410880532
43.88928343391536,10.543566247319102,-22.65079059701137,0.0009785569844352523,12.11163499991828,43.88538860777133
45.000441284059605,9.597234305550609,-22.706023353921218,0.0008991374031478073,13.113230823100327,44.99652641952547
45.000441284059605,9.597234305550609,-22.706023353921218,0.0008991374031478073,13.113230823100327,44.99652641952547
45.000441284059605,9.597234305550609,-22.706023353921218,0.0008991374031478073,13.113230823100327,44.99652641952547
45.000441284059605,9.597234305550609,-22.706023353921218,0.0008991374031478073,13.113230823100327,44.99652641952547
45.000441284059605,9.597234305550609,-22.706023353921218,0.0008991374031478073,13.113230823100327,44.99652641952547
45.000441284059605,9.597234305550609,-22.706023353921218,0.0008991374031478073,13.113230823100327,44.99652641952547
45.000441284059605,9.597234305550609,-22.706023353921218,0.0008991374031478073,13.113230823100327,44.99652641952547
45.000441284059605,9.597234305550609,-22.706023353921218,0.0008991374031478073,13.113230823100327,44.99652641952547
45.000441284059605,9.597234305550609,-22.706023353921218,0.0008991374031478073,13.113230823100327,44.99652641952547
45.000441284059605,9.597234305550609,-22.706023353921218,0.0008991374031478073,13.113230823100327,44.99652641952547
45.000441284059605,9.597234305550609,-22.706023353921218,0.0008991374031478073,13.113230823100327,44.99652641952547
45.000441284059605,9.597234305550609,-22.706023353921218,0.0008991374031478073,13.113230823100327,44.99652641952547
