RAMEL-ESPOL/ARCHIE/matlab/data/5_joint_goals_precision_x_15_y15_z20.txt
Joint0,Joint1,Joint2,Joint3,Joint4,Joint5 
-44.289587312372454,-12.237870510781903,-33.78406330342061,0.001879262002926274,46.02229341315749,-44.28108200711083
-44.289587312372454,-12.237870510781903,-33.78406330342061,0.001879262002926274,46.02229341315749,-44.28108200711083
-44.289587312372454,-12.237870510781903,-33.78406330342061,0.001879262002926274,46.02229341315749,-44.28108200711083
-44.289587312372454,-12.237870510781903,-33.78406330342061,0.001879262002926274,46.02229341315749,-44.28108200711083
-44.289587312372454,-12.237870510781903,-33.78406330342061,0.001879262002926274,46.02229341315749,-44.28108200711083
-44.289587312372454,-12.237870510781903,-33.78406330342061,0.001879262002926274,46.02229341315749,-44.28108200711083
-44.289587312372454,-12.237870510781903,-33.78406330342061,0.001879262002926274,46.02229341315749,-44.28108200711083
-44.289587312372454,-12.237870510781903,-33.78406330342061,0.001879262002926274,46.02229341315749,-44.28108200711083
-44.289587312372454,-12.237870510781903,-33.78406330342061,0.001879262002926274,46.02229341315749,-44.28108200711083
-44.289587312372454,-12.237870510781903,-33.78406330342061,0.001879262002926274,46.02229341315749,-44.28108200711083
-44.289587312372454,-12.237870510781903,-33.78406330342061,0.001879262002926274,46.02229341315749,-44.28108200711083
-44.28908974043545,-12.237240930432485,-33.78437287776354,0.001879247916200445,46.02197341782439,-44.28058441918149
-43.13125131072726,-10.772221967487848,-34.504745238911696,0.0018464684298580404,45.2773516527566,-43.12270877566526
-40.89135942439915,-7.9380751606284585,-35.89833882284332,0.0017830550004775175,43.8368464776269,-40.88274489750775
-40.89135942439915,-7.9380751606284585,-35.89833882284332,0.0017830550004775175,43.8368464776269,-40.88274489750775
-39.75939507503182,-6.505794805572017,-36.602613106859614,0.0017510080334930764,43.10886468829196,-39.75074416594501
-38.62747555502473,-5.073571173337311,-37.30685949939188,0.0017189623356696545,42.380911729333086,-38.61878826518335
-37.484275586875114,-3.6270743316328855,-38.01812424859181,0.0016865972778333533,41.645704159548444,-37.47555155371698
-36.36338862902541,-2.208810257446805,-38.71550651168518,0.0016548639221392652,40.924846392540424,-36.354628569707664
-35.231240784935835,-0.7762977255677652,-39.41989496061683,0.0016228117602480156,40.19674659523438,-35.22244433752501
-34.09967653760863,0.6554763783046946,-40.123920313138065,0.001590776120525672,39.469022117005785,-34.09084372086197
-32.96552643995441,2.090522371991157,-40.829554504213846,0.0015586672729676727,38.73963464298668,-32.95665717076072
-31.835678285442327,3.520125094734933,-41.532512155230734,0.0015266802174342385,38.01301380757062,-31.826772702069345
-30.703732513090195,4.952381944197823,-42.23677488118508,0.001494633776382432,37.28504396536881,-30.69479054811887
-29.57170565167053,6.384741396077905,-42.94108805832635,0.0014625850396234583,36.557021973676136,-29.562727302494615
-28.43120751283674,7.827819599153005,-43.65067181032173,0.0014302964730962076,35.82355198735948,-28.422192507182913
-27.307391341194002,9.249790022725323,-44.34987654242482,0.0013984801886263434,35.10081040280933,-27.2983402152334
-26.08218236778323,10.495373947789712,-44.858776035118765,0.0013654893103335483,34.36414995025612,-26.073097303026262
-24.65008283248686,11.324023803390563,-44.93193935621866,0.0013304190792025597,33.60868670539584,-24.640969298422046
-23.21701686551807,12.1532328613695,-45.005152050528345,0.0012953251814329827,32.852713647083924,-23.20787484293331
-21.785442922606386,12.9815785956136,-45.078288520083746,0.0012602678213671382,32.0975276634884,-21.776272441162252
-20.348125378191476,13.81324772633886,-45.15171841963523,0.0012250698080664606,31.33931180681362,-20.3389263237085
-18.9207650836739,14.63915533456778,-45.22463962167405,0.0011901156346991967,30.586348613191877,-18.911537654096435
-17.48818445960485,15.468083560583667,-45.29782752071109,0.001155033622337898,29.830631583677448,-17.478928551155775
-16.055702267728186,16.296954831185488,-45.37101039102916,0.001119954020451327,29.074966479257352,-16.046417882364278
-14.618886151683332,17.128333822478258,-45.444414673531035,0.001084768286470906,28.317015136810927,-14.609573203248685
-13.1907936603074,17.95466509875957,-45.517373282155454,0.001049796182567096,27.563665693629808,-13.181452322222619
-11.758790680803937,18.78325908467966,-45.59053167039818,0.0010147283159602837,26.808253384022862,-11.749420875330781
-10.326498649839118,19.612020323256296,-45.663704825746365,0.0009796533708639472,26.05268859356556,-10.317100371231417
-8.894207492617566,20.440781056262463,-45.736877936456615,0.0009445784471644322,25.297124264026593,-8.884780740892687
-7.461871488016159,21.26956773912332,-45.810053338336715,0.0009095024252116616,24.5415362765321,-7.452416262282561
-6.029231019695098,22.098530592572253,-45.88324429470609,0.0008744189473434633,23.785787677890177,-6.019747313900222
-4.596680031278849,22.927441670632422,-45.95643067971235,0.0008393376607202628,23.030086281818736,-4.587167847201498
-3.164473899303811,23.7561532058304,-46.02959944663975,0.0008042648191770323,22.274566804922365,-3.154933243799535
-1.7322068201549339,24.584900006640552,-46.10277132724573,0.0007691904851177993,21.519015177083567,-1.7226376920121385
-0.2992187244513357,25.176033418200024,-46.0488536137537,0.0007343508069834847,20.87398412839203,-0.2896249113889202
1.1328841132700853,25.033957071889212,-45.60357449505442,0.0007003094677880488,20.570791482477073,1.1424908903078286
2.5650117168680198,24.891878268600337,-45.15828767598099,0.0006662675399033232,20.267593593341154,2.5746314581052814
3.9971759034900223,24.749795835975455,-44.71298948226583,0.0006322247424336077,19.964387959158174,4.006808609257967
5.42947857275756,24.607699664736433,-44.267648230588115,0.0005981786532067748,19.66115300660601,5.439124244309788
6.862331133291342,24.46554893977408,-43.82213600299166,0.0005641194929667283,19.357801635746736,6.871989775605693
8.294640835552153,24.323452070804443,-43.37679256456802,0.0005300732365643941,19.05456519422899,8.304312443714453
9.730314600407597,24.18102145923643,-42.930403149006466,0.0004959470157957853,18.75061654195917,9.739999204870704
11.15918988149342,24.03926531301336,-42.48612756408731,0.00046198239619569626,18.44810720691437,11.1688874207147
12.5926308786802,23.89705621030921,-42.04043237577926,0.00042790924871173667,18.144631257246168,12.602341393990374
14.026441673804483,23.754810420616913,-41.594622207390614,0.00039382731106502305,17.84107701710038,14.036165168551106
15.456263830695333,23.612960336548568,-41.15005221342981,0.00035984018405861795,17.538367217554622,15.46600026877164
16.888974614106083,23.47082367703955,-40.70458406813717,0.0003257843938860053,17.23504586254332,16.89872402166109
18.321310643539267,23.328724196198504,-40.259232443890696,0.0002917375116821008,16.93180384726031,18.331073017180543
19.767835543527973,23.1852170630341,-39.80946911986268,0.0002573533575011717,16.62555788484936,19.777611011698934
21.186288215060433,23.04449492515551,-39.36843420333286,0.0002236364851841424,16.325255136150588,21.19607652363988
22.618241311617552,22.902433434396237,-38.92320164317108,0.0001895987053628181,16.022094192162765,22.628042582816814
24.050961792251204,22.760295812843182,-38.477730482752186,0.00015554268468549214,15.718770784137817,24.060776033016946
25.48296354680863,22.618229494811228,-38.032482793515236,0.00012150374825484526,15.415599538691561,25.49279075063465
26.91554777017784,21.954177924841893,-37.15115253169301,8.734451076029914e-05,15.198322976614078,26.92538477096432
28.347650648552527,20.975465126101295,-36.00713443920404,5.313252485756065e-05,15.03301498537956,28.357495529685163
29.780404475020088,19.996307463210616,-34.86259634469094,1.89049882375426e-05,14.867631855044873,29.790257240080816
31.212685012305464,19.017473250671944,-33.71843633152632,-1.531124181848928e-05,14.702303356598135,31.22254565868993
32.645059227674835,18.038575017635054,-32.57420148475541,-4.952970978168388e-05,14.536964044866872,32.65492775589853
34.07790767760155,17.059352688167735,-31.429587801434486,-8.375950689324886e-05,14.371569992122774,34.08778409027402
35.51219513175991,16.079146929450882,-30.283824586958367,-0.0001180236808594588,14.206009834762519,35.522079436799466
36.94819693782707,15.097769566249438,-29.136691883159802,-0.00015232880955330888,14.040251789335285,36.95808914466718
38.374329686125435,14.12313681148059,-27.997442956996075,-0.00018639817301663135,13.875632931699496,38.38422974046023
39.806811889121,13.144164778667541,-26.853121845613877,-0.00022061922073244054,13.7102811549297,39.81671982588923
41.23928198844974,12.165201017616116,-25.708810403099765,-0.0002548399792996943,13.544930775289172,41.24919780758482
42.67185295644325,11.186168321954833,-24.564418382870752,-0.0002890631475523058,13.379568752353599,42.68177665850022
44.105470497710066,10.206420388112774,-23.419190320219176,-0.0003233113177448014,13.214085923204937,44.11540208844784
45.00063500646117,9.594656404587129,-22.70409896105125,-0.00034469620287873933,13.110756861445058,45.0105715229667
45.00063500646117,9.594656404587129,-22.70409896105125,-0.00034469620287873933,13.110756861445058,45.0105715229667
45.00063500646117,9.594656404587129,-22.70409896105125,-0.00034469620287873933,13.110756861445058,45.0105715229667
45.00063500646117,9.594656404587129,-22.70409896105125,-0.00034469620287873933,13.110756861445058,45.0105715229667
45.00063500646117,9.594656404587129,-22.70409896105125,-0.00034469620287873933,13.110756861445058,45.0105715229667
45.00063500646117,9.594656404587129,-22.70409896105125,-0.00034469620287873933,13.110756861445058,45.0105715229667
45.00063500646117,9.594656404587129,-22.70409896105125,-0.00034469620287873933,13.110756861445058,45.0105715229667
45.00063500646117,9.594656404587129,-22.70409896105125,-0.00034469620287873933,13.110756861445058,45.0105715229667
45.00063500646117,9.594656404587129,-22.70409896105125,-0.00034469620287873933,13.110756861445058,45.0105715229667
45.00063500646117,9.594656404587129,-22.70409896105125,-0.00034469620287873933,13.110756861445058,45.0105715229667
45.00063500646117,9.594656404587129,-22.70409896105125,-0.00034469620287873933,13.110756861445058,45.0105715229667
45.00063500646117,9.594656404587129,-22.70409896105125,-0.00034469620287873933,13.110756861445058,45.0105715229667
45.00063500646117,9.594656404587129,-22.70409896105125,-0.00034469620287873933,13.110756861445058,45.0105715229667
