RAMEL-ESPOL/ARCHIE/matlab/data/datos.txt
Joint0,Joint1,Joint2,Joint3,Joint4,Joint5 
state: 0.0,0.17587040880217542,0.17587040880217542,0.17587040880217542,-0.35174081760435083,0.17587040880217542
goals: 0.0,0.0,0.0,0.0,0.0,0.0
goals: 0.0,0.0,0.0,0.0,0.0,0.0
state: 0.0,0.0,0.17587040880217542,0.17587040880217542,-0.35174081760435083,0.17587040880217542
goals: 0.0,0.0,0.0,0.0,0.0,0.0
goals: 0.0,0.0,0.0,0.0,0.0,0.0
state: 0.17587040880217542,0.17587040880217542,0.17587040880217542,0.17587040880217542,-0.35174081760435083,0.17587040880217542
goals: 0.0,0.0,0.0,0.0,0.0,0.0
goals: 0.0,0.0,0.0,0.0,0.0,0.0
state: 0.17587040880217542,0.17587040880217542,0.17587040880217542,0.17587040880217542,-0.17587040880217542,0.17587040880217542
goals: 0.0,0.0,0.0,0.0,0.0,0.0
goals: 0.0,0.0,0.0,0.0,0.0,0.0
state: 0.17587040880217542,0.17587040880217542,0.17587040880217542,0.17587040880217542,-0.35174081760435083,0.17587040880217542
goals: 0.0,0.0,0.0,0.0,0.0,0.0
goals: 0.0,0.0,0.0,0.0,0.0,0.0
state: 0.0,0.17587040880217542,0.17587040880217542,0.17587040880217542,-0.35174081760435083,0.17587040880217542
goals: 0.0,0.0,0.0,0.0,0.0,0.0
goals: 0.0,0.0,0.0,0.0,0.0,0.0
state: 0.17587040880217542,0.17587040880217542,0.17587040880217542,0.17587040880217542,-0.17587040880217542,0.17587040880217542
goals: 0.0,0.0,0.0,0.0,0.0,0.0
goals: 0.0,0.0,0.0,0.0,0.0,0.0
state: 0.0,0.17587040880217542,0.17587040880217542,0.17587040880217542,-0.17587040880217542,0.17587040880217542
goals: 0.0,0.0,0.0,0.0,0.0,0.0
goals: 0.0,0.0,0.0,0.0,0.0,0.0
state: 0.0,0.17587040880217542,0.17587040880217542,0.17587040880217542,-0.35174081760435083,0.17587040880217542
goals: 0.0,0.0,0.0,0.0,0.0,0.0
goals: 0.0,0.0,0.0,0.0,0.0,0.0
state: 0.17587040880217542,0.17587040880217542,0.17587040880217542,0.17587040880217542,-0.17587040880217542,0.17587040880217542
goals: 0.0,0.0,0.0,0.0,0.0,0.0
goals: 0.0,0.0,0.0,0.0,0.0,0.0
state: 0.0,0.17587040880217542,0.17587040880217542,0.17587040880217542,-0.17587040880217542,0.17587040880217542
goals: 0.0,0.0,0.0,0.0,0.0,0.0
goals: 0.0,0.0,0.0,0.0,0.0,0.0
state: 0.0,0.0,0.17587040880217542,0.17587040880217542,-0.17587040880217542,0.17587040880217542
goals: 0.0,0.0,0.0,0.0,0.0,0.0
goals: 0.0,0.0,0.0,0.0,0.0,0.0
state: 0.0,0.0,0.17587040880217542,0.17587040880217542,-0.17587040880217542,0.17587040880217542
goals: 0.0,0.0,0.0,0.0,0.0,0.0
goals: 0.0,0.0,0.0,0.0,0.0,0.0
state: 0.0,0.0,0.17587040880217542,0.17587040880217542,-0.17587040880217542,0.17587040880217542
goals: 0.0,0.0,0.0,0.0,0.0,0.0
goals: 0.0,0.0,0.0,0.0,0.0,0.0
state: 0.0,0.0,0.17587040880217542,0.17587040880217542,-0.17587040880217542,0.17587040880217542
goals: 0.0,0.0,0.0,0.0,0.0,0.0
goals: 0.0,0.0,0.0,0.0,0.0,0.0
state: 0.0,0.0,0.17587040880217542,0.17587040880217542,-0.17587040880217542,0.17587040880217542
goals: 0.0,0.0,0.0,0.0,0.0,0.0
goals: 0.0,0.0,0.0,0.0,0.0,0.0
state: 0.0,0.0,0.17587040880217542,0.17587040880217542,0.0,0.17587040880217542
goals: 0.0,0.0,0.0,0.0,0.0,0.0
goals: 0.0,0.0,0.0,0.0,0.0,0.0
state: 0.0,0.0,0.17587040880217542,0.17587040880217542,0.0,0.17587040880217542
goals: 0.0,0.0,0.0,0.0,0.0,0.0
goals: 0.0,0.0,0.0,0.0,0.0,0.0
state: 0.0,0.0,0.17587040880217542,0.17587040880217542,0.0,0.17587040880217542
goals: 0.0,0.0,0.0,0.0,0.0,0.0
goals: 0.0,0.0,0.0,0.0,0.0,0.0
state: 0.0,0.0,0.17587040880217542,0.17587040880217542,0.0,0.17587040880217542
goals: 0.0,0.0,0.0,0.0,0.0,0.0
goals: 0.0,0.0,0.0,0.0,0.0,0.0
state: 0.0,0.0,0.17587040880217542,0.17587040880217542,0.0,0.17587040880217542
goals: 0.0,0.0,0.0,0.0,0.0,0.0
goals: 0.0,0.0,0.0,0.0,0.0,0.0
state: 0.0,0.0,0.17587040880217542,0.17587040880217542,0.0,0.17587040880217542
goals: 0.0,0.0,0.0,0.0,0.0,0.0
goals: 0.0,0.0,0.0,0.0,0.0,0.0
state: 0.0,0.0,0.17587040880217542,0.17587040880217542,0.0,0.17587040880217542
goals: 0.0,0.0,0.0,0.0,0.0,0.0
goals: 0.0,0.0,0.0,0.0,0.0,0.0
state: 0.0,0.0,0.17587040880217542,0.17587040880217542,0.0,0.17587040880217542
goals: 0.0,0.0,0.0,0.0,0.0,0.0
goals: 0.0,0.0,0.0,0.0,0.0,0.0
state: 0.0,0.0,0.17587040880217542,0.17587040880217542,0.0,0.17587040880217542
goals: 0.0,0.0,0.0,0.0,0.0,0.0
goals: 0.0,0.0,0.0,0.0,0.0,0.0
state: 0.0,0.0,0.17587040880217542,0.17587040880217542,0.0,0.17587040880217542
goals: 0.0,0.0,0.0,0.0,0.0,0.0
goals: 0.0,0.0,0.0,0.0,0.0,0.0
state: 0.0,0.0,0.17587040880217542,0.17587040880217542,0.0,0.17587040880217542
goals: 0.0,0.0,0.0,0.0,0.0,0.0
goals: 0.0,0.0,0.0,0.0,0.0,0.0
state: 0.0,0.0,-0.17587040880217542,0.17587040880217542,0.0,0.17587040880217542
goals: 0.0,0.0,0.0,0.0,0.0,0.0
goals: 0.0,0.0,0.0,0.0,0.0,0.0
state: 0.0,0.0,-0.17587040880217542,0.17587040880217542,0.0,0.17587040880217542
goals: 0.0,0.0,0.0,0.0,0.0,0.0
goals: 0.0,0.0,0.0,0.0,0.0,0.0
state: 0.0,0.0,-0.17587040880217542,0.17587040880217542,0.0,0.17587040880217542
goals: 0.0,0.0,0.0,0.0,0.0,0.0
goals: 0.0,0.0,0.0,0.0,0.0,0.0
state: 0.0,0.0,-0.17587040880217542,0.17587040880217542,0.0,0.17587040880217542
goals: 0.0,0.0,0.0,0.0,0.0,0.0
goals: 0.0,0.0,0.0,0.0,0.0,0.0
state: 0.0,0.0,-0.17587040880217542,0.17587040880217542,0.0,0.17587040880217542
goals: 0.0,0.0,0.0,0.0,0.0,0.0
goals: 0.0,0.0,0.0,0.0,0.0,0.0
state: 0.0,0.0,-0.17587040880217542,0.17587040880217542,0.0,0.17587040880217542
goals: 0.0,0.0,0.0,0.0,0.0,0.0
goals: 0.0,0.0,0.0,0.0,0.0,0.0
state: 0.0,0.0,-0.17587040880217542,0.17587040880217542,0.0,0.17587040880217542
goals: 0.0,0.0,0.0,0.0,0.0,0.0
goals: 0.0,0.0,0.0,0.0,0.0,0.0
state: 0.0,0.0,-0.17587040880217542,0.17587040880217542,0.0,0.17587040880217542
goals: 0.0,0.0,0.0,0.0,0.0,0.0
goals: 0.0,0.0,0.0,0.0,0.0,0.0
state: 0.0,0.0,-0.17587040880217542,0.17587040880217542,0.0,0.17587040880217542
goals: 0.0,0.0,0.0,0.0,0.0,0.0
goals: 0.0,0.0,0.0,0.0,0.0,0.0
state: 0.0,0.0,-0.17587040880217542,0.17587040880217542,0.0,0.17587040880217542
goals: 0.0,0.0,0.0,0.0,0.0,0.0
goals: 0.0,0.0,0.0,0.0,0.0,0.0
state: 0.0,0.0,-0.17587040880217542,0.17587040880217542,0.0,0.17587040880217542
goals: 0.0,0.0,0.0,0.0,0.0,0.0
goals: 0.0,0.0,0.0,0.0,0.0,0.0
state: 0.0,0.0,-0.17587040880217542,0.17587040880217542,0.0,0.17587040880217542
goals: 0.0,0.0,0.0,0.0,0.0,0.0
goals: 0.0,0.0,0.0,0.0,0.0,0.0
state: 0.0,0.0,-0.17587040880217542,0.17587040880217542,0.0,0.17587040880217542
goals: 0.0,0.0,0.0,0.0,0.0,0.0
goals: 0.0,0.0,0.0,0.0,0.0,0.0
state: 0.0,0.0,-0.17587040880217542,0.17587040880217542,0.0,0.17587040880217542
goals: 0.0,0.0,0.0,0.0,0.0,0.0
goals: 0.0,0.0,0.0,0.0,0.0,0.0
state: 0.0,0.0,-0.17587040880217542,0.17587040880217542,0.0,0.17587040880217542
goals: 0.0,0.0,0.0,0.0,0.0,0.0
goals: 0.0,0.0,0.0,0.0,0.0,0.0
state: 0.0,0.0,-0.17587040880217542,0.17587040880217542,0.0,0.17587040880217542
goals: 0.0,0.0,0.0,0.0,0.0,0.0
goals: 0.0,0.0,0.0,0.0,0.0,0.0
state: 0.0,0.0,-0.17587040880217542,0.17587040880217542,0.0,0.17587040880217542
goals: 0.0,0.0,0.0,0.0,0.0,0.0
goals: 0.0,0.0,0.0,0.0,0.0,0.0
state: 0.0,0.0,-0.17587040880217542,0.17587040880217542,0.0,0.17587040880217542
goals: 0.0,0.0,0.0,0.0,0.0,0.0
goals: 0.0,0.0,0.0,0.0,0.0,0.0
state: 0.0,0.0,-0.17587040880217542,0.17587040880217542,0.0,0.17587040880217542
goals: 0.0,0.0,0.0,0.0,0.0,0.0
goals: 0.0,0.0,0.0,0.0,0.0,0.0
state: 0.0,0.0,-0.17587040880217542,0.17587040880217542,0.0,0.17587040880217542
goals: 0.0,0.0,0.0,0.0,0.0,0.0
goals: 0.0,0.0,0.0,0.0,0.0,0.0
state: 0.0,0.0,-0.17587040880217542,0.17587040880217542,0.0,0.17587040880217542
goals: 0.0,0.0,0.0,0.0,0.0,0.0
goals: 0.0,0.0,0.0,0.0,0.0,0.0
state: 0.0,0.0,-0.17587040880217542,0.17587040880217542,0.0,0.17587040880217542
goals: 0.0,0.0,0.0,0.0,0.0,0.0
goals: 0.0,0.0,0.0,0.0,0.0,0.0
state: 0.0,0.0,-0.17587040880217542,0.17587040880217542,0.0,0.17587040880217542
goals: 0.0,0.0,0.0,0.0,0.0,0.0
goals: 0.0,0.0,0.0,0.0,0.0,0.0
state: 0.0,0.0,-0.17587040880217542,0.17587040880217542,0.0,0.17587040880217542
goals: 0.0,0.0,0.0,0.0,0.0,0.0
goals: 0.0,0.0,0.0,0.0,0.0,0.0
state: 0.0,0.0,-0.17587040880217542,0.17587040880217542,0.0,0.17587040880217542
goals: 0.0,0.0,0.0,0.0,0.0,0.0
goals: 0.0,0.0,0.0,0.0,0.0,0.0
state: 0.0,0.0,-0.17587040880217542,0.17587040880217542,0.0,0.17587040880217542
goals: 0.0,0.0,0.0,0.0,0.0,0.0
goals: 0.0,0.0,0.0,0.0,0.0,0.0
state: 0.0,0.0,0.0,0.17587040880217542,0.0,0.17587040880217542
goals: 0.0,0.0,0.0,0.0,0.0,0.0
goals: 0.0,0.0,0.0,0.0,0.0,0.0
state: 0.0,0.0,0.0,0.17587040880217542,0.0,0.17587040880217542
goals: 0.0,0.0,0.0,0.0,0.0,0.0
goals: 0.0,0.0,0.0,0.0,0.0,0.0
state: 0.0,0.0,-0.17587040880217542,0.17587040880217542,0.0,0.17587040880217542
goals: 0.0,0.0,0.0,0.0,0.0,0.0
goals: 0.0,0.0,0.0,0.0,0.0,0.0
state: 0.0,0.0,-0.17587040880217542,0.17587040880217542,0.0,0.17587040880217542
goals: 0.0,0.0,0.0,0.0,0.0,0.0
goals: 0.0,0.0,0.0,0.0,0.0,0.0
state: 0.0,0.0,0.0,0.17587040880217542,0.0,0.17587040880217542
goals: 0.0,0.0,0.0,0.0,0.0,0.0
goals: 0.0,0.0,0.0,0.0,0.0,0.0
state: 0.0,0.0,0.0,0.17587040880217542,0.0,0.17587040880217542
goals: 0.0,0.0,0.0,0.0,0.0,0.0
goals: 0.0,0.0,0.0,0.0,0.0,0.0
state: 0.0,0.0,0.0,0.17587040880217542,0.0,0.17587040880217542
goals: 0.0,0.0,0.0,0.0,0.0,0.0
goals: 0.0,0.0,0.0,0.0,0.0,0.0
state: 0.0,0.0,-0.17587040880217542,0.17587040880217542,0.0,0.17587040880217542
goals: 0.0,0.0,0.0,0.0,0.0,0.0
goals: 0.0,0.0,0.0,0.0,0.0,0.0
state: 0.0,0.0,0.0,0.17587040880217542,0.0,0.17587040880217542
goals: 0.0,0.0,0.0,0.0,0.0,0.0
goals: 0.0,0.0,0.0,0.0,0.0,0.0
state: 0.0,0.0,0.0,0.17587040880217542,0.0,0.17587040880217542
goals: 0.0,0.0,0.0,0.0,0.0,0.0
goals: 0.0,0.0,0.0,0.0,0.0,0.0
state: 0.0,0.0,0.0,0.17587040880217542,0.0,0.17587040880217542
goals: 0.0,0.0,0.0,0.0,0.0,0.0
goals: 0.0,0.0,0.0,0.0,0.0,0.0
state: 0.0,0.0,0.0,0.17587040880217542,0.0,0.17587040880217542
goals: 0.0,0.0,0.0,0.0,0.0,0.0
goals: 0.0,0.0,0.0,0.0,0.0,0.0
state: 0.0,0.0,-0.17587040880217542,0.17587040880217542,0.0,0.17587040880217542
goals: 0.0,0.0,0.0,0.0,0.0,0.0
goals: 0.0,0.0,0.0,0.0,0.0,0.0
state: 0.0,0.0,0.0,0.17587040880217542,0.0,0.17587040880217542
goals: 0.0,0.0,0.0,0.0,0.0,0.0
goals: 0.0,0.0,0.0,0.0,0.0,0.0
state: 0.0,0.0,0.0,0.17587040880217542,0.0,0.17587040880217542
goals: 0.0,0.0,0.0,0.0,0.0,0.0
goals: 0.0,0.0,0.0,0.0,0.0,0.0
state: 0.0,0.0,0.0,0.17587040880217542,0.0,0.17587040880217542
goals: 0.0,0.0,0.0,0.0,0.0,0.0
goals: 0.0,0.0,0.0,0.0,0.0,0.0
state: 0.0,0.0,0.0,0.17587040880217542,0.0,0.17587040880217542
goals: 0.0,0.0,0.0,0.0,0.0,0.0
goals: 0.0,0.0,0.0,0.0,0.0,0.0
state: 0.0,0.0,0.0,0.17587040880217542,0.0,0.17587040880217542
goals: 0.0,0.0,0.0,0.0,0.0,0.0
goals: 0.0,0.0,0.0,0.0,0.0,0.0
state: 0.0,0.0,0.0,0.17587040880217542,0.0,0.17587040880217542
goals: 0.0,0.0,0.0,0.0,0.0,0.0
goals: 0.0,0.0,0.0,0.0,0.0,0.0
state: 0.0,0.0,0.0,0.17587040880217542,0.0,0.17587040880217542
goals: 0.0,0.0,0.0,0.0,0.0,0.0
goals: 0.0,0.0,0.0,0.0,0.0,0.0
state: 0.0,0.0,-0.17587040880217542,0.17587040880217542,0.0,0.17587040880217542
goals: 0.0,0.0,0.0,0.0,0.0,0.0
goals: 0.0,0.0,0.0,0.0,0.0,0.0
state: 0.0,0.0,-0.17587040880217542,0.17587040880217542,0.0,0.17587040880217542
goals: 0.0,0.0,0.0,0.0,0.0,0.0
goals: 0.0,0.0,0.0,0.0,0.0,0.0
state: 0.0,0.0,0.0,0.17587040880217542,0.0,0.17587040880217542
goals: 0.0,0.0,0.0,0.0,0.0,0.0
goals: 0.0,0.0,0.0,0.0,0.0,0.0
state: 0.0,0.0,0.0,0.17587040880217542,0.0,0.17587040880217542
goals: 0.0,0.0,0.0,0.0,0.0,0.0
goals: 0.0,0.0,0.0,0.0,0.0,0.0
state: 0.0,0.0,-0.17587040880217542,0.17587040880217542,0.0,0.17587040880217542
goals: 0.0,0.0,0.0,0.0,0.0,0.0
goals: 0.0,0.0,0.0,0.0,0.0,0.0
state: 0.0,0.0,-0.17587040880217542,0.17587040880217542,0.0,0.17587040880217542
goals: 0.0,0.0,0.0,0.0,0.0,0.0
goals: 0.0,0.0,0.0,0.0,0.0,0.0
state: 0.0,0.0,0.0,0.17587040880217542,0.0,0.17587040880217542
goals: 0.0,0.0,0.0,0.0,0.0,0.0
goals: 0.0,0.0,0.0,0.0,0.0,0.0
state: 0.0,0.0,0.0,0.17587040880217542,0.0,0.17587040880217542
goals: 0.0,0.0,0.0,0.0,0.0,0.0
goals: 0.0,0.0,0.0,0.0,0.0,0.0
state: 0.0,0.0,0.0,0.17587040880217542,0.0,0.17587040880217542
goals: 0.0,0.0,0.0,0.0,0.0,0.0
goals: 0.0,0.0,0.0,0.0,0.0,0.0
state: 0.0,0.0,0.0,0.17587040880217542,0.0,0.17587040880217542
goals: 0.0,0.0,0.0,0.0,0.0,0.0
goals: 0.0,0.0,0.0,0.0,0.0,0.0
state: 0.0,0.0,0.0,0.17587040880217542,0.0,0.17587040880217542
goals: 0.0,0.0,0.0,0.0,0.0,0.0
goals: 0.0,0.0,0.0,0.0,0.0,0.0
state: 0.0,0.0,0.0,0.17587040880217542,0.0,0.17587040880217542
goals: 0.0,0.0,0.0,0.0,0.0,0.0
goals: 0.0,0.0,0.0,0.0,0.0,0.0
state: 0.0,0.0,0.0,0.17587040880217542,0.0,0.17587040880217542
goals: 0.0,0.0,0.0,0.0,0.0,0.0
goals: 0.0,0.0,0.0,0.0,0.0,0.0
state: 0.0,0.0,-0.17587040880217542,0.17587040880217542,0.0,0.17587040880217542
goals: 0.0,0.0,0.0,0.0,0.0,0.0
goals: 0.0,0.0,0.0,0.0,0.0,0.0
state: 0.0,0.0,0.0,0.17587040880217542,0.0,0.17587040880217542
goals: 0.0,0.0,0.0,0.0,0.0,0.0
goals: 0.0,0.0,0.0,0.0,0.0,0.0
state: 0.0,0.0,-0.17587040880217542,0.17587040880217542,0.0,0.17587040880217542
goals: 0.0,0.0,0.0,0.0,0.0,0.0
goals: 0.0,0.0,0.0,0.0,0.0,0.0
state: 0.0,0.0,0.0,0.17587040880217542,0.0,0.17587040880217542
goals: 0.0,0.0,0.0,0.0,0.0,0.0
goals: 0.0,0.0,0.0,0.0,0.0,0.0
state: 0.0,0.0,0.0,0.17587040880217542,0.0,0.17587040880217542
goals: 0.0,0.0,0.0,0.0,0.0,0.0
goals: 0.0,0.0,0.0,0.0,0.0,0.0
state: 0.0,0.0,0.0,0.17587040880217542,0.0,0.17587040880217542
goals: 0.0,0.0,0.0,0.0,0.0,0.0
goals: 0.0,0.0,0.0,0.0,0.0,0.0
state: 0.0,0.0,0.0,0.17587040880217542,0.0,0.17587040880217542
goals: 0.0,0.0,0.0,0.0,0.0,0.0
goals: 0.0,0.0,0.0,0.0,0.0,0.0
state: 0.0,0.0,-0.17587040880217542,0.17587040880217542,0.0,0.17587040880217542
goals: 0.0,0.0,0.0,0.0,0.0,0.0
goals: 0.0,0.0,0.0,0.0,0.0,0.0
state: 0.0,0.0,0.0,0.17587040880217542,0.0,0.17587040880217542
goals: 0.0,0.0,0.0,0.0,0.0,0.0
goals: 0.0,0.0,0.0,0.0,0.0,0.0
state: 0.0,0.0,-0.17587040880217542,0.17587040880217542,0.0,0.17587040880217542
goals: 0.0,0.0,0.0,0.0,0.0,0.0
goals: 0.0,0.0,0.0,0.0,0.0,0.0
state: 0.0,0.0,-0.17587040880217542,0.17587040880217542,0.0,0.17587040880217542
goals: 0.0,0.0,0.0,0.0,0.0,0.0
goals: 0.0,0.0,0.0,0.0,0.0,0.0
state: 0.0,0.0,0.0,0.17587040880217542,0.0,0.17587040880217542
goals: 0.0,0.0,0.0,0.0,0.0,0.0
goals: 0.0,0.0,0.0,0.0,0.0,0.0
state: 0.0,0.0,0.0,0.17587040880217542,0.0,0.17587040880217542
goals: 0.0,0.0,0.0,0.0,0.0,0.0
goals: 0.0,0.0,0.0,0.0,0.0,0.0
state: 0.0,0.0,0.0,0.17587040880217542,0.0,0.17587040880217542
goals: 0.0,0.0,0.0,0.0,0.0,0.0
goals: 0.0,0.0,0.0,0.0,0.0,0.0
state: 0.0,0.0,-0.17587040880217542,0.17587040880217542,0.0,0.17587040880217542
goals: 0.0,0.0,0.0,0.0,0.0,0.0
goals: 0.0,0.0,0.0,0.0,0.0,0.0
state: 0.0,0.0,0.0,0.17587040880217542,0.0,0.17587040880217542
goals: 0.0,0.0,0.0,0.0,0.0,0.0
goals: 0.0,0.0,0.0,0.0,0.0,0.0
state: 0.0,0.0,0.0,0.17587040880217542,0.0,0.17587040880217542
goals: 0.0,0.0,0.0,0.0,0.0,0.0
goals: 0.0,0.0,0.0,0.0,0.0,0.0
state: 0.0,0.0,-0.17587040880217542,0.17587040880217542,0.0,0.17587040880217542
goals: 0.0,0.0,0.0,0.0,0.0,0.0
goals: 0.0,0.0,0.0,0.0,0.0,0.0
state: 0.0,0.0,-0.17587040880217542,0.17587040880217542,0.0,0.17587040880217542
goals: 0.0,0.0,0.0,0.0,0.0,0.0
goals: 0.0,0.0,0.0,0.0,0.0,0.0
state: 0.0,0.0,0.0,0.17587040880217542,0.0,0.17587040880217542
goals: 0.0,0.0,0.0,0.0,0.0,0.0
goals: 0.0,0.0,0.0,0.0,0.0,0.0
state: 0.0,0.0,0.0,0.17587040880217542,0.0,0.17587040880217542
goals: 0.0,0.0,0.0,0.0,0.0,0.0
goals: 0.0,0.0,0.0,0.0,0.0,0.0
state: 0.0,0.0,0.0,0.17587040880217542,0.0,0.17587040880217542
goals: 0.0,0.0,0.0,0.0,0.0,0.0
goals: 0.0,0.0,0.0,0.0,0.0,0.0
state: 0.0,0.0,-0.17587040880217542,0.17587040880217542,0.0,0.17587040880217542
goals: 0.0,0.0,0.0,0.0,0.0,0.0
goals: 0.0,0.0,0.0,0.0,0.0,0.0
state: 0.0,0.0,-0.17587040880217542,0.17587040880217542,0.0,0.17587040880217542
goals: 0.0,0.0,0.0,0.0,0.0,0.0
goals: 0.0,0.0,0.0,0.0,0.0,0.0
state: 0.0,0.0,0.0,0.17587040880217542,0.0,0.17587040880217542
goals: 0.0,0.0,0.0,0.0,0.0,0.0
goals: 0.0,0.0,0.0,0.0,0.0,0.0
state: 0.0,0.0,0.0,0.17587040880217542,0.0,0.17587040880217542
goals: 0.0,0.0,0.0,0.0,0.0,0.0
goals: 0.0,0.0,0.0,0.0,0.0,0.0
state: 0.0,0.0,0.0,0.17587040880217542,0.0,0.17587040880217542
goals: 0.0,0.0,0.0,0.0,0.0,0.0
goals: 0.0,0.0,0.0,0.0,0.0,0.0
state: 0.0,0.0,0.0,0.17587040880217542,0.0,0.17587040880217542
goals: 0.0,0.0,0.0,0.0,0.0,0.0
goals: 0.0009231469630725406,4.927821773496708e-08,-4.30234299730389e-08,-3.401898397219058e-08,3.308514702672001e-08,-6.599779854298245e-08
state: 0.0,0.0,0.0,0.17587040880217542,0.0,0.17587040880217542
goals: 2.642773636637824,0.00014107306842782297,-0.00012316693986843153,-9.738912392418855e-05,9.471574713898637e-05,-0.00018893767627746892
goals: 5.276637676539376,0.00028167053647405613,-0.0002459186463811737,-0.00019444991937989453,0.00018911217857878302,-0.00037723838596779484
state: 3.8691489936478587,0.0,0.0,0.0,0.0,0.17587040880217542
goals: 7.915821595996884,0.00042255198333793036,-0.00036891828683585187,-0.00029170675826593987,0.0002836992719655004,-0.0005659194255007696
goals: 10.551855832714354,0.000563265297977935,-0.0004917711357608775,-0.00038884752786839656,0.00037817348222449237,-0.0007543752873152803
state: 9.145261257713123,0.0,0.0,0.0,0.0,0.17587040880217542
goals: 13.423592154043835,0.0007165605514756898,-0.0006256089226615994,-0.0004946741793069806,0.000481095142820035,-0.0009596820074639937
goals: 16.86555879778857,0.0009002950904947157,-0.000786022396128284,-0.0006215144471844211,0.000604453586301598,-0.0012057557424513883
state: 15.652466383393612,0.0,0.0,0.0,0.0,0.17587040880217542
goals: 20.304903380382598,0.0010838896620920116,-0.000946313667964226,-0.0007482580892158934,0.0007277180563616428,-0.001451642020543495
goals: 23.743478342593225,0.001267443150825643,-0.0011065690715040073,-0.0008749733698872192,0.0008509549435940792,-0.00169747327678854
state: 22.511412326678453,0.0,0.0,0.0,0.0,0.17587040880217542
goals: 27.184249000223137,0.0014511138472859736,-0.0012669268058230609,-0.0010017695643569592,0.0009742705235034984,-0.0019434615081087789
goals: 30.63584613888298,0.001635362468725574,-0.0014277891102345028,-0.0011289647265960415,0.0010979741193312775,-0.0021902237482732483
state: 29.722099087567646,0.0,0.0,0.0,0.0,0.17587040880217542
goals: 34.07147282915376,0.0018187585766819235,-0.0015879071090311404,-0.0012555713601939554,0.0012211053419030405,-0.0024358442260991255
goals: 37.49758478888765,0.0020016467817995675,-0.001747581672102653,-0.0013818273654752713,0.00134389556106871,-0.002680784474996907
state: 36.58104503085249,0.0,0.0,0.0,0.0,0.17587040880217542
goals: 40.95224576641074,0.0021860589530580455,-0.0019085867672744554,-0.0015091354335563828,0.0014677089634205977,-0.0029277657557130474
goals: 44.378913900576755,0.0023689768471481525,-0.002068287250955244,-0.001635411934479075,0.0015905191156127471,-0.003172745766739283
state: 43.791731791741675,0.0,0.0,0.0,0.0,0.17587040880217542
goals: 47.81479250864293,0.002552386402649117,-0.0022284169904259695,-0.0017620278515256553,0.0017136593667981897,-0.003418384254720178
goals: 51.26426556074539,0.002736521638892156,-0.0023891803014020065,-0.0018891447388318815,0.0018372868363764553,-0.0036649946392838502
state: 50.65067773502651,0.0,0.0,0.0,0.0,0.17587040880217542
goals: 54.70729627011584,0.002920312978463733,-0.00254964336583824,-0.0020160242187014688,0.001960683415462728,-0.003911144446653661
goals: 58.13302575785036,0.0031031807669638554,-0.0027093001037335456,-0.002142266129467679,0.002083459927014292,-0.004156057351790405
state: 57.50962367831136,0.0,0.0,-0.17587040880217542,0.0,0.17587040880217542
goals: 61.57794178951161,0.0032870727463317627,-0.0028698510339536677,-0.002269215085543503,0.0022069240751526,-0.004402341944980584
goals: 65.01450509550321,0.003470518851477369,-0.003030012683894152,-0.002395856234463971,0.0023300888655852464,-0.004648029383515998
state: 64.3685696215962,0.0,0.0,0.0,0.0,0.17587040880217542
goals: 68.45022658764557,0.003653920020022613,-0.0031901351009490358,-0.0025224663616154335,0.002453223485810887,-0.0048936566389353375
goals: 71.90574767854582,0.003838378104722799,-0.0033511802818592226,-0.0026498061258233407,0.002577067714216136,-0.005140699411040891
state: 71.40338597368321,0.0,0.0,-0.17587040880217542,0.0,0.17587040880217542
goals: 75.34068413910623,0.004021737367744034,-0.0035112661123762705,-0.0027763873236949896,0.0027001741992841604,-0.005386270542832824
goals: 78.77918067141188,0.0042052866698355715,-0.003671517860676248,-0.0029030997141377963,0.002823408275626196,-0.005632096191952161
state: 78.26233191696805,0.0,0.0,-0.17587040880217542,0.0,0.17587040880217542
goals: 82.20736089927094,0.0043882852805236,-0.0038312888157551097,-0.003029431937381165,0.002946272620535381,-0.005877184305868753
goals: 85.64917024558548,0.00457201142289797,-0.0039916949583468165,-0.003156266408674778,0.0030696254265520414,-0.006123246795318304
state: 85.47301867785725,0.0,0.0,-0.17587040880217542,0.0,0.17587040880217542
goals: 89.0886893040046,0.0047556153081344185,-0.004151994361659915,-0.00328301648033288,0.0031928961497424725,-0.006369145547069336
goals: 92.53250607452064,0.004939448608188815,-0.004312494060616982,-0.0034099249274228373,0.0033163209008854316,-0.006615351551672311
state: 92.15609421233991,0.0,0.0,-0.17587040880217542,0.0,0.17587040880217542
goals: 95.98279135713106,0.005123627201853179,-0.004473295225741685,-0.003537071746319305,0.0034399774804178534,-0.006862020004374187
goals: 99.41019174947257,0.005306584184386679,-0.004633029836446226,-0.003663375231763565,0.0035628138763938934,-0.007107052366141401
state: 99.01504015562475,0.0,0.0,-0.17587040880217542,0.0,0.17587040880217542
goals: 102.85093125181405,0.005490253217756357,-0.004793386118767469,-0.003790170278126557,0.0036861283397126294,-0.007353038370101825
goals: 106.2865338407715,0.005673648039168078,-0.00495350299431807,-0.0039167760235644875,0.0038092586985048133,-0.007598657124872016
state: 106.04985650771178,0.0,0.0,-0.17587040880217542,0.0,0.17587040880217542
goals: 109.72613377113665,0.005857256241404444,-0.005113806166682736,-0.004043529075443016,0.003932532320107232,-0.00784456165833562
goals: 113.1718937562429,0.006041193271585802,-0.005274396429504701,-0.004170509132134307,0.004056026715134636,-0.00809090658760626
state: 112.90880245099662,0.0,-0.17587040880217542,-0.17587040880217542,0.0,0.17587040880217542
goals: 116.6103144477843,0.006224738525245354,-0.005434644643232242,-0.004297218727761286,0.00417925807337984,-0.008336726814703235
goals: 120.04527779792848,0.006408099223651004,-0.005594731726943171,-0.004423800916543761,0.004302365522157727,-0.008582299868890413
state: 119.94361880308361,0.0,-0.17587040880217542,-0.17587040880217542,0.17587040880217542,0.17587040880217542
goals: 123.50199695696452,0.006592621262049593,-0.00575583274403395,-0.004551184830884138,0.004426252688753758,-0.008829428293511361
goals: 126.9372453796713,0.006775997177824061,-0.005915933113602845,-0.004677777524905028,0.004549370354396374,-0.009075021728160491
state: 126.6266943375663,0.0,-0.17587040880217542,-0.17587040880217542,0.17587040880217542,0.17587040880217542
goals: 130.37667027436737,0.00695959603653642,-0.0060762281283987234,-0.004804524126526056,0.004672637702803865,-0.009320913747940696
goals: 133.80337699961626,0.007142515990644985,-0.006235930410623858,-0.004930802049572725,0.004795449238082025,-0.009565896517927979
state: 133.6615106896533,0.0,-0.17587040880217542,-0.17587040880217542,0.0,0.17587040880217542
goals: 137.10626052444215,0.00731882617743029,-0.006389861890359749,-0.005052516951086445,0.004913823008892349,-0.00980202689608237
goals: 139.73138593539517,0.007458957171472646,-0.006512206331501248,-0.005149255718425252,0.005007906252036957,-0.009989702862047202
state: 139.81697499772946,0.0,0.0,-0.17587040880217542,0.17587040880217542,0.17587040880217542
goals: 142.37563442954257,0.0076001089688053905,-0.006635442007368736,-0.005246699192475678,0.005102674857365917,-0.010178745979118706
goals: 145.0039059905165,0.007740407906492649,-0.006757933075396879,-0.005343553898913478,0.005196870857027279,-0.010366646870240174
state: 144.91721685299254,0.0,0.0,-0.17587040880217542,0.0,0.17587040880217542
goals: 147.6500445948527,0.007881660599203,-0.006881256840189102,-0.005441067025609464,0.005291707203004255,-0.010555825115429357
goals: 149.03385744700802,0.007955529477898102,-0.0069457496866394,-0.005492062055784616,0.005341302395863517,-0.010654756927471252
state: 149.13810666424476,0.0,0.0,0.0,0.17587040880217542,0.17587040880217542
goals: 149.03385744700802,0.007955529477898102,-0.0069457496866394,-0.005492062055784616,0.005341302395863517,-0.010654756927471252
goals: 149.03385744700802,0.007955529477898102,-0.0069457496866394,-0.005492062055784616,0.005341302395863517,-0.010654756927471252
state: 149.4898474818491,0.0,0.0,0.0,0.17587040880217542,0.17587040880217542
goals: 149.03385744700802,0.007955529477898102,-0.0069457496866394,-0.005492062055784616,0.005341302395863517,-0.010654756927471252
goals: 149.03385744700802,0.007955529477898102,-0.0069457496866394,-0.005492062055784616,0.005341302395863517,-0.010654756927471252
state: 149.4898474818491,0.0,0.0,0.0,0.0,0.17587040880217542
goals: 149.03385744700802,0.007955529477898102,-0.0069457496866394,-0.005492062055784616,0.005341302395863517,-0.010654756927471252
goals: 149.03385744700802,0.007955529477898102,-0.0069457496866394,-0.005492062055784616,0.005341302395863517,-0.010654756927471252
state: 149.4898474818491,0.0,0.0,0.0,0.0,0.17587040880217542
goals: 149.03385744700802,0.007955529477898102,-0.0069457496866394,-0.005492062055784616,0.005341302395863517,-0.010654756927471252
goals: 149.03385744700802,0.007955529477898102,-0.0069457496866394,-0.005492062055784616,0.005341302395863517,-0.010654756927471252
state: 149.4898474818491,0.0,0.0,0.0,0.0,0.17587040880217542
goals: 149.03385744700802,0.007955529477898102,-0.0069457496866394,-0.005492062055784616,0.005341302395863517,-0.010654756927471252
goals: 149.03385744700802,0.007955529477898102,-0.0069457496866394,-0.005492062055784616,0.005341302395863517,-0.010654756927471252
state: 149.4898474818491,0.0,0.0,-0.17587040880217542,0.0,0.17587040880217542
goals: 149.03385744700802,0.007955529477898102,-0.0069457496866394,-0.005492062055784616,0.005341302395863517,-0.010654756927471252
goals: 149.03385744700802,0.007955529477898102,-0.0069457496866394,-0.005492062055784616,0.005341302395863517,-0.010654756927471252
state: 149.4898474818491,0.0,0.0,0.0,0.0,0.17587040880217542
goals: 149.03385744700802,0.007955529477898102,-0.0069457496866394,-0.005492062055784616,0.005341302395863517,-0.010654756927471252
goals: 149.03385744700802,0.007955529477898102,-0.0069457496866394,-0.005492062055784616,0.005341302395863517,-0.010654756927471252
state: 149.3139770730469,0.0,0.0,0.0,0.0,0.17587040880217542
goals: 149.03385744700802,0.007955529477898102,-0.0069457496866394,-0.005492062055784616,0.005341302395863517,-0.010654756927471252
goals: 149.03385744700802,0.007955529477898102,-0.0069457496866394,-0.005492062055784616,0.005341302395863517,-0.010654756927471252
state: 149.3139770730469,0.0,0.0,-0.17587040880217542,0.0,0.17587040880217542
goals: 149.03385744700802,0.007955529477898102,-0.0069457496866394,-0.005492062055784616,0.005341302395863517,-0.010654756927471252
goals: 149.03385744700802,0.007955529477898102,-0.0069457496866394,-0.005492062055784616,0.005341302395863517,-0.010654756927471252
state: 149.4898474818491,0.0,0.0,0.0,0.0,0.17587040880217542
goals: 149.03385744700802,0.007955529477898102,-0.0069457496866394,-0.005492062055784616,0.005341302395863517,-0.010654756927471252
goals: 149.03385744700802,0.007955529477898102,-0.0069457496866394,-0.005492062055784616,0.005341302395863517,-0.010654756927471252
state: 149.3139770730469,0.0,-0.17587040880217542,0.0,0.0,0.17587040880217542
goals: 149.03385744700802,0.007955529477898102,-0.0069457496866394,-0.005492062055784616,0.005341302395863517,-0.010654756927471252
goals: 149.03385744700802,0.007955529477898102,-0.0069457496866394,-0.005492062055784616,0.005341302395863517,-0.010654756927471252
state: 149.3139770730469,0.0,-0.17587040880217542,0.0,0.0,0.17587040880217542
goals: 149.03385744700802,0.007955529477898102,-0.0069457496866394,-0.005492062055784616,0.005341302395863517,-0.010654756927471252
goals: 149.03385744700802,0.007955529477898102,-0.0069457496866394,-0.005492062055784616,0.005341302395863517,-0.010654756927471252
state: 149.3139770730469,0.0,-0.17587040880217542,0.0,0.0,0.17587040880217542
goals: 149.03385744700802,0.007955529477898102,-0.0069457496866394,-0.005492062055784616,0.005341302395863517,-0.010654756927471252
goals: 149.03385744700802,0.007955529477898102,-0.0069457496866394,-0.005492062055784616,0.005341302395863517,-0.010654756927471252
state: 149.3139770730469,0.0,-0.17587040880217542,-0.17587040880217542,0.0,0.17587040880217542
goals: 149.03385744700802,0.007955529477898102,-0.0069457496866394,-0.005492062055784616,0.005341302395863517,-0.010654756927471252
goals: 149.03385744700802,0.007955529477898102,-0.0069457496866394,-0.005492062055784616,0.005341302395863517,-0.010654756927471252
state: 149.3139770730469,0.0,-0.17587040880217542,0.0,0.0,0.17587040880217542
goals: 149.03385744700802,0.007955529477898102,-0.0069457496866394,-0.005492062055784616,0.005341302395863517,-0.010654756927471252
goals: 149.03385744700802,0.007955529477898102,-0.0069457496866394,-0.005492062055784616,0.005341302395863517,-0.010654756927471252
state: 149.3139770730469,0.0,-0.17587040880217542,0.0,0.0,0.17587040880217542
goals: 149.03385744700802,0.007955529477898102,-0.0069457496866394,-0.005492062055784616,0.005341302395863517,-0.010654756927471252
goals: 149.03385744700802,0.007955529477898102,-0.0069457496866394,-0.005492062055784616,0.005341302395863517,-0.010654756927471252
state: 149.3139770730469,0.0,-0.17587040880217542,0.0,0.0,0.17587040880217542
goals: 149.03385744700802,0.007955529477898102,-0.0069457496866394,-0.005492062055784616,0.005341302395863517,-0.010654756927471252
goals: 149.03385744700802,0.007955529477898102,-0.0069457496866394,-0.005492062055784616,0.005341302395863517,-0.010654756927471252
state: 149.3139770730469,0.0,-0.17587040880217542,0.0,0.0,0.17587040880217542
goals: 149.03385744700802,0.007955529477898102,-0.0069457496866394,-0.005492062055784616,0.005341302395863517,-0.010654756927471252
goals: 149.03385744700802,0.007955529477898102,-0.0069457496866394,-0.005492062055784616,0.005341302395863517,-0.010654756927471252
state: 149.3139770730469,0.0,-0.17587040880217542,0.0,0.0,0.17587040880217542
goals: 149.03385744700802,0.007955529477898102,-0.0069457496866394,-0.005492062055784616,0.005341302395863517,-0.010654756927471252
goals: 149.03385744700802,0.007955529477898102,-0.0069457496866394,-0.005492062055784616,0.005341302395863517,-0.010654756927471252
state: 149.3139770730469,0.0,-0.17587040880217542,-0.17587040880217542,0.17587040880217542,0.17587040880217542
goals: 149.03385744700802,0.007955529477898102,-0.0069457496866394,-0.005492062055784616,0.005341302395863517,-0.010654756927471252
goals: 149.03385744700802,0.007955529477898102,-0.0069457496866394,-0.005492062055784616,0.005341302395863517,-0.010654756927471252
state: 149.13810666424476,0.0,-0.17587040880217542,0.0,0.17587040880217542,0.17587040880217542
goals: 149.03385744700802,0.007955529477898102,-0.0069457496866394,-0.005492062055784616,0.005341302395863517,-0.010654756927471252
goals: 149.03385744700802,0.007955529477898102,-0.0069457496866394,-0.005492062055784616,0.005341302395863517,-0.010654756927471252
state: 149.13810666424476,0.0,-0.17587040880217542,0.0,0.0,0.17587040880217542
goals: 149.03385744700802,0.007955529477898102,-0.0069457496866394,-0.005492062055784616,0.005341302395863517,-0.010654756927471252
goals: 149.03385744700802,0.007955529477898102,-0.0069457496866394,-0.005492062055784616,0.005341302395863517,-0.010654756927471252
state: 149.13810666424476,0.0,-0.17587040880217542,0.0,0.0,0.17587040880217542
goals: 149.03385744700802,0.007955529477898102,-0.0069457496866394,-0.005492062055784616,0.005341302395863517,-0.010654756927471252
goals: 149.03385744700802,0.007955529477898102,-0.0069457496866394,-0.005492062055784616,0.005341302395863517,-0.010654756927471252
state: 149.13810666424476,0.0,-0.17587040880217542,0.0,0.0,0.17587040880217542
goals: 149.03385744700802,0.007955529477898102,-0.0069457496866394,-0.005492062055784616,0.005341302395863517,-0.010654756927471252
goals: 149.03385744700802,0.007955529477898102,-0.0069457496866394,-0.005492062055784616,0.005341302395863517,-0.010654756927471252
state: 149.13810666424476,0.0,-0.17587040880217542,0.0,0.17587040880217542,0.17587040880217542
goals: 149.03385744700802,0.007955529477898102,-0.0069457496866394,-0.005492062055784616,0.005341302395863517,-0.010654756927471252
goals: 149.03385744700802,0.007955529477898102,-0.0069457496866394,-0.005492062055784616,0.005341302395863517,-0.010654756927471252
state: 149.13810666424476,0.0,-0.17587040880217542,-0.17587040880217542,0.17587040880217542,0.17587040880217542
goals: 149.03385744700802,0.007955529477898102,-0.0069457496866394,-0.005492062055784616,0.005341302395863517,-0.010654756927471252
goals: 149.03385744700802,0.007955529477898102,-0.0069457496866394,-0.005492062055784616,0.005341302395863517,-0.010654756927471252
state: 149.13810666424476,0.0,-0.17587040880217542,0.0,0.17587040880217542,0.17587040880217542
goals: 149.03385744700802,0.007955529477898102,-0.0069457496866394,-0.005492062055784616,0.005341302395863517,-0.010654756927471252
goals: 149.03385744700802,0.007955529477898102,-0.0069457496866394,-0.005492062055784616,0.005341302395863517,-0.010654756927471252
state: 149.13810666424476,0.0,-0.17587040880217542,0.0,0.0,0.17587040880217542
goals: 149.03385744700802,0.007955529477898102,-0.0069457496866394,-0.005492062055784616,0.005341302395863517,-0.010654756927471252
goals: 149.03385744700802,0.007955529477898102,-0.0069457496866394,-0.005492062055784616,0.005341302395863517,-0.010654756927471252
state: 148.96223625544258,0.0,-0.17587040880217542,0.0,0.0,0.17587040880217542
goals: 149.03385744700802,0.007955529477898102,-0.0069457496866394,-0.005492062055784616,0.005341302395863517,-0.010654756927471252
goals: 149.0338195318682,0.008005763927379811,-0.007004776595820527,-0.005492059527808336,0.005350096950162008,-0.010692671613795916
state: 148.96223625544258,0.0,-0.17587040880217542,0.0,0.0,0.17587040880217542
goals: 148.7055542808735,0.4411276671202393,-0.5153842641753569,-0.005470149063905716,0.08062578626589174,-0.33895405474921314
goals: 147.98170569817796,1.3835911982778721,-1.6178031019777537,-0.005421660543220122,0.24062079348737045,-1.0627945160259076
state: 148.43462502903606,0.5276112264065262,-1.9345744968239293,0.0,0.0,0.0
goals: 147.19539553053187,2.3881909117285844,-2.787207750728805,-0.005368716017732892,0.40546850734477324,-1.849096467966943
goals: 146.39137524265132,3.3953295909251087,-3.9537203672559125,-0.0053142865126778295,0.5648858101315593,-2.6531089714523395
state: 146.32418012340997,2.8139265408348066,-4.22088981125221,0.0,0.35174081760435083,-1.0552224528130525
goals: 145.56922020943543,4.404780031719941,-5.117095125478774,-0.005258324162560949,0.7188540751570731,-3.4752566512675234
goals: 144.7197914347329,5.4266662983225675,-6.288937864143313,-0.005200182275412243,0.8688555297835133,-4.324678433968458
state: 144.74134644419036,4.748501037658736,-6.331334716878314,0.0,0.7034816352087017,-1.9345744968239293
goals: 143.85440678294842,6.446378533620537,-7.452479391157224,-0.005140612073943158,1.0127302045247428,-5.190056555817086
goals: 142.96126568947147,7.476827007355884,-8.622457164004377,-0.0050787772787010445,1.1523058690288905,-6.083191497959529
state: 142.9826423561686,6.858945943284841,-8.793520440108772,0.0,0.8793520440108771,-3.165667358439157
goals: 142.04640974021385,8.509860504413624,-9.789592615202027,-0.00501506879519749,1.2864548145987604,-6.9980417248699816
goals: 141.1093576311133,9.545064581953005,-10.953474515360583,-0.004949428974870787,1.4151802397551905,-7.935088538703366
state: 141.04806785934468,9.145261257713123,-11.07983575453705,0.0,1.4069632704174033,-4.045019402450034
goals: 140.14169094338155,10.59047886127999,-12.123147027665368,-0.004881238453600377,1.5394870652990882,-8.90275031724927
goals: 139.14819633189725,11.639560571973318,-13.291295244489024,-0.004810802499750871,1.6586028598863427,-9.896240436876479
state: 139.11349336252076,11.4315765721414,-13.190280660163156,0.0,1.4069632704174033,-5.627853081669613
goals: 138.12802137416853,12.69200625824688,-14.457655933058131,-0.004738031123857125,1.7725678366566755,-10.916411317081241
goals: 137.07800649764133,13.749752616560993,-15.624452672806928,-0.004662666878226785,1.8816689755404112,-11.966422519042812
state: 137.00304845689465,13.36615106896533,-15.476595974591435,0.0,1.7587040880217542,-5.979593899273965
goals: 135.9947322398121,14.814701241356772,-16.793847145467186,-0.004584427825459221,1.9861664624331257,-13.049693496598458
goals: 134.882248200126,15.88138190623435,-17.959944201450117,-0.004503570547659632,2.085635112675536,-14.162174662314088
state: 134.89260355126856,15.652466383393612,-18.114652106624067,0.0,2.110444905626105,-8.793520440108772
goals: 133.73356834859985,16.95491976169346,-19.128482040989496,-0.004419549439026872,2.180688229796087,-15.310852026808794
goals: 132.56378802998205,18.01995392064815,-20.28296835308667,-0.0043334368048160085,2.270193623636068,-16.48063026921911
state: 132.60628823684024,17.76291128901972,-20.40096742105235,0.0,2.286315314428281,-12.135058207350104
goals: 131.39924108211534,19.052754573480318,-21.398176116723022,-0.004247168844064617,2.3526528610876762,-17.645175565397917
goals: 130.2319161369739,20.061295504823892,-22.48329620797443,-0.00416016285212871,2.4292833895769457,-18.812499231465292
state: 130.1441025136098,19.873356194645822,-22.511412326678453,0.0,2.286315314428281,-14.245503112976209
goals: 129.06215711161678,21.045842293765894,-23.539125065408395,-0.004072450113598496,2.5006160422012065,-19.9822573170775
goals: 127.87534866819189,22.018760993167252,-24.579356956192164,-0.003982931083413541,2.5679796374084516,-21.169065122788627
state: 127.68191679037936,21.983801100271926,-24.44598682350238,0.0,2.462185723230456,-16.531818427404488
goals: 126.66101009902663,22.987889886688414,-25.612711727984003,-0.0038907954799316017,2.6322561265798257,-22.383403335542774
goals: 125.42034086849159,23.951224135462937,-26.637380942098083,-0.003796108942239443,2.693641789225402,-23.62407247916852
state: 125.2197310671489,23.74250518829368,-26.73230213793066,0.0,2.638056132032631,-18.114652106624067
goals: 124.15131683281514,24.909280465120705,-27.654271461584635,-0.003698691886688822,2.752526771772426,-24.89309668464667
goals: 122.85492522068482,25.860239721422065,-28.661836821859616,-0.0035985951207078487,2.8091836471572087,-26.189488710312364
state: 122.75754534391845,25.677079685117608,-28.491006225952418,0.0,2.638056132032631,-18.46639292422842
goals: 121.53626052225601,26.799498569417846,-29.655623572797936,-0.003496191983877885,2.863762029285327,-27.508154049715476
goals: 120.22176356218978,27.708358255573895,-30.61632560959098,-0.003393537494944599,2.9156535240774604,-28.822651843953064
state: 120.1194892118858,27.61165418194154,-30.425580722776346,0.0,2.8139265408348066,-20.928578647458874
goals: 118.90929523944678,28.589165959389096,-31.546908585491252,-0.0032904825441497335,2.9654766871253893,-30.13512117101226
goals: 117.5946968553177,29.44534543385988,-32.45143989677413,-0.0031867144160867816,3.013875306934369,-31.44972071250026
state: 117.48143307985318,29.370358269963294,-32.36015521960027,0.0,2.9897969496369825,-25.501209276315436
goals: 116.2799468938481,30.276146613212045,-33.32955148788522,-0.0030824018963414154,3.0612313141895946,-32.76447196522464
goals: 114.9627050534063,31.08354412239281,-34.183733165052004,-0.0029773717511757877,3.1080599616616826,-34.08171521806326
state: 114.84337694782056,30.95319194918287,-34.2947297164242,0.0,2.9897969496369825,-28.842747043556763
goals: 113.64879723167392,31.864533487164323,-35.011182690554364,-0.0028721030941655013,3.154563284506856,-35.395624553791045
goals: 112.32879471949556,32.625156626028954,-35.818663421485326,-0.00276585307234516,3.201463021428593,-36.71562868160959
state: 112.20532081578791,32.711896037204625,-35.87756339564378,0.0,3.165667358439157,-31.4808031755894
goals: 111.01718205707107,33.357615366138674,-36.59822692254425,-0.002659802984424491,3.2486084452229798,-38.02724303424151
goals: 109.69792423218148,34.0713452988626,-37.36023153210612,-0.002552670927662491,3.296922795599198,-39.34650263719716
state: 109.56726468375528,34.11885930762203,-37.460397074863366,0.0,3.165667358439157,-34.2947297164242
goals: 108.38719341722312,34.758055400703256,-38.09611953550917,-0.0024457847921781654,3.346138891177762,-40.65723529069235
goals: 107.06874298666342,35.426692274874455,-38.815757425062756,-0.0023378343696649597,3.39717709056121,-41.97568763906972
state: 106.92920855172264,35.349952169237255,-38.86736034528077,0.0,3.3415377672413324,-37.108656257259014
goals: 105.75057070551156,36.07340353229925,-39.51529296564536,-0.0022294850632228846,3.4500373066760694,-43.29386190389796
goals: 104.43397158960767,36.69797146507752,-40.19473426456732,-0.0021208585114748926,3.504945317312882,-44.61046306633095
state: 104.29115241969002,36.58104503085249,-40.274323615698165,0.0,3.3415377672413324,-39.746712389291645
goals: 103.12169654552176,37.29958495673585,-40.85340718180813,-0.002012198646167717,3.5620380304257835,-45.92274021553405
goals: 101.80661245777434,37.88188034470468,-41.49550761086728,-0.0019029297293367935,3.621875180757664,-47.23782648005832
state: 101.82896669645956,37.81213789246772,-41.32954606851122,0.0,3.5174081760435083,-42.38476852132428
goals: 100.49142654909465,38.44390275162694,-42.12020815070673,-0.001793289703140512,3.6845841701222755,-48.55301463587538
goals: 99.17729351113843,38.98547626042541,-42.727505329051134,-0.0016833894839823884,3.7503374135461933,-49.86714999338269
state: 99.01504015562475,38.86736034528077,-42.56063893012645,0.0,3.5174081760435083,-45.19869506215908
goals: 97.85918240806556,39.508887362504424,-43.32016900148947,-0.0015728215067816829,3.819618380311138,-51.18526350276399
goals: 96.54273360595724,40.012108718972435,-43.896095891544725,-0.0014620723650062611,3.8923510042668794,-52.50171479409758
state: 96.37698402359213,39.92258279809381,-43.791731791741675,0.0,3.693278584845684,-47.83675119419172
goals: 95.23114791016287,40.49430817424612,-44.454452247185245,-0.0013514279368569988,3.968533628927905,-53.813303062524426
goals: 93.91396785001564,40.95954829037355,-45.000104665733296,-0.00124002008116694,4.048970490244681,-55.13048580743228
state: 93.73892789155948,40.8019348421047,-44.84695424455473,0.0,3.8691489936478587,-50.29893691742217
goals: 92.59618411189037,41.406151693266985,-45.5312854844015,-0.001128283175547235,4.133571194198308,-56.44827234202945
goals: 91.2816738058405,41.83306727054776,-46.046860984146335,-0.001016561081021488,4.222253066429395,-57.76278555754711
state: 91.10087175952687,41.68128688611557,-45.90217669736778,0.0,4.045019402450034,-52.936993049454806
goals: 89.9658249782021,42.242026339575865,-46.549035985619376,-0.0009044766531474035,4.315489687172383,-59.0786374282299
goals: 88.65199064948305,42.63217994879105,-47.03688571026785,-0.000792329880139117,4.41320517497445,-60.39247493707356
state: 88.46281562749422,42.56063893012645,-47.13326955898301,0.0,4.396760220054386,-55.0474379550809
goals: 87.33382631785398,43.00553226849911,-47.51305817107033,-0.0006795928234302816,4.5160434601373325,-61.71064261376466
goals: 86.02356940173307,43.358843836959906,-47.97349323777164,-0.000567327051637592,4.6231837085007355,-63.020903020911014
state: 85.82475949546159,43.439990974137324,-47.83675119419172,0.0,4.396760220054386,-56.80614204310265
goals: 84.70182067523355,43.69741779516209,-48.42524980044269,-0.00045388376246522066,4.736381909699491,-64.3426554502623
goals: 83.38867780476542,44.01617772476287,-48.86169172341306,-0.00034100130774003876,4.854078102809559,-65.65580219374642
state: 83.18670336342898,43.96760220054385,-48.71610323820259,0.0,4.748501037658736,-57.157882860707005
goals: 82.07076185131774,44.3185730911072,-49.2875835678202,-0.00022754445416832845,4.977587532326445,-66.97372224361754
goals: 80.72514979623344,44.60932241721831,-49.71013474595255,-0.0001115482142157718,5.1094012623369265,-68.31933871346352
state: 80.54864723139633,44.49521342695038,-49.77132569101564,0.0,4.924371446460912,-60.147679810343995
goals: 79.38492131351586,44.880937122897976,-50.11889656240607,4.1250342206496e-06,5.246558850683534,-69.65957184308857
goals: 78.0445071676031,45.13474199796156,-50.5158655992095,0.00011994054812944706,5.389732139349034,-70.99999090314125
state: 77.91059109936371,45.022824653356906,-50.65067773502651,0.0,5.276112264065262,-65.24792166560708
goals: 76.70066532999022,45.37136444987219,-50.902170996257105,0.00023616437055359345,5.539422876275351,-72.34383795283148
goals: 75.36330582983699,45.58919118675676,-51.27520279200636,0.00035192467226233715,5.694634337786472,-73.68120294176276
state: 75.27253496733107,45.550435879763434,-51.354159370235216,0.0,5.627853081669613,-66.83075534482666
goals: 74.01468806861017,45.79108060875215,-51.640037331220974,0.000468743135562085,5.857584545373372,-75.02982656172914
goals: 72.67446055827591,45.97408553885655,-51.99149643144177,0.0005849038284145224,6.026042414285863,-76.37006023564084
state: 72.63447883529845,45.90217669736778,-52.05764100544392,0.0,5.803723490471789,-68.0618482064419
goals: 71.33666324492138,46.13927458459122,-52.33143749776822,0.0007009084668473712,6.200796774501127,-77.7078640601912
goals: 69.99482783930688,46.28744700702702,-52.661632572576316,0.0008173041271056034,6.382820415923147,-79.04970637667999
state: 69.82055229446364,46.25391751497214,-52.76112264065262,0.0,6.15546430807614,-69.11707065925494
goals: 68.65266641099682,46.41812795466411,-52.981250545057605,0.0009337552243103342,6.5717570696593635,-80.39187511868307
goals: 67.30899544730984,46.531408182530676,-53.290674992145604,0.0010503508287594847,6.767899554516825,-81.73555382698173
state: 67.18249616243101,46.42978792377431,-53.28873386705915,0.0,6.50720512568049,-73.16209006170499
goals: 65.96801034549503,46.626960781562374,-53.58906615764308,0.0011667134104414575,6.970735030930803,-83.07654710066251
goals: 64.62526068910078,46.70511118152227,-53.87752365922901,0.0012832158578912837,7.181037678215884,-84.41930540436833
state: 64.54444003039838,46.60565833257648,-53.992215502267854,0.0,7.034816352087017,-78.26233191696805
goals: 63.28266466371886,46.7657000669202,-54.15570572919215,0.0013996786207800718,7.398625048752169,-85.76191056275776
goals: 61.94078937233644,46.80869298919649,-54.42358202022303,0.0015160396538543338,7.623501248415932,-87.1037954905697
state: 61.90638389836574,46.78152874137866,-54.51982672867438,0.0,7.562427578493542,-81.42799927540722
goals: 60.599301937534754,46.834084971027586,-54.68129618529175,0.001632315221412337,7.855814908278147,-88.44529308936242
goals: 59.2580711870113,46.84184538841949,-54.92893463500155,0.0017485043233527611,8.09568306421438,-89.78653455465256
state: 59.268327766333115,46.95739915018084,-55.0474379550809,0.0,8.090038804900068,-84.41779622504419
goals: 57.91663960570093,46.83192423882989,-55.1666260692423,0.001864634441320735,8.343284416798125,-91.12797742793404
goals: 56.57516654164711,46.804253708302014,-55.3943714405068,0.0019806798558868093,8.598687734971593,-92.46946238305745
state: 56.45440122549831,46.95739915018084,-55.39917877268526,0.0,8.44177962250442,-87.231722765879
goals: 55.23349754830031,46.75875242803904,-55.61221522000905,0.0020966422670824015,8.86201885865408,-93.81114389140437
goals: 53.88744804500404,46.69510345740184,-55.820795628493606,0.0022128714165455653,9.13423290072764,-95.15720659951859
state: 53.81634509346568,46.78152874137866,-55.92678999909178,0.0,8.969390848910946,-90.221519715516
goals: 52.54918759200578,46.61385787576551,-56.018263128489615,0.0023283058641049574,9.412929390181397,-96.49548084898765
goals: 51.20607129741645,46.5142062704768,-56.20650416399991,0.002444025967996194,9.700804033645774,-97.83861168373002
state: 51.17828896143304,46.60565833257648,-56.27853081669613,0.0,9.497002075317472,-92.85957584754863
goals: 49.862674595750825,46.39627421293136,-56.38479743463932,0.002559626312321426,9.997010015476615,-99.18202364771714
goals: 48.52533761714225,46.26061332834652,-56.55232958882975,0.0026745521822328804,10.300182461265509,-100.51937655832559
state: 48.36436242059823,46.25391751497214,-56.63027163430048,0.0,10.024613301724,-95.49763197958124
goals: 47.182646829294235,46.10595263741293,-56.71049319575132,0.002789774819641747,10.61298474776767,-101.86208410742826
goals: 45.84020720253985,45.93269309457309,-56.858512890638174,0.0029048029192657887,10.934240643034975,-103.20454128350103
state: 45.7263062885656,46.078047106169954,-56.982012451904836,0.0,10.903965345734875,-98.13568811161387
goals: 44.49918076032798,45.74087112792438,-56.996210197294715,0.0030195282379699077,11.26373526868258,-104.54558607088423
goals: 43.153414685135765,45.5293757889496,-57.12409624798768,0.003134467796807799,11.603090590710329,-105.8913713990634
state: 43.08825015653298,45.550435879763434,-57.157882860707005,0.0,11.255706163339227,-100.77374424364652
goals: 41.81450283939585,45.29990711420005,-57.241000795044854,0.0032486236445277415,11.949436556224635,-107.23030326226899
goals: 40.48952267350806,45.05394732807811,-57.34644274219716,0.003361389350962202,12.300810022987024,-108.55530410828261
state: 40.45019402450035,45.19869506215908,-57.33375326950918,0.0,12.135058207350104,-103.23592996687697
goals: 39.16067314015505,44.788223491446004,-57.44183976274728,0.0034742750443122125,12.661901242122498,-109.88417527632548
goals: 37.83153820835709,44.50317099580796,-57.5267585684806,0.00358696854401427,13.03184161174958,-111.21333276713126
state: 37.81213789246772,44.3193430181482,-57.50962367831136,0.0,12.838539842558804,-105.52224528130525
goals: 36.50095263761263,44.198301571183066,-57.60111332841687,0.0036995619141703714,13.411033545468541,-112.54394186664713
goals: 35.17356816831988,43.87450654116891,-57.664511026570835,0.003811656085150422,13.798192823160667,-113.8713507742352
state: 34.99821135163291,43.791731791741675,-57.685494087113526,0.0,13.542021477767507,-105.87398609890961
goals: 33.86092140851302,43.53478344247209,-57.716456864711596,0.003922276169569864,14.189827430940223,-115.18402267301201
goals: 32.543941071401974,43.17420225464967,-57.75765702007011,0.004033027244560652,14.591573087008026,-116.50102922649684
state: 32.36015521960027,43.08825015653298,-58.03723490471788,0.0,14.421373521778381,-107.63269018693136
goals: 31.229330754551594,42.79432297299523,-57.78769021219797,0.0041433407305245485,15.001448699301756,-117.81566672851505
goals: 29.91429304992336,42.39413435186376,-57.80644031195267,0.004253447963886935,15.420349313237779,-119.13073266545014
state: 29.897969496369818,42.20889811252209,-58.03723490471788,0.0,15.300725565789259,-113.43641367740315
goals: 28.61156375515704,41.97753972033437,-57.81366710012141,0.004362282537925903,15.844131771385625,-120.43349097398128
goals: 27.309833275972213,41.54097330208241,-57.80938036302336,0.004470790110097704,16.276371321634915,-121.73525150585692
state: 27.25991336433719,41.5054164773134,-58.03723490471788,0.0,16.00420720099796,-116.25034021823795
goals: 26.00929580862121,41.08428586277446,-57.79336958215348,0.004578952692916141,16.717006693933243,-123.03582007885016
goals: 24.713864690071926,40.608729286968874,-57.76551559366337,0.004686444687151409,17.164666978088594,-124.33128327515936
state: 24.62185723230456,40.45019402450035,-58.03723490471788,0.0,16.88355924500884,-118.1849147150619
goals: 23.427857366009665,40.115956483197365,-57.72584584399506,0.004792910497624695,17.61772687804762,-125.6173235438716
goals: 22.136546223895053,39.6001358513595,-57.67368298171751,0.0048995695512750485,18.081340159312898,-126.90866888913742
state: 21.983801100271926,39.57084198048947,-58.03723490471788,0.0,17.76291128901972,-118.88839635027058
goals: 20.859627903113964,39.069067438041024,-57.60966230097778,0.005004797009362653,18.54834276586853,-128.18562215670923
goals: 19.578963220297233,38.51516467955968,-57.53271946767989,0.005110090521119714,19.02525630586974,-129.46632303084067
state: 19.52161537704147,38.33974911887424,-58.03723490471788,0.0,18.818133741832767,-122.75754534391845
goals: 18.310084469039495,37.94504179898095,-57.443588625489205,0.005214175622668184,19.50620127886311,-130.7352387856309
goals: 17.042042920701416,37.35378390428347,-57.34135764143238,0.005317954650681032,19.995180060052657,-132.00331846872584
state: 16.88355924500884,37.28452666606119,-58.03723490471788,0.0,19.873356194645822,-126.6266943375663
goals: 15.782342180431007,36.744804214384565,-57.226425533318526,0.005420817079756497,20.489178750797297,-133.26305825273687
goals: 14.52675278251717,36.116053409044234,-57.09824136115963,0.005523113092076528,20.989695589035126,-134.51868773238684
state: 14.421373521778381,36.05343380444596,-58.03723490471788,0.0,20.7527082386567,-129.26475046959894
goals: 13.275255057116878,35.467401481854424,-56.95655678822745,0.005624848199906,21.49661225992427,-135.7702265810709
goals: 12.027435377751628,34.79850162013084,-56.80106056393906,0.005726060124348852,22.00996432468504,-137.01808844120092
state: 11.95918779854793,34.470600125226376,-57.685494087113526,0.0,21.80793069146975,-131.90280660163157
goals: 10.78728257726886,34.1114493765074,-56.63203333251508,0.005826430583198453,22.52793705991225,-138.258284341412
goals: 9.55260951546627,33.405037337512866,-56.4489819313281,0.005926142501579331,23.051244646540383,-139.4930014904933
state: 9.497002075317472,33.23950726361115,-57.157882860707005,0.0,22.8631531442828,-134.36499232486202
goals: 8.326164596695438,32.68085561929776,-56.252119377553626,0.006024980074036249,23.578510126417605,-140.71949137658734
goals: 7.104213955164869,31.936690180972597,-56.04062479253189,0.006123250204195198,24.11112651979254,-141.941487993134
state: 7.034816352087017,31.832543993193752,-56.63027163430048,0.0,23.91837559709586,-136.65130763929028
goals: 5.887312406277905,31.172778454803282,-55.81430111779412,0.006220913503578611,24.64865937815106,-143.15843649797924
goals: 4.673772961467899,30.387927121696702,-55.57250664881704,0.00631811035156762,25.19166025571306,-144.3720239391824
state: 4.572630628856562,30.073839905171997,-56.27853081669613,0.0,24.97359804990891,-138.93762295371857
goals: 3.475865822087422,29.59023571068587,-55.317558463369096,0.006413865424673848,25.734347295436628,-145.569979608066
goals: 2.276326532254566,28.76823201321832,-55.045546176369726,0.006509564940928882,26.284281533411495,-146.7695686435067
state: 1.9345744968239293,28.491006225952418,-55.39917877268526,0.0,26.02882050272196,-141.75154949455336
goals: 1.0876856196865292,27.930385920423014,-54.758965283890106,0.006604214072907444,26.835489188397336,-147.95825998735177
goals: 0.15616298754254793,27.25730595538162,-54.52215839111744,0.006678265215507646,27.271716546398057,-148.88982293393164
state: 0.0,26.90817254673284,-54.871567546278726,0.0,27.084042955535015,-144.03786480898168
goals: -0.0014440054845909665,27.092496729816006,-54.600422061204014,0.006693035522451133,27.514781654024777,-149.04744632473052
goals: -0.0014424889730151106,26.8065351905409,-55.271700901784975,0.00670608791675566,28.472022032917252,-149.04749882729115
state: -0.5276112264065262,26.73230213793066,-54.69569713747656,-0.17587040880217542,28.139265408348066,-145.09308726179472
goals: -0.00144049255874553,26.41127612632407,-56.15125432890321,0.006724238949985822,29.74683452296102,-149.0475691283343
goals: -0.0014384959246415026,25.994107526673098,-57.025678612200984,0.006743535498507241,31.038427404591825,-149.0476408170621
state: -0.7034816352087017,25.677079685117608,-56.45440122549831,0.0,30.777321540380697,-145.2689576705969
goals: -0.0014365273521863985,25.560881944101098,-57.882158049579,0.00676372766245568,32.32813242321571,-149.04771288699615
goals: -0.001434582022352074,25.110907134332475,-58.72248734150588,0.006784866943986661,33.61843652357401,-149.0477854986413
state: -0.5276112264065262,24.797727641106732,-58.03723490471788,0.0,33.41537767241333,-145.09308726179472
goals: -0.0014326367816993389,24.638749889143995,-59.55626199352807,0.00680723249137885,34.92436841942013,-149.04785953080153
goals: -0.0014307173000087348,24.150635765282402,-60.37211102744144,0.006830554184331542,36.22833157582104,-149.04793401865646
state: -0.5276112264065262,23.91837559709586,-59.971809401541805,0.0,35.87756339564378,-145.2689576705969
goals: -0.0014288218677916843,23.646564144592368,-61.170548772031424,0.006854854332200227,37.53084093971648,-149.04800901438873
goals: -0.001426929310643325,23.120968209259512,-61.960183416007574,0.006880428459996582,38.84607151761476,-149.0480853679067
state: -0.5276112264065262,22.8631531442828,-61.73051348956357,0.0,38.69148993647859,-145.2689576705969
goals: -0.0014250594713584935,22.579419166961824,-62.73244210251279,0.0069070341621367244,40.15987924499523,-149.04816229327892
goals: -0.0014231965109660508,22.017485258234686,-63.493622111444644,0.0069349186193199555,41.482993161207794,-149.0482404528699
state: -0.5276112264065262,21.80793069146975,-63.13747675998097,-0.17587040880217542,41.32954606851122,-145.2689576705969
goals: -0.001421348592935199,21.43766453224214,-64.24011808179343,0.006963990407701095,42.80930985608472,-149.04831952543972
goals: -0.0014195120602156948,20.838944516585396,-64.97319163818993,0.006994333459629243,44.14110342665236,-149.04839968450412
state: -0.5276112264065262,20.576837829854522,-64.54444003039838,0.0,43.96760220054385,-145.2689576705969
goals: -0.001417690644184338,20.222696143768996,-65.69116393562088,0.007025912927225558,45.4753240953955,-149.04848078532606
goals: -0.0014158734558935536,19.58526967146217,-66.39810572495058,0.007058954407091909,46.81969235549978,-149.04856334223058
state: -0.35174081760435083,19.52161537704147,-66.30314411842012,0.0,46.60565833257648,-145.2689576705969
goals: -0.0014140795104663937,18.933534960687865,-67.08648517175129,0.007093139447984794,48.15980651153008,-149.04864651131223
goals: -0.0014122881521593364,18.260169644844996,-67.76410348679562,0.0071288922693045825,49.51079014084179,-149.048731274315
state: -0.35174081760435083,18.290522515426247,-67.53423698003536,-0.17587040880217542,49.06784405580694,-145.09308726179472
goals: -0.0014107000295811932,17.64409818329563,-68.35642489372422,0.007161994456339548,50.71918300789448,-149.0488079041884
goals: -0.0014099657634415415,17.353126929857105,-68.62754538788694,0.007177760317252811,51.28127475482745,-149.04884381910264
state: -0.35174081760435083,17.587040880217543,-68.23771861524406,-0.17587040880217542,50.65067773502651,-145.2689576705969
goals: -0.0014095014700169404,17.167125294130525,-68.79807416657839,0.007187883166383421,51.637805168819824,-149.04886669039504
goals: -0.3581669676267938,17.595476529677246,-69.12535445967649,0.007213129669454743,51.53671654114432,-149.40562975509758
state: -0.5276112264065262,17.587040880217543,-68.7653298416506,-0.17587040880217542,51.17828896143304,-145.44482807939906
goals: -1.2687689143317815,18.69197385547187,-69.93075514708653,0.007276269821262974,51.2455744058667,-150.31624345196465
goals: -2.2727673669554327,19.880520708432464,-70.79329905903211,0.00734514762999655,50.91952071040571,-151.32025391001758
state: -2.110444905626105,20.049226603448,-70.52403392967234,0.0,51.354159370235216,-145.97243930580558
goals: -3.297519965158128,21.071993616965184,-71.64711008263606,0.007414663329526833,50.581806386434835,-152.345017765306
goals: -4.345278297559105,22.268062370530693,-72.49336188665498,0.007484932283549821,50.23193516125711,-153.3927866001857
state: -4.045019402450034,22.511412326678453,-72.10686760889192,0.17587040880217542,51.354159370235216,-147.90701380262954
goals: -5.403590174927808,23.453888518235473,-73.32171266379882,0.0075550939582002315,49.874404296204176,-154.45110808652652
goals: -6.491147017072461,24.64959693257154,-74.14630690358526,0.0076263550672120975,49.50323239475176,-155.53867379343092
state: -5.979593899273965,24.797727641106732,-74.04144210571584,0.35174081760435083,50.826548143828695,-149.84158829945346
goals: -7.590430983325508,25.835077555120858,-74.9533646780722,0.00769753426280755,49.12475048271757,-156.63796571796462
goals: -8.718719985419112,27.02811931417071,-75.7551154343815,0.0077697170393301795,48.73339811605396,-157.76626188058847
state: -8.617650031306594,27.084042955535015,-75.62427578493543,0.35174081760435083,49.77132569101564,-152.3037740226839
goals: -9.865339830269928,28.216388878764025,-76.5433206117891,0.007842179776237052,48.3332706045263,-158.91288799826935
goals: -11.039224401370753,29.4081531580951,-77.32356742042661,0.0079154482813743,47.92168771775143,-160.08677798677977
state: -11.07983575453705,29.722099087567646,-77.38297987295718,0.17587040880217542,48.89197364700476,-154.41421892831002
goals: -12.234722945583512,30.596581596451976,-78.09146970770423,0.007989127167060446,47.50109413089188,-161.28228104943074
goals: -13.451731052274159,31.78066075061088,-78.84655920991376,0.008063173954664276,47.07203499237335,-162.49929276843744
state: -13.542021477767507,32.00841440199592,-78.96581355217677,0.17587040880217542,47.83675119419172,-155.82118219872743
goals: -14.697421475724669,32.966236069792494,-79.59268845070991,0.00813798043305241,46.632516922826966,-163.74498590766268
goals: -15.958493364201953,34.13971025867453,-80.32152049442728,0.008212710184196125,46.18780101282659,-165.0060595854247
state: -16.00420720099796,34.470600125226376,-80.37277682259416,0.17587040880217542,46.78152874137866,-156.5246638339361
goals: -17.22202073896161,35.28895003293563,-81.02605079743341,0.008286590421011998,45.74301674932149,-166.26958783601336
goals: -18.48800356482666,36.414239841664276,-81.70710852943387,0.008359628709415631,45.29870885674988,-167.5355706699631
state: -18.642263333030595,36.58104503085249,-81.77974009301157,0.17587040880217542,45.90217669736778,-156.87640465154047
goals: -19.74982970571017,37.51017803242726,-82.36211739044172,0.0084314581382357,44.85770309456616,-168.79739600296577
goals: -21.014495692817654,38.58328369611654,-82.99562938614892,0.008502490065474355,44.41803196444052,-170.0620604121038
state: -21.280319465063226,38.86736034528077,-83.0108329546268,0.35174081760435083,44.84695424455473,-162.32838732440788
goals: -22.280773478031012,39.632763346481205,-83.60774592653699,0.008572660992012537,43.98059044264027,-171.32833589485563
goals: -23.565050063650887,40.67199490502176,-84.20669210243463,0.00864286686320641,43.54022467376882,-172.61260945541548
state: -23.566634779491505,40.977805250906876,-84.24192581624203,0.35174081760435083,43.96760220054385,-166.90101795326444
goals: -24.852206354779987,41.68849546304979,-84.7856731454861,0.008712266847896544,43.10262373352962,-173.89976206582884
goals: -26.14090971123082,42.681438893295734,-85.34473900383556,0.008780792547431858,42.66866378751059,-175.18846113394812
state: -26.20469091152414,42.912379747730796,-85.64888908665942,0.17587040880217542,42.912379747730796,-168.48385163248406
goals: -27.43439720174048,43.65347678523718,-85.88586687955417,0.008848616499487658,42.23767024549996,-176.48194376010628
goals: -28.739778609605285,44.60980966504709,-86.4123475311876,0.008916099782004396,41.80773287513256,-177.78731973671782
state: -28.66687663475459,44.67108383575256,-86.52824113067031,0.17587040880217542,42.38476852132428,-169.71494449409926
goals: -30.05395927099094,45.54791182859659,-86.92314989214222,0.008983065574868039,41.380346506726596,-179.1014944469877
goals: -31.372257127095253,46.464395295492615,-87.41682929616813,0.009049266273042075,40.957454761668124,-180.4197858922926
state: -31.304932766787225,46.78152874137866,-87.40759317468118,0.17587040880217542,41.32954606851122,-173.2323526701428
goals: -32.704355114930465,47.36580301931333,-87.89727079785254,0.009115172834523365,40.53639909143703,-181.75187699961407
goals: -34.04044337940923,48.24530814487429,-88.36118678752936,0.009180284043514871,40.120719395350875,-183.08795800207088
state: -34.11885930762203,48.540232829400416,-88.6386860362964,0.17587040880217542,40.274323615698165,-176.92563125498845
goals: -35.3851555436937,49.10590767466527,-88.81052828688696,0.0092448147092698,39.7093693788742,-184.43266253772106
goals: -36.534165358800145,49.82194260379014,-89.18094572628843,0.009299160472301983,39.36367263118445,-185.58166561378417
state: -36.40517462205031,49.94719609981782,-89.34216767150512,0.35174081760435083,39.57084198048947,-179.91542820462544
goals: -36.864390460541905,50.0514086555425,-89.29899507325484,0.009314282608142785,39.252233036890566,-185.911887666722
goals: -36.16936600096166,50.33133272304959,-89.4425800252659,0.009272163148889769,39.1159420516309,-185.21683915090233
state: -36.75691543965466,50.29893691742217,-89.51803808030728,0.17587040880217542,39.21910116288512,-181.6741322926472
goals: -34.8480054911081,50.847830667253426,-89.70627453492645,0.009191541680837313,38.86322951277351,-183.89543343541038
goals: -33.43690043795202,51.376854099953846,-89.97470476144622,0.00910465857645188,38.60273248418559,-182.48428087191874
state: -34.470600125226376,51.354159370235216,-90.04564930671381,-0.35174081760435083,38.86736034528077,-181.85000270144937
goals: -32.021346733102575,51.88431283962433,-90.23062302513036,0.009016689717603462,38.351287549575325,-181.0686802994044
goals: -30.59462404933294,52.37239731582457,-90.47532710719616,0.00892720766720765,38.10800248379888,-179.6419111776467
state: -31.656673584391577,52.40938182304828,-90.57326053312035,-0.35174081760435083,38.51561952767642,-181.6741322926472
goals: -29.171811068967255,52.83592749806686,-90.70641619884726,0.008837155422616465,37.87565547889354,-178.21905268064754
goals: -27.743295063356225,53.27814562035689,-90.9257010497756,0.00874592672943735,37.65281566980913,-176.79049176674565
state: -28.31513581715024,53.112863458256975,-90.92500135072468,-0.5276112264065262,37.636267483665534,-180.97065065743848
goals: -26.305498990091905,53.699940700568426,-91.13379016055502,0.00865328398753951,37.43920274285755,-175.35265128496346
goals: -24.867069668006717,54.09867520066289,-91.32954718788163,0.008559779607956735,37.2363173080142,-173.91417831925077
state: -25.501209276315436,53.992215502267854,-91.4526125771312,-0.35174081760435083,37.108656257259014,-179.38781697821892
goals: -23.424975583194186,54.475212728785415,-91.5135574107299,0.008465216498782306,37.043881210614565,-172.47204125577204
goals: -21.972974468855554,54.83098708803658,-91.6866658594917,0.008369177903635089,36.86130604337656,-171.01999763926344
state: -22.687282735480625,54.871567546278726,-91.80435339473556,-0.5276112264065262,36.75691543965466,-176.92563125498845
goals: -20.522331186200514,55.1631446367097,-91.84762309020064,0.008272405485745675,36.69019527562473,-169.56931265306713
goals: -19.064111100047814,55.47369623621743,-91.99753595993391,0.008174302275333742,36.52964543310263,-168.1110513938372
state: -19.873356194645822,55.39917877268526,-91.98022380353774,-0.5276112264065262,36.05343380444596,-173.93583430535148
goals: -17.610387887410177,55.76010016490271,-92.13530142403383,0.00807568230487949,36.381094438982224,-166.65728786454017
goals: -16.152645160139777,56.0241412514651,-92.2618941849596,0.007975972764418316,36.243732665836745,-165.19950542188656
state: -16.707688836206664,56.10266040789396,-92.33196462114209,-0.5276112264065262,35.87756339564378,-171.64951899092318
goals: -14.684466369513347,56.26672611159012,-92.37784937192471,0.007874727373203265,36.1171889767193,-163.731287332895
goals: -13.218727999892817,56.485617444515626,-92.48219183305652,0.007772832324840779,36.00272474262974,-162.26551041105745
state: -13.89376229537186,56.63027163430048,-92.50783502994427,-0.35174081760435083,35.70169298684161,-168.30798122368188
goals: -11.748977650030444,56.681816154729816,-92.5754861618054,0.007669842951591149,35.899904009290516,-160.79572206397387
goals: -10.278797902035476,56.85480498846355,-92.65756354964046,0.007566011986774915,35.80907499876559,-159.3255049457258
state: -10.728094936932699,56.80614204310265,-92.68370543874644,-0.5276112264065262,35.349952169237255,-165.1423138652427
goals: -8.815234962532708,57.00396061697454,-92.72819771998823,0.007461847746863524,35.73063436253399,-157.8619054135086
goals: -7.349994485800033,57.13029132289832,-92.7879256001781,0.007356769532601821,35.66411119617367,-156.39662888580773
state: -7.914168396097894,56.982012451904836,-93.03544625635078,-0.5276112264065262,35.17408176043509,-161.97664650680355
goals: -5.8782070425292625,57.234071173093035,-92.83692560463422,0.0072504275562047076,35.609410088572844,-154.9248057917265
goals: -4.402760621520825,57.31488651752933,-92.87504249191544,0.00714302822313856,35.566789267241504,-153.44932416825665
state: -4.924371446460912,57.157882860707005,-93.03544625635078,-0.5276112264065262,35.17408176043509,-159.69033119237525
goals: -2.9174069619119862,57.37278832616232,-92.90233178432162,0.007034112261682753,35.53625358244861,-151.9639355837759
goals: -1.4415111538827745,57.40703083253973,-92.91846474184248,0.006925105866072982,35.5182190456335,-150.48800555425845
state: -1.7587040880217542,57.33375326950918,-93.03544625635078,-0.35174081760435083,34.99821135163291,-159.69033119237525
goals: 0.046850007259459536,57.41806317098691,-92.92366662625427,0.006814394255162296,35.51246288175257,-148.99961033717912
goals: 1.5244514122395247,57.40567731913757,-92.91784370387663,0.006703710617417739,35.51909820561773,-147.5219755424931
state: 1.231092861615228,57.33375326950918,-93.03544625635078,-0.35174081760435083,34.99821135163291,-154.76595974591436
goals: 3.007567752853557,57.369853861337276,-92.90098200908032,0.006591846947099464,35.538131259535746,-146.03882607605738
goals: 4.493303559305958,57.310460498749734,-92.8730049520913,0.006479022643016211,35.569617590272536,-144.55305744222625
state: 4.22088981125221,57.33375326950918,-93.03544625635078,-0.35174081760435083,35.17408176043509,-150.01745870825562
goals: 5.972304383628424,57.22794780479249,-92.83410135231236,0.006365958519218192,35.61329499699519,-143.0740242604008
goals: 7.455445895921105,57.12174246203413,-92.78396806839409,0.006251832576402726,35.669434150347605,-141.5908505871718
state: 7.034816352087017,57.157882860707005,-93.03544625635078,-0.5276112264065262,35.17408176043509,-147.02766175861865
goals: 8.93626976242853,56.99222703605526,-92.72274333218012,0.006137147880616073,35.737790410619965,-140.10999486177607
goals: 10.423084071260021,56.838542360146874,-92.64996854437454,0.006021265852163739,35.81876469676463,-138.62314878234105
state: 10.200483710526175,56.982012451904836,-93.03544625635078,-0.35174081760435083,35.17408176043509,-144.21373521778384
goals: 11.904278849508898,56.66182752197771,-92.56612138902986,0.005905098741484607,35.91169509105319,-137.14192253353605
goals: 13.386841408944287,56.4612902751917,-92.47075506806395,0.005788109338525583,36.01692733333581,-135.6593286174112
state: 13.190280660163156,56.45440122549831,-93.03544625635078,-0.35174081760435083,35.17408176043509,-141.22393826814687
goals: 14.869157963669915,56.23704951839397,-92.36384436036032,0.005670431741492247,36.13431722502814,-134.1769808167322
goals: 16.346215750732387,55.989922297526476,-92.24568904532461,0.005552475560741143,36.26334729563497,-132.69989196182433
state: 16.00420720099796,56.10266040789396,-93.03544625635078,-0.35174081760435083,35.349952169237255,-138.23414131850987
goals: 17.828930296194297,55.71798595125236,-92.11526778420692,0.005433376400453632,36.40491928716496,-131.2171462587669
goals: 19.315263194367862,55.42129604400421,-91.97249038874192,0.005313299149246533,36.558887345235604,-129.73078211738317
state: 18.994004150634943,55.39917877268526,-92.33196462114209,-0.35174081760435083,35.70169298684161,-134.89260355126856
goals: 20.787940051744076,55.103443385330976,-91.81896666730407,0.005193653809432548,36.72326982911794,-128.25807425556164
goals: 22.24337783465293,54.765837900685554,-91.65526362790195,0.005074759572873779,36.89722372875651,-126.80260574581145
state: 22.1596715090741,54.69569713747656,-92.15609421233991,-0.35174081760435083,36.05343380444596,-132.07867701043372
goals: 23.692503345947866,54.40640621901875,-91.48025212072751,0.004955746676041382,37.08169367925687,-125.35344951908458
goals: 25.129381883318306,54.026941703149475,-91.29467207549632,0.004837121197923774,37.27562606327514,-123.91654036877524
state: 24.97359804990891,53.992215502267854,-91.6284829859334,-0.35174081760435083,36.40517462205031,-129.26475046959894
goals: 26.565728662940046,53.62453807613859,-91.09695673799699,0.004717930868512686,37.48036080617334,-122.48016279436031
goals: 28.008299756539337,53.197028128535976,-90.88586798579617,0.004597617786008662,37.696827197311045,-121.0375605408418
state: 27.78752459074372,53.112863458256975,-91.27674216832904,-0.35174081760435083,37.108656257259014,-126.6266943375663
goals: 29.43883826257601,52.74982368006515,-90.66390614205503,0.004477714512577858,37.92211316992699,-119.60699086856148
goals: 30.8568111654596,52.28354395667619,-90.4312207218494,0.004358286936765013,38.15574902760006,-118.18898677529926
state: 30.601451131578518,52.2335114142461,-90.57326053312035,-0.5276112264065262,37.460397074863366,-123.63689738792932
goals: 32.285965315717405,51.79026142415565,-90.1836585861629,0.004237341711006473,38.40150985715825,-116.75980085215791
goals: 33.69867087222862,51.27947886363931,-89.9257880064857,0.004117225740058956,38.654460368930046,-115.34706352046261
state: 33.41537767241333,51.17828896143304,-90.221519715516,-0.35174081760435083,38.16387871007206,-121.17471166469885
goals: 35.10895144538883,50.74642359422038,-89.65500977631082,0.003996763273019028,38.9167744426849,-113.93675082626413
goals: 36.35914542576873,50.254399518173834,-89.40355975986252,0.0038895174368201676,39.15738013350896,-112.68652800820034
state: 36.229304213248135,50.12306650862,-89.69390848910946,-0.35174081760435083,38.69148993647859,-118.36078512386405
goals: 36.884977829360345,50.03937660337175,-89.29321362849515,0.003844295567921171,39.26206988345319,-112.16068340713655
goals: 36.36886579398735,49.72237815287559,-89.13002282830297,0.003891454775988081,39.415864821317626,-112.6768156570014
state: 36.58104503085249,49.595455282213464,-89.34216767150512,-0.5276112264065262,38.86736034528077,-116.25034021823795
goals: 35.14267554489978,48.95492545524466,-88.7324088252553,0.004003506413803301,39.78567254051677,-113.90305453440403
goals: 33.78988597099036,48.08466998630131,-88.27718117662882,0.004127140012759369,40.200664928916474,-115.2558987482846
state: 34.99821135163291,47.83675119419172,-88.46281562749422,-0.35174081760435083,39.39497157168729,-115.54685858302925
goals: 32.43519733093182,47.18812550078672,-87.80332704838995,0.004250956896897106,40.62331848615881,-116.61064315586604
goals: 31.09250093370296,46.27445980012419,-87.31529266621078,0.004373682798862434,41.04891203363136,-117.95339587157753
state: 31.656673584391577,45.90217669736778,-87.58346358348335,-0.35174081760435083,39.92258279809381,-115.89859940063359
goals: 29.775794812579317,45.35394917316696,-86.81832134063566,0.004494033226128276,41.472413046463345,-119.27015823553796
goals: 28.464140846586172,44.412508142321855,-86.30452160090866,0.004613916703755022,41.90001497155304,-120.58186922964451
state: 29.01861745235894,44.143472609346034,-86.52824113067031,0.35174081760435083,40.45019402450035,-116.07446980943575
goals: 27.16586589359973,43.45631520797945,-85.77690096966987,0.004732566507086105,42.32854711191688,-121.88020161271886
goals: 25.87189992059435,42.478861330843834,-85.23148691984653,0.004850805357951985,42.76054572857492,-123.17422579649927
state: 26.38056132032631,42.20889811252209,-85.29714826905509,0.17587040880217542,42.73650933892863,-116.60208103584229
goals: 24.58507857705226,41.482284747828494,-84.66903990487837,0.004968367243261492,43.19463314933715,-124.46110598585689
goals: 23.29216217386098,40.45601654067968,-84.0830632845593,0.00508645366337942,43.63488122539916,-125.75408246631387
state: 24.094246005898032,40.098453206896,-84.06605540743985,0.17587040880217542,43.264120565335155,-118.53665553266623
goals: 22.01472552221756,39.41709772191123,-83.48280255572995,0.005203085504063301,44.07349518511,-127.03157940330391
goals: 20.757974274390403,38.370459341788944,-82.87083558349225,0.005317779463475225,44.508122076633505,-128.2883908465996
state: 21.104449056261046,38.16387871007206,-82.83496254582462,0.17587040880217542,44.3193430181482,-119.06426675907274
goals: 19.514666026197574,37.310703367389145,-82.24372302691958,0.005431187915262882,44.940720385183646,-129.53175949579114
goals: 18.277756743377008,36.23204090031578,-81.59763025542634,0.005543943173832899,45.373244153830726,-130.76872968862057
state: 18.642263333030595,35.87756339564378,-81.42799927540722,0.35174081760435083,45.19869506215908,-123.63689738792932
goals: 17.049053222330105,35.136099784649126,-80.93306523844393,0.0056558689889551666,45.80457359873646,-131.9974945040121
goals: 15.861033387912146,34.05292547947561,-80.26812782744615,0.0057639983489224545,46.22276441147705,-133.18557432726087
state: 16.355948018602312,33.76711849001768,-80.37277682259416,0.35174081760435083,46.25391751497214,-127.68191679037936
goals: 15.144636805999134,33.388418946809935,-79.8561789737577,0.005829153247233853,46.47529384253695,-133.9020074168975
goals: 14.508427387783238,32.79105961936074,-79.48322975635543,0.005886981048860355,46.69967857741512,-134.53824946077262
state: 14.948984748184909,32.711896037204625,-79.49342477858329,0.35174081760435083,46.60565833257648,-129.79236169600546
goals: 13.346904002336121,31.682710429909818,-78.7846253336982,0.005992465162517734,47.109376318155554,-135.69983289047872
goals: 12.13838871945654,30.50481761149394,-78.0326752563208,0.006102075620965452,47.535269176599925,-136.90841127635946
state: 12.135058207350104,30.073839905171997,-77.91059109936371,0.17587040880217542,47.48501037658736,-131.37519537522502
goals: 10.944802601872055,29.316310530144314,-77.26392806578717,0.0062101706009727075,47.95497885136655,-138.1020603101649
goals: 9.770181581262158,28.1218262694972,-76.48108370795612,0.006316369862103886,48.366568419959634,-139.27674378181058
state: 10.024613301724,27.61165418194154,-76.32775742014412,0.17587040880217542,48.01262160299389,-133.6615106896533
goals: 8.624156176175484,26.932210953064796,-75.69114833948784,0.006419791063269092,48.766198388337585,-140.42283058635846
goals: 7.500067531692283,25.741700081699896,-74.89025873924992,0.006521024638551111,49.15576980596773,-141.54697986101158
state: 7.738297987295717,25.501209276315436,-74.74492374092455,0.35174081760435083,48.89197364700476,-136.1236964128838
goals: 6.395925217398833,24.549059457066043,-74.07745810318858,0.006620237440548126,49.535560029452675,-142.6511820757252
goals: 5.315355826984813,23.359140239597938,-73.25597749879286,0.006717092218069219,49.903949180489654,-143.73181037314936
state: 5.627853081669613,23.039023553084977,-73.33796047050716,0.35174081760435083,49.41958487341129,-138.23414131850987
goals: 4.255901737547587,22.170201443551637,-72.42457930144627,0.00681179876926067,50.261440558487834,-144.79132244493368
goals: 3.2122397594934595,20.97699837522006,-71.5794713677958,0.006904820254241653,50.6094865082774,-145.83504171106262
state: 3.5174081760435083,20.7527082386567,-71.40338597368321,0.35174081760435083,50.29893691742217,-140.34458622413598
goals: 2.190222515305736,19.786968674333878,-70.72582656917969,0.006995623063513255,50.945822578420895,-146.8571151685588
goals: 1.1839865587745908,18.59403322298672,-69.8592086238179,0.007084716670978097,51.272091365008244,-147.86340652857731
state: 1.231092861615228,18.114652106624067,-69.82055229446364,0.17587040880217542,51.17828896143304,-142.80677194736643
goals: 0.3278578510936537,17.562101121498323,-69.1006987325816,0.007160258179527419,51.54547162546936,-148.7195823798469
goals: 0.011252705192549528,17.176473451068667,-68.81512873906702,0.00718812933285804,51.64551367340833,-149.03620495357583
state: 0.17587040880217542,17.059429653811016,-68.5894594328484,0.35174081760435083,51.17828896143304,-144.38960562658602
goals: -0.0014137157763449745,17.4055935982702,-68.57905673577277,0.007175924641983837,51.18032089697047,-149.04884136130758
goals: -0.0014149732580663306,18.017158083819783,-68.00079009836573,0.007142884705698987,49.990489775438945,-149.04876527306135
state: 0.0,17.76291128901972,-68.0618482064419,0.35174081760435083,51.17828896143304,-144.91721685299254
goals: -0.0014164195568709913,18.698639895640483,-67.3266047352005,0.007106504495666769,48.63482260205866,-149.04867949965353
goals: -0.0014178851755192478,19.365636311337983,-66.63383328040713,0.007071337035347048,47.27505473315967,-149.04859441325223
state: -0.35174081760435083,18.818133741832767,-66.83075534482666,0.17587040880217542,48.540232829400416,-145.09308726179472
goals: -0.0014193556822416247,20.011344246434554,-65.9294353546869,0.0070376998266554105,45.924948873905656,-149.04851083136705
goals: -0.0014208533432282663,20.645131177906613,-65.20284251294943,0.007005068015664283,44.56456910225355,-149.04842748361034
state: -0.5276112264065262,19.873356194645822,-65.95140330081578,0.17587040880217542,45.90217669736778,-145.09308726179472
goals: -0.0014223608497518224,21.259158631646674,-64.46253750730747,0.0069738115739880376,43.21023664440557,-149.0483453386717
goals: -0.0014238595510137303,21.846186570968747,-63.718111065129726,0.006944254393075779,41.87878226439841,-149.0482653577466
state: -0.7034816352087017,21.280319465063226,-64.54444003039838,0.17587040880217542,43.08825015653298,-145.2689576705969
goals: -0.0014253618128534918,22.41156652212331,-62.96391699903967,0.006916083460256411,40.559208248618596,-149.04818681899036
goals: -0.0014268723285474534,22.957188587167575,-62.19797096366997,0.006889169132847118,39.24764014964675,-149.04810944609304
state: -0.5276112264065262,22.511412326678453,-62.9616063511788,0.17587040880217542,40.45019402450035,-145.2689576705969
goals: -0.0014284108559809508,23.489781509308788,-61.41047250484084,0.006863152133493123,37.92754877011457,-149.0480322358235
goals: -0.0014299547488336596,24.00118897854262,-60.61328625870788,0.0068384039712650144,36.61895505616068,-149.04795632961577
state: -0.5276112264065262,23.566634779491505,-61.202902263157036,0.17587040880217542,37.81213789246772,-145.44482807939906
goals: -0.0014315072639056621,24.492634249592207,-59.80516508824861,0.006814835290296404,35.31938861604296,-149.04788154330595
goals: -0.0014330850318636284,24.96911159323619,-58.97778998408808,0.006792182017101018,34.01553616962255,-149.04780708233298
state: -0.5276112264065262,24.44598682350238,-59.44419817513529,0.17587040880217542,34.822340942830735,-145.44482807939906
goals: -0.001434673856742607,25.42604584045865,-58.138963006555365,0.006770638661082504,32.719774946231794,-149.0477336267828
goals: -0.0014362743926387184,25.863662761936265,-57.288800383060085,0.006750170297141028,31.431995402604347,-149.04766113714066
state: -0.5276112264065262,25.501209276315436,-57.685494087113526,0.17587040880217542,32.00841440199592,-145.44482807939906
goals: -0.0014378959698717944,26.284371825873965,-56.422787000910986,0.006730642750839238,30.145272957851887,-149.04758919581803
goals: -0.001439435966451735,26.663323896252667,-55.59653565019719,0.006713178085136775,28.9400695380004,-149.04752223607227
state: -0.35174081760435083,26.556431729128487,-55.750919590289605,0.17587040880217542,29.546228678765473,-145.44482807939906
goals: -0.001440224944563595,26.849864558911726,-55.171960018159304,0.0067046241209339896,28.328953243929565,-149.04748843404874
goals: -0.0014406980628759,26.95929283232732,-54.916986340962616,0.006699619362916717,27.96455129368964,-149.04746832532655
state: -0.5276112264065262,26.73230213793066,-55.39917877268526,0.17587040880217542,28.491006225952418,-145.44482807939906
goals: -0.0014411748178854128,27.06773593777494,-54.659788148995965,0.0066946692300581066,27.59890999664827,-149.0474481829621
goals: -0.0014414936425666187,27.139239354122605,-54.48764863221921,0.006691410499049693,27.35526706377194,-149.047434780332
state: -0.35174081760435083,26.90817254673284,-54.69569713747656,0.17587040880217542,27.61165418194154,-145.44482807939906
goals: -0.001441505936616934,27.141981588860855,-54.481008820095184,0.006691285599002185,27.34588501691921,-149.04743426451185
goals: -0.001441505936616934,27.141981588860855,-54.481008820095184,0.006691285599002185,27.34588501691921,-149.04743426451185
state: -0.35174081760435083,26.90817254673284,-54.69569713747656,0.17587040880217542,27.61165418194154,-145.44482807939906
goals: -0.001441505936616934,27.141981588860855,-54.481008820095184,0.006691285599002185,27.34588501691921,-149.04743426451185
goals: -0.001441505936616934,27.141981588860855,-54.481008820095184,0.006691285599002185,27.34588501691921,-149.04743426451185
state: -0.35174081760435083,26.90817254673284,-54.69569713747656,0.17587040880217542,27.61165418194154,-145.44482807939906
goals: -0.001441505936616934,27.141981588860855,-54.481008820095184,0.006691285599002185,27.34588501691921,-149.04743426451185
goals: -0.001441505936616934,27.141981588860855,-54.481008820095184,0.006691285599002185,27.34588501691921,-149.04743426451185
state: -0.35174081760435083,26.90817254673284,-54.69569713747656,0.17587040880217542,27.61165418194154,-145.44482807939906
goals: -0.0012792797262825262,27.141952037348567,-54.480949521464304,0.006691277581446189,27.34585524000309,-149.0472720415389
goals: 1.6602905595642434,26.83927652376757,-53.87359503549222,0.0066091593515887285,27.04087107236142,-147.3857353604492
state: 0.7034816352087017,26.90817254673284,-54.16808591107003,0.17587040880217542,27.435783773139363,-145.44482807939906
goals: 3.3188665305680782,26.5371463803539,-53.267334899749244,0.0065271890849154315,26.736436434691857,-145.72719248790062
goals: 5.161186418681585,26.201545008007532,-52.59391075459318,0.006436137812518917,26.398275266669025,-143.88490936502646
state: 4.396760220054386,26.38056132032631,-52.936993049454806,0.17587040880217542,26.02882050272196,-145.44482807939906
goals: 8.610530917506907,25.57320421064116,-51.33307006918496,0.006265664048663738,25.76514180696876,-140.4356337011395
goals: 12.05005156064236,24.946652950190995,-50.075820302847184,0.00609567580014505,25.133811533857326,-136.99618169689805
state: 11.255706163339227,25.149468458711084,-50.29893691742217,0.17587040880217542,25.149468458711084,-143.8619944001795
goals: 15.485607633551469,24.32082388528207,-48.820019707922484,0.005925883488914963,24.503208964825458,-133.5606941837662
goals: 18.930453357392683,23.693302595466083,-47.56082346206977,0.005755632063856196,23.870901263460166,-130.11591720508605
state: 18.114652106624067,23.74250518829368,-47.83675119419172,0.0,24.094246005898032,-138.23414131850987
goals: 22.362754559732206,23.068066445521065,-46.306212621674156,0.005586000615084773,23.24089613184439,-126.68368449756977
goals: 25.799554983470717,22.442010706705663,-45.049957178544766,0.005416146805454189,22.610065159953383,-123.24695265844072
state: 25.149468458711084,22.511412326678453,-45.37456547096125,0.0,22.8631531442828,-131.19932496642286
goals: 29.244821597756733,21.814412746485264,-43.79060708438926,0.0052458745791161285,21.977680203381034,-119.80175479771503
goals: 32.68360996619913,21.18799487893473,-42.5336249868002,0.005075922521132524,21.346484340622062,-116.36303505355342
state: 32.1842848107981,21.280319465063226,-42.73650933892863,0.0,21.456189873865398,-124.16450861433583
goals: 36.12250418543195,20.561557729352476,-41.27660419751676,0.004905965231783177,20.715269048757886,-112.92420946071373
goals: 39.55790790563993,19.935756417373923,-40.020859292154,0.004736180450139771,20.084694444341554,-109.48887429724267
state: 39.04323075408294,20.049226603448,-40.274323615698165,0.0,20.225097012250174,-117.65730348865536
goals: 42.998765953058026,19.308961532178934,-38.763120663734455,0.004566126104325803,19.453118688240302,-106.04808491540777
goals: 46.4353909734644,18.68293774525166,-37.50692933587612,0.004396280963491924,18.822319911950093,-102.61152847611051
state: 45.90217669736778,18.642263333030595,-37.81213789246772,0.0,18.818133741832767,-110.79835754537052
goals: 49.8753482300727,18.056306950252903,-36.249519973988946,0.004226271136629266,18.190909497641186,-99.17163986710929
goals: 53.320132662194325,17.428796825482326,-34.99034613213031,0.0040560227407344844,17.558613046482566,-95.72692417892557
state: 52.936993049454806,17.411170471415367,-35.349952169237255,0.0,17.587040880217543,-104.99463405489871
goals: 56.755627580963456,16.802978900556983,-33.73456789091015,0.003886233451868915,16.928021702404376,-92.29149781871334
goals: 60.1968941201914,16.176109603522406,-32.47667994626728,0.003716158917541926,16.29637096688807,-88.85029995322041
state: 59.971809401541805,16.00420720099796,-32.711896037204625,0.0,16.355948018602312,-96.90459524999865
goals: 63.63253939555693,15.550264289281873,-31.220846745122373,0.0035463621977413146,15.665752024583,-85.41472323941227
goals: 67.07401362768684,14.923357158414321,-29.96288288238523,0.003376277398800067,15.034063166656587,-81.97331768516207
state: 66.83075534482666,14.773114339382737,-30.24971031397417,0.0,15.124855156987085,-90.04564930671381
goals: 70.5199041999331,14.295645536527951,-28.703304712552587,0.0032059743351646594,14.401563681465195,-78.52749587892784
goals: 73.95745271404779,13.66945352379046,-27.44677581955962,0.003036083553355107,13.770595396224298,-75.09001596435147
state: 73.51383087930932,13.542021477767507,-27.61165418194154,0.0,13.89376229537186,-83.18670336342898
goals: 77.39901859541274,13.042529697880289,-26.188778456230004,0.0028659942249184564,13.138889715914013,-71.64851876269518
goals: 80.84216682753848,12.415317627192286,-24.93020269540532,0.00269582669342322,12.506893592242111,-68.20543924185546
state: 80.54864723139633,12.31092861615228,-25.149468458711084,0.0,12.486799024954456,-76.32775742014412
goals: 84.27351141638174,11.79025573623683,-23.675941526437633,0.0025262425224761263,11.877064048774375,-64.77416312874533
goals: 87.71554020598187,11.16324758586162,-22.417774956020498,0.0023561303161537804,11.24527340081515,-61.33220302809165
state: 87.58346358348335,11.07983575453705,-22.511412326678453,0.0,11.255706163339227,-70.52403392967234
goals: 91.1528030474262,10.537107611937163,-21.16135048510702,0.002186253652880478,10.614357551312745,-57.89500878048473
goals: 94.59205182743594,9.910605874720549,-19.904200093038728,0.002016278840401684,9.983077179172758,-54.455828633943746
state: 94.26653911796602,9.848742892921823,-20.225097012250174,0.0,9.848742892921823,-63.13747675998097
goals: 98.02642106977478,9.284993005690902,-18.64883332090853,0.0018465451848015133,9.352692455051796,-51.021527927697846
goals: 101.47151526605896,8.65742645354377,-17.389546250794744,0.0016762814797189377,8.720339146117443,-47.57650248153321
state: 101.30135547005302,8.617650031306594,-17.76291128901972,0.0,8.793520440108772,-56.10266040789396
goals: 104.91655847569233,8.029869189246215,-16.130277817857895,0.0015060202945024618,8.087995195875628,-44.131528021001905
goals: 108.35202048463294,7.4040572592535,-14.87451160618443,0.0013362326321089183,7.45740989245635,-40.69613456996143
state: 108.16030141333789,7.386557169691368,-15.300725565789259,0.0,7.386557169691368,-48.540232829400416
goals: 111.7898095091288,6.777821434572978,-13.617894799306965,0.0011663299637771772,6.826397461097323,-37.2584141498035
goals: 115.24273645333189,6.1488280504365775,-12.355744620779952,0.0009956791480364687,6.19260643702882,-33.805556112029876
state: 115.01924735662271,5.803723490471789,-12.662669433756628,0.0,6.15546430807614,-41.32954606851122
goals: 118.67603507463922,5.523410208280256,-11.100769193311224,0.0008259984047496282,5.562418227346456,-30.372326005450233
goals: 122.12358215071804,4.895396833716132,-9.840585520772668,0.0006556134732569271,4.929614687862168,-26.924847728440493
state: 122.05406370870973,4.572630628856562,-10.024613301724,0.0,4.924371446460912,-34.64647053402855
goals: 125.56331438412623,4.26880702947867,-8.583258411732647,0.0004856147675078289,4.29824557697113,-23.48518413814881
goals: 128.99298569526664,3.644049946769058,-7.329608876832364,0.0003161132934175066,3.668723166670691,-20.05558126934964
state: 128.91300965199457,3.3415377672413324,-7.386557169691368,0.0,3.5174081760435083,-27.78752459074372
goals: 132.4398042952621,3.016169273140798,-6.069691484534772,0.00014576436472471687,3.0360533402971566,-16.608831453885873
goals: 135.86049951497924,2.3930472965923877,-4.819322984992442,-2.3293492298608023e-05,2.408178507911692,-13.188204497383573
state: 135.77195559527942,2.110444905626105,-5.1002418552630875,-0.17587040880217542,2.462185723230456,-21.280319465063226
goals: 139.30116354074178,1.7662877548436087,-3.56165527740939,-0.0001933382491596867,1.7766383648383866,-9.74760913333236
goals: 142.7549716374453,1.1371338578721235,-2.2991830107514524,-0.00036403261328569586,1.1426856036249589,-6.293869960642572
state: 142.63090153856427,0.8793520440108771,-2.638056132032631,-0.17587040880217542,1.231092861615228,-14.069632704174033
goals: 145.174336378293,0.6964166227852658,-1.4148313609983543,-0.00048360263989547105,0.6986068028060178,-3.874553500511033
goals: 146.83442980643284,0.394010055770782,-0.8080165483606715,-0.0005656479024497399,0.39389363311775283,-2.214493201108799
state: 146.85179134981647,0.35174081760435083,-1.0552224528130525,0.0,0.35174081760435083,-8.265909213702244
goals: 148.49390074250766,0.09171688339131386,-0.20142927557068643,-0.000647662400154244,0.0892947229808013,-0.5550553813491645
goals: 149.03803975452922,-0.007404773146103901,-0.0025298600126603603,-0.0006745548794271462,-0.010582982872132283,-0.010927228137233836
state: 149.13810666424476,-0.17587040880217542,-0.17587040880217542,-0.17587040880217542,-0.5276112264065262,-4.572630628856562
goals: 149.03803975452922,-0.007404773146103901,-0.0025298600126603603,-0.0006745548794271462,-0.010582982872132283,-0.010927228137233836
goals: 149.03803975452922,-0.007404773146103901,-0.0025298600126603603,-0.0006745548794271462,-0.010582982872132283,-0.010927228137233836
state: 149.4898474818491,-0.17587040880217542,-0.17587040880217542,0.0,-0.5276112264065262,-2.462185723230456
goals: 149.03803975452922,-0.007404773146103901,-0.0025298600126603603,-0.0006745548794271462,-0.010582982872132283,-0.010927228137233836
goals: 149.03803975452922,-0.007404773146103901,-0.0025298600126603603,-0.0006745548794271462,-0.010582982872132283,-0.010927228137233836
state: 149.4898474818491,-0.17587040880217542,-0.17587040880217542,0.0,-0.5276112264065262,-0.8793520440108771
goals: 149.03803975452922,-0.007404773146103901,-0.0025298600126603603,-0.0006745548794271462,-0.010582982872132283,-0.010927228137233836
goals: 149.03803975452922,-0.007404773146103901,-0.0025298600126603603,-0.0006745548794271462,-0.010582982872132283,-0.010927228137233836
state: 149.4898474818491,-0.17587040880217542,-0.17587040880217542,0.0,-0.5276112264065262,-0.7034816352087017
goals: 149.03803975452922,-0.007404773146103901,-0.0025298600126603603,-0.0006745548794271462,-0.010582982872132283,-0.010927228137233836
goals: 149.03803975452922,-0.007404773146103901,-0.0025298600126603603,-0.0006745548794271462,-0.010582982872132283,-0.010927228137233836
state: 149.4898474818491,-0.17587040880217542,-0.17587040880217542,0.0,-0.5276112264065262,-0.7034816352087017
goals: 149.03803975452922,-0.007404773146103901,-0.0025298600126603603,-0.0006745548794271462,-0.010582982872132283,-0.010927228137233836
goals: 149.03803975452922,-0.007404773146103901,-0.0025298600126603603,-0.0006745548794271462,-0.010582982872132283,-0.010927228137233836
state: 149.4898474818491,-0.17587040880217542,0.35174081760435083,0.0,-0.35174081760435083,-0.7034816352087017
goals: 149.03803975452922,-0.007404773146103901,-0.0025298600126603603,-0.0006745548794271462,-0.010582982872132283,-0.010927228137233836
goals: 149.03803975452922,-0.007404773146103901,-0.0025298600126603603,-0.0006745548794271462,-0.010582982872132283,-0.010927228137233836
state: 149.4898474818491,-0.17587040880217542,0.35174081760435083,0.0,-0.35174081760435083,-0.7034816352087017
goals: 149.03803975452922,-0.007404773146103901,-0.0025298600126603603,-0.0006745548794271462,-0.010582982872132283,-0.010927228137233836
goals: 149.03803975452922,-0.007404773146103901,-0.0025298600126603603,-0.0006745548794271462,-0.010582982872132283,-0.010927228137233836
state: 149.4898474818491,-0.17587040880217542,0.17587040880217542,0.0,-0.35174081760435083,-0.7034816352087017
goals: 149.03803975452922,-0.007404773146103901,-0.0025298600126603603,-0.0006745548794271462,-0.010582982872132283,-0.010927228137233836
goals: 149.03803975452922,-0.007404773146103901,-0.0025298600126603603,-0.0006745548794271462,-0.010582982872132283,-0.010927228137233836
state: 149.4898474818491,-0.17587040880217542,0.35174081760435083,0.0,-0.35174081760435083,0.17587040880217542
goals: 149.03803975452922,-0.007404773146103901,-0.0025298600126603603,-0.0006745548794271462,-0.010582982872132283,-0.010927228137233836
goals: 149.03803975452922,-0.007404773146103901,-0.0025298600126603603,-0.0006745548794271462,-0.010582982872132283,-0.010927228137233836
state: 149.4898474818491,-0.17587040880217542,0.35174081760435083,0.0,-0.35174081760435083,0.17587040880217542
goals: 149.03803975452922,-0.007404773146103901,-0.0025298600126603603,-0.0006745548794271462,-0.010582982872132283,-0.010927228137233836
goals: 149.03803975452922,-0.007404773146103901,-0.0025298600126603603,-0.0006745548794271462,-0.010582982872132283,-0.010927228137233836
state: 149.4898474818491,-0.17587040880217542,0.35174081760435083,-0.17587040880217542,-0.35174081760435083,0.17587040880217542
goals: 149.03803975452922,-0.007404773146103901,-0.0025298600126603603,-0.0006745548794271462,-0.010582982872132283,-0.010927228137233836
goals: 149.03803975452922,-0.007404773146103901,-0.0025298600126603603,-0.0006745548794271462,-0.010582982872132283,-0.010927228137233836
state: 149.4898474818491,-0.17587040880217542,0.35174081760435083,-0.17587040880217542,-0.35174081760435083,0.17587040880217542
goals: 149.03803975452922,-0.007404773146103901,-0.0025298600126603603,-0.0006745548794271462,-0.010582982872132283,-0.010927228137233836
goals: 149.03803975452922,-0.007404773146103901,-0.0025298600126603603,-0.0006745548794271462,-0.010582982872132283,-0.010927228137233836
state: 149.3139770730469,-0.17587040880217542,0.35174081760435083,-0.17587040880217542,-0.35174081760435083,0.17587040880217542
goals: 149.03803975452922,-0.007404773146103901,-0.0025298600126603603,-0.0006745548794271462,-0.010582982872132283,-0.010927228137233836
goals: 149.03803975452922,-0.007404773146103901,-0.0025298600126603603,-0.0006745548794271462,-0.010582982872132283,-0.010927228137233836
state: 149.3139770730469,-0.17587040880217542,0.35174081760435083,-0.17587040880217542,-0.35174081760435083,0.17587040880217542
goals: 149.03803975452922,-0.007404773146103901,-0.0025298600126603603,-0.0006745548794271462,-0.010582982872132283,-0.010927228137233836
goals: 149.03803975452922,-0.007404773146103901,-0.0025298600126603603,-0.0006745548794271462,-0.010582982872132283,-0.010927228137233836
state: 149.3139770730469,-0.17587040880217542,0.35174081760435083,-0.17587040880217542,-0.35174081760435083,0.17587040880217542
goals: 149.03803975452922,-0.007404773146103901,-0.0025298600126603603,-0.0006745548794271462,-0.010582982872132283,-0.010927228137233836
goals: 149.03803975452922,-0.007404773146103901,-0.0025298600126603603,-0.0006745548794271462,-0.010582982872132283,-0.010927228137233836
state: 149.3139770730469,-0.17587040880217542,0.17587040880217542,-0.17587040880217542,-0.35174081760435083,0.17587040880217542
