RAMEL-ESPOL/ARCHIE/matlab/data/joint_goals_square_t35_h35_p12.txt
Joint0,Joint1,Joint2,Joint3,Joint4,Joint5 
-0.002051546533937708,9.58176907118935,14.25528262254813,0.0038753567925265417,-23.832975032744827,0.003624038734262041
-0.002051546533937708,9.58176907118935,14.25528262254813,0.0038753567925265417,-23.832975032744827,0.003624038734262041
-0.002051546533937708,9.58176907118935,14.25528262254813,0.0038753567925265417,-23.832975032744827,0.003624038734262041
-0.002051546533937708,9.58176907118935,14.25528262254813,0.0038753567925265417,-23.832975032744827,0.003624038734262041
-0.002051546533937708,9.58176907118935,14.25528262254813,0.0038753567925265417,-23.832975032744827,0.003624038734262041
-0.002051546533937708,9.58176907118935,14.25528262254813,0.0038753567925265417,-23.832975032744827,0.003624038734262041
-0.002051546533937708,9.58176907118935,14.25528262254813,0.0038753567925265417,-23.832975032744827,0.003624038734262041
-0.002051546533937708,9.58176907118935,14.25528262254813,0.0038753567925265417,-23.832975032744827,0.003624038734262041
-0.002051546533937708,9.58176907118935,14.25528262254813,0.0038753567925265417,-23.832975032744827,0.003624038734262041
-0.002051546533937708,9.58176907118935,14.25528262254813,0.0038753567925265417,-23.832975032744827,0.003624038734262041
-0.002051546533937708,9.58176907118935,14.25528262254813,0.0038753567925265417,-23.832975032744827,0.003624038734262041
-0.002051546533937708,9.58176907118935,14.25528262254813,0.0038753567925265417,-23.832975032744827,0.003624038734262041
-0.002051546533937708,9.58176907118935,14.25528262254813,0.0038753567925265417,-23.832975032744827,0.003624038734262041
-0.002051546533937708,9.58176907118935,14.25528262254813,0.0038753567925265417,-23.832975032744827,0.003624038734262041
-0.002051546533937708,9.58176907118935,14.25528262254813,0.0038753567925265417,-23.832975032744827,0.003624038734262041
-0.002051546533937708,9.58176907118935,14.25528262254813,0.0038753567925265417,-23.832975032744827,0.003624038734262041
-0.00205035663859263,9.581771552927599,14.255276604339999,0.003875358230156256,-23.83295987040859,0.003625236347510032
0.016171418009652775,9.61969302413813,14.163222533086218,0.0038354953711286256,-23.600927068194423,0.021940199250962262
0.05695019013513963,9.703956702096715,13.957985789946635,0.003300579686092636,-23.082800540449437,0.06275073821121568
0.09992251653110737,9.791862823042733,13.742845675877577,0.0020796554538920226,-22.538470280222427,0.10550434247295447
0.1430588707007647,9.879196510604874,13.52803500763606,0.00018687604660152807,-21.993730923093075,0.14817592155961062
0.18625685160205943,9.96575388834722,13.314050671468346,-0.0023677608363158183,-21.449837422730862,0.19067716266519072
0.2296988188374854,10.051901032577813,13.099979843946072,-0.005591770632691603,-20.904460800352066,0.23319964313841215
0.2730419908936278,10.13696347335787,12.887496574780254,-0.00945332160306666,-20.361863832898752,0.27542090652145357
0.3167202224574184,10.22179489995984,12.674462716587566,-0.01398708980323583,-19.816580245498198,0.31777583909663826
0.3604034249364405,10.305752969791923,12.462481379580373,-0.019157567550419467,-19.272702202325874,0.3599557031445175
0.4046505796010962,10.389903664545066,12.248841740768556,-0.025034964989527276,-18.723252883433304,0.4025102777431478
0.44913295788231167,10.473606339240016,12.035141220236378,-0.031584921025967695,-18.172308238791352,0.445132260276427
0.49353495921422996,10.556270813847089,11.822883188480215,-0.03875673381584125,-17.62374037879888,0.4875315891431256
0.5380675130998774,10.638296422173134,11.611043104100839,-0.04657834570631568,-17.07490237313226,0.5299223548376149
0.5827430809541071,10.719705776590628,11.399553847177096,-0.055051007488299844,-16.52561074339174,0.5723278829332851
0.6276042700722803,10.800574265564354,11.188208150186902,-0.06418341828202291,-15.975314666453723,0.6147998013351934
0.6724793137378111,10.880593673955094,10.977805450367406,-0.07393882261380992,-15.426089059480963,0.6571870811010156
0.7175208858738579,10.960037958239278,10.767619868579153,-0.08434861145021046,-14.87603307142552,0.6996454979643624
0.7627423682356428,11.038927353064034,10.557584779591778,-0.09541788057855208,-14.324958211131667,0.7421987011256463
0.8079525171928152,11.116929787475641,10.348578715971806,-0.10709853087246825,-13.775163450188636,0.7846781614410165
0.8529995780357811,11.193794633173148,10.14128283846417,-0.11934343709805563,-13.228450625066186,0.8269532294823969
0.8985574423455392,11.270667752463963,9.932592725092054,-0.13233883493953197,-12.676617208349503,0.8696673082474277
0.9438540969839347,11.34624506418012,9.726038660411504,-0.1458659104810268,-12.128987642739608,0.9121076079702896
0.9894617298683114,11.421485342616128,9.518999297298587,-0.16009325074563976,-11.578610788707818,0.9548215124901029
1.0351974448377554,11.496079722344744,9.312305051230972,-0.17496967167793379,-11.02767381081361,0.9976487416227204
1.0808836261366004,11.569741322192646,9.10674803916201,-0.19043640713457738,-10.478284935595086,1.0404341137376423
1.1266990066483056,11.642760927204657,8.90151380074071,-0.2065533107261802,-9.928264021706767,1.0833561093174222
1.1724089258832442,11.714768475611365,8.697641962878675,-0.2232364163330279,-9.380396425477254,1.126205842293611
1.2183142287147672,11.78623974752449,8.493781438313944,-0.24059579033405562,-8.831046973971548,1.1692763280461906
1.2644984699614445,11.857295929594693,8.289563145332217,-0.2586712163615054,-8.279197406816763,1.2126575235235584
1.31043471118417,11.92712947875681,8.087306604935211,-0.2772561758752915,-7.731113901922022,1.2558653797304042
1.3566244400744913,11.996506396647794,7.884792865808678,-0.29655314811380734,-7.180782643190025,1.2993824894247274
1.4026371235376076,12.064781560183073,7.683900925253543,-0.31638353924442425,-6.633305346553601,1.3428141809640717
1.4491088805760546,12.132894545243232,7.481850757765943,-0.3370272625757279,-6.081090424337209,1.3867725670602962
1.4951802147168125,12.19958731795689,7.282370621681595,-0.3581040525373687,-5.5343235246409845,1.430455593985389
1.541578370949503,12.265917634017882,7.082299791724741,-0.37994596405358017,-4.984343632373173,1.4745634379468786
1.5880869027350404,12.33156717562308,6.882573475826476,-0.4024608936069383,-4.433697510183978,1.5189029020528577
1.6345061216494254,12.396256211612311,6.684040310236516,-0.4255540302742003,-3.884722059209411,1.5632946553914635
1.681092380260555,12.46034249248987,6.485596628693428,-0.44935620219731665,-3.334359585380698,1.607995227836936
1.727701049409153,12.523624354335144,6.287854399771035,-0.47379942893948945,-2.7842952263499625,1.652877852036564
1.7743922314438925,12.586182829774863,6.090552511322324,-0.49891977688207345,-2.2337948035979602,1.6980121340371592
1.8209168802446396,12.64768859021475,5.894732678836452,-0.524584262689719,-1.6857669644763995,1.743168043669959
1.8675426244071187,12.708499033663195,5.699258606056745,-0.5509423047903224,-1.1370323729886647,1.7886162284649012
1.9142690366437196,12.768610045259228,5.504128948251622,-0.5780011674029288,-0.5875736206468866,1.8343689035266013
1.9612107750201866,12.828162318627692,5.308864731806299,-0.6058375696012682,-0.036021677496891766,1.8805520271309082
2.0079775519418934,12.886661129988298,5.115082710742908,-0.6342250097751934,0.5130621367390846,1.9267935604629574
2.0546960773278413,12.944272187885412,4.9222450473034645,-0.663240194222093,1.0611929973318084,1.9732288871488106
2.1016235914766126,13.001309671852313,4.729286447982351,-0.6930510385011858,1.6114114064989538,2.0201268400574754
2.1485904217499647,13.057561807955524,4.536903341481587,-0.7235602113568429,2.1617492424514455,2.067331984302035
2.195488132711828,13.112900387510756,4.345532306740984,-0.7547021827402884,2.7109600416361044,2.1147473371918855
2.242377302545512,13.167399728921842,4.154917618723545,-0.7865213614118264,3.2597775053623783,2.1624458355486933
2.2893507642471573,13.221166412167369,3.9646770520609462,-0.8190886013264017,3.8093107674790208,2.210535188145987
2.3365278396374682,13.274329766422124,3.7743276361805487,-0.8524997592296324,4.360976413199711,2.2591532888933608
2.383384651130295,13.326302990754154,3.585974204443457,-0.8863881482612791,4.908672149077075,2.307772015874859
2.430510034857519,13.377740807478387,3.3972425919174394,-0.9211859189364154,5.459303677386928,2.3570150743578178
2.4774916402756566,13.428189913116507,3.209781173948554,-0.9565992463053833,6.00807439703104,2.4064664125683026
2.524736431003786,13.478084179739756,3.0219629958210055,-0.9929458667814014,6.559759431581896,2.456569542100788
2.5716332950009537,13.526780241633974,2.836210198296971,-1.029762350984979,7.107244931106621,2.5066893417338485
2.618713352104927,13.574833813730189,2.650410043918156,-1.0674707273489328,7.656753680929254,2.5574055829868887
2.665838649265231,13.622097554951125,2.465106760385205,-1.1059755335930896,8.206696130702666,2.6085871669767147
2.7129340012869716,13.668495224196477,2.2805911954704317,-1.14522559204854,8.756216115383152,2.660167459557245
2.760013008961332,13.714040769490428,2.096804223320786,-1.1852415583565643,9.305493482924966,2.712175911203103
2.807223998002745,13.758873904434992,1.9131644533446188,-1.226163252435838,9.856279527863485,2.764793558112031
2.8544326316138315,13.802862703984243,1.7301925457189884,-1.2678889527522557,10.407027683866284,2.8178885473550963
2.9013823747289007,13.845774165735074,1.5488728586711054,-1.3101970212509604,10.954765659726624,2.8711845237552134
2.94863040275098,13.888115423277297,1.3670500485569532,-1.3536029443759687,11.5060141305815,2.92533123773642
2.995736139367832,13.929486205634051,1.1864186558088572,-1.3977190506651003,12.055653173362803,2.9798433930209383
3.0430875242294144,13.970223226936415,1.0054890476950424,-1.4429248840659106,12.608229698326774,3.035189207148359
3.0904494354029692,14.010115780514154,0.8251609599216437,-1.4890172258001018,13.161020596142876,3.091116506073524
3.1380528266658017,14.049350060468871,0.6445562681283566,-1.5362427183561231,13.716742374133817,3.1479213323280875
3.1857683619243033,14.087808158680101,0.4641690753905792,-1.5844987529614043,14.273906607099939,3.205475437533017
3.233230922160377,14.125197835224816,0.2853732556087956,-1.6334282342368234,14.828269203352669,3.263355587595197
3.2808190322350375,14.161818869508119,0.10673682307826468,-1.6834345286172292,15.384270506801718,3.322041305010494
3.3281119404345274,14.197350104886704,-0.07016748654250163,-1.734087846207942,15.937013126655494,3.381031059483758
3.375550387186071,14.232124648388167,-0.2469944554344582,-1.7858738308709863,16.491666697598575,3.44089288689162
3.423047325671381,14.266070925578648,-0.4234187067529929,-1.8387226103671488,17.047234040338417,3.5015435083393656
3.4706658533977555,14.29922671642385,-0.5996740344628007,-1.8927298836883586,17.604473742324647,3.563090538252846
3.5180512729865794,14.331345717711692,-0.7744525764485358,-1.9475102006603966,18.159253169392247,3.6250964211984527
3.5652299044684073,14.362455363703283,-0.9478625829996694,-2.0031006593763157,18.711895404645407,3.6876090448767975
3.6128103261402593,14.392948994097294,-1.1221398204202864,-2.0602468589703333,19.269549666320195,3.751464518614344
3.659958234769553,14.422290036721359,-1.2942314186691424,-2.1179684598814967,19.822455796722327,3.8155678816314205
3.707377084284954,14.450917922610826,-1.4667104244999583,-2.177144827605353,20.37887994897763,3.880897782697699
3.7547454277273387,14.478629549732416,-1.6384056703090972,-2.237407297238704,20.935070774479684,3.947044627322423
3.801766920971368,14.50525965868319,-1.8082525967631742,-2.298389831146125,21.487562032907523,4.0136113652390515
3.84802650162149,14.530601088680546,-1.9747746223436713,-2.359538754076871,22.03148085736249,4.080006413913464
3.8740122384737106,14.54446226279099,-2.0680677387223314,-2.3944003970869367,22.337191950867997,4.117708126095781
3.8853743051262453,14.550438241565148,-2.108803382354699,-2.409760675477378,22.470901568809275,4.134286181281347
3.8764729242069857,14.465938608679137,-2.2123771249955344,-2.408075129160709,22.66613809051129,4.133652709462059
3.8505854927467347,14.233667535542882,-2.480346748936246,-2.400867429980682,23.167000613492608,4.128974329437897
3.8233861383945014,13.980661469034866,-2.760327285301198,-2.3935697312131503,23.70063559192842,4.124249931043004
3.7966378051249277,13.72259190602825,-3.0339323303169565,-2.38667864353833,24.23294275971639,4.119804322839816
3.7738044801195842,13.49479610501541,-3.2660008659834494,-2.381028567683486,24.69334301654595,4.116174193202219
3.76431829579338,13.398077091055365,-3.3619825048086867,-2.378745958576916,24.88626520355089,4.114712300953137
3.7575408616541583,13.328215450093214,-3.4303944872463257,-2.3771388683618033,25.024696697195495,4.113684886669073
3.7354108212601407,13.095616293342282,-3.6527933950083957,-2.3720315983383364,25.48020786956886,4.110431350517207
3.7098353249613814,12.818057006086812,-3.9078265959577116,-2.366404044584284,26.013388745489564,4.106870952865028
3.6845821083544386,12.534511128280622,-4.157381914225106,-2.361147291411032,26.547065966641426,4.1035751827823885
3.660587294590043,12.25608812075693,-4.392249093632995,-2.3564392018413347,27.06089881858169,4.100655574974089
3.6488474070895607,12.116585287593475,-4.506311529046296,-2.354240691180428,27.314727912490085,4.099305252564639
3.6432682397119183,12.05020261443238,-4.564232314446403,-2.3532895874165907,27.439153625347327,4.098831780621768
3.655877013778976,12.27181848026348,-4.8448601023390445,-2.362681951298971,27.497601132938374,4.11564663051988
3.682419575969608,12.733598410134215,-5.427119818559875,-2.382412608651821,27.61688778421358,4.150938381472837
3.7109945058777294,13.223732075839113,-6.041444441039892,-2.403591574327704,27.7397867002199,4.188775026040537
3.739996277765629,13.713985061492384,-6.652100454832786,-2.4250203699874793,27.858870420266456,4.227011980404601
3.769842820721688,14.211175121176986,-7.267475425748092,-2.447003076807001,27.975689250094675,4.266191352290089
3.800114521589372,14.708073390801445,-7.878522160244376,-2.469225867517537,28.088443567493712,4.305753398075023
3.831215479366631,15.211088745835456,-8.49303053577543,-2.49198059792722,28.198495264844173,4.346217401246223
3.8629810114545267,15.717254580675004,-9.107242549913721,-2.515141019329307,28.305059967194723,4.3873581136594
3.895247170770704,16.223781435953455,-9.717709410602751,-2.5385830195229517,28.407485516202282,4.428955087814238
3.928361043270156,16.73588440084272,-10.330622086316161,-2.5625534242318375,28.50673094048801,4.471446008758221
3.962412758538144,17.254579909203425,-10.947023565454312,-2.58711031860039,28.602817768632235,4.5149327512029505
3.9967789266458422,17.770187481967298,-11.555345106317233,-2.6117990698827662,28.69388684940152,4.558610213348954
4.031288260430507,18.280229172991707,-12.152755296137574,-2.6364948739874428,28.779592756991686,4.602259053742672
4.05589330057981,18.639299007963317,-12.570731221895723,-2.654044389545537,28.837306817225908,4.633253062205587
4.038165846759287,18.711794073007603,-12.65416742219198,-2.6427521147267043,28.849052461935553,4.613726810422492
3.6775523520042324,18.7328096973252,-12.668068495161203,-2.4071153539306205,28.85777201843334,4.204343213502294
3.117890666196306,18.7615105161384,-12.687036893975646,-2.04119506247834,28.86963462028937,3.568922053743283
2.5428044530270117,18.786057122647268,-12.703254933191042,-1.6649552805260694,28.87982091706793,2.9159162020998757
1.9713800364453915,18.805492564191862,-12.716087008516777,-1.2909169650489158,28.887864089637706,2.2670072737243765
1.397894106869175,18.820043668874593,-12.725694533856402,-0.9153793888286201,28.893918351122956,1.6157111868010283
0.8248275807661801,18.829631788284757,-12.732020609718113,-0.5400098627072071,28.897882927122488,0.9648578478692881
0.24991292876187715,18.83428251647007,-12.735091740847833,-0.16336617629236175,28.89983054062654,0.311886034613986
-0.3211732360269748,18.83397654454603,-12.734888286526429,0.2107875691734383,28.899687285581134,-0.3367433308077034
-0.8955686043075671,18.828717823594904,-12.731420614636917,0.587085989113697,28.897519796990334,-0.9891238458017985
-1.4686144140792083,18.818519754558306,-12.724688755889066,0.9624302643697279,28.893270205816492,-1.6399497303665993
-2.0409779752001063,18.803393328054927,-12.714705766276893,1.3372179141122906,28.887010041791306,-2.2899667113802984
-2.6133285796853105,18.783320863618243,-12.701449313244503,1.711839377852781,28.878671418933596,-2.9399196448644918
-3.187610802575482,18.758201034845843,-12.684856293550409,2.0875281831543195,28.868281389180957,-3.5920051395817123
-3.7347371463229506,18.72961727207081,-12.66596457645696,2.445225841373891,28.856466944412688,-4.213185441118786
-4.038034317929029,18.7118112533086,-12.654188883174497,2.6434031208252944,28.849098693218064,-4.557499393997469
-4.063072585479735,18.716475276207277,-12.534296683596278,2.65657240544928,28.723526629907653,-4.5793043632808175
-4.071271403830307,18.736751232407546,-12.07290616833239,2.6498063863166137,28.24199915798457,-4.563197539327682
-4.080629134465509,18.753784837213168,-11.544513492056742,2.64249055569687,27.696725383221796,-4.545193776643153
-4.0900179399190995,18.764483072509304,-11.012517861580378,2.635570155032623,27.154178251144295,-4.527519762301946
-4.09949697155912,18.76894631889705,-10.473596176784378,2.6289937973934525,26.61093538719985,-4.510054192827477
-4.109040608082407,18.76716329083885,-9.929223997075077,2.622773923162747,26.068483398750566,-4.49283653888923
-4.118538712555875,18.759287981755552,-9.385739233557205,2.6169689223453414,25.53300488473472,-4.476050398752363
-4.1280519632487325,18.745448179206186,-8.83973690457228,2.6115259958845987,25.00096820865395,-4.459571391088309
-4.137473814659383,18.726011477686818,-8.29740713846445,2.6064888086761666,24.478194810181744,-4.44356565486869
-4.146908425650214,18.70097170514608,-7.752827075655025,2.6017851199911566,23.958769626559786,-4.427838611532608
-4.155979710309604,18.67175775064573,-7.227835636173508,2.5975730055687176,23.463098573086132,-4.412988505225027
-4.160260364646416,18.656321796013188,-6.979912069205501,2.595692226136478,23.230659584572678,-4.4060802246188
-4.1763282899071195,18.881484363684713,-7.239178722675686,2.606357301336837,23.26401462827463,-4.424873440310687
-4.211941162317812,19.374953568848465,-7.80454711725084,2.629943877326649,23.334245751476075,-4.466390676888211
-4.2507073549961545,19.903601207008414,-8.405877923976345,2.6555388338091968,23.405100817303566,-4.511374134993963
-4.290386314770622,20.43579307292636,-9.006690795643578,2.681650649395317,23.47183740371745,-4.557194053727311
-4.330923257632487,20.97049156578589,-9.605723699129278,2.7082382347240554,23.53423283208494,-4.6037762048644355
-4.3605355961217205,21.35550778216952,-10.034196060745122,2.72760424519184,23.576263748186427,-4.637660921033595
-4.345486932235977,21.412720502705888,-10.097096996332661,2.718335366861117,23.58264760926573,-4.6218734510075254
-4.004551016291491,21.17272708875012,-9.821542933096232,2.5049203030818696,23.562372292044085,-4.255760343849082
-3.4839568564538563,20.79983897288524,-9.393128670230462,2.1790106523729373,23.52774401614732,-3.69704223705727
-2.961787649736429,20.41783696340428,-8.953833915300489,1.8521145078446575,23.48848316633001,-3.137065414460079
-2.4387374652612834,20.02695635113746,-8.503823357010754,1.5247150528035793,23.444476896243184,-2.5766339897971697
-1.920283731204573,19.631154264916844,-8.04755053543574,1.2002893749893684,23.396096330975872,-2.0216707529284315
-1.409945640665441,19.233197591466517,-7.588116978065748,0.881084432216618,23.343702715064094,-1.4759828930835455
-0.9032015822039273,18.829616958678642,-7.121428016802153,0.5643149089384304,23.28685254267866,-0.9347764307621104
-0.39967478586673605,18.420046600131517,-6.646959888819175,0.2497893031175225,23.22545172972476,-0.39769924833188947
0.09968025722380013,18.00521008240962,-6.1654497375317465,-0.061853670841234006,23.15957193600372,0.13418102539465832
0.5259941663335749,17.6440405219731,-5.745411431961657,-0.3276573177332182,23.099274281288825,0.5876219353111694
0.7231279028038904,17.47479979953437,-5.548312412283123,-0.45048317082263595,23.070114820273922,0.7970919235274952
1.1619803283155585,17.09286673688933,-5.102838211822295,-0.7236885664395977,23.00216723202579,1.262887097259984
1.657051576163203,16.653241040581136,-4.588881474936762,-1.0314939091435626,22.920419861085136,1.7874550126900517
2.1470421184126693,16.208709633189123,-4.067833553988643,-1.3356761510349704,22.834013952803236,2.3056283000989097
2.6288162912685262,15.762218717083265,-3.5430577983721365,-1.634259327372812,22.74354110417471,2.814055057374422
3.0967329327423325,15.319364533899192,-3.0210887697236717,-1.9237436002249455,22.65028668975849,3.3067914587821563
3.554191379686606,14.877366709869497,-2.4986147812497426,-2.206212751449707,22.55374826388006,3.7874016766168115
3.8541852708359734,14.582528230828391,-2.1492302527056353,-2.3911392625281143,22.487477174845793,4.101946107893471
3.8818013467510744,14.512727010335686,-2.1570701234548504,-2.4095927004719875,22.56392165092612,4.134642163974966
3.8589121876297665,14.309260675219722,-2.3943216711049224,-2.4031614940499777,23.005190403149214,4.130465398067408
3.8315747367017283,14.057804592109948,-2.676229914130515,-2.395739574393685,23.539207961504175,4.1256562278933355
3.8046603420549423,13.800965822101158,-2.9520742818635486,-2.388718173653897,24.072529130925812,4.121121300755298
3.7788881030774952,13.546111945951868,-3.214469528791952,-2.382270648767408,24.59038437370744,4.116973922545584
3.765966290075537,13.414959702440587,-3.3453377266563242,-2.3791427833024046,24.852706902135658,4.11496925379024
3.75943579148674,13.34780358187896,-3.4112911886319415,-2.3775892478783036,24.985968688609052,4.1139756656901785
3.7428877773814895,13.17496960355216,-3.577834740341651,-2.373735917223666,25.325730482118335,4.111517955410066
3.717411211188629,12.901261423198799,-3.832522191678303,-2.368042678556203,25.85471368546166,4.107907567462347
3.691994413029672,12.618726045036633,-4.0843837608990246,-2.362661637103156,26.389691871336506,4.104524064970926
3.667039434676048,12.331828249475448,-4.329325088245739,-2.35768006386171,26.922096749953447,4.1014244999476785
3.6504420136830773,12.135657873151208,-4.49085771332197,-2.3545380910144167,27.280173278456147,4.099490222231061
3.6437482603284215,12.05530641330547,-4.555677310601925,-2.3533106289494867,27.42549434748466,4.098739776577979
3.480858215515761,12.057476210057498,-4.568570585040505,-2.2485206081881404,27.442704810392886,3.917410553556252
2.9992528652973434,12.082916363623077,-4.587640942937371,-1.9377432902708436,27.453786047124943,3.379441817517231
2.4565006297756367,12.107036351192383,-4.6057141220525315,-1.5873099365882153,27.464304334749468,2.773087595593478
1.9115808347932122,12.126411518265556,-4.620226515127924,-1.235302551629165,27.472760533206714,2.164239075677675
1.367041071219822,12.140935862635883,-4.631098698328383,-0.8834043431459582,27.47907311333946,1.5557570358433812
0.8265845380198636,12.150577980548421,-4.638317697063806,-0.534049184730306,27.483289017010424,0.9517992346051912
0.2806375587250959,12.155493445339872,-4.641998141455677,-0.1810861684790206,27.485443373494217,0.3416813998429852
-0.26053086868004766,12.155582034213301,-4.642062739036312,0.16880682358906318,27.485464795448184,-0.2631052087096664
-0.8062094659979254,12.150849786354705,-4.63852165790662,0.5215976096439905,27.48340249355714,-0.8729238411043935
-1.3481570263292786,12.141355930468817,-4.631416539169196,0.87191971409172,27.47926861764943,-1.4785491914274034
-1.8902187179280725,12.127075718292863,-4.620726306587967,1.2222208683013989,27.473048349664513,-2.084262669490113
-2.435493874359953,12.107876920521857,-4.606345299796738,1.5744622263550767,27.464655122425295,-2.6935109340898205
-2.97649351517819,12.084030014111157,-4.588479921449397,1.9237724572664316,27.454273091332634,-3.297910758971432
-3.459030813259515,12.058717949121487,-4.56950772526172,2.235159933648865,27.443256096959345,-3.8369241157717817
-3.6433248296116334,12.048279731185058,-4.560869180332592,2.3540204029705336,27.43775216076028,-4.042727138580372
-3.6503254308757134,12.1129602758547,-4.383190544989703,2.353386972622215,27.19531241369122,-4.0393287681158245
-3.6653980838485642,12.247318898493297,-3.9995307597030054,2.3522530991562185,26.67711780133437,-4.032205330572582
-3.6812657367343924,12.38168796704604,-3.5940793038015943,2.3513885240617296,26.13710787701386,-4.0249810190500614
-3.6972312093295026,12.509751913220683,-3.1846151099104523,2.3508469128090934,25.599385301225862,-4.017983864139349
-3.713406567174459,12.632399257180946,-2.7683179063458163,2.3506216362162977,25.060239976401707,-4.011159817624676
-3.7297417977619456,12.749202415849945,-2.346521190125791,2.3507125043111787,24.52143364126504,-4.004526579578818
-3.7462985966653197,12.86055196521145,-1.9176787338409311,2.3511192436705173,23.981028749254826,-3.9980558260929357
-3.7629714504257747,12.965720299264524,-1.4845767978209914,2.351837384947024,23.442540576193252,-3.991784444404916
-3.779769215910812,13.064808428666685,-1.0470499243356233,2.3528628447511544,22.90570262179148,-3.9857026542428757
-3.795425810990706,13.151127492244472,-0.6382581718691228,2.354082100030782,22.410381049895935,-3.980237886898218
-3.801981629076754,13.185579201893349,-0.46682035177218006,2.3546660759134856,22.204402455717673,-3.9780058859941083
-3.8072692480826484,13.26224066865618,-0.5293114824216228,2.357695816717612,22.190032109991435,-3.9829424770761164
-3.8306475033297334,13.649036090524719,-1.0069649612660914,2.3736791919917493,22.27987163684009,-4.011611571399759
-3.8609801392190306,14.14400934057998,-1.6148484156537135,2.394370399490413,22.39145311520322,-4.048665103341025
-3.880365199456891,14.45636882907791,-1.996513842519891,2.407566095690335,22.45990563073068,-4.0722614719521655
-3.886000919977988,14.548544611365006,-2.1144266602527724,2.4115027443310137,22.48538862806101,-4.079382374809088
-3.871100201939066,14.417517797304285,-2.2691497321174046,2.40727323360872,22.77149797082333,-4.076637204623854
-3.844219241133763,14.174312234857062,-2.547127257777159,2.3998524944315807,23.293325708938305,-4.071829253833408
-3.8171369530784025,13.920139099733627,-2.825560254203042,2.3926574026073775,23.826576271261256,-4.067181089931295
-3.790423035448959,13.66012519629571,-3.0984389466621205,2.3858474026703034,24.360099463556658,-4.062798353704597
-3.7695715435066863,13.450553791158907,-3.310101396060608,2.380737279945676,24.781821960092703,-4.059523464464316
-3.7614532409335073,13.367353257571292,-3.3921730214662733,2.3787977497267536,24.94728350728213,-4.0582842571424935
-3.752844206878733,13.278125012142876,-3.4789906121314007,2.376772170666929,25.123529648256213,-4.056992585694407
-3.7294194646781165,13.030048002526193,-3.714044803357519,2.3714264849642603,25.60720306770781,-4.053597919305207
-3.7038927015692424,12.75068463328144,-3.96811361123318,2.365885222516408,26.141221378912338,-4.050105540425921
-3.67870660359936,12.465536115924731,-4.216494373731299,2.3607193009252074,26.67532402079446,-4.046881188000982
-3.6562562458425054,12.203093863493725,-4.435863340550683,2.3564078614737047,27.157618668688226,-4.044198572868301
-3.6465900841172285,12.087680507528772,-4.529658192030087,2.354616333828342,27.36704385384851,-4.043103115936759
-3.6444117046503166,12.067664661946123,-4.586381030428476,2.354846781878549,27.443806495049834,-4.044223755604428
-3.6617746051115545,12.372299476035687,-4.971850990819102,2.3677761703756,27.523863923236426,-4.067367328734883
-3.689370052057128,12.850837793717572,-5.5744200606032015,2.3882762380898512,27.646652660458475,-4.1040252181127945
-3.7180517231090855,13.341084606051268,-6.187974855946858,2.409519125277809,27.768662011200544,-4.141965148285905
-3.747368709437883,13.834912128070009,-6.802145464708395,2.431164718794216,27.887669594619744,-4.180578028969406
-3.777233535150714,14.330633738028594,-7.414747899885537,2.45314400253023,28.0031815709924,-4.2197404773145895
-3.8076755175755843,14.82855275140213,-8.026087252570793,2.475474281987466,28.11519793353694,-4.259483265621006
-3.838948144074013,15.332537220932537,-8.640792131563837,2.498336128293542,28.224466981479218,-4.300127152702204
-3.8707637986403105,15.837693462177421,-9.252784367281434,2.521513952970846,28.329817018487564,-4.341288388066695
-3.9033484618977883,16.347383189574114,-9.866045868719743,2.545167231854208,28.43185714657834,-4.383249919472655
-3.9366911099821302,16.861139032438015,-10.479886205630219,2.569281892642887,28.530364180647318,-4.425986139836779
-3.9708630592619256,17.37975389500899,-11.095119482046554,2.5939031205892666,28.625355265808693,-4.46957644629348
-4.005177088077485,17.89271225221878,-11.699262038708932,2.6185318683885366,28.71489459628735,-4.513137828364991
-4.039046040776694,18.391577639304646,-12.282610127989154,2.642748111436458,28.797743232758503,-4.5559301297566375
-4.058872207545567,18.680263877377385,-12.618288868830975,2.6568809764162955,28.843774355493426,-4.5808867303251715
-4.0624964238149985,18.714863936298805,-12.566532727465814,2.657044355976289,28.757343934577733,-4.580426479692213
-4.070177513301138,18.73434072034353,-12.134419557057647,2.6506734302896655,28.30588468746018,-4.565306706282918
-4.079492868863084,18.752060731316856,-11.608642639297873,2.64334030927147,27.762540329612325,-4.547337608679364
-4.08538798739408,18.759998472769446,-11.274960868748604,2.6389154752385786,27.421014133266944,-4.536166726308849
-4.089535385971386,18.76408683492758,-11.03977481423751,2.635900100596777,27.181803913275193,-4.528397990807501
-4.093061111481541,18.766601957737777,-10.839566870640452,2.6333989846547263,26.979134498392522,-4.521851156578756
-4.096131534512697,18.76808018761286,-10.665010113864257,2.6312667938103576,26.80314555723858,-4.516191994471606
-4.097918073706621,18.768637199523802,-10.563357305115797,2.6300456469144184,26.700962242007922,-4.512917052144857
-4.101720709705533,18.769086133039703,-10.34678121265899,2.6274935971006554,26.48399294189591,-4.505989509440832
-4.110431858677119,18.76638379562624,-9.849592682478214,2.6218846045952526,25.9896309515025,-4.4903360417117595
-4.1198113399758824,18.75777453217955,-9.312664637602497,2.6162043916638638,25.461440721469152,-4.473806852919272
-4.129246240483365,18.743291882076747,-8.770951370395055,2.610853299248013,24.934334249281864,-4.4575057307975054
-4.1386668625936025,18.72314429814089,-8.22849856099735,2.6058605966358948,24.412148059162668,-4.4415410388021055
-4.148127633203017,18.697345261189987,-7.682544647215404,2.601223768528855,23.892104477674263,-4.425843250108011
-4.156931587285067,18.668416743238165,-7.172873508155384,2.5971703733104508,23.41146468460803,-4.411460796297677
-4.160736830319161,18.662970559157788,-6.987577253482669,2.596026830122565,23.23163033081479,-4.406643633946002
-4.180271579408129,18.93644941483716,-7.302342945364777,2.608990575231746,23.27200613529939,-4.429485260340838
-4.216854823371786,19.442394873870057,-7.881508370425989,2.6332108032890615,23.34351118247463,-4.4721100221590016
-4.255663733636419,19.97051424126112,-8.481667333683271,2.6588233678019204,23.413719011951624,-4.517115470892504
-4.29540659344741,20.50245005929107,-9.081617647063833,2.684966353373015,23.479844352002207,-4.562981125663996
-4.335677072476588,21.032563811955175,-9.674961679720088,2.711368459164783,23.541146711775426,-4.609229705753319
-4.362449738102137,21.380186973928467,-10.061576217757558,2.728872553771971,23.57884876786335,-4.639852837573372
-4.316842683229863,21.407085811224288,-10.090033074704028,2.700456068076127,23.5825259968859,-4.591193281713402
-3.912148962511109,21.240806532927255,-9.894672530771134,2.4473698012066385,23.57129475911491,-4.157260635805659
-3.342079818784855,21.001383441329935,-9.614668745110194,2.090769204358706,23.552872217744,-3.5462647068824382
-2.7709968786078747,20.755343364471518,-9.328376383867989,1.7334676472601065,23.531325115453846,-2.9345131931014086
-2.1973757945933503,20.501856363621076,-9.034801507335843,1.3745572876889118,23.506503120259588,-2.3204074601537847
-1.6260147336734354,20.242915783437805,-8.736207450491692,1.0170882082754462,23.478518268212543,-1.709120473481709
-1.0593760254922469,19.979634851445574,-8.433816352265561,0.6626457372720775,23.447553292665305,-1.10330536924309
-0.5008056354249627,19.71366012127303,-8.129430780832822,0.3133664754584927,23.41380710439265,-0.5065619274278358
0.05487902791066716,19.442585269577137,-7.820218027401926,-0.03394872187158145,23.376998075780236,0.08662552413689946
0.611527710865335,19.164431948098798,-7.503863312494845,-0.38165918629847945,23.33679217995182,0.6803286596408884
1.162745286837799,18.88234268590117,-7.183884454588992,-0.7257325431225764,23.29368861934886,1.2677060757992162
1.7130874148557453,18.59395759381065,-6.8575329549469926,-1.0689696690059776,23.247287355379214,1.8535790886754548
2.2586782912775236,18.30126794811639,-6.526994446288121,-1.4089133627671915,23.197897117287766,2.43379191358312
2.8032143187721346,18.00225126769361,-6.1899155240995105,-1.747827816613638,23.14516648915837,3.0122455393363823
3.3447913489530507,17.69787617031893,-5.847320162531489,-2.0844876638856986,23.089242138296367,3.5868829637979043
3.8515700022772195,17.40661148048746,-5.519886494385313,-2.399103210122176,23.03369766144362,4.1239518219202695
4.064382592743085,17.281121107026244,-5.381665658941673,-2.5311381084025664,23.01200427491124,4.3494094594383315
4.04938547576473,17.156769785943386,-5.525464538782502,-2.526867473141444,23.28054111526102,4.34632755440129
4.020491332008276,16.910392271600003,-5.801619475061302,-2.518861558612284,23.80381392843355,4.340551334491818
3.991239031021314,16.651579867258608,-6.079863401756816,-2.5110643325777833,24.34161358750675,4.334929250597829
3.9628026640493337,16.390622225020895,-6.3488978389983926,-2.503793691373123,24.872322145322613,4.3296927582305855
3.9463802812218707,16.235583944716875,-6.50355278331381,-2.4997385222548654,25.182426348577568,4.3267758359779505
3.938934249189392,16.16422168661758,-6.573490187244678,-2.4979354088371677,25.32391166792839,4.3254799333780545
3.9240786593456143,16.01982697730727,-6.71266221134908,-2.4944054926967096,25.607847519726025,4.322945293515345
3.8968643156707765,15.748187080718937,-6.966294651512703,-2.488177773094558,26.13379155019751,4.318482781976861
3.8693076510530813,15.463479906013951,-7.221230986920232,-2.482197407208911,26.674109156660187,4.314212343106549
3.842224550178759,15.173888889447463,-7.469760268263706,-2.476652264476453,27.212885907296027,4.3102706349178055
3.816905145555697,14.894105512907743,-7.700125427484166,-2.471778448399926,27.723642593381825,4.306825647816041
3.8049483505042914,14.758861662779449,-7.808201699136529,-2.4695844798198143,27.967248008028406,4.305282554622253
3.790258866085184,14.693555846505676,-7.860451547555643,-2.462758613540911,28.085322812528563,4.294508257644255
3.4930823346698645,14.71066912103298,-7.872676386852577,-2.269936649949274,28.092644130875588,3.960108503671474
2.958788470021616,14.737903433397054,-7.892116139277436,-1.9230789269333555,28.104246163263365,3.3588193504650388
2.404395578487456,14.761375901338077,-7.90886632112517,-1.5629635053819706,28.114283397845668,2.734834117653849
1.8495785747816718,14.779995475031383,-7.922148553651306,-1.202396982720595,28.122253520061417,2.1103057881756357
1.2927608724360529,14.79379148287002,-7.931983497658699,-0.8403941656631079,28.12813297171021,1.4834731851967613
0.7380922968712943,14.80267092485674,-7.938315256295055,-0.4796943183891442,28.131943165962674,0.8590259538814357
0.17993308060758562,14.806709493369668,-7.941195741937336,-0.1166699863658694,28.13368310459888,0.23062851914796528
-0.3729696842099433,14.805868526784488,-7.940594223211766,0.24294806171253705,28.13330259781732,-0.39185669200846857
-0.9308269009320297,14.800137511293315,-7.936510872018849,0.6057619370486638,28.130862234027862,-1.0199088841564565
-1.4862051510266627,14.789556533208003,-7.928969199286488,0.9668956448375992,28.126347689036482,-1.6451448249877039
-2.042277742504553,14.774083446603816,-7.917933256335464,1.328370056607067,28.119711429661518,-2.2711217443492626
-2.595861700203871,14.753824703569212,-7.903483629614448,1.6880801133184615,28.11106584078031,-2.89424159011962
-3.152775459194295,14.72854573216243,-7.885445143825525,2.0497637437844607,28.10028313013054,-3.5210384068264293
-3.63385074914654,14.702745186517541,-7.8670248012414605,2.362009352181764,28.089280894198264,-4.0624110871041745
-3.7994150782232516,14.693170361016266,-7.855591854363832,2.4693166463525795,28.08048012209183,-4.248483345595395
-3.8035711387883677,14.701469489144552,-7.58594310303243,2.465659685246027,27.802612246185525,-4.239603704142565
-3.8115262373510923,14.712832862230789,-7.068226225698925,2.4589377955792417,27.273681358040996,-4.222858980121856
-3.819659418533302,14.718421898765648,-6.536818677402558,2.452431629896071,26.736832556759722,-4.206069007739498
-3.827906532192376,14.717998863970276,-5.99585500479405,2.4461992025348303,26.196436928853984,-4.1893695299892455
-3.8360767576615054,14.711663253517836,-5.457892917357008,2.440374638471115,25.66494952819865,-4.173135190269209
-3.8442003710956656,14.69965104497941,-4.9210374420137395,2.434916713758903,25.140240238023708,-4.1572857126837475
-3.8524120994228004,14.681842846294769,-4.376420852340734,2.4297262186912842,24.61356312072908,-4.141547820655799
-3.8605931333152395,14.658557940219078,-3.831951565051981,2.4248709615335025,24.09250556682935,-4.126140060974928
-3.8687913325176764,14.629791836806346,-3.2844962957458965,2.4203115596714873,23.573939725234506,-4.110960002986633
-3.877008787486092,14.595616485521623,-2.733948741268058,2.4160391552831335,23.05768753427289,-4.095994337479625
-3.8842538952433046,14.56113884998033,-2.2470806736796494,2.4125121237299885,22.605400064353184,-4.082998616398988
-3.8874809917725486,14.570283730232195,-2.135326051888018,2.412398137354987,22.484475004989964,-4.080898705670808
-3.9071612242720293,14.883196012478647,-2.515597177020179,2.4257645954564655,22.550962809460497,-4.104764389308477
-3.9388247610975355,15.380302141900886,-3.11657923970385,2.4472231732843244,22.653430180281262,-4.143024524816353
-3.9719689291532245,15.892508249637764,-3.7317784460425436,2.4696234939222403,22.754939427404302,-4.182894941628968
-4.00571243237397,16.405687295936193,-4.344018969682788,2.4923641583146137,22.852480348862446,-4.223301637672703
-4.039518495451761,16.911696205298973,-4.943644107694476,2.515081669138312,22.944563243914573,-4.263599582274639
-4.061106100801652,17.230683812342296,-5.319568013502306,2.5295543279645814,23.000515197927683,-4.289237975944303
-4.064620854040038,17.28232010216661,-5.38026956801416,2.5319081641613392,23.009419815495427,-4.293405339076554
-4.064620854040038,17.28232010216661,-5.38026956801416,2.5319081641613392,23.009419815495427,-4.293405339076554
-4.064620854040038,17.28232010216661,-5.38026956801416,2.5319081641613392,23.009419815495427,-4.293405339076554
-4.064620854040038,17.28232010216661,-5.38026956801416,2.5319081641613392,23.009419815495427,-4.293405339076554
-4.064620854040038,17.28232010216661,-5.38026956801416,2.5319081641613392,23.009419815495427,-4.293405339076554
-4.064620854040038,17.28232010216661,-5.38026956801416,2.5319081641613392,23.009419815495427,-4.293405339076554
-4.064442062812588,17.281980940065775,-5.379404933108777,2.531796555298754,23.00735739081794,-4.293216355426457
-3.9774282743431106,17.11691814744602,-4.958605994406955,2.477478957624674,22.00362031053527,-4.201242137293986
-3.8906478026889832,16.95229795048592,-4.538935376515059,2.423307005935324,21.00257462828433,-4.109514536761396
-3.803547332248434,16.78707072452213,-4.117717243544449,2.3689352977976825,19.997837638561013,-4.0174486951442345
-3.691296679106574,16.574134285287716,-3.5748727525561,2.2988638077125096,18.702983744411164,-3.8987989243529837
-3.5423936586575167,16.29166930109202,-2.854777304735915,2.205912397373166,16.985330880196024,-3.7414073301670845
-3.3935491480145266,16.009315308408766,-2.13496481051113,2.1129975112693695,15.268352948804095,-3.584077581279051
-3.244517003966305,15.726605380253664,-1.4142449205830283,2.0199654966507157,13.549210594857499,-3.4265495024935912
-3.095507628466872,15.443938643417003,-0.6936351394242873,1.9269476950998345,11.830330884764075,-3.2690454902326405
-2.9458076223851135,15.159961799129647,0.030314533275660967,1.833498773438313,10.103484488741321,-3.110811476336948
-2.7969012581779746,14.877490471915722,0.7504261515198287,1.7405452757871838,8.385793053007433,-2.953416347774021
-2.648429068440936,14.595842761875343,1.4684381007409273,1.6478628077579343,6.673109984598034,-2.7964801448379735
-2.4993982535337564,14.313135355064684,2.1891515629390152,1.5548316228439698,4.953982962797894,-2.638953470964428
-2.3504980546014385,14.030675723209589,2.9092333658958927,1.4618819738118138,3.2363626458493897,-2.481564859142597
-2.200979932450965,13.747043907798215,3.6323034473655533,1.3685465916062423,1.5116143500168486,-2.323523097907835
-2.0523318749971358,13.465062581477293,4.3511658933858275,1.2757543396904096,-0.20309741926481475,-2.1664010014940858
-1.902879158004557,13.181554837873433,5.0739196753182325,1.182459786083556,-1.9270912417733548,-2.0084283739950797
-1.7543938152583458,12.899882176932014,5.791995232530637,1.0897691074031786,-3.6399260351364138,-1.8514782682310318
-1.6054636990441602,12.617365792806046,6.512221715551219,0.9968007827690453,-5.357891459287816,-1.6940580336209408
-1.4562954443728697,12.334397666497013,7.2335998368555305,0.9036838022824167,-7.078603900938878,-1.5363860848999633
-1.3075014983852842,12.052139593591255,7.9531678002570505,0.8108004807232414,-8.794998549836459,-1.3791097832267636
-1.1585305105399006,11.769545677091358,8.673591938607135,0.7178066423302114,-10.513435443768532,-1.2216463470001317
-1.0094479910774854,11.486740188144196,9.394555444187448,0.6247431812991097,-12.23315889724028,-1.0640650210291964
-0.86046877198449,11.20413065719122,10.115019388875357,0.5317442046216309,-13.951690741738119,-0.906592884312945
-0.7112774522368455,10.921118777059009,10.836509052957215,0.43861282596248585,-15.672669247800386,-0.7488965556356277
-0.5623039804143134,10.638520148521952,11.556945203828146,0.3456174369684101,-17.391134795351782,-0.5914304938267736
-0.413451541011631,10.35615111519698,12.276796041558281,0.2526976014056072,-19.108204187996506,-0.43409236418108793
-0.2862130851283347,10.114783221370704,12.89212159098579,0.17327010632803722,-20.575948076113445,-0.29960037501371256
-0.19921696117411386,9.949753937856453,13.312835104039523,0.11896353557336443,-21.57948138950722,-0.20764482840454676
-0.11262908128568497,9.785499082243293,13.731574347582205,0.06491180761209904,-22.578305452633323,-0.11612079879307623
-0.025807860263777075,9.620801584839647,14.151442029537357,0.010714418485723326,-23.579821194310004,-0.024350125877281532
-0.004685251469638758,9.580732569844418,14.253591028213645,-0.002471185617808592,-23.82347850485704,-0.002023372118704174
-0.004685251469638758,9.580732569844418,14.253591028213645,-0.002471185617808592,-23.82347850485704,-0.002023372118704174
-0.004685251469638758,9.580732569844418,14.253591028213645,-0.002471185617808592,-23.82347850485704,-0.002023372118704174
-0.004685251469638758,9.580732569844418,14.253591028213645,-0.002471185617808592,-23.82347850485704,-0.002023372118704174
-0.004685251469638758,9.580732569844418,14.253591028213645,-0.002471185617808592,-23.82347850485704,-0.002023372118704174
-0.004685251469638758,9.580732569844418,14.253591028213645,-0.002471185617808592,-23.82347850485704,-0.002023372118704174
-0.004685251469638758,9.580732569844418,14.253591028213645,-0.002471185617808592,-23.82347850485704,-0.002023372118704174
-0.004685251469638758,9.580732569844418,14.253591028213645,-0.002471185617808592,-23.82347850485704,-0.002023372118704174
-0.004685251469638758,9.580732569844418,14.253591028213645,-0.002471185617808592,-23.82347850485704,-0.002023372118704174
-0.004685251469638758,9.580732569844418,14.253591028213645,-0.002471185617808592,-23.82347850485704,-0.002023372118704174
-0.004685251469638758,9.580732569844418,14.253591028213645,-0.002471185617808592,-23.82347850485704,-0.002023372118704174
-0.004685251469638758,9.580732569844418,14.253591028213645,-0.002471185617808592,-23.82347850485704,-0.002023372118704174
-0.004685251469638758,9.580732569844418,14.253591028213645,-0.002471185617808592,-23.82347850485704,-0.002023372118704174
