RAMEL-ESPOL/ARCHIE/matlab/data/joint_goals_espol_t5_h20_p21.txt
Joint0,Joint1,Joint2,Joint3,Joint4,Joint5 
0.0018698432433450136,-0.005031489966803214,0.0008122988833216382,-0.004926994331730063,0.005146384620916604,0.005411313766323349
0.0018698432433450136,-0.005031489966803214,0.0008122988833216382,-0.004926994331730063,0.005146384620916604,0.005411313766323349
0.0018698432433450136,-0.005031489966803214,0.0008122988833216382,-0.004926994331730063,0.005146384620916604,0.005411313766323349
0.0018698432433450136,-0.005031489966803214,0.0008122988833216382,-0.004926994331730063,0.005146384620916604,0.005411313766323349
0.0018698432433450136,-0.005031489966803214,0.0008122988833216382,-0.004926994331730063,0.005146384620916604,0.005411313766323349
0.0018698432433450136,-0.005031489966803214,0.0008122988833216382,-0.004926994331730063,0.005146384620916604,0.005411313766323349
0.0018698432433450136,-0.005031489966803214,0.0008122988833216382,-0.004926994331730063,0.005146384620916604,0.005411313766323349
0.0018698432433450136,-0.005031489966803214,0.0008122988833216382,-0.004926994331730063,0.005146384620916604,0.005411313766323349
0.0018698432433450136,-0.005031489966803214,0.0008122988833216382,-0.004926994331730063,0.005146384620916604,0.005411313766323349
0.0018698432433450136,-0.005031489966803214,0.0008122988833216382,-0.004926994331730063,0.005146384620916604,0.005411313766323349
0.0018698432433450136,-0.005031489966803214,0.0008122988833216382,-0.004926994331730063,0.005146384620916604,0.005411313766323349
0.0018698432433450136,-0.005031489966803214,0.0008122988833216382,-0.004926994331730063,0.005146384620916604,0.005411313766323349
0.0018698432433450136,-0.005031489966803214,0.0008122988833216382,-0.004926994331730063,0.005146384620916604,0.005411313766323349
0.0018698432433450136,-0.005031489966803214,0.0008122988833216382,-0.004926994331730063,0.005146384620916604,0.005411313766323349
0.0018698432433450136,-0.005031489966803214,0.0008122988833216382,-0.004926994331730063,0.005146384620916604,0.005411313766323349
0.0018698432433450136,-0.005031489966803214,0.0008122988833216382,-0.004926994331730063,0.005146384620916604,0.005411313766323349
0.0018698432433450136,-0.005031489966803214,0.0008122988833216382,-0.004926994331730063,0.005146384620916604,0.005411313766323349
0.0018698432433450136,-0.005031489966803214,0.0008122988833216382,-0.004926994331730063,0.005146384620916604,0.005411313766323349
0.0018698432433450136,-0.005031489966803214,0.0008122988833216382,-0.004926994331730063,0.005146384620916604,0.005411313766323349
0.0018698432433450136,-0.005031489966803214,0.0008122988833216382,-0.004926994331730063,0.005146384620916604,0.005411313766323349
0.0018698432433450136,-0.005031489966803214,0.0008122988833216382,-0.004926994331730063,0.005146384620916604,0.005411313766323349
0.0018698432433450136,-0.005031489966803214,0.0008122988833216382,-0.004926994331730063,0.005146384620916604,0.005411313766323349
0.0018698432433450136,-0.005031489966803214,0.0008122988833216382,-0.004926994331730063,0.005146384620916604,0.005411313766323349
0.0018698432433450136,-0.005031489966803214,0.0008122988833216382,-0.004926994331730063,0.005146384620916604,0.005411313766323349
0.0018698432433450136,-0.005031489966803214,0.0008122988833216382,-0.004926994331730063,0.005146384620916604,0.005411313766323349
0.001912394627079055,-0.004949645559283359,0.0007178687215097663,-0.004926971944827614,0.005177830968093226,0.005453960290970445
0.11629365715703228,0.21427484174698413,-0.25188912529868485,-0.0049679336996925755,0.08910472271203264,0.12009020881816215
0.3624170285669075,0.6807755022796549,-0.7872331110358323,-0.005736316527879621,0.2656683267321435,0.3667592943305714
0.6260841348252152,1.1727988434258736,-1.3486347895270367,-0.007572654932789925,0.448894432389324,0.6310119594311925
0.895710908856697,1.6679038780027795,-1.9102056065624138,-0.010512353747087857,0.6301538584484362,0.9012451318646599
1.1709852709146054,2.165228123451609,-2.4709152491606363,-0.014598429959631166,0.8090724843923134,1.1771528862640066
1.4517596828441406,2.6642442972997435,-3.0301323003448335,-0.019871567108456677,0.9854159999803804,1.4585942005343093
1.7397976098311694,3.1677620075214192,-3.5909454075214207,-0.026416618012276852,1.160110710542117,1.7473438004581452
2.034298554180625,3.674023131630293,-4.151326170777194,-0.03427207644329833,1.332469886619534,2.042606453292295
2.3372197469431777,4.185992603305707,-4.7144743401235205,-0.04355281367816776,1.5034142877160146,2.3463519626486224
2.6457157280508885,4.69850801099354,-5.274652540513288,-0.05422828533723652,1.6711529109390815,2.6557344268069962
2.960907814184968,5.213162654915673,-5.833581708533253,-0.06638263319387623,1.836175781426655,2.9718851785648335
3.285588754206315,5.7340884215432855,-6.395669586191309,-0.0801911630181682,1.9997194541258523,3.297613108323092
3.615970982670405,6.254830507532567,-6.953896661896817,-0.09555363712083927,2.159692241069226,3.6291256526434985
3.9560959274924206,6.78138214494358,-7.514639443331434,-0.11271894704017701,2.317875466063371,3.970485156460346
4.30528336455726,7.312180956729846,-8.076139878281001,-0.13173271931473882,2.4736946668985498,4.321016831425757
4.66262225609336,7.845409742165629,-8.636418288725809,-0.15261464033357552,2.6265458187269406,4.679813248185801
5.029723918097598,8.38302346719423,-9.197471818542878,-0.17553081742728455,2.776917998010985,5.048499288218287
5.405729790338478,8.92329387130421,-9.75743862026219,-0.2005028255113292,2.9242541307938246,5.4262195349316995
5.792237384154525,9.468027222294667,-10.318133681092343,-0.22771470931127216,3.068972855489162,5.8145854250126865
6.189149793735315,10.016547771885955,-10.878794045822184,-0.2572449538302271,3.210809110660469,6.213506249586627
6.597848088333855,10.570184945829595,-11.440706162544297,-0.28928755131244227,3.3500143957548745,6.624376612064545
7.018025421815863,11.127913371823876,-12.002756064285949,-0.32391420187580144,3.486235798335239,7.046894305591551
7.448035117688686,11.68702973831827,-12.562188636139373,-0.3610713468640642,3.618758358904655,7.479408251728033
7.887804026207499,12.247004931897303,-13.118481324010546,-0.40082225239173347,3.7474381066933886,7.92184816254107
8.338286844329165,12.808598387451427,-13.67239591663164,-0.44332574781038864,3.8724297311605214,8.375177280457459
8.801628776921563,13.37391566982253,-14.22598845456988,-0.4888731008448382,3.9941512168462894,8.841557328861677
9.267702693830314,13.930361538228262,-14.767018064280634,-0.5365081007809278,4.109955294664657,9.310794001648429
9.742369277671918,14.484866729795627,-15.302376068140683,-0.5868425886521735,4.221409555166632,9.788784746371256
10.217805060092534,15.028301603539532,-15.82342208297962,-0.6390476354261421,4.326826875551112,10.267647119030581
10.699282358520682,15.566796740840209,-16.336235903777784,-0.6936879497297318,4.4275738317225946,10.752685980956384
11.186593390432872,16.100035559325413,-16.840659240643504,-0.7507531363167576,4.523706719046181,11.243687583041734
11.677013478171094,16.62505890730822,-17.334065817535333,-0.8099206239646067,4.614839568605273,11.737900989467398
12.176171256236014,17.14781270171004,-17.82218757141224,-0.8718805160798867,4.702120407926881,12.240993032447738
12.68560440530679,17.669583511282788,-18.306305475307738,-0.936870397841206,4.785808117886088,12.754509212632165
13.204433901879806,18.189132259163713,-18.785351107911154,-1.004826208430172,4.8657474914190395,13.277558630688358
13.723803219647264,18.697588784685667,-19.251314991858433,-1.0745848469548789,4.940715405539088,13.801205768504419
14.240482918472976,19.19218468693652,-19.70192133364221,-1.1456500938798555,5.010552450168031,14.322185870783354
14.76222317973049,19.680573805528812,-20.144358510795534,-1.2190484602036442,5.0765375206111765,14.848305777318478
15.279276667860852,20.15391336826214,-20.570832110126513,-1.2933619253962516,5.137678825550214,15.36972867777222
15.679585588168303,20.513266117565305,-20.89310778725992,-1.3519430005139246,5.182255905397571,15.773435718860224
15.721537694256206,20.53968064101584,-21.03985499173597,-1.3586507920969502,5.311882814905154,15.818730082913362
15.706720869387896,20.481390930848946,-21.461179259841614,-1.3585067301644855,5.791713221718809,15.815275590221752
15.689858832694783,20.40845449372458,-21.937899529037388,-1.3584685343184206,6.341615081574514,15.811433975524247
15.673121403471686,20.328973107063828,-22.408137874843227,-1.3585661559485496,6.891576896079132,15.807719716293084
15.656712893734477,20.244065702089085,-22.866219196509125,-1.358796238795065,7.434801677714587,15.804178816882043
15.647085834801794,20.190974238465685,-23.13361480967525,-1.3589945222026358,7.755426644728922,15.802149475396023
15.642151712666607,20.175650928796596,-23.211861931121206,-1.3588807090147972,7.849087631039358,15.799417579451427
15.405178937960702,20.245932368124485,-23.25488019353302,-1.338717625546618,7.827406194656376,15.559960450839537
14.857928404908371,20.403749816527167,-23.35124220084753,-1.2920802154839894,7.778521742222492,15.007061512513728
14.269281191018496,20.56657604492754,-23.450321172108712,-1.2418029254860454,7.7277982982668325,14.412473598677588
13.679609252362802,20.722555473556177,-23.54490928324129,-1.1913260698022394,7.678934771985524,13.816986381740378
13.089051475465203,20.871684380369974,-23.635046527612566,-1.14066545531111,7.63196824545916,13.220736043723392
12.494726733851918,21.01466976873098,-23.72119545293218,-1.0895741578009988,7.586677664180054,12.620814812310844
11.8952102924338,21.151763184092854,-23.80354787430132,-1.0379384008789256,7.5430740697298235,12.015773270710206
11.291261405256297,21.282677339178683,-23.881960628800083,-0.9858225764517156,7.501245461495282,11.406379753145817
10.691387841111865,21.405619888556608,-23.95539633614864,-0.9339655456097263,7.461795004036679,10.80121334042891
10.087467575267633,21.522311352703774,-24.02491708274265,-0.8816700549527868,7.424199541446519,10.192074689857003
9.487987302099226,21.63116815784855,-24.089608260946942,-0.829674069146601,7.388965008393704,9.587521705598041
8.884861514856254,21.733725472313523,-24.15041866058496,-0.7772853517081283,7.355682414967653,8.979387103792467
8.291998107042682,21.827774620912948,-24.206064885687642,-0.725715878940654,7.325062005504227,8.381690567806418
7.915638810042636,21.8840180642617,-24.239288039237668,-0.6929437686427299,7.3067052187688075,8.002307050851933
7.883933512861993,21.831806758138576,-24.09163522717237,-0.6900381371561468,7.211653484450333,7.969212175215146
7.856857841716125,21.640384291621128,-23.579441219470716,-0.6872057345088867,6.891230557751862,7.938064314636815
7.826445992388387,21.421327968542187,-22.99793618523252,-0.6840513768278997,6.52917182930409,7.9030905004065
7.796142566011703,21.198741425739932,-22.411858250787677,-0.6809367716643816,6.166067365549521,7.868253163604602
7.765893947255337,20.972209956855675,-21.820095204660262,-0.6778562443616941,5.801220365175003,7.833489711730336
7.73620271909787,20.745572235511816,-21.232553902497585,-0.6748602050914433,5.440692675720206,7.799376574382727
7.706693431272852,20.516064722599157,-20.64192431323135,-0.6719098377539601,5.079942623341797,7.765481194454391
7.6776529196413765,20.286000688683444,-20.054038350073835,-0.6690330420360381,4.722485290969293,7.732131947326674
7.648785285664973,20.053116715775147,-19.462996017333783,-0.6661997566450643,4.364687870989916,7.698987977937968
7.62008298248656,19.817366124314884,-18.868628723575974,-0.663408927402797,4.00642857690587,7.666039705229964
7.59174612970944,19.580448683510948,-18.275134611467585,-0.6606794523038666,3.6502033354888104,7.633515901796845
7.566612564546038,19.36679757279747,-17.743056869625384,-0.6582801396266199,3.3320872243123123,7.604672174373634
7.555553083519842,19.271725933430506,-17.50721165220326,-0.6572308487863365,3.1914499323323815,7.591981001780485
7.552084294967013,19.240912000402044,-17.41563720228579,-0.6568921543150896,3.1307332067233133,7.587810743806043
7.592908973592199,19.560049116900586,-17.634129141594595,-0.6603619903623802,3.0296254130495215,7.627511157319641
7.668137444425034,20.14065932244137,-18.027996660130533,-0.6667580211840349,2.842024126684001,7.700620893778184
7.74750243347612,20.742930272353224,-18.43161668890507,-0.6735091079449566,2.642458789182738,7.7776859309387465
7.82843503286081,21.34652662501394,-18.831098346653963,-0.6803976143103689,2.4374025203643837,7.856206407452568
7.910974396324237,21.951403462752996,-19.226401937749973,-0.6874276425253146,2.226859550268643,7.936218095517033
7.970963697290858,22.384406636037326,-19.50630433173854,-0.6925403529833424,2.073047989418658,7.994328402595139
8.128837708270858,22.482388077727894,-19.57046751517957,-0.7061587600882877,2.03730798541641,8.151677796105528
8.646574396340922,22.653730375527378,-19.68448995845271,-0.7508031021777903,1.9734198793677542,8.668279249517083
9.241198450601262,22.84382867554277,-19.810992291918996,-0.8019999381887507,1.9017845769105381,9.261511469381333
9.837342947866663,23.027320270778528,-19.933145454656977,-0.8532395648229505,1.8318551457151377,9.856172235379244
10.440659146827214,23.205878980599188,-20.052114579808052,-0.9050004853257158,1.7630308659545983,10.45790342725653
11.041616835974587,23.376681433752818,-20.166064145671246,-0.9564546210793314,1.6964122561718415,11.057201128883614
11.64070142652278,23.540025619783265,-20.275241347477735,-1.0076469005093607,1.6320030066916473,11.654565791997905
12.245754625221629,23.698053975055696,-20.38111992410868,-1.0592372383409123,1.568968199678538,12.25781831631185
12.855808979801782,23.850399904535916,-20.483502419052357,-1.111134538803807,1.5074808336939356,12.865999432458219
13.461490104438935,23.99478099692536,-20.580891027481133,-1.1625304155822465,1.4484753035109106,13.469766679645963
14.067935933743586,24.13255600556538,-20.674240532194613,-1.2138665556988615,1.3915076747391149,14.074256960203945
14.679091699980129,24.264590970072458,-20.764175086445782,-1.265464646468735,1.3362206777212977,14.683405565406114
15.297515894987642,24.391300472627066,-20.851024786951452,-1.317530875072893,1.2824599563558814,15.299768927179276
15.907288732375646,24.509501228448908,-20.93263353906713,-1.368713305184758,1.2315863753703613,15.907484606121985
16.514600873558713,24.62063522950284,-21.010013259367977,-1.4195425547172742,1.1830966843655764,16.51273651455771
16.924166992592205,24.691893862029346,-21.060028295554858,-1.453732512070247,1.1516127755963128,16.9209086772683
16.952462430748177,24.693861276793193,-21.19382587031728,-1.4561634943689241,1.2826834868748573,16.952495211926205
16.9343059458547,24.676850961639882,-21.666752475390826,-1.4549798946087933,1.7729227707208597,16.946819106734605
16.913980080926528,24.65113772381017,-22.193666042614467,-1.4537846629667581,2.3258868411305977,16.940547341747525
16.893862710803838,24.61859383362748,-22.71250191218215,-1.4527396475797552,2.877599073207595,16.934430695083726
16.874053562301846,24.579492397459077,-23.22073615871484,-1.4518478750964288,3.425260777535696,16.928501104233877
16.854351481326255,24.533497227393536,-23.723557609637314,-1.451099229545663,3.974400261667744,16.92270056521197
16.834764300621316,24.480585002494795,-24.220754898928288,-1.4504950463577102,4.524829314055958,16.91703495630099
16.815396650936883,24.421060570835635,-24.70968367593146,-1.450038450802486,5.073597003919317,16.91153720766528
16.79664207970929,24.35643797668204,-25.180525232729607,-1.4497331839002137,5.609364223135003,16.906317454254367
16.78642496672272,24.318287934193737,-25.43592986475558,-1.4496247875350154,5.903083378267151,16.90351868492143
16.77558629856511,24.275510223886357,-25.70601025742803,-1.4495552882538805,6.216115472146106,16.90058542694262
16.770882342133834,24.256198891124278,-25.82294590573856,-1.4495398657695093,6.352437803190518,16.899324102218834
16.636156192241206,24.29451969547304,-25.863824791557583,-1.438236992532396,6.3583908527144635,16.76392319936037
16.115112272770638,24.451591157843257,-25.951474696681558,-1.394232791656601,6.301872626099212,16.23830335550978
15.508675728571053,24.627448463657334,-26.049239505656498,-1.3428921926190793,6.238292037747218,15.626711564980116
14.898385912955423,24.796949894146255,-26.14310349197103,-1.2910945370012386,6.176707819592967,15.01141326869163
14.289268779388905,24.958728208767646,-26.23235176046662,-1.2392675005232825,6.117623609403857,14.397474410952077
13.67662297924629,25.114074086700874,-26.317746329240634,-1.187021212284718,6.060666406097818,13.780143587709155
13.062287556194557,25.262498495279438,-26.399054554584865,-1.134512775437369,6.006017220376999,13.161273220002231
12.44597682530289,25.404076433707537,-26.476356198022618,-1.0817217676411968,5.953680407448013,12.540570255782047
11.825919744031983,25.539178882927654,-26.549886328010658,-1.0284982132951126,5.903517163033835,11.916249530444833
11.206454800815619,25.66687630648712,-26.619180552661863,-0.975222907727971,5.8559635090276725,11.292667069643636
10.587059493355595,25.787346493444314,-26.68436730498521,-0.9218541731565563,5.810950953870729,10.669292728115463
9.965036372502091,25.901128338223696,-26.745769676753667,-0.8681643129408226,5.768303905239714,10.04340529983767
9.343112542692937,26.007731557004423,-26.80314941786078,-0.8143926921359217,5.7281989332709236,9.417744914595621
8.762107491312598,26.10090279215954,-26.85318691651824,-0.7640839170745627,5.693081849241203,8.833352564353422
8.487101063212364,26.142852840876966,-26.875681103700163,-0.7402470204537174,5.677242364144264,8.556776672961384
8.468999419438164,26.039523611925283,-26.6248666973302,-0.7384923575002341,5.5300032515085835,8.536677790314874
8.43538697190114,25.810375400315632,-26.072556886150156,-0.7351912011714503,5.207300933180847,8.498745208925477
8.400176439665735,25.56626175828581,-25.48740130584104,-0.7317587216620897,4.8667380057295775,8.45901676978894
8.365305766266285,25.32034047194708,-24.90112117169642,-0.7283853748803443,4.52685142621201,8.419678713384974
8.330621083551623,25.071558975084546,-24.31114742473771,-0.7250558663922523,4.186126838842339,8.380556518859231
8.296515954455453,24.82281545778566,-23.72426397002867,-0.7218073175120416,3.84844472559003,8.342093134050586
8.262581723634367,24.571202972079018,-23.133526934731343,-0.7186001706401229,3.5097737191436185,8.3038267487755
8.22915654349116,24.319289088035948,-22.54489127920399,-0.7154658493246557,3.1734967543780868,8.266137805998207
8.196080282785935,24.065959966640314,-21.955661258491023,-0.7123886180071386,2.8380341349395595,8.228844874475786
8.163107790585753,23.809356643056667,-21.361471426242076,-0.7093454103130751,2.500882670891751,8.191670752114812
8.130524819872576,23.551729238576375,-20.767486912326994,-0.7063623059866523,2.1649536467537103,8.154936821776442
8.105261760499351,23.349162067492742,-20.302192826013126,-0.704066063543286,1.902557403322422,8.126455563452426
8.094941508525858,23.265694845585415,-20.110903592370164,-0.7031322514538934,1.7948701631977118,8.114820605352207
8.097243791958196,23.278206844724803,-20.075996561486757,-0.7033129750614113,1.7474264904520904,8.116537835702246
8.15657193447387,23.690055519122055,-20.33485397261492,-0.7083791168771617,1.5937168327931481,8.173903878125813
8.244498610794391,24.291210812228822,-20.708585932910477,-0.7158937607583347,1.3652197530840082,8.258864153397765
8.335569968410313,24.90253564318516,-21.08365892706281,-0.7236857226296256,1.127844365859383,8.34679111742008
8.428571658970853,25.515243256557135,-21.454564923688956,-0.7316523647699864,0.8848834172392103,8.436508298248272
8.521806619975017,26.11806818985032,-21.814612044148344,-0.7396491672957582,0.6409312320999305,8.526378020640951
8.580486833281823,26.491751096263393,-22.03538215926149,-0.7446876408932112,0.48727308768278765,8.582903891733084
8.728718838280944,26.41286364732087,-21.99023096809296,-0.7574652543876131,0.5190693439601323,8.731125733540186
9.230099886151043,26.070391338124338,-21.792299498673383,-0.8006540810536223,0.6567998748462824,9.233005425394785
9.796699206454193,25.673869863628507,-21.56143131832748,-0.8493962629081755,0.8142999856929467,9.800457404558067
10.36072953950955,25.268893979184593,-21.32373996067258,-0.8978462420701959,0.9729869995625924,10.365645373913914
10.815650736934886,24.93463247433685,-21.126092645684974,-0.9368698103850179,1.1023172821797533,10.821727423064566
11.033403902530228,24.772179860767583,-21.029554988360378,-0.955531279603952,1.1646353234488886,11.040108640110047
11.524100540589483,24.400169712483528,-20.807294011786936,-0.9975380157543777,1.305989246406911,11.53240683720578
12.072956222446086,23.974156016646432,-20.550722294734097,-1.0444540226325463,1.4656429282029495,12.083325117255944
12.617711357768522,23.540716472819014,-20.28741423263617,-1.0909408923403718,1.6256113818742826,12.630428417423545
13.151383900411522,23.105585337684836,-20.020763172398862,-1.1364033573439594,1.783703090441462,13.166693946753558
13.68846587152028,22.656901489144694,-19.743358341822344,-1.1820749649425824,1.9440961294780226,13.70667925375227
14.22394383638511,22.198516066217714,-19.45736568605266,-1.227522454996132,2.1051772592693236,14.245359671166932
14.748140322515612,21.738835493277893,-19.167923210108935,-1.2719323144116865,2.263954197737295,14.772962875693088
15.270988748005982,21.269255163998373,-18.869493197277748,-1.3161429987306286,2.423264107020482,15.299489906674966
15.714726433260441,20.86182503216585,-18.60829127886667,-1.3535958493190328,2.559123729072467,15.746568909285802
15.805547082684278,20.77210601798191,-18.609912264193888,-1.3613199739070763,2.648288117146155,15.839556415010776
15.791957788047169,20.745439720617366,-19.00759363938136,-1.3606817648481806,3.0728386452430376,15.836055097658043
15.774593719193025,20.705353461087043,-19.513198454014024,-1.359979421273636,3.618787995516363,15.831650891555837
15.757404504206761,20.658900997043983,-20.010856644110884,-1.3594116765747721,4.163153254573076,15.827372092305541
15.740345646308361,20.606006050885803,-20.501882387132145,-1.3589764612714954,4.707325515992162,15.823209866838134
15.723349965273144,20.54643921978878,-20.988207013796583,-1.3586727786671435,5.253466473206138,15.81915085287164
15.70633031695646,20.47977942814657,-21.472281240336727,-1.3585016762983744,5.804449150392665,15.815178524466349
15.689462048860134,20.406651807176956,-21.9490967680831,-1.358466598555199,6.354637517597964,15.811337434218297
15.672823972677515,20.32749722501337,-22.4164711455932,-1.3585664185449373,6.901407099458458,15.807646961687167
15.656813322862819,20.244610213934937,-22.863417626360842,-1.3587916580315318,7.431470918716375,15.804192169503372
15.649114118095849,20.202367964668465,-23.07735133157959,-1.3589460190430398,7.687757192497956,15.802565828839636
15.646324518283029,20.186676147772488,-23.15470333168054,-1.3590094380762814,7.7808409084950325,15.801982323772338
15.652430537702525,20.206219001512107,-23.232452160256422,-1.3597156242460562,7.83888580339245,15.809529358028085
15.756097226130262,20.60059675213493,-23.49642086146831,-1.3680649544973134,7.706049019437042,15.9108554123877
15.916246597975404,21.201867436694346,-23.894759547769393,-1.380954099432179,7.4993376603107675,16.067275909749988
16.080493061145017,21.808675426355563,-24.29176032414266,-1.3941624555855905,7.285618023359631,16.227558882278636
16.247902641842124,22.41716313781949,-24.684837838800863,-1.4076155926953906,7.066182184800458,16.390787255235644
16.41905287486711,23.029064178990463,-25.07507814162764,-1.4213607321154382,6.8403663728865896,16.557519138705544
16.59384374979331,23.64362127242932,-25.461953286619803,-1.4353907095439586,6.608399811028256,16.727651677741477
16.770568822677813,24.254601600035762,-25.841580773023285,-1.449569609633846,6.372672706868249,16.8995208842372
16.95136454402201,24.869129450208405,-26.218418442390906,-1.464069943088722,6.130463610896783,17.075201132877485
17.134568201084058,25.481254307909524,-26.588833325403666,-1.4787594873948098,5.884129293351136,17.253072918999564
17.32325161276048,26.100829646310263,-26.95875807202787,-1.4938857215868824,5.629668490724125,17.436113333560854
17.514944978938107,26.71929274037243,-27.323035527173683,-1.5092518912011303,5.370546556363144,17.62192058874814
17.7101883291813,27.33810714562111,-27.68256853355642,-1.5249026277747,5.106186373022382,17.811014773636792
17.905131312011562,27.945076273681806,-28.030438761104975,-1.5405306304331234,4.841965139419476,17.999667453082854
18.025975014766363,28.315988551217085,-28.240701251881518,-1.5502195420752967,4.678114318806692,18.116538224457518
18.064970566037317,28.434732797897233,-28.30168855847353,-1.5533333801424074,4.61932240237689,18.154078950367925
18.022748351311762,28.302190747838697,-27.989422361392606,-1.549438758407949,4.440807652369866,18.10685813411032
17.946719609406905,28.06043454480327,-27.422170232597452,-1.5424626545468432,4.11748204262323,18.021839237979755
17.869244135559843,27.809942913201567,-26.837454470531306,-1.5354028726571032,3.7854597263503864,17.935215401344365
17.793008094626387,27.559325378509246,-26.25538949857218,-1.528504772446536,3.4561692411659375,17.849988449535957
17.717339880907097,27.306460702243857,-25.670952123441495,-1.5217062790645604,3.1267279938962815,17.76540560734545
17.64262251484147,27.052691304068073,-25.087168057934623,-1.515040812068838,2.798808787817769,17.681893196119088
17.568256391004283,26.796026394681952,-24.49939385112024,-1.5084541064982646,2.469776036346952,17.59877928948321
17.49465323367272,26.53791570358109,-23.910898568568175,-1.5019820742671446,2.141437797603884,17.516522378338088
17.42166669733327,26.277897672121743,-23.32056617067242,-1.4956110478042515,1.8131439262773061,17.434957262495928
17.349685961415858,26.01742994363535,-22.731632655122194,-1.4893739979108387,1.4866623074364052,17.35451726685707
17.27924819401061,25.75860662599697,-22.14871575071885,-1.4833155879361108,1.1645022179745044,17.275801165803376
17.23555459245909,25.596068401999375,-21.783779574417437,-1.4795800649175288,0.9632996032176139,17.226971544946
17.216476992533572,25.524618867789258,-21.623627198253395,-1.477954523140091,0.8751177036607819,17.205651129065053
17.218801180995385,25.526147221071383,-21.568084879226163,-1.4781262500194217,0.8180062528299696,17.206496878307213
17.349436206298662,25.932213019312606,-21.81178414410955,-1.4889471710226447,0.6523199002014779,17.33257076167692
17.54438426739292,26.528471871521006,-22.165681123720308,-1.5051029235300122,0.40496087907367706,17.520595227637948
17.7450039295399,27.13022995567269,-22.5181033833958,-1.5217388873421518,0.15042888521853004,17.71394762519407
17.950107185219082,27.733360689863968,-22.866576825009364,-1.5387581229655616,-0.10959688555637782,17.911476653456592
18.14799700761586,28.304027855467453,-23.19193460557909,-1.5551904817076159,-0.36013971862576455,18.101924382416513
18.247518504456558,28.586943995150364,-23.351670206766105,-1.5634590682648464,-0.4859721695892439,18.197654603080696
18.28145251648121,28.687014423823424,-23.439173643184056,-1.566271846566082,-0.49945742483845224,18.23109240073046
18.26491210321664,28.689736694298595,-23.820352722295738,-1.5648454703757615,-0.12069174727520181,18.224963833964907
18.24141427996043,28.687755345453088,-24.359922969783945,-1.562937315981058,0.4212973606594741,18.216332483193877
18.218042017160478,28.678816370062695,-24.89429768926341,-1.5611797500727045,0.9650446785750854,18.207839637365527
18.19453768950111,28.662635464384337,-25.42930971731332,-1.5595567567898785,1.5166720524384731,18.199397456433896
18.17116639506029,28.63920909635912,-25.958866605665843,-1.5580901071905806,2.0700855911173477,18.191107040389173
18.1480518828764,28.60865573933255,-26.480165092465132,-1.5567875266090323,2.6223612474364106,18.18301566964173
18.12538911322778,28.57138492621353,-26.98886008178103,-1.5556569289958366,3.1687408224161038,18.17519257570271
18.10270654395707,28.526641816110416,-27.49554359919337,-1.5546744646672483,3.7205797655999455,18.16747787616445
18.08623648920069,28.489363603750355,-27.862005072694586,-1.5540798377635288,4.124593935445517,18.1619461263099
18.07656988493979,28.465588255536694,-28.076383513908684,-1.5537556689851262,4.362922268559837,18.158733752486256
18.06671642916387,28.439883687751447,-28.29442049861014,-1.553454807537118,4.606841366319138,18.155483390297054
17.934345841162532,28.48013338430936,-28.330846941002413,-1.5424428564940904,4.606597551653757,18.02262873150658
17.40878705725165,28.644611118252307,-28.414038833866982,-1.4985027800635904,4.539294795359771,17.493414687943503
16.781328193170072,28.833759318080975,-28.50930594233571,-1.4458979722441,4.461576241081089,16.86180899800977
16.153428651147532,29.015270728395233,-28.60032218491694,-1.3931028474698144,4.386674329904088,16.229988977392104
15.521385633620659,29.190227466904478,-28.687677413175244,-1.3398096092320229,4.314180874269094,15.594223326316742
14.883956289102704,29.358888260744745,-28.771538812082845,-1.2859104676750017,4.243991552118453,14.953264720542853
14.242155451773966,29.5209048419031,-28.85177917935803,-1.2315037428972784,4.1763441562529975,14.308118321599183
13.600942871999656,29.675040863823362,-28.927825708208534,-1.177009005564573,4.111758703810634,13.663768901717624
12.959604509447823,29.82155992614624,-28.99985167142973,-1.1223714807453866,4.050159240112626,13.019489966361132
12.313792794778998,29.961450190638466,-29.06837750356251,-1.0672212917349209,3.9911297629320277,12.370912297960524
11.662063704632248,30.094923199522288,-29.133545963575852,-1.0114463909127118,3.934668465135522,11.716570866635703
11.01568916317932,30.219730308957708,-29.194292004852517,-0.9560130994189882,3.8817243746221535,11.067778843711656
10.36830001755169,30.337241823470098,-29.25131524133577,-0.9003792883782459,3.8317133728331902,10.418136451989977
9.72217280350936,30.447119877725815,-29.304489358398996,-0.8447536244944734,3.784865723755127,9.769910296203816
9.249851394760437,30.522793334260456,-29.341027577503265,-0.8040290012272281,3.752537580001542,9.29614657141397
9.16776032851122,30.501266074793453,-29.274296834912963,-0.7969107603379014,3.7084865943632384,9.213274220429213
9.13552018161953,30.292280383002655,-28.822346484667797,-0.7939195640550973,3.4659930858227246,9.177602122107245
9.094377591067339,30.022057547639,-28.23947096921232,-0.7901229308882004,3.1539391389176226,9.132080757319416
9.053644430488891,29.75056145900434,-27.655495709390866,-0.7863870125498545,2.842049968511699,9.087012697256517
9.01297850399073,29.47551141769147,-27.065492505419524,-0.7826803220297118,2.527683083738932,9.0420186382341
8.972873291609025,29.200267853706777,-26.476639097194408,-0.7790476160874414,2.2146487478219226,8.997643907721429
8.933246262850124,28.924347878493,-25.887849395593054,-0.775480855074458,1.9023450521188614,8.953796550775921
8.89395405483858,28.64680468694484,-25.297063771363728,-0.7719667640825909,1.5896613049030421,8.910317310603338
8.855207774939977,28.3691906857683,-24.707545315368197,-0.7685238053560984,1.2783052779881057,8.867439195271574
8.81696261270012,28.0912730040788,-24.118750010132047,-0.7651474346151763,0.9679665636640851,8.825112067385081
8.778792916338944,27.809974703681025,-23.52413584710942,-0.7617999276266247,0.6551861479178118,8.782864248208567
8.743311105432925,27.544900794729227,-22.96501032166177,-0.7587083609964748,0.3616301267343248,8.743587111936105
8.726283001403806,27.416444004711924,-22.69445856810852,-0.7572316936744811,0.21977227148888145,8.724735917741686
8.717030597372654,27.346303593117117,-22.54684030562305,-0.7564312542656497,0.14242305674294153,8.714492430373438
8.741480630640385,27.494953147422475,-22.61896557469981,-0.7585358348469879,0.06558324840518122,8.73784150269567
8.828981065082415,28.027048424863704,-22.923139865630784,-0.7660757057732885,-0.1634777584348354,8.821970114968465
8.931757997561016,28.64060206687608,-23.269298220785252,-0.7749455277989836,-0.4322257380535159,8.920714012536797
9.037709794574285,29.260524467932566,-23.6140892160429,-0.7841051764078041,-0.7087670399077161,9.022428439287173
9.145609221945639,29.879089994600804,-23.953181352716843,-0.7934501937067624,-0.9896923203995684,9.125931846153723
9.244228854598012,30.433515130623576,-24.252935671718728,-0.8020068786153322,-1.2457043439686506,9.220464302021055
9.28669049151611,30.669081800492105,-24.379106252100527,-0.8056956455255418,-1.3556820730173194,9.26114626980625
9.209466903188776,30.509486973610777,-24.29332259205417,-0.7990260598121683,-1.2808023027225879,9.185404286620349
8.967094792592617,29.978762872213636,-24.00582303107663,-0.7780921709799679,-1.0342812709653295,8.947727056657996
8.698162509006668,29.377817148394985,-23.675964604196988,-0.7548685207777496,-0.7596363190234662,8.683810908130217
8.434969254459542,28.77705196809985,-23.341597126002345,-0.7321440340110941,-0.4898589751660911,8.425326776196782
8.176482125540657,28.174487971331796,-23.001575630464167,-0.709828503625227,-0.2240957272253736,8.171268953111129
7.924311290146005,27.574314375821473,-22.658246477706637,-0.6880599596104694,0.03579658082568801,7.923229571440191
7.677139151243163,26.973866334828422,-22.31008538272992,-0.6667237402923047,0.29098056219297247,7.679922658304175
7.4347371751431135,26.372959751871306,-21.956952657025205,-0.6457992691085264,0.5415084757646486,7.441131707538903
7.196792914709097,25.77116353789316,-21.598554830318722,-0.6252587826943451,0.7875262892486496,7.206556927128703
6.964205882784502,25.171150917568614,-21.236469537987848,-0.6051792041182237,1.0279335196355395,6.977093837070582
6.7349584750349205,24.568045261401902,-20.867714750186195,-0.5853856719282811,1.264650654681399,6.750759623930437
6.511604765172909,23.96894394801185,-20.4966160350768,-0.56609810427289,1.4948840625995652,6.530084226116816
6.2896120097832755,23.361925740475264,-20.115718080990312,-0.5469244881229341,1.7231484559584316,6.310595604440856
6.1168335415537145,22.88128716503768,-19.810610374852352,-0.5319985944108121,1.9002976377085037,6.139656377536755
6.048260770328377,22.688502690351868,-19.687356365547508,-0.5260739663611332,1.970458121560701,6.071786802179125
6.038874308319791,22.660760846355384,-19.80467804054642,-0.525307290108411,2.1156016234993675,6.063739435483899
6.032659900059551,22.63534139115381,-20.26393238982848,-0.5249507989575753,2.6003119641115253,6.061974177530976
6.025728429641338,22.600567800878945,-20.773635405269964,-0.5245991461268021,3.144829170011706,6.060034078018896
6.018859942800302,22.55929093553961,-21.276012160014208,-0.5242995301815185,3.688522856375863,6.058143274181823
6.012021473881097,22.51130481490422,-21.773476373557976,-0.5240506223763773,4.234012911087753,6.056293794883031
6.005249902618116,22.45686713776222,-22.263349548553908,-0.5238538608926111,4.778362919862834,6.054496677894481
5.998449163758672,22.395113894226952,-22.752549146017433,-0.5237072392220267,5.3293549028169505,6.052727957745655
5.991686196711857,22.326514439604544,-23.236208682824863,-0.5236133621841278,5.8816526286748605,6.051006835665668
5.985050501782782,22.25208793716008,-23.707973409550693,-0.5235728664995364,6.427881671172785,6.049356570062955
5.978849720470711,22.176033693835617,-24.14626659343821,-0.5235824085054606,6.942264254274239,6.047850569534644
5.976217600580906,22.141818627020424,-24.33155686036466,-0.5236005812282482,7.161784457077177,6.047222239592199
5.976197664319834,22.139148974816194,-24.389907075917048,-0.5236691851617757,7.2228019529850584,6.047764473476333
6.005302219207468,22.43028121180113,-24.576824774937535,-0.526091494993112,7.118325187817572,6.076113250383812
6.064535249902181,23.016053166238112,-24.949436254888123,-0.5310217366661271,6.904627351463704,6.13377067914184
6.128665770023536,23.640284016656533,-25.341427174875413,-0.5363606948558329,6.6718000646710385,6.196139820008365
6.193759775026521,24.263547681178196,-25.72760764236186,-0.5417815964963206,6.434114772981611,6.2593883971781334
6.260485135684866,24.891883031026843,-26.11169943418792,-0.547340776182974,6.189247849067244,6.324163366307055
6.327695549517835,25.514260557863278,-26.487003423877375,-0.5529434510690506,5.941540090647177,6.389350636590877
6.392723117600728,26.10661737005456,-26.83947665834433,-0.5583676580916241,5.701036851199616,6.452366215426385
6.425224738357617,26.399142856020745,-27.011847570615288,-0.5610801954482643,5.580570337426312,6.483842524947969
6.4183462977551775,26.337727601768666,-26.838670840870524,-0.560375807717973,5.468881595026461,6.475833293459979
6.3940029133293095,26.11794183893662,-26.314131633929414,-0.5579812849375249,5.164380460001976,6.44839788180072
6.367201124983886,25.872020806896845,-25.730195089116574,-0.5553636701206945,4.826641543209331,6.418197061086524
6.340518591290746,25.623033954537714,-25.142038499659467,-0.5527773225423157,4.487745932025639,6.388135520196847
6.314050518431437,25.371884710780403,-24.5517512624333,-0.5502312464107894,4.148878642386993,6.358319844823747
6.288028257544821,25.12086080862528,-23.964612953981554,-0.5477471209017485,3.8130291999557757,6.3290099143818646
6.262095845517102,24.866591111639185,-23.372664292451024,-0.5452905395676452,3.475613122940938,6.299804111420043
6.2366502650972055,24.613041271742247,-22.78505881875169,-0.5428986467794185,3.141814317245519,6.271148871531124
6.211374399075591,24.35714357643764,-22.19459847449424,-0.540541095033945,2.8075056836799366,6.242686432673322
6.18623165871484,24.09853502921619,-21.60041284725589,-0.5382143286611816,2.4721801964051346,6.214375005667277
6.161331425736764,23.838365212690682,-21.005100870223636,-0.5359282571714764,2.1372861382381716,6.186337175175224
6.1400440973170225,23.612693887562948,-20.49064872443011,-0.5339884419821703,1.8487165841522117,6.1623674879277335
6.130798590813312,23.513735296698226,-20.265603614439094,-0.5331501587407405,1.7227215823243085,6.151956879416449
6.130590469675704,23.507048555424618,-20.205915631133212,-0.5331174764522134,1.6697245794642066,6.151255424198699
6.172946239176862,23.89545865628585,-20.44881877045395,-0.5367513440522612,1.5238289495806399,6.192193096724814
6.239707499788181,24.498626096372632,-20.821995271071824,-0.5424844157409383,1.2932202742363805,6.256675504460864
6.309134102003791,25.11441310987287,-21.197941200770586,-0.5484536949816468,1.052730153878247,6.323676943023744
6.3793137194503675,25.72532678054277,-21.56590646112862,-0.5544957182767815,0.8091187913502328,6.391349293304103
6.450076046322165,26.3298743471862,-21.92515320048402,-0.5605964531162011,0.563142510005519,6.45952826479304
6.49636560682072,26.71927774774379,-22.153990964581016,-0.5645921052893125,0.40213122131215173,6.5040985995175635
6.50098632710609,26.76857848189857,-22.2742072519083,-0.5649975223426328,0.47299788871550597,6.509404186596953
6.494040548423684,26.76109126857458,-22.72771433874675,-0.5644513870974833,0.9340380662722543,6.50702319734048
6.4858425126843295,26.74580563851731,-23.260741190931768,-0.5638547017813906,1.4824045145275824,6.504243462004774
6.477621449351932,26.72329973904463,-23.79277295892832,-0.5633095668443314,2.0369960920714556,6.5014910431978326
6.4695332827344485,26.693968942817015,-24.313711714146322,-0.562826489190891,2.587318469864371,6.498819494888318
6.461539392807834,26.657799735249405,-24.82609159285706,-0.5624022015040414,3.1359195504411876,6.49621659413833
6.453598428094189,26.614628300782627,-25.33257312660696,-0.5620343548722421,3.6856239463327833,6.4936699157175015
6.4457318702468225,26.564570099580752,-25.831786895709584,-0.5617240139167423,4.2349466343379865,6.491187506752596
6.437996035963014,26.50809402107983,-26.320197608767923,-0.5614726805026088,4.779883069899756,6.488787652875391
6.433246945127776,26.469786604887478,-26.618779114296103,-0.5613454541903199,5.11680235089804,6.487335566434472
6.429231898969164,26.43520486172261,-26.870450740922628,-0.5612542708518746,5.403081315631457,6.486120960709968
6.426901577601791,26.414162413854577,-27.016431660279682,-0.5612239813828733,5.5700905397468405,6.485397325981384
6.167633520437538,26.44225773604368,-27.035591235482958,-0.5386504073351792,5.563648152325487,6.224840386932429
5.5832487753518745,26.50249266465361,-27.06762968901226,-0.48772538013330774,5.540697200151118,5.63750021308774
4.955065463087837,26.560480353950446,-27.098430721323883,-0.43293378360920565,5.518569405291243,5.006209471028922
4.3262184825381915,26.61154065379476,-27.125517999754194,-0.378038229601811,5.499058497348807,4.374316034881075
3.694804200123269,26.655795426609252,-27.14896603103412,-0.3228764775842777,5.482097603046072,3.7399012084340653
3.066531419404247,26.692881992922825,-27.16860023511728,-0.26795650854394937,5.467896038940308,3.108689152980216
2.440013831692046,26.72297823303448,-27.184521381370796,-0.21316148125193599,5.456362741382732,2.4792801964385074
1.8104852342741986,26.74630707817056,-27.19685505873279,-0.15808028482187364,5.447418411749108,1.8468781134090335
1.1823040760695513,26.762690799143993,-27.205513187436075,-0.10310000388681326,5.44113590352061,1.2158532196979495
0.5530542467120199,26.772202203140097,-27.21053529128772,-0.04801494250558435,5.437459687058157,0.5837711604250376
-0.07798943183714996,26.774815433012584,-27.211916383164695,0.0072320654540163724,5.436463520720049,-0.05010640974628121
-0.7046721879257861,26.77054562830867,-27.20966198596765,0.06209671548819107,5.438111099193581,-0.679604424832696
-1.333736414854092,26.759377076770924,-27.203762723765557,0.11716344274317957,5.442407665973252,-1.3115037475543512
-1.9362722244172865,26.74220620437301,-27.194686394448183,0.16989546693173233,5.44897549619992,-1.9167713246124916
-2.264129122072876,26.7302025558743,-27.188341320286227,0.198582299504301,5.453585740757289,-2.2461238441626636
-2.2628863669973796,26.633847316616926,-26.96075646089562,0.19843072504350492,5.322361249215133,-2.2444193741983516
-2.253976542187217,26.40394836435261,-26.41914282330029,0.19755425446813107,5.0106791377922875,-2.234392780464595
-2.244438101023823,26.153836899026018,-25.832733942621118,0.19662260886527416,4.674416441189101,-2.2236604373483737
-2.234979171815077,25.901672546657686,-25.244358915288082,0.19570558142154265,4.338240039346028,-2.2130190535214043
-2.225568966388004,25.646654314007467,-24.652103379788084,0.1948001024656926,4.0010366790842635,-2.2024337582322517
-2.2163346413925114,25.392311620887526,-24.064078621771838,0.1939182219486349,3.667387773412093,-2.19204734221636
-2.207161079855398,25.13556611734625,-23.473079104719236,0.19304875022170867,3.3331665551925753,-2.1817300889175053
-2.1981511164269034,24.879379973190556,-22.88584302473781,0.19220125597188217,3.002148688730475,-2.171597430554231
-2.189181800508192,24.620328570046013,-22.294449998896198,0.19136402025872434,2.669838852203493,-2.161510882828194
-2.180273611009912,24.359005595869558,-21.700227657355715,0.1905389143915475,2.3369709179173266,-2.151493275392027
-2.1714393444423745,24.095810583783894,-21.10404494286535,0.1897270508262123,2.0040142537495163,-2.141558799896985
-2.16424254069117,23.878378019894395,-20.61319563554686,0.18907042914957906,1.7306226971076155,-2.133465580126385
-2.161214301009519,23.786066608138018,-20.405249459768232,0.1887954277737357,1.6149985047079223,-2.130060085601613
-2.162420799790213,23.813959028097425,-20.38150804034224,0.18889582154988177,1.563360984057549,-2.131094854483272
-2.1791768439145325,24.249013303618344,-20.651535911427935,0.1903415308240165,1.3982802569481407,-2.147279262618877
-2.203028043527174,24.8586494472561,-21.025639199734393,0.1924017170433684,1.1626693933144117,-2.1703002908038878
-2.227369479724203,25.469430546564528,-21.39545374339526,0.1945071765205533,0.9216223985795359,-2.193775004374671
-2.2522505814279477,26.082189883986835,-21.761470081186623,0.1966625199680294,0.6747963128667168,-2.2177503617683105
-2.27718826931085,26.68493270877485,-22.116645167368915,0.19882615793940878,0.42714442340621167,-2.241760690573713
-2.2926783644115396,27.053711723046867,-22.331587500676395,0.20017187578662052,0.27325503050944006,-2.2566651261314066
-2.1131564498239035,26.994808945113192,-22.29701529862586,0.1845372488471884,0.298186563601713,-2.0778306149098467
-1.571163230836379,26.757237338805407,-22.157656875689916,0.13732468671800363,0.39791794404245223,-1.537890428374672
-0.9689650942766626,26.485540474333312,-21.997709964426967,0.08485269776825802,0.5108329858648991,-0.9377861085154137
-0.3670267568563688,26.205674294358968,-21.83228858142408,0.03239247902674116,0.6258930637282081,-0.33773676468931496
0.23447784578751826,25.91757541013203,-21.66126734243715,-0.020035730266115312,0.7430366293727079,0.2620908603394386
0.8338867840102685,25.621925560460927,-21.484959134666674,-0.07228141706361463,0.8618697810132566,0.8600544679400561
1.4257623411305769,25.321451600047734,-21.304918749776824,-0.12386678319755944,0.9812937239474067,1.450711856009862
2.007271486126091,25.01780760616437,-21.122075094282575,-0.17454019256403752,1.100583997329579,2.0312415728692668
2.591336495826358,24.704244660210893,-20.932280852966315,-0.22542341431457752,1.2223188925351949,2.614545620111712
3.1684038649838686,24.385816336716687,-20.73850178340578,-0.2756799860122847,1.3444496396150047,3.1910859430330802
3.7448713730893504,24.058981803147212,-20.538491772816748,-0.3258612294241764,1.4682248069273125,3.7672656554884965
4.3160213581084035,23.726374169648242,-20.33377288293287,-0.37555631922698585,1.5926222529173426,4.338350357894326
4.884417909914587,23.386499036418304,-20.123330960045177,-0.4249832038212571,1.7180888987478473,4.906913984182917
5.44781100898338,23.040693947039653,-19.907899658143617,-0.47394292758933726,1.844046597329976,5.470705497009641
5.927222312089558,22.739297485419144,-19.719034963398087,-0.5155765098809373,1.9524408632399315,5.95064138147075
6.039997365282,22.664770337881343,-19.721738569329936,-0.5253824194386829,2.0286455057028006,6.064028883126291
6.0346917592204,22.644231636343875,-20.114277983752,-0.5250697332418711,2.4417548426094897,6.062516569793425
6.027756293657714,22.61143337572728,-20.625045485049917,-0.524703593346386,2.985361276667721,6.060566177258087
6.020856567062641,22.571979603570462,-21.13048228239601,-0.5243882114006222,3.5302921447646316,6.058657215615642
6.014010875386754,22.525962162207275,-21.629248965791465,-0.5241245577931408,4.075116083437358,6.056795874410695
6.007218558930431,22.47339092796229,-22.12140425721784,-0.5239125823834704,4.61988193860789,6.054982967746604
6.000439322192794,22.41390709487731,-22.60985356760369,-0.5237514788331444,5.167854155374344,6.053209037091463
5.993698013057244,22.347657661462616,-23.092781991862978,-0.5236425001566354,5.717070681160891,6.051482014471802
5.98696344168667,22.274254413660938,-23.572394309055724,-0.5235859226543365,6.270124681862003,6.049795419820917
5.980397491476082,22.195592600706643,-24.037214713118313,-0.5235823812096599,6.813644177919621,6.048190148900296
5.9763603031355474,22.14368363609522,-24.321628615706754,-0.5236060812054542,7.149989868122573,6.0472230910638975
5.975480956473856,22.132014824608405,-24.383435175691005,-0.5236138991707913,7.2234702005022005,6.047014528788
5.678255822929529,22.163431319038434,-24.403733590213612,-0.4976264905849864,7.215004460439697,5.7475561007058475
5.098782901484664,22.220592590429682,-24.437251742733086,-0.4469240149503879,7.196144934881892,5.163734749815776
4.488894213022144,22.27405023168763,-24.468560249456665,-0.3935176615552617,7.17847665160761,4.549323323036915
3.88017440967659,22.320573423726525,-24.49577768397272,-0.34017521768834125,7.1630764133194855,3.9361381986817325
3.2735435370096337,22.360164224163274,-24.518914550878556,-0.286982458191057,7.149922824013096,3.3251033196929334
2.6650077346371965,22.39310958744587,-24.538155229775157,-0.2335952586053297,7.138991386764637,2.7121812196810624
2.0553144753291392,22.419329859165906,-24.553458541591855,-0.18008357828065225,7.130284546455215,2.0981224234850426
1.4476367519689024,22.438711575184602,-24.564761961720166,-0.12673166480622047,7.123814615222398,1.486119519548839
0.8359747173184944,22.451427810674073,-24.57217778436809,-0.07301714922466412,7.119590307405913,0.8701163306429559
0.22865688532689843,22.457313715199682,-24.57561002092774,-0.01967685245542424,7.11763807941866,0.2584973313960328
-0.37873542410472816,22.4564861002242,-24.57512832119166,0.03367205730336067,7.117920374249187,-0.3531941608830201
-0.9878160542716076,22.448910553171288,-24.570709258812137,0.08716447173598348,7.120417359095391,-0.9665869433234593
-1.5978926969927052,22.434552980061575,-24.56233728111138,0.14073737921185464,7.12520100336979,-1.5809966335264625
-2.0442841912187486,22.41974994212324,-24.553702549760963,0.17992822392292215,7.130128722711183,-2.030569297376258
-2.105031200196205,22.380892523582947,-24.456185085639355,0.18523682068382233,7.071276609085349,-2.0915560413369745
-2.098246026889764,22.19955737513016,-23.980523235106556,0.1845262334203493,6.7769732616341205,-2.083769211623376
-2.0900352675280027,21.976247902775334,-23.398906710204713,0.18367322696699573,6.418694358617089,-2.0743492289124315
-2.08180644278892,21.748136095665245,-22.809277815520662,0.18282591775596435,6.057205359846564,-2.0649114775246993
-2.073648892872322,21.51768328098448,-22.21797304001327,0.18199345352061058,5.696381123741557,-2.05555816934768
-2.0656240676194124,21.28672878376089,-21.62956935767881,0.18118185191417127,5.33895909532182,-2.0463594413892445
-2.057706673845823,21.05467587094172,-21.04238162786966,0.1803882604130947,4.983850958161245,-2.0372859796684404
-2.0498312794698728,20.819666421524186,-20.451615071528057,0.17960595389253187,4.628120278261582,-2.0282625261579486
-2.042016580111344,20.58228040018584,-19.8586714652536,0.17883669064837193,4.272588807341327,-2.01931025447716
-2.0342785878798644,20.34305352404247,-19.264810073046196,0.17808190615168853,3.9179800419980184,-2.0104472554202553
-2.0266259222851906,20.102321348352074,-18.670770222750043,0.1773422718956392,3.564697729815161,-2.001683151159869
-2.0194271210783827,19.872049526841245,-18.105734680730997,0.1766527469320059,3.229957773125693,-1.9934396973806714
-2.0159052424567654,19.758028281275347,-17.827066139398593,0.1763176295032673,3.0653220700999015,-1.9894069943836754
-2.0147260569701158,19.718568935852762,-17.7131408763656,0.17620265686767295,2.99086011939639,-1.9879977184726725
-2.0256101421414625,20.03737975843478,-17.929157082764384,0.17713566693134639,2.888032532812985,-1.998572130656159
-2.0458608693449407,20.622997829039047,-18.322276148735522,0.17887248157127128,2.6954717384183717,-2.0182338891418317
-2.067177854485444,21.22906623841954,-18.724127371985137,0.18070208935621324,2.4911888829147664,-2.0389132774770853
-2.088999812390148,21.838748858827554,-19.12327047037967,0.1825766117758027,2.2805814708163963,-2.0600642773372875
-2.111083019572321,22.444960138849197,-19.515088154392174,0.1844753423517512,2.0661184871624974,-2.0814501606430977
-2.133542764101046,23.050692476924816,-19.901587985852224,0.18640841663683164,1.8468147033703988,-2.1031822519659493
-2.1566616474792935,23.663109574825455,-20.287285229983638,0.188400443914265,1.6200207367959558,-2.12553319946556
-2.180262105825264,24.276991812554783,-20.668816495932724,0.1904364412274703,1.3875933302927608,-2.1483304319531746
-2.2042145077528157,24.888679248202028,-21.043940178323172,0.1925055074136323,1.1509511988269663,-2.17144821904295
-2.2286573712402924,25.501426912093493,-21.414691557199397,0.19461990073021418,0.9088740963868224,-2.195019752904057
-2.253629247830523,26.115801978700297,-21.78140492983779,0.1967832920144765,0.6611289657161307,-2.2190815135602704
-2.278348154726279,26.71268821855905,-22.132886420422302,0.19892812910663474,0.41564075906792314,-2.2428802172191604
-2.2930926740433866,27.06351116101799,-22.3372762172889,0.200209144409248,0.26915742202515747,-2.257066910118295
-2.2924801496153386,27.07088204752912,-22.524859200247224,0.2001596877045822,0.4493705542515646,-2.257085388497996
-2.2897649000710594,27.062616370787847,-23.02466169641369,0.1999448059324983,0.9574450836786033,-2.25614981997355
-2.2868408676857417,27.04688568597747,-23.560551874071926,0.19973130453470234,1.5090727671348902,-2.255153839279539
-2.2839313252563618,27.024030098398818,-24.091318741968585,0.19953770609209373,2.062701983628222,-2.254175369724466
-2.2810723114702283,26.994396207762406,-24.610412846733148,0.19936621949505498,2.6114365960268806,-2.2532268400034487
-2.2782257222122775,26.95764783482161,-25.124774842086385,0.19921439762133597,3.162553525175518,-2.252295918468875
-2.2754228563929724,26.914226414358943,-25.62876332513024,0.19908381895805155,3.7099698608793172,-2.2513931786784154
-2.272627554061852,26.86359164492674,-26.128887622035503,0.198972768586006,4.260735313299723,-2.2505073433016753
-2.270035972110268,26.809950068668652,-26.590275099344993,0.19888736243967997,4.775770260809205,-2.249699644295894
-2.268856581546393,26.783363598834907,-26.799502440696983,0.19885420656575267,5.011586745443244,-2.2493365748818106
-2.2671566595132777,26.742610921695103,-27.100242146431086,0.19881281636850626,5.353082971761888,-2.248818383865646
-2.266687113146625,26.730846449082566,-27.188723545055886,0.19880457457692513,5.453329869119715,-2.2486957802764844
-2.2775501969928853,27.005882120596823,-27.348522536264763,0.1997169947191514,5.338056187447658,-2.259204851547833
-2.300977005128775,27.592022257208047,-27.68581040342905,0.20168613953815293,5.089123556221117,-2.2818544683429964
-2.3268084499015136,28.227486246963416,-28.046486431583443,0.2038598934217855,4.814246087058598,-2.30680762749974
-2.3532402350775574,28.866243738123647,-28.40382830370373,0.2060870862824083,4.532737906595653,-2.332318169887884
-2.380331610594512,29.509206763117685,-28.75828911244542,0.2083731492288781,4.244139797394468,-2.3584422871474096
-2.4074555615431277,30.141350341646465,-29.101700075955463,0.21066551884310114,3.955310138262862,-2.384575099778066
-2.434783191485351,30.766813217085854,-29.43655238979999,0.2129789123409014,3.664600755979615,-2.4108817888312077
-2.45248025385327,31.165874089500257,-29.647648805358404,0.21447917353075155,3.476571742926541,-2.427906013841724
-2.4510047259267425,31.127889896216764,-29.532115186852426,0.21433302566611043,3.3990283671825012,-2.4261379350915835
-2.4414068169469916,30.891914926071102,-29.034959697289235,0.21344022479922184,3.1378854011685067,-2.4155531046638403
-2.430175437412535,30.612107743772878,-28.446652373489666,0.2124011310412925,2.8294290087847367,-2.4031665194169096
-2.4190907718595085,30.33200524693567,-27.858975755245638,0.21138166962532862,2.5218978585920335,-2.3909412359824964
-2.40809948894204,30.05031493721554,-27.26918389917128,0.21037682806055488,2.213838719274036,-2.3788182782975844
-2.3972722995451825,29.76891393125645,-26.681171188519134,0.2093929507940859,1.9072685919475338,-2.3668754890616754
-2.386551082986218,29.48636521061543,-26.091897675975584,0.20842462537456208,1.6005847785547143,-2.355048618095038
-2.3759513875041907,29.203129302150632,-25.50229446459678,0.2074731619353016,1.2942578022212674,-2.3433546766539144
-2.365502499054391,28.920065030454673,-24.914113951270814,0.20654105862445238,0.9891811312684206,-2.3318258466974733
-2.3550909498589614,28.634129221289392,-24.321010745728103,0.20561813343592236,0.6820529845664456,-2.3203367949243727
-2.344775035019694,28.346922393366334,-23.726291713167875,0.20470954254255957,0.37457949252559464,-2.308951702514479
-2.335497522119229,28.085249995190367,-23.185308179476692,0.20389747481493797,0.09530302293797498,-2.2987111518890146
-2.3313546714286173,27.967352463404676,-22.941827410446244,0.20353641873999706,-0.030264780106052408,-2.2941377684597293
-2.329792958414023,27.92030528146207,-22.829648586851867,0.20340065783406908,-0.09539050014891313,-2.29235107476012
-2.344202127178881,28.250424991481307,-23.01679470040447,0.20465693134891763,-0.23841418699919556,-2.3061932830067096
-2.3706549851425165,28.84752056946064,-23.35168533762978,0.20696659964996006,-0.5007118467597468,-2.3315899406301703
-2.3985344775580173,29.46457626168666,-23.692913718931738,0.20940564830901226,-0.7766379437665315,-2.3583352629706678
-2.427233738589108,30.087024003300733,-24.032146720198316,0.2119217135580403,-1.0599555180450213,-2.385845121279233
-2.456726499516795,30.713593522323762,-24.36860291656652,0.21451308025796573,-1.350175725856369,-2.4140931338484766
-2.480318121681667,31.20550402037263,-24.629235002353713,0.2165902161060486,-1.5815405181260271,-2.4366731251745706
-2.4846132025717775,31.303501555250676,-24.73600975069876,0.216963412177913,-1.5727794771993802,-2.440974805315039
-2.4820105163772404,31.31691954449183,-25.15430302996948,0.21669996548278345,-1.1678972996743036,-2.439918655036754
-2.478893369924794,31.327834183374264,-25.653774124374884,0.2163986007512361,-0.6793326176381792,-2.4386627319406475
-2.477623834073657,31.330638509259,-25.856717564107193,0.21628035075205174,-0.47919016055365193,-2.438154159176434
-2.476314287490121,31.332520792476508,-26.065762247581304,0.21616112983582408,-0.27202431618096407,-2.4376313999638994
-2.475614237447007,31.33310225062717,-26.177388275388036,0.21609855413360657,-0.16097790728496367,-2.4373527290621064
-2.474200581713237,31.333365502341955,-26.402536100405843,0.2159746680144421,0.06391037602309335,-2.4367916888741576
-2.471048678572567,31.32950442655289,-26.903230411984172,0.21571051988083562,0.5684740151207598,-2.43554921966324
-2.4676675063681213,31.31838315030053,-27.438307642252177,0.21544604441051354,1.1146813416018138,-2.4342299384562494
-2.4643122436252796,31.3000079976391,-27.967140127387875,0.21520340205473928,1.6618976976120494,-2.432935461869218
-2.461015680175239,31.27463437599137,-28.484579230926315,0.2149847213210922,2.2047189539061876,-2.431678719238598
-2.457815667991742,31.242870208684458,-28.984772967905567,0.21479163975592597,2.736685105252238,-2.430473896195502
-2.4560340914445025,31.2220696017689,-29.262336574765452,0.21469252559580884,3.035053895392202,-2.4298098717926577
-2.454155960414732,31.197681097118053,-29.554219892999264,0.21459465980395903,3.3513305306190895,-2.429115285783933
-2.4167047526090295,31.18973420572263,-29.66012991618352,0.2113528892670895,3.4653259232974096,-2.3920359082357345
-1.984380268868222,31.205514399745063,-29.667617093785797,0.17363074750825278,3.458486694058359,-1.959050749405767
-1.3410478862334039,31.22324904972913,-29.676028282714295,0.1174809806818785,3.450799670495791,-1.3147591214808891
-0.6823311923818524,31.23429361352368,-29.68126491991231,0.0599743317983099,3.4460141994975007,-0.6550809330169943
-0.02566865195750789,31.23814198203836,-29.683086574684204,0.002640735179759375,3.444320747485119,0.0025300453111155113
0.627784817896133,31.234881488264325,-29.681541892367598,-0.05441388163475205,3.4457441612057953,0.6569261813000485
1.2892954506452647,31.224371458161897,-29.676560233976534,-0.11216546179928465,3.4503139821108135,1.3194008979232994
1.9436454266284335,31.20683045858505,-29.668239442882133,-0.16927652709768268,3.4579022271000603,1.974725680117157
2.59778629705041,31.182189300952917,-29.65654860716908,-0.2263509037258806,3.468597527411714,2.629869584711715
3.255266476350324,31.150246837158807,-29.64138289271467,-0.28368947949747336,3.4824514245891964,3.288398149372984
3.9106721846079515,31.111224411626317,-29.62283617539193,-0.34081023427684537,3.499330743079412,3.9449011936913143
4.568218807708017,31.064854796438876,-29.600777794455645,-0.3980792726648468,3.519405644645566,4.603607325232172
5.221911960374063,31.011561030390226,-29.57539421388706,-0.4549652565282127,3.542453033848852,5.2585234112194765
5.8791075317541255,30.950716138769543,-29.546370013065168,-0.5120976716523137,3.568702778730923,5.91703181218719
6.519265086989051,30.884418788309958,-29.514698600530718,-0.567693351162904,3.597299336690507,6.558552943171013
6.925292468734992,30.83875583427267,-29.49285446316939,-0.6029224906011406,3.6169719154112068,6.965494181487624
6.944001109531933,30.765802657672044,-29.341981021436883,-0.6044928880204361,3.538859115367536,6.983409825727359
6.916316243467517,30.52699152721267,-28.831892690274625,-0.6019233462140317,3.267888551142842,6.952825588693914
6.884918071534968,30.252433427596884,-28.246857168777538,-0.5990254329467745,2.9577573467986893,6.918139062884159
6.853735954870557,29.97578921039204,-27.658841162296017,-0.5961647999765071,2.6467277676495367,6.883690633802389
6.822867006732164,29.69795007866099,-27.069708334314253,-0.5933501568107326,2.3357712518915985,6.849587096609811
6.7923203165550765,29.41904845729944,-26.479702529500027,-0.5905820477518008,2.0249991713292825,6.815838021249788
6.762231622911732,29.140403681340395,-25.891569136541506,-0.5878723687064682,1.7158361656170014,6.782592936083781
6.732366315844876,28.859904154949323,-25.300813384531306,-0.5851996751819979,1.4059016519913514,6.7495921876525475
6.7028731375562325,28.578991609809982,-24.710440450616254,-0.58257703859622,1.0967575199006165,6.716999708508348
6.673758733833249,28.297806366598373,-24.12070493926412,-0.5800046776383777,0.7885180391384247,6.684822457265384
6.6448208697742315,28.014433326606788,-23.52756316381925,-0.5774645240691673,0.4790568228204103,6.65283651890166
6.619684173588041,27.765075819961616,-23.006569882815914,-0.5752716941938442,0.20768705519554717,6.625048660901086
6.608608021287955,27.65423975426467,-22.775273056549796,-0.5743095356660634,0.08734317756070015,6.612803190785833
6.603806719395086,27.605118394365938,-22.667126359861054,-0.5738932007657386,0.028368779980964067,6.607428049733266
6.638144982895971,27.883075252758665,-22.82601718739281,-0.5768667797196552,-0.09103496189513657,6.640438210014114
6.711138294307231,28.46582826567535,-23.15586588664343,-0.5831954966907505,-0.34466264244124867,6.710569212371643
6.790474920077452,29.087017530181058,-23.50260986873746,-0.5900864342725325,-0.6199026188529749,6.786735804752752
6.871287724861795,29.70705931354628,-23.843736103717912,-0.5971190683409198,-0.8996367100755076,6.86425821741108
6.953543450109498,30.32538357293383,-24.178990478419745,-0.6042916078327523,-1.1835491417583623,6.943103049550089
7.021630013359484,30.827704026170682,-24.447743217737102,-0.6102398058716519,-1.4178214296813558,7.008320454587827
7.027780241861115,30.959582645452247,-24.517696899689998,-0.6107886950503808,-1.4798078624029627,7.013773812071502
6.674969627027526,30.759673178244746,-24.40956761521788,-0.5802230646623836,-1.3843826667280348,6.664025359957698
6.0844224768051705,30.41775431005181,-24.22371480784314,-0.5290213884116451,-1.2226318069380435,6.078404051686382
5.484536027924087,30.060871430540608,-24.02847791811882,-0.47696296960843404,-1.0557457517407989,5.483257748227069
4.88254210748836,29.692818115029723,-23.825766156123688,-0.4246787386965917,-0.8856882498265782,4.885744809970136
4.28779603397504,29.31919678218933,-23.618542182272915,-0.37298515838857127,-0.7151943334156139,4.295132889040697
3.7024321944265144,28.94152860195373,-23.407574366071263,-0.3220762191201743,-0.5449539882028792,3.7135710560226687
3.1204114846509268,28.555992424826645,-23.19062898144599,-0.27143040664885537,-0.37335518389468725,3.135047756190714
2.5435935768732656,28.163791661507165,-22.968268743212594,-0.22121407790225137,-0.20103768488596974,2.5614102831930285
1.9717072199074932,27.76475710699201,-22.74028760220635,-0.17140799153333944,-0.028024478396126793,1.9923893727263609
1.4022376384541677,27.357068368752913,-22.505516075639935,-0.12179719199125509,0.14632465835641315,1.4254678419337676
0.8389920632873474,26.94343209588777,-22.265395854827812,-0.0727173068757317,0.32080211031716555,0.8644636038585198
0.2787162007879522,26.52144309218709,-22.018403705856347,-0.02388816838338904,0.4962784716717584,0.3061226595755581
-0.2769108131508185,26.09231061563242,-21.765112115609647,0.024540521693097356,0.6721248285200035,-0.24788128257235692
-0.8288377819558652,25.65526496289459,-21.50493120156807,0.07264827777071572,0.8485311585788967,-0.7984928830616493
-1.375527522526873,25.211502240637326,-21.23843507482223,0.12029692796027852,1.0248594084830833,-1.344190532873986
-1.9157201305803504,24.762117039342282,-20.966167072395546,0.16737601846009983,1.2006312199285232,-1.8836829811410851
-2.456138874820546,24.301413968193856,-20.68451381119382,0.2144679029124341,1.3778911290506857,-2.4236979246091037
-2.9885851918054898,23.83632814797378,-20.397562126711797,0.2608556848794799,1.553827290992787,-2.9560400951239383
-3.51742120963734,23.363114742348408,-20.102872002527626,0.30691717092355913,1.729740428508081,-3.4850642991742125
-3.9780761819068826,22.94151123201444,-19.837989250234294,0.3470286133055252,1.8838406209462695,-3.946122072443526
-4.089586086122286,22.835699261049694,-19.81729521170103,0.3567441669403216,1.9682465320692049,-4.058070302355693
-4.086021674368205,22.815941537892716,-20.205916835840046,0.3565302177335121,2.3766401296811077,-4.057049997873916
-4.081322012983903,22.783993151416333,-20.715989718912482,0.3562767349881346,2.918680124608188,-4.055722545255944
-4.076639015323369,22.745351153852372,-21.22157897822274,0.35605717149521654,3.4629299653937036,-4.054421025262488
-4.071992494681534,22.700149066840503,-21.72053946052606,0.35587262724655894,4.007110896393834,-4.053151759710354
-4.067386752394756,22.648451945891875,-22.212423205539512,0.3557232098110683,4.550709883297337,-4.051916564651361
-4.0627740378146715,22.589650620652392,-22.70230525747173,0.3556078004114569,5.099411325898543,-4.050703600614322
-4.058188091154873,22.524068804538157,-23.186563928021066,0.3555278615528415,5.6492696872809764,-4.049522832523526
-4.053634437860334,22.45177028859207,-23.664612161170137,0.35548368941027125,6.199634096861536,-4.048376466490272
-4.049155266551845,22.373525977233683,-24.132061862420777,0.35547534586653723,6.745345391576179,-4.047275473638729
-4.046418099919503,22.32216719575461,-24.41633292037729,0.35548777749773913,7.080985746622165,-4.046616217182775
-4.045732679633415,22.308879832156716,-24.487351658277962,0.3554930063031327,7.1652944758507315,-4.046452786110408
-4.062284834759494,22.553617540029187,-24.645562708572943,0.35687597197620763,7.078666791499303,-4.062580105614606
-4.101446599134175,23.12667418870643,-25.009102922040103,0.3601454631052651,6.868909865028626,-4.100689587445524
-4.144852544001082,23.751961807047298,-25.400738554522327,0.36377030430552687,6.634988796760055,-4.142891901640531
-4.189205791129905,24.380430516160033,-25.78909770448905,0.3674757637263499,6.394601537927492,-4.185975698298245
-4.233921649411104,25.003597610515413,-26.168997630269075,0.37121347303710567,6.151051592249029,-4.229372269398184
-4.279760331920758,25.631802561129522,-26.546776189692405,0.3750474924924903,5.900332398363267,-4.273818440244989
-4.326583917252203,26.262694657223246,-26.920957213029737,0.37896687873456975,5.643319175798449,-4.319178752891079
-4.374323847180723,26.89496843775456,-27.290748945394494,0.3829665023585816,5.380525886118465,-4.365385372518365
-4.422971242614077,27.5281600142195,-27.6558848732729,0.38704625071643356,5.112149779293072,-4.412428429467108
-4.472423149598566,28.160629865853355,-28.01545049148734,0.3911981325224472,4.838916374413979,-4.460207275361286
-4.523258623488391,28.79933381024449,-28.373367217775787,0.39547150606450654,4.557787189403898,-4.509279727639586
-4.5747403317832624,29.434619020068137,-28.724225254309854,0.39980513591193,4.273009998119865,-4.5589326181079715
-4.6274961923404945,30.073894270935185,-29.072144105666215,0.4042526381076207,3.981291052538651,-4.6097703466749715
-4.679172370840865,30.68886587790079,-29.40199878765897,0.4086160050984243,3.6958152086439697,-4.659525589802985
-4.7086205590346735,31.034455782335677,-29.585294306326006,0.41110570103988536,3.5333146111348857,-4.687860931349654
-4.703106049094131,30.9645540744719,-29.437597074636066,0.4105917357388583,3.45556057478656,-4.681779521707673
-4.679692852043195,30.671177047686925,-28.918366134823177,0.40846020007398415,3.2298795294265275,-4.656720222830956
-4.653540876925025,30.339732116950472,-28.330802451440842,0.4060864316172797,2.9739528401873856,-4.628722163744153
-4.627580595482112,30.006704216158287,-27.73943507161436,0.40373770640494994,2.7158029464209132,-4.600921399473606
-4.601964231809812,29.674067244644082,-27.147790853081524,0.4014277981326888,2.4569817279671096,-4.573480999045144
-4.576566211666024,29.340219486727054,-26.553043788649724,0.39914536928374755,2.1962658396934485,-4.546266507773116
-4.551476958726933,29.00637186494225,-25.957371669250787,0.3968985437379782,1.9346215289142024,-4.519374857916522
-4.5267665928482135,28.673520735921766,-25.362581193441628,0.39469351863481184,1.6728586750587595,-4.492881322667307
-4.502338812661033,28.34042858973149,-24.766488115446677,0.3925216242580777,1.4100312692284542,-4.466682754142582
-4.478282371444711,28.008366011674152,-24.171392511971817,0.39039067303065306,1.1471682104639034,-4.440874438199609
-4.4545874832172725,27.677281146913113,-23.57723147086553,0.38829967339836585,0.88425855275133,-4.415446015407231
-4.43096690632251,27.343169025908054,-22.97683191846763,0.38622329945783557,0.6181362353612342,-4.3900892148988415
-4.410295214617487,27.047356842380342,-22.44459901775924,0.3844129506652623,0.38185929617714465,-4.367891207825564
-4.400615900421193,26.914964814293082,-22.2574935641854,0.3835695055892914,0.3272116874963951,-4.357877007581179
-4.3670199834101275,26.497738078396566,-22.013374523385718,0.38065814368453066,0.5005386666380258,-4.3255419893300155
-4.318688586337942,25.887853465686938,-21.6523904708921,0.3764754127689177,0.7497519039741729,-4.278992788782092
-4.270942128479282,25.273878466038187,-21.28399607413112,0.3723495357058639,0.9956381702027539,-4.232969267797146
-4.224191102271148,24.66134305167463,-20.91145166908937,0.36831541340073204,1.2359253586802335,-4.18786795132618
-4.178166462176387,24.047037782646097,-20.532777453304885,0.3643492456238462,1.4718449814292245,-4.14343034806459
-4.133211044778169,23.435889881255772,-20.151003257643673,0.36048000168986827,1.701497670717887,-4.099988654223231
-4.0976080306302185,22.94388668979419,-19.839983059148764,0.35741887574956027,1.8826995865255431,-4.065558252582694
-4.089540425420496,22.835484270936313,-19.821962902654132,0.3567360438059704,1.9731302526109666,-4.058061060572947
-4.085911015687951,22.81528298514771,-20.21765443221097,0.3565185960511204,2.389037576830626,-4.057022459958634
-4.081181276667129,22.78295023486751,-20.730941999326493,0.3562643616935528,2.9346767369517113,-4.0556871436061375
-4.076509902827254,22.744209477164485,-21.235220656574104,0.3560462854600781,3.477714686989666,-4.054389550230373
-4.071873607262126,22.69892441875709,-21.733032257234942,0.3558630307532949,4.02082966473623,-4.053123753254093
-4.067253193170773,22.64687301988748,-22.226429296738715,0.35571405673843665,4.566296279049875,-4.0518853416140175
-4.062629579871357,22.58771848508034,-22.717405666995653,0.3555994162933912,5.116445289161786,-4.050670334890761
-4.058043592953755,22.52191012189705,-23.201600787919162,0.3555205784791513,5.6664666448899,-4.049490442312186
-4.0535156259116825,22.44981178789003,-23.676891597430892,0.3554776709257436,6.2138733462027975,-4.0483513820904955
-4.0490506551172745,22.371637033058715,-24.142809584345756,0.3554702296108319,6.757983312520989,-4.047254628223398
-4.046325055508014,22.320396733376818,-24.425853039490224,0.35548309365412345,7.092277536959392,-4.046598582889738
-4.045732192226585,22.308893379304184,-24.48728026082601,0.35548766659869757,7.16521038506108,-4.046457270706903
-4.347856464463893,22.285454947493626,-24.475231890998852,0.3819642778596209,7.174662492706447,-4.3508090002493205
-4.9278717518396205,22.23628821747976,-24.44644644461472,0.43276510530460116,7.190932464485125,-4.935112406852418
-5.530350524382394,22.178639085291394,-24.4126551708224,0.4854930810663172,7.209975703592527,-5.54209672416927
-6.134744453356648,22.114046470765214,-24.374743089547948,0.5383424179620451,7.2312696799574,-6.151069327040305
-6.734910183311004,22.0431774482763,-24.333085281578146,0.5907712281604781,7.254580807707024,-6.755846188866139
-7.3394871263991766,21.96497510560341,-24.28703854522372,0.643528730825578,7.280209709725392,-7.365139064959451
-7.939901544057629,21.880514530540754,-24.237221710987974,0.6958624187555696,7.307849379515038,-7.970313993930602
-8.54241148348473,21.788911306938772,-24.183087923043555,0.7483129661058039,7.337739440928842,-8.577684070879439
-9.144438464313687,21.69048922803136,-24.124803708959238,0.8006507191268853,7.369753503733672,-9.184656350140054
-9.748587239539262,21.584750585961782,-24.062047222857096,0.8530968974678168,7.404030777006652,-9.7938633116679
-10.349790649872427,21.47254690351214,-23.995292345991018,0.9052050806069073,7.440240103529447,-10.400201571163977
-10.950667013933245,21.35340187967163,-23.92423265912091,0.9572013153333853,7.4785734174910115,-11.00631561955697
-11.545849315190383,21.22843015742455,-23.849500106575164,1.008616206991278,7.518615743593322,-11.606796194186177
-11.946424455749874,21.140395219890742,-23.796733906790287,1.0431679252178185,7.546721101917693,-12.011001716441825
-11.967354936214848,21.08223651711615,-23.651172390860552,1.0447576129563687,7.458952323615694,-12.030481438315155
-11.927477424090734,20.89965582213414,-23.147736623948227,1.040582525609677,7.138875064559119,-11.98443463315849
-11.881778710441855,20.686326562499183,-22.564658235113757,1.035839995890144,6.770013749477361,-11.931686118880872
-11.836539586683628,20.470784776266886,-21.980853534942128,1.0311893946098283,6.402626008521444,-11.879487910967047
-11.79160246207707,20.25233667089311,-21.39432993432998,1.0266134644681628,6.035416200614548,-11.827656342041669
-11.746972946754177,20.031042923203835,-20.80516735344245,1.0221119865160582,5.66840354728296,-11.776196194838978
-11.70277696504882,19.80758118149815,-20.21506679463827,1.0176967022339805,5.302609088776478,-11.725250947317308
-11.65922746484017,19.583129617623726,-19.626986715042595,1.013387485041467,4.939809181469524,-11.675064247159689
-11.615976939354946,19.355979173861467,-19.036321584807375,1.009148771260764,4.577114087287832,-11.625233934689499
-11.573105295187755,19.12659161092651,-18.4441893746415,1.004987628002372,4.215178591376949,-11.575850550934174
-11.530593295506328,18.89491458045482,-17.8503658196186,1.000901366738258,3.8538312353535455,-11.526890434409816
-11.493019466419145,18.686607641279036,-17.31989422694615,0.9973231008863224,3.532370279603614,-11.483623960183992
-11.476700182168226,18.595088165368658,-17.08782741588992,0.9957787606784942,3.392127809100028,-11.46483386968793
-11.470103211642783,18.557507337899068,-16.98455480071336,0.995147287256024,3.326560451260821,-11.457085835076175
-11.526606640988927,18.848652526826537,-17.18689700926511,0.9998921146890364,3.236788141108162,-11.512103059100735
-11.63860212337688,19.41868876407776,-17.57963278998852,1.0092975610465218,3.0575532681324975,-11.621086170012514
-11.758853819467802,20.020552719021488,-17.989384386949762,1.019398036486595,2.8633445010045553,-11.738006949229126
-11.880647299488277,20.61965156960694,-18.392263524912014,1.0296305187745085,2.6649810460210497,-11.856327512559698
-12.004174676801322,21.216790964141488,-18.788893426547382,1.0400120035328495,2.4622762815962096,-11.976233093180966
-12.089228487566958,21.621950983859822,-19.055214814877083,1.0471624233810013,2.321913819535444,-12.058736269390305
-12.105200216182176,21.700383383571218,-19.14832335609642,1.0485355208207585,2.3362958701721808,-12.074971261355794
-12.09511777985418,21.677860466378018,-19.52743947378686,1.0480003291710194,2.7380519917706,-12.072242803171072
-12.081552199341981,21.641695916812875,-20.035124669414262,1.047364560440722,3.2820587332664957,-12.06862388630555
-12.068091367875063,21.59903650977023,-20.536119277289956,1.0468312133461803,3.8258678933713544,-12.065095124282
-12.054703283407894,21.54977409385914,-21.031618356735606,1.046399245744456,4.370783034976745,-12.061650321468097
-12.041365483402855,21.493778066404495,-21.522439565056967,1.0460688239213467,4.917752655208518,-12.058286289085622
-12.028118360590927,21.431184183152236,-22.00708770109769,1.045841708425542,5.465145316369757,-12.05501568166351
-12.014916593406756,21.361741076724133,-22.487209875792814,1.0457180066428842,6.014859992379835,-12.051829832650808
-12.001755230836475,21.285345089697824,-22.962957946220023,1.045699222407695,6.5671522296075695,-12.048730522348118
-11.988987329822743,21.204255231048204,-23.42165717963123,1.0457832783634966,7.10708431804734,-12.045800729921202
-11.981787060879105,21.155442086980603,-23.679085405768387,1.0458760835431733,7.413405990136204,-12.044183266683245
-11.979396829176459,21.13874073493534,-23.76434114864086,1.0459142351158512,7.515389687155565,-12.04365201395431
-11.99494976690695,21.214875294605832,-23.846157242628525,1.0472648817043526,7.520786637098133,-12.059425455840676
-12.089119451681047,21.682276797348887,-24.15193200979913,1.0549700590557778,7.357462159327236,-12.151295612872133
-12.214221668751389,22.294454060262225,-24.5479216052096,1.0652028695748195,7.139000069382614,-12.273246747009122
-12.34172487647152,22.90833494592092,-24.939917550121955,1.0756291790789576,6.914774745013631,-12.39742801078422
-12.472212225416252,23.526344961925506,-25.329426192261025,1.0862976241178408,6.683854911374511,-12.524403208641345
-12.6052539522624,24.146056589766392,-25.714875883921707,1.097174097525352,6.447102924753753,-12.653749916926305
-12.739680389934119,24.761822509842,-26.092812347389604,1.1081640827505044,6.206732651903077,-12.784328880268982
-12.835853663299414,25.19609508000617,-26.356338667035377,1.116027498529594,6.034153298062054,-12.87768088642087
-12.859796965014038,25.303589672006204,-26.409812380667436,1.1179619161590701,5.979676246388431,-12.900688593894516
-12.827683065079272,25.1631939682959,-26.058671324422367,1.114796650931878,5.769596234744149,-12.86428889371828
-12.775811879745323,24.93310487553057,-25.486289133548546,1.1097163478039103,5.428374030588316,-12.805507453706538
-12.72346364151901,24.69669581709511,-24.902007067762856,1.1046299374509825,5.081577041509496,-12.74619969809902
-12.671840556935573,24.45936950135982,-24.319162118698863,1.0996541384876022,4.73711488533203,-12.687726324194252
-12.620295968006458,24.21819247490021,-23.73047701684727,1.094725908751186,4.390657100125032,-12.629353323578544
-12.569366799026021,23.975703077423344,-23.142087946110493,1.089896021647413,4.045790693963287,-12.571687291454985
-12.518875904506878,23.731126988454008,-22.552022862072654,1.085146730291521,3.7013216865131957,-12.514526124820007
-12.468887231158854,23.484830093263252,-21.961084448864405,1.0804832481658877,3.357685718864265,-12.457940774215212
-12.41968280979932,23.23830014104434,-21.372732325814063,1.0759307192273497,3.016849162956093,-12.402249032258158
-12.371056715880705,22.990614077544315,-20.78464917422803,1.0714688525379077,2.6774220618482647,-12.347216423404712
-12.323226329482416,22.742989010712396,-20.199613269933128,1.0671163723547024,2.3409614271610613,-12.293087644704842
-12.29372959875468,22.588279997955908,-19.835517240423613,1.0644503570915385,2.1321584660592716,-12.259707862263689
-12.280821149181106,22.52009091041995,-19.675376317311954,1.063288029074211,2.04046176437584,-12.245100284983991
-12.291853933282514,22.568055947670956,-19.668364523675127,1.0641922816971592,1.9852899469958496,-12.255103099896807
-12.391853746542049,23.025303248545647,-19.9603257016124,1.072609127917818,1.8181713817748995,-12.351922746611068
-12.525527411740255,23.62684211630728,-20.340104320459982,1.0838665921468857,1.593940036701027,-12.481253467396185
-12.663061471211458,24.23447959043843,-20.71877661988074,1.0954574374977426,1.3624066267399324,-12.614212186229155
-12.802745116223356,24.840228897864453,-21.09133775363879,1.1072387955174445,1.1265833383026722,-12.74914099250266
-12.935737656701072,25.406584451661907,-21.435234639227684,1.1184652325244324,0.901590757946433,-12.877508095195543
-12.999623653068427,25.675125601526098,-21.596803464368932,1.1238615557373628,0.7933925370276005,-12.939138807107147
-13.004373254601422,25.708972506742356,-21.751213674194407,1.1242999911761449,0.9138397732005806,-12.946241455513777
-12.990275174779244,25.696207344675635,-22.220917013110437,1.1232922934080025,1.396491391171752,-12.941635686576268
-12.974162777467422,25.674915250826118,-22.755296469902344,1.1222404748809653,1.9523714810381827,-12.936435581835518
-12.958331761515456,25.646869203480165,-23.277761239048953,1.121313055986039,2.503086389366809,-12.931396353001102
-12.942689498028583,25.612054289045368,-23.791427279431538,1.1205023417393256,3.0517681819042295,-12.926489407338817
-12.927167483300343,25.570360770338876,-24.298563567932778,1.1198041792072535,3.6007964397669605,-12.92169514586611
-12.911726440788742,25.52165353182116,-24.800445767772384,1.119217357165034,4.1515824230434255,-12.917004065788957
-12.896416180369965,25.466069243507338,-25.295449788984936,1.1187442699939087,4.702364718054698,-12.912433829079095
-12.882135573652167,25.407528901222037,-25.75475205644559,1.1184031291804162,5.220387430296145,-12.90824749442768
-12.875285682197742,25.377084749156403,-25.974399532040547,1.118298169848354,5.470542054673234,-12.906269050592687
-12.86608724855127,25.333819993488856,-26.268243306239167,1.1181618773496784,5.807765884672256,-12.903638095004482
-12.86300423132095,25.318692116690027,-26.366504436043716,1.1181256370976351,5.921193455038106,-12.902763818549122
-12.839751483126758,25.314524287054585,-26.427491070110438,1.1162719913525057,5.9867888484327025,-12.880670523481086
-12.449023503122127,25.403455396977296,-26.476018915585,1.0827911071699823,5.9538904927023,-12.487175267219927
-11.841563414877637,25.535920359923225,-26.548119660159735,1.030652380357064,5.904739254122229,-11.875532620925224
-11.226134608239878,25.662987344537132,-26.617077224393025,0.977726931987461,5.857424616635422,-11.25600890625743
-10.602981228412903,25.7843931330139,-26.682775200815545,0.9240370567360335,5.812066332032876,-10.628848247760436
-9.982543786849622,25.898071352760265,-26.74412256612843,0.870483484494701,5.769430352780516,-10.004556726736379
-9.35367374259508,26.006027638674066,-26.80223678607989,0.8161143017753575,5.7288502046728915,-9.371902790742135
-8.725530904319049,26.10660565657654,-26.856249406001133,0.7617220883192302,5.690939091689867,-8.740100012802111
-8.09885229118741,26.199775074298373,-26.90617187067347,0.7073767106041142,5.655730967720416,-8.109881358825596
-7.468013981253081,26.28636861333794,-26.952471553505955,0.6525937594691259,5.622899774377206,-7.475587171794983
-6.840415090197943,26.365403560028827,-26.994651951293044,0.5980253167278392,5.592898281852461,-6.844643195456691
-6.212275573560699,26.437436610419223,-27.033028424767686,0.5433466744630869,5.56550136771322,-6.213243842851955
-5.5842697017527145,26.50242013940426,-27.067594376731623,0.4886221918664451,5.540742284092442,-5.582059001466369
-4.95476889720181,26.56053033004221,-27.098460284307826,0.4337155186991242,5.518567400678485,-4.949444097886292
-4.45891589773896,26.601365648560392,-27.120122470043064,0.390432624062953,5.502934067539077,-4.451186207512657
-4.3508019593346585,26.58481898709477,-27.076147146916977,0.38097699910439875,5.476234154846304,-4.342395319246387
-4.334467630990953,26.36762220422067,-26.651916660597713,0.37942200350269556,5.269313267549024,-4.324610375750574
-4.312147059896817,26.067334753378734,-26.065587868489697,0.37730493617996086,4.983425383227305,-4.300305054937921
-4.289747949037107,25.76185258232742,-25.46934257594901,0.37518965067667964,4.692815441442315,-4.275911076571305
-4.2677508156435,25.457725997676437,-24.875963908090057,0.3731215115546341,4.403712992833881,-4.251951575676407
-4.245962865535765,25.152367845234405,-24.28039803470143,0.37108219958591293,4.113652706448206,-4.228216447317818
-4.224494265906265,24.84737905396356,-23.685762655292933,0.36908188321573543,3.8241506360356317,-4.204825580155027
-4.203261369627718,24.541637752436554,-23.089865433645212,0.367112606760153,3.5341369096509214,-4.181687725283105
-4.182336196771952,24.236246078504664,-22.49484969207713,0.3651808930651004,3.244652258202215,-4.158881255623841
-4.161673611723029,23.930619483243902,-21.89957147948949,0.3632824006500236,2.9551376098663704,-4.136356882067789
-4.141003464731572,23.620744714504145,-21.296213511106473,0.36139233720934927,2.661790736381924,-4.11381992589407
-4.120737576058764,23.312821353070344,-20.696844537535117,0.3595482950877346,2.370478111927134,-4.09171925960383
-4.1023947278422295,23.030530085084788,-20.147530242276027,0.357887135939004,2.1035748796236384,-4.07171168485239
-4.094195758137829,22.903228779858892,-19.899862768677927,0.35714709288575824,1.9832620817356987,-4.062767305983462
-4.094060775010454,22.837442869089188,-19.772278802151057,0.3571222071719204,1.9214660755585982,-4.062247202710209
-4.435685368156733,22.812320657565824,-19.757755050254826,0.3868337956869178,1.9298554478881762,-4.40363874060261
-5.024007548196,22.764293621649983,-19.729966513996843,0.43796969353739096,1.9458749164827887,-4.991596537356663
-5.631074836794619,22.708399752819165,-19.697588258002373,0.4906886106397349,1.9644873020728526,-5.598342364069057
-6.240261123251954,22.645814281719797,-19.661285248900015,0.5435386828497782,1.9852885700965084,-6.207268304161224
-6.8450380031546185,22.5772110396004,-19.62142970097138,0.595945435198934,2.0080116231369454,-6.811857428221656
-7.452801017635056,22.50174615656442,-19.57752022742778,0.6485496374108695,2.032983834134141,-7.419504204101918
-8.059618529995568,22.419835158260078,-19.5297758115938,0.7010025837695745,2.060021161073145,-8.026287107114786
-8.666600051900172,22.33130053654553,-19.478071933277246,0.7533947365499056,2.0891652566009378,-8.633321852934468
-9.275109108780844,22.235871743612517,-19.422227023740245,0.8058378937190684,2.1204861820173977,-9.241978854499088
-9.881463613226199,22.134086592042337,-19.362527841111405,0.8580050693587119,2.153756666942974,-9.848584627026572
-10.487043566726834,22.025717846440628,-19.29882135705307,0.9100183361077131,2.1890914340892307,-10.454518540143027
-11.093691890821596,21.91037349950693,-19.23084494643355,0.9620264923794632,2.2265640087577356,-11.061634183618754
-11.702645910403538,21.78770377369318,-19.158359830762645,1.0141293197139276,2.2662615009644194,-11.671176907228011
-12.308348781012146,21.65878031737097,-19.081963261275604,1.0658408206178396,2.3077797692673903,-12.27759439316423
-12.9129944927579,21.523150329173184,-19.00135992037063,1.1173545369692957,2.3512987667844065,-12.883079412846953
-13.349587445945183,21.420871572041516,-18.940416708924776,1.1544778082252298,2.383986543172336,-13.320362478512717
-13.603758398556733,21.359637730460342,-18.90386434008119,1.176060756345086,2.403502998398852,-13.574968642232797
-13.958091291813313,21.272184766626633,-18.85157527269061,1.2061123572634944,2.4313063242280744,-13.929950289564808
-13.96690522090682,21.258952101534984,-19.01547497735866,1.2070223816531849,2.608214223024106,-13.942496343961851
-13.952515886729673,21.2272318809344,-19.48709404825751,1.2063323282865313,3.1117447420741757,-13.938712216367989
-13.937135406633404,21.186871073885893,-19.988515346446867,1.20570205530549,3.653730454363232,-13.934734467283327
-13.921745027092781,21.139673181074347,-20.48743589398104,1.2051847214399516,4.200051775756038,-13.930827289068263
-13.906592841094778,21.086412027998264,-20.975825103141943,1.2047886537044707,4.7419010030543,-13.927055955808628
-13.891412303862378,21.026152104010677,-21.462280694507108,1.204507147391938,5.288814844674004,-13.923356556861956
-13.876240418201924,20.958885163215058,-21.94555787725471,1.204343854205856,5.839556230300044,-13.919742365170126
-13.861247963962493,20.88535691999502,-22.420216079321996,1.2043012595864842,6.3879366301081335,-13.91625667170273
-13.846308108968426,20.804965072245846,-22.890282116977605,1.2043792123238621,6.938586784569957,-13.912872232248375
-13.833289028180646,20.728999204025957,-23.297486146601095,1.2045475468220628,7.421923381069576,-13.90999876232254
-13.82871244255571,20.700968021504266,-23.440085488383552,1.2046293587118724,7.592612310857197,-13.909006017978143
-13.826271625845063,20.685733382352023,-23.516020657912463,1.2046778638291928,7.683813226745928,-13.908480332358383
-14.02734006527122,20.631509805339437,-23.489741455577207,1.2219136612156691,7.707502364796899,-14.111677623162409
-14.569943940696842,20.484383099685147,-23.40035672648871,1.2683077051161746,7.753463995250647,-14.659699449354548
-15.158837359515589,20.317830160432845,-23.29882844095198,1.318550072603179,7.805206335738621,-15.254605596114214
-15.747865603004154,20.144009292057017,-23.192482504358768,1.3686855606814448,7.85887956965884,-15.849790382190202
-16.338988339342958,19.962223683664494,-23.08083984884992,1.4188758517719138,7.914653807240938,-16.4472391715407
-16.92810330268666,19.773650136077023,-22.964566673685756,1.4687637584492603,7.972091241127155,-17.042814462911966
-17.511259322307215,19.579625207885723,-22.84444712827679,1.5180215068793534,8.030806882303256,-17.63251384673325
-18.086702958230912,19.380903627030285,-22.72090560911658,1.5664972240076733,8.09050690150832,-18.214566994511394
-18.638284859199526,19.183570869812186,-22.597711542181695,1.6128372725023055,8.149350689313604,-18.772629891731313
-18.935072079352384,19.074587149596447,-22.529449536281618,1.6377138839084697,8.181629931576406,-19.07296920935966
-19.294289899664253,18.94003547063542,-22.444959983141448,1.6677797929806333,8.2213354781619,-19.436537262512257
-19.85948930721929,18.722409892072054,-22.307797371885517,1.7149733537968315,8.285121796435037,-20.008709239045302
-20.429449844977395,18.495537967292073,-22.164137300562075,1.762421546067691,8.351045432459054,-20.585861748198322
-20.962658491366263,18.276468519583627,-22.02476777953256,1.806676804710705,8.414144924619581,-21.125946911726214
-21.1798464593396,18.182104732814153,-21.957713766725902,1.8246385185749616,8.434577853936617,-21.345795170217915
-21.13748127048274,18.080678715830576,-21.641152953456192,1.8201609514544579,8.220896063187958,-21.296173462867674
-21.06313044834635,17.89929193253717,-21.08085266386216,1.8123672381248852,7.84452477170771,-21.209125321112523
-20.98684027175682,17.70865612568932,-20.499569090962776,1.8044553141271487,7.456475229444829,-21.119854509317243
-20.910865094745052,17.51421511569564,-19.914158186567803,1.7966614904508134,7.068082505718224,-21.030997800883792
-20.8361306138919,17.318432094639714,-19.331833879841607,1.7890779824487981,6.684066294882797,-20.943633818364898
-20.761915934420028,17.119530346497157,-18.74708807318074,1.781628643645529,6.300719966130536,-20.856915792791376
-20.68868820126058,16.918849694493552,-18.16367885745355,1.7743578885253204,5.920446401032035,-20.77138589827633
-20.615678477659866,16.7143425969793,-17.575518405246598,1.7671874600869815,5.539231366066515,-20.68614266717552
-20.54320741195072,16.50692557139561,-16.985169059311488,1.7601477307628475,5.158710161775741,-20.6015575093767
-20.471770378096906,16.298107688424178,-16.39675479458279,1.753284471927294,4.78148154523278,-20.518205247529956
-20.402148695254755,16.090381019895567,-15.81697749662711,1.7466684446997507,4.411729998878783,-20.4369936733545
-20.36052790588667,15.96419074441097,-15.467351914236051,1.7427477291007452,4.189665115789232,-20.38845397832502
-20.342312476306546,15.908486722265454,-15.313616371315007,1.7410399477044187,4.092232424623131,-20.367212597181915
-20.340210359868482,15.900989662573425,-15.25090460670667,1.740748494930488,4.037107059951536,-20.36342475342951
-20.46732801347922,16.270524871795555,-15.522320574377918,1.7509460919894024,3.93516213344816,-20.4877864017566
-20.667438544914287,16.84433283303067,-15.939938089410452,1.7669845378308493,3.7729055242811844,-20.683431512246322
-20.874329489896574,17.427634549984464,-16.359703595769798,1.783548373342153,3.6030414773703736,-20.885546403233693
-21.084862757990983,18.01109336389743,-16.774798658901712,1.8003860645437493,3.428179987860561,-21.09105769528535
-21.28013301628417,18.543368169374784,-17.14932295399019,1.8159879922413056,3.2643501286481484,-21.281527986196064
-21.369745092885147,18.78483281882565,-17.31792155917269,1.8231432931260332,3.1886772446648277,-21.368892515993526
-21.389575604882808,18.84086433473412,-17.42353287108996,1.8248433463964706,3.2376011599005805,-21.390318427494748
-21.371702590344356,18.808461385859356,-17.82341686033495,1.8242198875084221,3.67023788350772,-21.38621289431574
-21.349340116961315,18.76193193672636,-18.32105533361483,1.8235930192945826,4.21484182816775,-21.381169264990117
-21.32714319504572,18.70904789246513,-18.812007756977476,1.8231425129384407,4.759109224581477,-21.37627069196887
-21.305013735812167,18.649554494586187,-19.29844285211991,1.8228673690516861,5.30546540013273,-21.371499612730823
-21.282985662003295,18.583492793226007,-19.77960025916239,1.822769871354166,5.85310822365547,-21.366867930091484
-21.260975207538426,18.510537232630895,-20.257283394056124,1.8228522683339465,6.40416820465864,-21.362363105283425
-21.239233787787185,18.431527298417762,-20.72604451258148,1.8231142805396239,6.952353251803102,-21.35804025968391
-21.21757958679321,18.345842336662173,-21.189826450382107,1.8235580029259733,7.502230277894955,-21.353866292995512
-21.197342709879365,18.259342523528712,-21.62040968777708,1.8241415316839882,8.01969453778096,-21.35008974863987
-21.18850475632823,18.21959028757571,-21.807582531153667,1.8244485643664898,8.246785451897402,-21.348479477533207
-21.184831998326732,18.20269267579735,-21.885288163329093,1.8246049031706113,8.341429107944093,-21.34783245326685
-21.18273074808149,18.189730099019542,-21.96971472153385,1.8248895511892442,8.438835645682781,-21.348848318552804
-21.29315299723537,18.499653561060494,-22.186565361533347,1.8335069585600856,8.342294149106516,-21.45716962460759
-21.500769996377194,19.07544981261621,-22.585889368939114,1.8496867355616677,8.159256236454656,-21.660707695052842
-21.718557125260364,19.66993896508749,-22.99334945871456,1.8666285115505443,7.965278463555846,-21.87403944227571
-21.940769466444298,20.266716066124367,-23.39747060268677,1.883883937048081,7.76546789154169,-22.091524355890503
-22.167750404417,20.866343876339705,-23.798597381137494,1.9014794696439492,7.559591338426635,-22.313492243681864
-22.39512471611231,21.45717436724619,-24.189037569862503,1.919076584368125,7.351744586906537,-22.535663311293657
-22.62752687558847,22.051148484343077,-24.57677803960527,1.937034584718525,7.137819246015081,-22.762564636183342
-22.86734598427132,22.65382573112377,-24.96533225708082,1.9555374887005563,6.91568460539772,-22.996519345650768
-23.109966434620866,23.25321069960771,-25.346929357665882,1.9742290722282718,6.689714736166523,-23.233018151010587
-23.35719211266296,23.853553221523946,-25.724332674736274,1.9932487424132759,6.458358917304029,-23.473816452479095
-23.60992185900147,24.456662918123,-26.09866371016637,2.012665685163145,6.220893657872192,-23.719783833852677
-23.86578950820846,25.05662271767758,-26.466284487053436,2.0322984247002935,5.979675284758553,-23.968613525990516
-24.110842528553455,25.62143853939864,-26.808063089625573,2.05107896672218,5.74805408119508,-24.206750739782734
-24.231917710420728,25.897038977279266,-26.973323890614836,2.0603503329180284,5.633444468614294,-24.324347240752584
-24.288107872616003,26.02427760847444,-27.042157713527406,2.064626214873915,5.573056195206136,-24.37864977124564
-24.219362906978574,25.87161726534278,-26.717996730756745,2.058550245196063,5.404138815441404,-24.303444030255346
-24.099829754089892,25.602945949112367,-26.148807228781767,2.0480215318107042,5.108095243249106,-24.17267930919478
-23.97874357563981,25.32654219698058,-25.56491615628374,2.0374034196043564,4.805118499185617,-24.040217296766425
-23.858899666805257,25.048691848115155,-24.979613376034095,2.0269419835962506,4.502108400327312,-23.909114227634856
-23.740141255958967,24.769076332807025,-24.392185777592058,2.0166229480282696,4.198676864292979,-23.779196910025405
-23.62256789917077,24.487972152588526,-23.803174633357145,2.006454422009339,3.895085614267217,-23.65057261118015
-23.506350124201607,24.205843946580153,-23.213510020952164,1.9964504653612096,3.591794517509334,-23.523426306589066
-23.391219648602508,23.922093475463996,-22.621900859991722,1.9865873560136282,3.2881211923743336,-23.397462952260092
-23.277991517506894,23.638813262367012,-22.032660589006568,1.976933965292662,2.986257715548069,-23.27357286316839
-23.166084286182652,23.35464670454189,-21.442915109458507,1.96743962545651,2.6847084696943244,-23.15111852107779
-23.054950497220123,23.068239412532268,-20.849822530643124,1.9580574985526005,2.3820062118237018,-23.029499463929962
-22.95073040220882,22.795767632080025,-20.286755803197753,1.949302073560117,2.095129496215285,-22.915434859368908
-22.900345781000926,22.662673867468182,-20.012116860859322,1.945084494429822,1.955375976193381,-22.860286518936356
-22.86628593211468,22.59390517605265,-19.87095729779121,1.9422654011471268,1.8841805145222668,-22.823807971574062
-22.556726256623474,22.571433291875703,-19.849707501139523,1.9173638537969293,1.8958152045661159,-22.514646307802643
-21.971663491981168,22.524390227320417,-19.80684930552871,1.870149902681906,1.919311356077648,-21.930376828595886
-21.368019125769067,22.46957235261363,-19.758912023345353,1.8212344791399708,1.945609896388434,-21.327601883701327
-20.757757073199077,22.407648853626455,-19.706580743070816,1.7715796335881857,1.974307896856681,-20.71826476166287
-20.15148022722963,22.339626803129676,-19.6507009834076,1.7220450190733883,2.004879123828021,-20.11294259760828
-19.54657422552996,22.265277132526776,-19.59105487607057,1.6724395844990616,2.0374740840656727,-19.50902460808358
-18.936483925259854,22.183699058510317,-19.526912648429775,1.622221983450754,2.072423520293562,-18.899956604346183
-18.33244425400755,22.096375929046303,-19.45941934434482,1.572322785733722,2.1090659898893294,-18.296947957815384
-17.724315731867318,22.00183625926968,-19.387411946164413,1.521910676324757,2.147992942610258,-17.68986968047462
-17.116843649456747,21.90071883175037,-19.311360336416158,1.471377327345025,2.1888735560371892,-17.08344816965236
-16.508521822105383,21.792730769445694,-19.231025664672025,1.4206144898326167,2.231854726242453,-16.47618126442902
-15.903984192790984,21.678693676810735,-19.14698446071759,1.3700095057936919,2.27654915546635,-15.8726841263884
-15.296672870459286,21.557336641705877,-19.058270086101032,1.3190192709052673,2.3234203363286254,-15.266403486823313
-14.688196951572971,21.428857444019553,-18.96500062406963,1.2677784143000297,2.37231601438171,-14.658933985544012
-14.14865271365465,21.30912257656155,-18.878573722181585,1.2222268308129638,2.4173295437530307,-14.120263207059008
-13.97145228065248,21.267782701597717,-18.865886166186204,1.2072581191280352,2.449729015666581,-13.943708541446947
-13.961430747017971,21.247567650457572,-19.1951324636952,1.2067463438669603,2.7993237714197146,-13.941054082096015
-13.946030511535714,21.211037485040986,-19.698815213639392,1.2060507134134588,3.3397410330260473,-13.937030722223412
-13.93058710475425,21.167633945087584,-20.201098838953442,1.2054657274680207,3.8856322777148886,-13.93306737225289
-13.915350379985735,21.118029406187187,-20.693851851289843,1.2050015051055425,4.428190314808613,-13.929230909228359
-13.900142340691549,21.06166206387092,-21.182844247540608,1.204652568110083,4.9737492687206855,-13.925478768763423
-13.884974285411772,20.998479987466673,-21.66767943020873,1.2044210636713863,5.521964291048785,-13.92181725418742
-13.8698565125738,20.928445682961026,-22.1479996752764,1.204308903169053,6.0725149852937435,-13.918252268175886
-13.854939957394857,20.852292148991143,-22.619027088574494,1.2043171278460578,6.619888483677258,-13.91482146306943
-13.840198896859816,20.77001293621089,-23.081628081921703,1.2044442110163087,7.164957975844058,-13.91151981892117
-13.83101191710477,20.715141461259076,-23.368456751426272,1.2045845680259455,7.50677556699255,-13.909508675989695
