RAMEL-ESPOL/ARCHIE/matlab/data/joint_goals_espol_t5_h20_p21.txt
Joint0,Joint1,Joint2,Joint3,Joint4,Joint5 
-0.004382940824079982,0.0031174896278473056,0.004865743695209347,0.0018000180833897983,0.004699915506702163,-0.003501125302582372
-0.004382940824079982,0.0031174896278473056,0.004865743695209347,0.0018000180833897983,0.004699915506702163,-0.003501125302582372
-0.004382940824079982,0.0031174896278473056,0.004865743695209347,0.0018000180833897983,0.004699915506702163,-0.003501125302582372
-0.004382940824079982,0.0031174896278473056,0.004865743695209347,0.0018000180833897983,0.004699915506702163,-0.003501125302582372
-0.004382940824079982,0.0031174896278473056,0.004865743695209347,0.0018000180833897983,0.004699915506702163,-0.003501125302582372
-0.004382940824079982,0.0031174896278473056,0.004865743695209347,0.0018000180833897983,0.004699915506702163,-0.003501125302582372
-0.004382940824079982,0.0031174896278473056,0.004865743695209347,0.0018000180833897983,0.004699915506702163,-0.003501125302582372
-0.004382940824079982,0.0031174896278473056,0.004865743695209347,0.0018000180833897983,0.004699915506702163,-0.003501125302582372
-0.004382940824079982,0.0031174896278473056,0.004865743695209347,0.0018000180833897983,0.004699915506702163,-0.003501125302582372
-0.004382940824079982,0.0031174896278473056,0.004865743695209347,0.0018000180833897983,0.004699915506702163,-0.003501125302582372
-0.004382940824079982,0.0031174896278473056,0.004865743695209347,0.0018000180833897983,0.004699915506702163,-0.003501125302582372
-0.004382940824079982,0.0031174896278473056,0.004865743695209347,0.0018000180833897983,0.004699915506702163,-0.003501125302582372
-0.004382940824079982,0.0031174896278473056,0.004865743695209347,0.0018000180833897983,0.004699915506702163,-0.003501125302582372
-0.004382940824079982,0.0031174896278473056,0.004865743695209347,0.0018000180833897983,0.004699915506702163,-0.003501125302582372
-0.004382940824079982,0.0031174896278473056,0.004865743695209347,0.0018000180833897983,0.004699915506702163,-0.003501125302582372
-0.004382940824079982,0.0031174896278473056,0.004865743695209347,0.0018000180833897983,0.004699915506702163,-0.003501125302582372
-0.004382940824079982,0.0031174896278473056,0.004865743695209347,0.0018000180833897983,0.004699915506702163,-0.003501125302582372
-0.004382940824079982,0.0031174896278473056,0.004865743695209347,0.0018000180833897983,0.004699915506702163,-0.003501125302582372
-0.004382940824079982,0.0031174896278473056,0.004865743695209347,0.0018000180833897983,0.004699915506702163,-0.003501125302582372
-0.004382940824079982,0.0031174896278473056,0.004865743695209347,0.0018000180833897983,0.004699915506702163,-0.003501125302582372
-0.004382940824079982,0.0031174896278473056,0.004865743695209347,0.0018000180833897983,0.004699915506702163,-0.003501125302582372
-0.004382940824079982,0.0031174896278473056,0.004865743695209347,0.0018000180833897983,0.004699915506702163,-0.003501125302582372
-0.004337947762443327,0.0032038606528319224,0.004765022248219678,0.0018000083241360343,0.0047341567607046275,-0.003456023852050431
0.10949082824452457,0.22094415316313543,-0.24882981990570927,0.0016755959479010344,0.09075860399679819,0.11064627614364665
0.3563491280979429,0.687916863605189,-0.7905184666771145,0.0007262385147285147,0.27323726943821697,0.35809528650833883
0.6191145604523819,1.1772865889353556,-1.3550003477646522,-0.0012891820447651409,0.46151705916080715,0.6214913482919531
0.8893472635159843,1.6725180371532358,-1.9229240702472399,-0.004420869230206728,0.6489688890112779,0.8923814323586412
1.1643509317431218,2.1683538077056497,-2.488197022449277,-0.008687540996049873,0.8335336371140966,1.1680698705762707
1.4473146504578762,2.670214880685191,-3.0569345849925655,-0.01419078905671815,1.017158308362154,1.4517611101030232
1.7339996221233178,3.1703077396638735,-3.6202647600435123,-0.020893399970535673,1.196943353723183,1.7392127545269427
2.031798552556786,3.6811240761683393,-4.192171222380669,-0.029031223373630035,1.377286176173766,2.03784522227227
2.3310142169877217,4.185732861298087,-4.753656765263348,-0.038387986616023786,1.5521590681537358,2.3379415904823784
2.6407763603752397,4.6992685550039495,-5.3215398096127915,-0.049293490395072616,1.7267743581099422,2.6486658121059374
2.957725493564258,5.21565883148387,-5.88899042281518,-0.06170710886840016,1.8989460013558934,2.966656620904846
3.2806632221440104,5.732652909489774,-6.453507498104602,-0.07563160151046817,2.0678843979636685,3.2907190757718667
3.6120406693699154,6.25383245145717,-7.018961400523451,-0.09122870622266101,2.234707956037445,3.623320421524537
3.952739591225093,6.780111672263046,-7.586257820074564,-0.10861452906117373,2.399612729472036,3.965354137644935
4.301177644364921,7.3086115455299705,-8.152228138529226,-0.1277778998694027,2.5616192113859855,4.315239744366589
4.65806170021846,7.840018569764361,-8.717567529366326,-0.14882052365552156,2.7208838267712823,4.673694517352692
5.024435880564554,8.375438153076324,-9.283394039272595,-0.17187605793115035,2.8776654174224174,5.041774967802109
5.400307295502386,8.914399513790626,-9.849147299738819,-0.19702180632710473,3.0317476871202556,5.419496061387645
5.7866348572879795,9.457768109664705,-10.415670379386768,-0.22440305223988385,3.183295697423446,5.80782921651379
6.1829760822542665,10.004403168281085,-10.981713474573501,-0.2540709845033693,3.3319123153793915,6.206337155932899
6.591498938377462,10.55671805003502,-11.549703591440153,-0.2862790549173599,3.4781614195975465,6.617207368016889
7.008484227133416,11.10918316614596,-12.113917726795274,-0.32081415689622683,3.620520192427759,7.036705671029255
7.441536618106051,11.67123080839602,-12.68391386729832,-0.35840711330802116,3.761319815089451,7.47248985794838
7.882758081376053,12.23198949342518,-13.248609280188182,-0.39846987311045245,3.8977528560502432,7.916618490746235
8.33950143051253,12.800223430832201,-13.816798861103464,-0.44176156400924427,4.031891845066169,8.376498100520266
8.803622430701093,13.365263010951043,-14.377805995899305,-0.487594924740114,4.161179610568984,8.843932581682655
9.269633568631328,13.920441260531453,-14.925187790976958,-0.5354300439084981,4.28424041073155,9.313392927289573
9.74283098742038,14.472091231516009,-15.46536771457311,-0.5858102864024032,4.402630819980571,9.790211432893514
10.21904612914746,15.015329734102307,-15.993726398310493,-0.638297762337416,4.515438274393747,10.270184506827572
10.69984109587906,15.552013115214217,-16.512260189340193,-0.6930551170406818,4.623214004992821,10.754881996242576
11.187412740284831,16.084529646292957,-17.023425050706983,-0.7503429614034307,4.726558481904121,11.246514812031611
11.676320634112162,16.606988203076064,-17.521745420340054,-0.8095145034780292,4.824482864566126,11.739592030792853
12.177348715250265,17.13077795280609,-18.01821292848279,-0.8718943927863319,4.919220594861228,12.24498548070422
12.6877887611483,17.652657839676113,-18.50981266213146,-0.9372053321989466,5.0102040290681655,12.75996093583172
13.205020163406097,18.1697302286673,-18.993928199542918,-1.005142349677156,5.097006710113387,13.281870072930573
13.724932357930939,18.677900047427844,-19.466898200792834,-1.0751602743531365,5.1790867478203175,13.806558772100331
14.243104227609992,19.173137161945213,-19.9252069616667,-1.1466164439327677,5.256012263257332,14.329557133742547
14.759822974251634,19.656124035697264,-20.36973944366137,-1.2194853125213163,5.328132972045734,14.851146440829034
15.278074052702419,20.129940635698606,-20.803547197200935,-1.2941399464966583,5.396112736810354,15.374332646929188
15.675023779288615,20.485848841811137,-21.127949731288428,-1.3523549827233714,5.44537826436051,15.775091780186187
15.713246800838654,20.507726537153857,-21.275888409509857,-1.35855815951381,5.57999155600586,15.816788192958848
15.69834497869078,20.446047786602897,-21.698351566620435,-1.3584714091880046,6.0643506047273785,15.813355120653489
15.681630130377542,20.370269324009314,-22.16945696403054,-1.3585000231091853,6.611476863154102,15.809595291869734
15.66490240006801,20.287316636060027,-22.637954663456,-1.3586651366466604,7.163168556631111,15.805933362978472
15.648804152560526,20.200630077148666,-23.08596264407148,-1.358956227102362,7.698094063132841,15.802509014616453
15.640598461010926,20.15381367913643,-23.313227337612012,-1.3591555661950536,7.9722923933638645,15.8008026642789
15.637314133158082,20.13457246074301,-23.403980380670458,-1.3592451321800456,8.082333484597962,15.800127289822937
15.69681920784097,20.109864490074806,-23.42318451111303,-1.3644343288211178,8.124821378185787,15.861170691739972
16.1435068421544,19.973314110709463,-23.33931566074296,-1.402410859118716,8.16672208345379,16.312798044397653
16.72550886006405,19.789029874023047,-23.22574079095014,-1.4517833096672024,8.222940990482092,16.90136523707431
17.30726394697796,19.597547502837198,-23.107256692902524,-1.5010085033454992,8.280954196180602,17.48983230111463
17.891907489993972,19.397701559416213,-22.983082436974385,-1.5503466425923893,8.34106336343683,18.081375605550065
18.474547682802157,19.19105963574594,-22.854131313750933,-1.5993803851190078,8.40274461537075,18.6710495675244
19.054654784804494,18.97780325704372,-22.7204575080843,-1.64805664189528,8.465864651069378,19.25832466311669
19.622546714391145,18.76169125139766,-22.584382311185635,-1.6955756823845642,8.529335890831602,19.833386058008845
20.032668527414632,18.601045632951596,-22.482830015268313,-1.7298061619433585,8.576173240600834,20.248783959681404
20.282549233290386,18.50126900860092,-22.41958346011358,-1.7506257800104061,8.605115892713142,20.50192025174398
20.81696117033197,18.283012252650348,-22.280772620410847,-1.7950575816083614,8.668030406182835,21.043399988977278
21.388066659101025,18.04235949776892,-22.126981842599783,-1.8423948437635804,8.736768521400638,21.622218748659527
21.95663114877189,17.795069641484364,-21.96814354833201,-1.8893685325170468,8.80670894694551,22.198628614875833
22.511421249284137,17.54625059034046,-21.807493491132075,-1.9350461219301427,8.876339184746788,22.761241555116772
22.83409396639901,17.398079442307168,-21.71143405033761,-1.961546824503049,8.917481442763155,23.08853484548232
22.819125039423167,17.356293265965775,-21.500205009948353,-1.95943055850116,8.748648729130151,23.067569003125005
22.7667545304678,17.25536120415116,-20.97239981512137,-1.9529934140694825,8.323808478427202,23.000029736333843
22.711035389621095,17.142937968352584,-20.405401928147235,-1.9462740945385828,7.8713897143587355,22.928262779005493
22.655905297865726,17.026588327817393,-19.83880193819236,-1.939755678308677,7.423265458676122,22.857342387796198
22.601348730130784,16.90643490777043,-19.272541974107813,-1.9334309125315843,6.97925611275885,22.787241577457113
22.546968485366197,16.781698674828732,-18.702537840991205,-1.9272499611247351,6.536071999478218,22.717444151672094
22.49274659863614,16.65237497083647,-18.128574936388475,-1.9212085631958575,6.09350399849647,22.647922273651904
22.439457132405504,16.52044773959402,-17.5589379864794,-1.915388370708631,5.65782359081583,22.579662344946534
22.386301688389512,16.384071410396416,-16.985178431443153,-1.9096978640794249,5.222458446490602,22.51163587905611
22.33344916112493,16.243724233562162,-16.409107746904645,-1.9041529775951316,4.788735521523763,22.44405451360562
22.291841767724446,16.129896292592303,-15.95163489930138,-1.899866847180655,4.446661379805872,22.390889921182254
22.278346933646276,16.092343942034145,-15.802500798741768,-1.8984915880630033,4.335588305698658,22.373653481915404
22.266763696518346,16.05970384242333,-15.665484516098422,-1.8972959583813431,4.231653130832211,22.358577337723535
22.35643122071471,16.296284125950486,-15.839086693429865,-1.9043888170515075,4.1657351307255785,22.446339776391248
22.565113565357706,16.840595977857745,-16.23549709273412,-1.9208799531755483,4.010950633006454,22.65048047951406
22.790212401724638,17.418085718829783,-16.651506850473293,-1.9386441593751171,3.841981809564623,22.87051471916834
22.97690772098573,17.88964344930601,-16.987734618890638,-1.953359343585184,3.7003900969500605,23.05288237033679
23.051447954242107,18.076077075660812,-17.119806444465905,-1.9592300557968967,3.6435154307135096,23.125663174774285
23.058838083134354,18.098150242633633,-17.25641855939401,-1.9600767182445034,3.757734657088184,23.136988947266435
23.038033675767856,18.057045103655813,-17.691558084468593,-1.9595413087210007,4.234412156577818,23.132475520008423
23.01454088555159,18.004423977110527,-18.180083668927097,-1.9591084303925932,4.776045668794912,23.127484882393656
22.991000396305093,17.944977552982767,-18.66653096601928,-1.9588610957844663,5.322424993467816,23.122602774031268
22.967582069223052,17.879043093411802,-19.14735643850069,-1.9588042546646207,5.869665737641424,23.117870077620907
22.944157554905793,17.80618368234047,-19.62516850625661,-1.9589404590193082,6.420815786783329,23.113266324774887
22.920984970589643,17.727184790027025,-20.094700805425123,-1.959269582789388,6.969817967309497,23.10884665025508
22.898026992873323,17.642001739194125,-20.55675266846342,-1.9597908519321274,7.517517017019728,23.104606382583842
22.87496072478114,17.549357386960466,-21.017791666747424,-1.9605149953617769,8.071664089069062,23.100491593113933
22.854830754177407,17.462622642028588,-21.417483554507964,-1.96131503142019,8.558493193968248,23.09702516124689
22.84733416558468,17.428901531350917,-21.565691485500526,-1.9616537509235028,8.74057157560483,23.09576490674885
22.843210844570933,17.410022889278245,-21.64706034002374,-1.9618495953726511,8.840901084864816,23.095078975732015
22.84867473213422,17.41790100947838,-21.725750335852904,-1.962698822067415,8.91147640380647,23.1030537534046
22.992507153404325,17.79199709315025,-21.991568823491548,-1.973785428942342,8.798335713477222,23.24437126017417
23.219190707820708,18.374002183772557,-22.401221556039992,-1.9912257274189438,8.618263843889133,23.466939637483232
23.452578042965033,18.96373936850554,-22.811497934272555,-2.009141795737268,8.430784843527038,23.695900765135402
23.689283649216,19.552278161808694,-23.216129522825565,-2.0272728836454608,8.23867262234955,23.92792622650844
23.931117228466867,20.143847666520493,-23.61802775082099,-2.0457572399758828,8.040542990492977,24.164785032468757
24.176074300108194,20.733291207638985,-24.01370468542601,-2.064441385446332,7.838131052869635,24.404509467082203
24.427956261821087,21.329402599242783,-24.409035031207324,-2.083614648980581,7.628378857811786,24.65081338574191
24.683780899364557,21.92472923254374,-24.799032605205298,-2.103049277920636,7.413853898288333,24.900773583904684
24.94300905861469,22.517836796139306,-25.182821791812398,-2.1227044207304684,7.195130767768893,25.15386059112034
25.20821268852058,23.114318843583764,-25.56403683847039,-2.14277479291659,6.970152304908352,25.412580688935382
25.476770610674464,23.70799749993144,-25.938751009752202,-2.1630617733398245,6.74126104882973,25.67437233209532
25.751558725271465,24.304942015616206,-26.31081873720041,-2.1837823489987005,6.506131095552045,25.942034544413247
25.989071354566,24.812551685163363,-26.623513021173302,-2.201663247894942,6.302275244368348,26.173227653515887
26.092869609710423,25.032000630333492,-26.75765084070881,-2.209469462927182,6.213034223203752,26.27421858457437
26.084445706434828,25.12650176306808,-26.813908567674126,-2.208647254334978,6.1751443545922635,26.26427246384064
25.67389357242477,25.33043749763203,-26.925385867419084,-2.1759301634565826,6.098458771738934,25.848266596917853
25.08259465903484,25.61687137920932,-27.081084854970207,-2.1286455665850474,5.990024514210131,25.249353613317858
24.49051507309674,25.895198580693133,-27.23140149489833,-2.0811081239039475,5.883849964514269,24.649930964925453
23.893016727051833,26.167608686819456,-27.377593798753516,-2.032946099864971,5.779164831343364,24.045303163769155
23.29114302867164,26.43355567622129,-27.51943091293612,-1.9842331068072128,5.676205821699885,23.436529710094952
22.68844346945378,26.691504985436175,-27.656173606007556,-1.9352773156829597,5.575687757016347,22.82719667503798
22.081864711778312,26.942796705371624,-27.788601404205895,-1.885822629776084,5.477120517323373,22.214216421670116
21.473815233364846,27.186453573741957,-27.916267298835333,-1.836067072442018,5.380944980058952,21.600020899599592
20.858839777320053,27.42461426589067,-28.04034946929366,-1.7855559911370529,5.2863385362149495,20.97910083710777
20.249588377260405,27.652486322240364,-28.15842712280042,-1.7353497330844945,5.195322304119494,20.364220508442124
19.633772301792714,27.874764700888583,-28.27299805083869,-1.6844306394539104,5.106048113796147,19.742973188059207
19.012433604395774,28.090952898941758,-28.38385501261339,-1.6328843628840877,5.018756153116125,19.116411063877678
18.41626754426208,28.29085198068422,-28.485852914800912,-1.5832619934925471,4.937606628609019,18.515470141535204
18.078082384407885,28.40101078337964,-28.54185649338619,-1.5550508282936666,4.892738272454469,18.17467596233756
18.027586668631823,28.32246422290521,-28.377838347087778,-1.5506564236906721,4.808667162577385,18.1216922621552
17.941109171068657,28.05267620881047,-27.851082779277764,-1.5428977336473986,4.554128385711515,18.027995698518037
17.845901665079403,27.751688069091436,-27.26381960403796,-1.5343865427528645,4.270513888657285,17.92482976051174
17.751652548674894,27.449549824109113,-26.67473004859347,-1.5259934836128206,3.986182476623885,17.822690403041804
17.658539221537932,27.14687934123496,-26.085005087036762,-1.517734016589532,3.701702789661923,17.72176924724201
17.56695723766513,26.845050808168512,-25.49730540615142,-1.509642590594873,3.418350968597867,17.6224945302945
17.476482917541052,26.5427569916032,-24.909069514679402,-1.5016811334038263,3.1348849786496777,17.52440653047558
17.386808663243315,26.23901055432283,-24.31836494244114,-1.4938223218674336,2.8503685111295916,17.427171167718242
17.29794921553083,25.93388268742335,-23.725320991175295,-1.4860673469666212,2.564859616622329,17.330803770602525
17.209750578314953,25.62685666550682,-23.128925290810766,-1.4784027457226168,2.2778671321000754,17.235136645486126
17.123033610932808,25.320850201650657,-22.53483395131518,-1.470899455210767,1.9921077720189255,17.141059676679337
17.038521169335215,25.018587417986335,-21.94831606934026,-1.4636187366993902,1.7101078719056038,17.049357089292336
16.98556921696404,24.82713257165859,-21.57696437330777,-1.4590733010213868,1.5316184037811458,16.991890937930165
16.961312750086055,24.738890132018177,-21.405845321996754,-1.4569953822875643,1.449385043570111,16.965564140057584
16.95314036873633,24.688624852484796,-21.31050243700976,-1.4562851757041257,1.4045295070660093,16.956259340165506
17.269848646037477,24.59408674332118,-21.25810196420307,-1.4827055940129297,1.4385459742107671,17.273497665772712
17.855821492204765,24.41391453766658,-21.15791862059529,-1.5314739893688931,1.5031222156429263,17.860594671207906
18.460479239316488,24.220762743668846,-21.050054804367683,-1.5816373914964161,1.5719807819120193,18.466612466372094
19.067620780681803,24.01932233759408,-20.937050868135472,-1.6318383149490303,1.6433849942190795,19.075329812025323
19.525182344417942,23.862478037730753,-20.848699150444602,-1.6695519772372418,1.6986596898810455,19.5342355932055
19.59318066607251,23.834390494495473,-20.912919784413482,-1.675221692370052,1.7889468506146984,19.60484063009527
19.57415641668804,23.813663038678207,-21.347579641244135,-1.674125995881491,2.244695003440979,19.59915226369312
19.551238335241734,23.782252157066583,-21.868697225639224,-1.6729512213838074,2.797656600539648,19.59239270804111
19.52867733567063,23.744308290004426,-22.378968773845546,-1.6719530622570853,3.346296652903371,19.585843302068362
19.50630485266315,23.699646908251736,-22.882251686755396,-1.6711219631795085,3.894660246955114,19.57945712439828
19.48403707244872,23.648083796160506,-23.380430405505837,-1.6704554439453023,4.44481756531607,19.573213984740125
19.462032522891057,23.59000568024171,-23.86997052371176,-1.669958173862605,4.992844482133375,19.56716145296994
19.44010805637627,23.524939495054532,-24.354954304868695,-1.669626268549976,5.543299690526186,19.561252423413226
19.41900389408876,23.455371159124073,-24.81912173736287,-1.669464940441694,6.077423619042167,19.555684772030716
19.40792730397572,23.416085661666106,-25.061674866049156,-1.6694437015507746,6.35946519247128,19.552811727784377
19.395671542999445,23.370361032728336,-25.329181179597757,-1.6694720132242344,6.672920043962661,19.549673571337763
19.390454007060637,23.3501685881196,-25.44278487187218,-1.6695007822110057,6.806811294828701,19.548350856134384
19.385999775601068,23.33258433980591,-25.539635801837875,-1.669533315353866,6.921327572254518,19.547228018516773
19.4750812714875,23.294081018988624,-25.549636940404945,-1.6770757698892582,6.967212211164088,19.638288394081524
19.95677852752231,23.114283106680023,-25.446660211598147,-1.717140185503402,7.029745940557297,20.125291563291587
20.550488580186038,22.885608759996632,-25.315095428457788,-1.7663801326352029,7.108781246592835,20.725730455364506
21.14496057164006,22.6487208892946,-25.178101339568606,-1.815523421517419,7.190065277252501,21.32715321630784
21.73481924158272,22.405726761678274,-25.03683012756,-1.8641231601881079,7.272817842533038,21.924123762126214
22.282816497806305,22.172785466126026,-24.90069265040839,-1.9091255530991957,7.351548318810841,22.47892348811877
22.54934863620121,22.05695221612902,-24.832733628883577,-1.9309589915336147,7.390446596665363,22.74884087704131
22.946741378328948,21.8811410723928,-24.72926082145459,-1.9634498392003492,7.449256917681966,23.151353921529797
23.522302779919595,21.619832149126434,-24.574732421236323,-2.0103675722368397,7.536043817703673,23.734512734442852
24.081284243006735,21.358389795483124,-24.419242134069286,-2.05577186381898,7.62212621031922,24.301080632861968
24.379341309005795,21.215859603155018,-24.334100924391723,-2.0799157071970433,7.668738907935183,24.603267451970083
24.34105012427091,21.136249861967087,-24.095929813545887,-2.0760866920501924,7.511668713092352,24.558916108216057
24.2530804586628,20.95188652428684,-23.54844663291287,-2.0673611000815324,7.1519635651377005,24.457145658675316
24.161569071466353,20.755666851036093,-22.972692762740632,-2.0583723831114606,6.775967439470144,24.351329258932797
24.070898540456152,20.556749183215242,-22.395851847496132,-2.0495547696748244,6.401535622519244,24.246533970340035
23.980839786087873,20.35469469586356,-21.816502871980518,-2.040883767257943,6.027695133591146,24.142490983433134
23.890934009172245,20.148485122179114,-21.231656906372645,-2.032314067992893,5.652493131399658,24.03866682211875
23.802127531054126,19.94033773699271,-20.64748531801291,-2.023934110069719,5.279847893226792,23.936150622590368
23.71442189993835,19.730373166845517,-20.064118001924108,-2.0157410051282683,4.909769170838323,23.83494000967954
23.627773735525995,19.518600303745583,-19.481383039956278,-2.0077278255046567,4.542078320608036,23.73498097875404
23.54126599386789,19.30281805997172,-18.89312477107311,-1.9998083044335575,4.172855697437511,23.635212305513807
23.456283501166386,19.086555285846234,-18.308825114624838,-1.9921071824342274,3.808002691157652,23.53722769558913
23.400962818954063,18.94346910173996,-17.924992638536118,-1.9871361211451968,3.5693225346842605,23.473455171620273
23.379743299632437,18.88809852758452,-17.777028933758714,-1.9852381961024161,3.4775205689116504,23.44899609970946
23.365310148121974,18.84980573449443,-17.662746496595574,-1.9839233737096362,3.4020763990591836,23.431911690992433
23.480070835879634,19.128248584026757,-17.856099299354884,-1.9929413403927156,3.3130561325417394,23.543816777479975
23.71165628530985,19.68303699941834,-18.238147682044897,-2.0111229289001686,3.1323325118027037,23.769518599612493
23.958675653039233,20.264555431471518,-18.634046184589806,-2.030492736602122,2.938119728096486,24.01008808364061
24.2113024164272,20.84862460731237,-19.02700744740164,-2.0502782792230754,2.738141631735006,24.25593809952919
24.455313453172867,21.402817799386337,-19.395557151864864,-2.069367047204901,2.5438516384886563,24.49323543169709
24.576714168376906,21.674974925155336,-19.575016103721957,-2.078856354227929,2.446822830807169,24.611235942217224
24.62199228357171,21.804358897879716,-19.659661826726477,-2.082378850120829,2.400471335843206,24.65486808679908
24.28182138230907,21.87543655605178,-19.69710192297035,-2.0553180975232825,2.3791327728947835,24.31364929617931
23.697632359346482,21.99239200987213,-19.75826644973396,-2.0086828731639286,2.344085147522153,23.72778391686297
23.097535523109975,22.10586048234307,-19.817029035426003,-1.9605676703042674,2.310187983941684,23.126122771671817
22.498087562372152,22.212511978959135,-19.871673177825382,-1.9122967302856655,2.2784594956385007,22.5252664112323
21.89661672553413,22.312850856372027,-19.9224819407691,-1.863651237656767,2.2487381622648996,21.92253630771308
21.29173412754921,22.40707641432989,-19.969582477427057,-1.814537235189821,2.2210426490928534,21.3165279556157
20.684428760736377,22.494983470046854,-20.012886127761394,-1.7650290572305694,2.195421405258306,20.708232932590306
20.077978687445597,22.57611720850776,-20.05219106290018,-1.7153983483121413,2.172021064241121,20.10092922331106
19.47286574549128,22.650491969654436,-20.087531092253005,-1.6656907955914697,2.1508475622102363,19.49509258148206
18.859881676951,22.71916903885638,-20.119416416171408,-1.6151456593712814,2.131583768888578,18.88150343159634
18.24664577192772,22.78120549804263,-20.147419804240467,-1.564406455226721,2.1145696497398228,18.267777073157152
17.634607745791183,22.836500164210598,-20.17151230193615,-1.5135920909763223,2.099809314389497,17.655361497069688
17.02222605431583,22.885236501427286,-20.19179231878771,-1.4625804530910227,2.0872586316746746,17.042707474526207
16.408812205572207,22.92747131276509,-20.208291055346773,-1.4113136383222504,2.076878764601126,16.429123055703716
15.79706206441294,22.963058974337603,-20.220973902116185,-1.3600341229962594,2.068767805392213,15.817291986937212
15.183204426864624,22.992228854418023,-20.22992868148663,-1.3084253838483184,2.0628456431869826,15.203439046883384
14.570347221441706,23.014832973156793,-20.235115165595197,-1.2567539346843928,2.0591447513690184,14.59066565416995
13.958078431705797,23.030923167962367,-20.236558441495298,-1.204986829324195,2.05762042768679,13.978555087420172
13.344343148775884,23.040556305248316,-20.23427322129048,-1.1529648725530675,2.058328020793973,13.365041748572743
12.731926667292951,23.04369110299217,-20.228268494594,-1.1009250688810384,2.0612311181048577,12.752905413541104
12.117593135835277,23.040338903429088,-20.218508222123315,-1.0485979915949524,2.0663439040746647,12.138904925830422
11.504310558982374,23.030500241932586,-20.205024472405004,-0.9962386574605755,2.073611809637611,11.526001396164464
10.890639474239668,23.01416697860725,-20.187795867416884,-0.9437369669698856,2.0831031787115024,10.912746285618116
10.2764352631346,22.991312578605825,-20.166795901178958,-0.8910825123022752,2.0947901245084863,10.298989699413058
9.665066546923443,22.962090700818727,-20.14214825165968,-0.8385704302210994,2.1085908867705614,9.68809072697428
9.052653514634644,22.926332439259312,-20.113696121630614,-0.7858733628089969,2.124573431153035,9.076165628946299
8.439441337954626,22.884006377686514,-20.08141146821559,-0.7330168909577045,2.1427184583789605,8.46345293270898
7.821934597362063,22.834776071243994,-20.045046787498517,-0.6797074374309738,2.1631973172824583,7.84645206200348
7.209446496581078,22.779372282222987,-20.00512642368878,-0.6267532042672243,2.185664898784165,7.234462213432811
6.599555336078848,22.717673700829256,-19.9615337065402,-0.5739520184658501,2.21016322837791,6.625056846815899
6.121213796592903,22.664703270306337,-19.924634647315017,-0.5324928664606603,2.230827022117054,6.147084577490451
6.03645040133499,22.65147972592173,-19.984170751110632,-0.5251676399545543,2.304366506300863,6.063025261045983
6.030872559482783,22.6270202345819,-20.3957260035887,-0.524859436848008,2.7404140054886126,6.061448111353237
6.023940592856085,22.590474136881507,-20.904760306008605,-0.5245204356269333,3.2860349666091935,6.059515981247793
6.0170733744213125,22.547413673654145,-21.406332308192038,-0.5242337143574596,3.830707447262157,6.057634011445884
6.010269210891955,22.497873310484263,-21.900588886058703,-0.5239989412012507,4.374543864816897,6.055802588426757
6.003475317624059,22.4414317389938,-22.39135430671654,-0.5238146581149768,4.921790096154974,6.054008748365065
5.996747621598986,22.3785230224314,-22.87458027305409,-0.5236827353729534,5.46796345322013,6.052268470814123
5.990030543660663,22.308597343532444,-23.354249863137092,-0.5236024715213724,6.0175971461309805,6.0505686023343905
5.983371358434849,22.232105004548654,-23.8269727729748,-0.5235749423373316,6.566850293187113,6.048922396959301
5.97686781981798,22.150364789911105,-24.285887655242373,-0.5235993680877378,7.107542207817116,6.047353992639752
5.9733040865914395,22.10257175453235,-24.53618145747548,-0.5236347430191021,7.405649135935122,6.046511708443188
5.972269963963373,22.08830080325621,-24.608653838319505,-0.5236479651184911,7.492398286469939,6.0462696270280665
6.257280613220728,22.055823657015196,-24.591988881700647,-0.5485775726564286,7.505546233428785,6.3335957922669035
6.830018530736267,21.986837858993663,-24.55139276067289,-0.598632565232811,7.528207714571134,6.910983836909432
7.430976458024813,21.90783479019835,-24.504826456491777,-0.6510989336077999,7.5540966125981175,7.516890867520995
8.035891625358186,21.821433401789047,-24.453807300306067,-0.7038490969637035,7.582332694930161,8.12686600588981
8.635305923799857,21.728972633182632,-24.39910346868757,-0.7560536259912636,7.612459625758935,8.731377750277495
9.23796564703347,21.629099288581934,-24.33988691205845,-0.8084671524625643,7.644867068288214,9.3392542424042
9.838980667369567,21.522556887098933,-24.27657740503232,-0.8606640896102409,7.679352482229878,9.945565296542876
10.44034597503303,21.40896524177991,-24.20891739208208,-0.9128108118816808,7.71598405396591,10.55233099139343
11.044027696139462,21.287855873790516,-24.136595486986103,-0.9650724099846242,7.7548856658365635,11.16154154514707
11.644372044394256,21.16032394638569,-24.060229592506733,-1.0169511865090772,7.795646814435361,11.767499508845834
12.247425977877189,21.02504544397813,-23.97899770446672,-1.0689720322452467,7.838723012789423,12.376308185037084
12.843426150336063,20.8842245007396,-23.894185047758892,-1.1202857062310727,7.8833516509895745,12.978117940296213
13.260528551424962,20.78142741314293,-23.832110228458305,-1.1561360203912845,7.915792763055336,13.399361100894037
13.515533332215677,20.716847181613556,-23.793042573128787,-1.1780284346574925,7.936113970162827,13.65692871806136
13.81856944622231,20.638308974059697,-23.74494361250775,-1.2040172349633476,7.96025748727827,13.963031633505814
13.808696431666393,20.608291305992577,-23.507946662311205,-1.2025738284448597,7.753531024699799,13.948692192139793
13.786845868886134,20.5381562077952,-22.980163372480217,-1.1994409633396268,7.2964411406156415,13.917002761486751
13.764062962119166,20.459626270119564,-22.425028559610585,-1.1962637069258442,6.8204166316642,13.884026112936137
13.741359455948857,20.375911600557746,-21.866874924502685,-1.1931868845366276,6.346554254871395,13.851227132964118
13.718709533018034,20.286990997754494,-21.305061958229782,-1.1902049771933874,5.874235409719549,13.818564788234426
13.696291474934016,20.193689636663525,-20.74405512835117,-1.1873386802753214,5.407095941345817,13.786291981092944
13.674127808816714,20.0962922169013,-20.1845260895965,-1.1845871260910128,4.945522322098874,13.75443642188817
13.65191253329918,19.99354343864232,-19.618763982317347,-1.1819102706192892,4.48306675006155,13.722554711793077
13.629858633219605,19.88648097808886,-19.052173441650144,-1.1793323666499227,4.0240908789982965,13.690949356845284
13.608395952347712,19.777461319510152,-18.495994020741676,-1.1768989097759457,3.577467119912989,13.66023145817985
13.595588344383248,19.71014069985303,-18.16183194003503,-1.1754819197421467,3.31094486514516,13.641918738280669
13.59113098336374,19.68631485762683,-18.045134741350992,-1.1749949067520262,3.2181844881228785,13.63554846441741
13.642139108325015,19.904682688756967,-18.188907851282988,-1.1792368201930379,3.1425578390401734,13.685067807241488
13.77264042421869,20.457717894921103,-18.562044591766174,-1.1901036269964325,2.960000416454464,13.811936994271818
13.90209982527464,20.997677743142873,-18.922284074829914,-1.200884706928981,2.777619144085531,13.937698557420363
13.95976972944499,21.235489718695202,-19.07966974123248,-1.2056878200278287,2.696000059916637,13.993691418130881
13.959312040227847,21.243488664741903,-19.256417722303414,-1.205821214530445,2.864721329886812,13.99678943031264
13.944938084505369,21.208855461713263,-19.72616877951218,-1.2051806741979032,3.369296206963973,13.993033065963797
13.929556637838381,21.16528299314211,-20.226142298123726,-1.204603492131427,3.913045361982759,13.989082107814607
13.91434241123982,21.115427866478157,-20.717882659285102,-1.2041450648664154,4.454840948155816,13.985247749773167
13.899057340204013,21.0584342645263,-21.209059318983027,-1.2037997243648908,5.003211338615258,13.981473280704984
13.88391652531262,20.995013702786743,-21.692728158124723,-1.2035741674284206,5.550498049244206,13.977815297545082
13.868783434444367,20.92455593469239,-22.17323942069513,-1.2034674155760012,6.101663323144517,13.97424374874315
13.85384315103421,20.84792063164231,-22.644719092720077,-1.20348130327168,6.649971053168018,13.970804811316478
13.838916607812857,20.764191108258036,-23.112821680295788,-1.203616549452165,7.201994719795182,13.967459738623134
13.82629175640775,20.687675281956512,-23.506403040868324,-1.2038279572871036,7.672253095319326,13.964704484330495
13.822005011475488,20.66048983824283,-23.639548433299108,-1.2039203401212761,7.832638484955046,13.963784887178708
13.819144464194858,20.642006185302943,-23.72825575002827,-1.2039878655789311,7.939865807145776,13.963175829344259
13.84472831777772,20.751798147788943,-23.8208881958914,-1.206122490912018,7.922172685308988,13.988599548522712
13.960783343277495,21.251321087960417,-24.15081042432245,-1.2155354259300502,7.750160195064537,14.101946036610295
14.104925435641833,21.862755414402283,-24.55000797649979,-1.2272195214630501,7.534902132841739,14.242609978670979
14.252207204687135,22.477471191135262,-24.946228699110844,-1.239151422437197,7.31329045850326,14.38621035805204
14.401573399095609,23.090781456848163,-25.33645751975742,-1.2512465762942884,7.087017830834869,14.531714795044808
14.553552636366113,23.704636250276316,-25.72197652058566,-1.263548824042463,6.855403581451298,14.679635565332227
14.705131374113671,24.306892966172995,-26.09532479960962,-1.2758153875937823,6.62319376020934,14.827040129782427
14.80021398324455,24.679699332739755,-26.32402038095974,-1.2835088563149337,6.476995997132337,14.91944138667004
14.790634995643808,24.785564753680998,-26.38809956875416,-1.2825910299674363,6.435435088174444,14.90886589189258
14.386243702870086,24.89325958046756,-26.447558935502016,-1.2481621668312797,6.396145213046731,14.50110664061141
13.782685571449216,25.04798339582984,-26.532729630944,-1.1966778401669453,6.3394899671244955,13.892658800717992
13.167498531136587,25.198345310289692,-26.615212850930575,-1.1440840093599935,6.284197689127073,13.272650953826215
12.552864385725979,25.34123784735647,-26.693334234658995,-1.0914237057420233,6.231407265768092,12.653361555020544
11.930990347834245,25.478428361859486,-26.768102148454734,-1.038033292439585,6.180558921314927,12.026927651461508
11.310398667939399,25.607994199254524,-26.83849984989529,-0.9846475422421843,6.132361922173734,11.401932500650966
10.68907696081166,25.73042839903015,-26.904831181100832,-0.9310987527922719,6.086662403168095,10.776342063064275
10.068271132307721,25.845537492447342,-26.96702127386825,-0.8775003286684183,6.04352806913732,10.151406571642442
9.445345061876326,25.953844156998947,-27.025389411855926,-0.8236284058324536,6.002851505672874,9.524459649895547
8.82538928125078,26.054526673010805,-27.07951865054783,-0.7699292335214502,5.964933374682327,8.90061994034754
8.202660613400292,26.148567750316328,-27.129961000966915,-0.71591233589179,5.929393863459139,8.274103085890879
7.572514179302168,26.23654531409749,-27.177055141117442,-0.6611756871830785,5.896096103978683,7.640226210305012
6.946991378225668,26.316770481536565,-27.219916272753018,-0.606771542232851,5.865665906164774,7.011097246012995
6.484641236746228,26.37153953691491,-27.249131677743232,-0.5665181740783914,5.844855137772656,6.54613911374244
6.421184489226762,26.361913436164176,-27.161368468706943,-0.5609163979981698,5.767347225019781,6.481591951481501
6.411481040505618,26.27608043808463,-26.699079725573373,-0.5597119661285594,5.391004482211845,6.468142816286703
6.399837751444979,26.16830529530208,-26.140034401033986,-0.5583009292643989,4.939869510874788,6.452030098707066
6.388241881945598,26.055811236831644,-25.578514662541874,-0.5569322341317741,4.490978083109218,6.436008855296969
6.376655182574837,25.93829285522392,-25.01265263952131,-0.5556006454690731,4.042768188995837,6.420024669580206
6.3651676559706285,25.816758364877565,-24.446857849790188,-0.5543156025840157,3.598640105644707,6.404200030309397
6.353696496432826,25.690429863405917,-23.87707037927611,-0.5530669427991133,3.1553127871778743,6.388419219488994
6.342454699313602,25.561829472456058,-23.3139682741674,-0.5518764354574052,2.7209397321317073,6.372973341044326
6.331166399166624,25.427934885157974,-22.74379253069642,-0.5507137724761683,2.2847874159087493,6.357481678945667
6.319916169431996,25.289757424662596,-22.170751641371623,-0.5495874541968784,1.850052048334837,6.342059131361593
6.310160662865511,25.166120948040327,-21.669929635755313,-0.5486368158822338,1.4729772927121683,6.328698369169963
6.306265320101458,25.11576442366644,-21.468927413952034,-0.5482639533185941,1.3223757567229775,6.323366578373919
6.317413955580466,25.212147786123136,-21.509036268758745,-0.549217796445766,1.2659972133579414,6.333955395479023
6.3732684402579975,25.699408679107442,-21.802273113391987,-0.5540189750603574,1.0714452778190275,6.387827438671322
6.444069795594648,26.306781960292398,-22.163379710320246,-0.5601124922801362,0.8245031499988111,6.45606586831019
6.491762610272349,26.709583570722128,-22.400169805465914,-0.5642220974122151,0.6580326822585095,6.502001464932539
6.497321967970227,26.76524402687301,-22.51377003352903,-0.5647103379258845,0.7159149874384035,6.508116572190137
6.490562022134706,26.75546399530996,-22.95427540035234,-0.5641973509722382,1.1662449658305405,6.505811015261763
6.4823216426502475,26.737052931801465,-23.48899637867675,-0.5636201884913334,1.7194311651772989,6.503031732281024
6.474179380551191,26.711693940276145,-24.014863418083873,-0.5631030165084459,2.2707104996659853,6.500321127022045
6.46613434634378,26.679465856518192,-24.531965640436283,-0.5626451260613996,2.8200932592329644,6.497679682781552
6.45816068523607,26.64031591230132,-25.04198496599572,-0.5622446637217154,3.3693142981849307,6.495099817121898
6.45022164128501,26.594030615868732,-25.54726262404021,-0.5619000641625754,3.920928570947122,6.492570977060985
6.442379318581158,26.540977215477167,-26.043848628143685,-0.5616140624315494,4.470618437361885,6.490114068994648
6.434758284314523,26.482269483205727,-26.523948998366215,-0.5613893048850105,5.009475348415611,6.487767700913919
6.430212636678988,26.44382656632198,-26.809124812730147,-0.5612807820825265,5.333123080486922,6.48638837888683
6.426046492162335,26.406307086226548,-27.069701012153445,-0.5611983993528716,5.6312452643026445,6.4851379322435
6.423601475203541,26.38325767604402,-27.222270776032836,-0.5611577609530365,5.806879958926401,6.4844103304871
6.428444066110283,26.426466829638084,-27.28100290481467,-0.5615947680614706,5.822354715933526,6.489430178323591
6.476386418042719,26.854493213159504,-27.530980755655616,-0.5655914451020232,5.643842978180474,6.535846512507391
6.5476976196408065,27.482013271998046,-27.893180103185536,-0.5715406946523731,5.377827312051292,6.604836686456368
6.620578955208532,28.112308178457475,-28.2518792298636,-0.577626984656035,5.1055139055457515,6.675284146482355
6.695565979318799,28.749459089630168,-28.60931770847114,-0.5838961348515274,4.825055339551119,6.747703570728684
6.7718216839316785,29.385881011493485,-28.961200036111872,-0.5902792796325251,4.539748906334013,6.82128406887232
6.849848809244399,30.025384226612324,-29.309639324732554,-0.5968196132944044,4.247891894903478,6.896508708007543
6.920798502931457,30.59686285176739,-29.616678015388654,-0.6027750399752009,3.982723411136188,6.964854456097396
6.959484833065119,30.810496734646943,-29.730482476258974,-0.6060574304512079,3.8824913779415,7.00256797919931
7.296293602594776,30.770130796671296,-29.711137269542807,-0.6352677574729843,3.8998643478708064,7.340304208173393
7.913641878282545,30.69107212378791,-29.67319312407883,-0.6887562074865976,3.933846762662278,7.959430339832563
8.56249025292242,30.600871247646612,-29.62981130499224,-0.7448959952815936,3.9725482448056644,8.610263668515245
9.213657231695482,30.50297241505766,-29.58261543853822,-0.8011484987252748,4.014436982489972,9.263553952611256
9.859226551269398,30.398575652111354,-29.532165646321516,-0.8568264961653328,4.059041585811832,9.911363996390396
10.508851688440926,30.286086471594796,-29.477661015584285,-0.912755619147643,4.1069911205487,10.563391643708863
11.15772337743566,30.166215614693176,-29.419411783238424,-0.9685126185741434,4.157927280081626,11.214822892173721
11.806338716987787,30.038830917665837,-29.35732810399827,-1.024138319543461,4.211943132445785,11.866160921430453
12.452190078206106,29.90440519342346,-29.29160409407035,-1.0794104797153468,4.268780932087668,12.514898148856131
13.101468137143558,29.761560888860174,-29.221525640493006,-1.1348496126248138,4.328962277242492,13.167265491475643
13.750968206036035,29.610866456113026,-29.147336211761566,-1.1901807190197273,4.3922767610437345,13.82004766287773
14.384039724579937,29.45639132642939,-29.071004648863145,-1.2439817112708094,4.456958184190274,14.456514555731458
14.962232031376063,29.308689289495995,-28.99775362412314,-1.2930015320084876,4.51859310114745,15.037984380139834
15.23104789417737,29.237845477669715,-28.962523861081795,-1.315748797417044,4.548051332917658,15.308386858111007
15.670922754830563,29.118930569475886,-28.90325923681189,-1.3529219979860443,4.597443643869149,15.750935311076018
15.984280091214687,29.031936584529962,-28.85979609475247,-1.379360672789276,4.6334921825111595,16.06626157253908
15.951984790370924,28.909340259252502,-28.626620395034436,-1.376433493090578,4.523721727288198,16.031204216615656
15.871481565190512,28.62218944175741,-28.07847542967743,-1.3691867862576927,4.264731897181366,15.944215979594754
15.785624241741761,28.311898177772573,-27.48624288188825,-1.3614853960318807,3.9849170945407724,15.851429110075737
15.701386320903836,28.00331304330154,-26.897349604387976,-1.3539573085899992,3.7066841515279902,15.760378248648255
15.618181534121362,27.69438838199943,-26.307886255604185,-1.3465495076519656,3.428184352511477,15.67042952392784
15.536494071028168,27.38701854932158,-25.721462445571188,-1.3393045144094484,3.1511215846812437,15.582106187844643
15.455125316539895,27.0767385576824,-25.129555646646264,-1.3321157872851566,2.8714678811587704,15.494111895090011
15.374629122359005,26.765657759141124,-24.536186878959533,-1.3250323511427737,2.591121709042817,15.407045058315207
15.29520217646966,26.454592257870967,-23.94290915806411,-1.3180712100603045,2.310815603624821,15.321118114041097
15.21660997512065,26.142678099865382,-23.34807127973729,-1.311211520469091,2.029768299387174,15.236077062968347
15.13888925866296,25.8301016407797,-22.752025584617282,-1.3044562957358639,1.748145220947357,15.151961304974055
15.063532478357667,25.52302972198309,-22.16652705842671,-1.2979342063479522,1.4714996482733924,15.070386294898722
15.016720318904891,25.33025046674025,-21.798976372560453,-1.2938966692958294,1.297830163353116,15.019702155830618
14.994919326074374,25.239933651796573,-21.62678560232682,-1.292020070427469,1.2164682349501257,14.996095458013802
14.816938453114648,25.20855874553912,-21.592937608016463,-1.2770240001251558,1.2179807222386991,14.818417965669969
14.276631342108914,25.13809171461407,-21.542927047133492,-1.2314378774739725,1.2502448817566543,14.279633212323851
13.656115999675416,25.050941889284868,-21.481957585174463,-1.1789505352490166,1.2894560707617442,13.660867060308679
13.035288309245333,24.957053238993986,-21.41712947725191,-1.1262991609473623,1.330985893451268,13.041782999958876
12.418718457814851,24.857135364905446,-21.348900611067187,-1.0738738020711314,1.374467256076296,12.426930368809177
11.797517812027305,24.74970064696128,-21.27623739138699,-1.0209344863028516,1.4205779822328235,11.80743866535197
11.179815059862616,24.636083199304746,-21.20001557062255,-0.9681744552372674,1.4686808805129254,11.191406078212324
10.55957918539208,24.51513590894028,-21.119436352529174,-0.9150848335066011,1.5192289450937109,10.572810373324197
9.94049803835906,24.387497337475395,-21.034897044857754,-0.8619868614765744,1.5719173215889972,9.95532196449789
9.31967735648704,24.252496410662204,-20.94591878963746,-0.8086348360969611,1.6269531611738342,9.33604512920299
8.703061774642867,24.11140723670009,-20.85331040716643,-0.7555529754710479,1.6838428206661513,8.72090509226665
8.08357899169108,23.96256309584305,-20.755937251831185,-0.702135097749156,1.7431878042924682,8.102837939311582
7.475715899599393,23.809522654007328,-20.656083135265607,-0.6496379881413351,1.8035402355126822,7.496291677265254
6.8681573052336775,23.649565590568134,-20.551923259697908,-0.5970903419758233,1.8659164727470212,6.889968704763509
6.268088670147897,23.4846475553796,-20.444692172593363,-0.5451249364513052,1.9295833984899244,6.2910386042896995
5.6664438084674495,23.312297384874736,-20.332734934575083,-0.49296066023030577,1.9954267883700578,5.69044492066621
5.0651593816670895,23.132965086566816,-20.216298680892947,-0.44077059214899433,2.063223836595257,5.090114037317136
4.476853866997458,22.950562023269804,-20.097871928529578,-0.38965610786026317,2.1314379711501386,4.502638619563861
4.104419805570304,22.83150462254934,-20.020556161776756,-0.35727489853969013,2.175609580342808,4.13067780282882
4.08604526091552,22.817569229188063,-20.176613975159327,-0.355717991999418,2.3457140026319245,4.11336932437049
4.081722237058694,22.788817384983826,-20.64560392950519,-0.3554815772502836,2.8434730191703492,4.1121399118919815
4.077026016496092,22.751050349160963,-21.15251220429935,-0.35525640721321977,3.3881669621418147,4.110824621002822
4.07237036509454,22.706751609522144,-21.65235093702123,-0.35506643216025874,3.9323228285316425,4.1095426562988235
4.0677439720012645,22.655820090754997,-22.146342047345694,-0.35491120490517736,4.477263656291343,4.108291601727253
4.063124745665571,22.5979446808133,-22.636821977553844,-0.3547903848426734,5.025637084062078,4.107066431618246
4.058537869793332,22.53337976087211,-23.121096080396956,-0.35470502413474264,5.574493982283679,4.10587475930941
4.05398308531749,22.462119248756597,-23.599193236232953,-0.35465525094100026,6.123869312669302,4.104717251764266
4.0494570048128615,22.38410112209705,-24.07146713028816,-0.3546412189548973,6.674178794040304,4.1035938074583225
4.045359425449084,22.30714374316671,-24.496563075330727,-0.3546597563080623,7.176247844672063,4.1026008352724315
4.0437437747101,22.275120782279288,-24.663521255494594,-0.35467539203038856,7.375235164852292,4.102215839873132
4.044661535904175,22.286127216881848,-24.7282667679898,-0.354799061026463,7.428967526000845,4.103476190914062
4.069947242296976,22.66035966339736,-24.96745460989234,-0.35690708959773043,7.2937684562230185,4.128103649293103
4.1117170041358975,23.270733506229945,-25.353513348068653,-0.3603898321831503,7.069196212632823,4.168756248221579
4.155220685131047,23.896302533744237,-25.743990790862192,-0.3640181161409052,6.833834198560862,4.211057757744468
4.199588195198865,24.523898015293693,-26.13048392774768,-0.36771987915100796,6.592453306554618,4.254159617824972
4.244599055521314,25.150132176583494,-26.51092962879132,-0.37147722078292233,6.346379424577354,4.297846612482881
4.290724494760789,25.781215747971615,-26.88909097113235,-0.37533001721382725,6.093161744801836,4.342574801798986
4.337644674517672,26.412381097839035,-27.262082847361803,-0.37925213409196196,5.834684655455696,4.388032560762072
4.3854233429067575,27.0441907288301,-27.630261953118424,-0.3832494882240944,5.570741774026402,4.434280552790602
4.433950238728017,27.67491528422675,-27.99265943359894,-0.3873134604610576,5.302094162335612,4.481211050977694
4.483960835731201,28.31364093929962,-28.354445702083012,-0.39150636117950594,5.024820971969501,4.529533578879837
4.53492129096858,28.95301630697206,-28.711385194008574,-0.39578421675110714,4.742041333752636,4.578730340142066
4.586625361283783,29.59018145782174,-29.06193537461678,-0.40013041533509025,4.455073853221574,4.62860125728862
4.639421951832981,30.229123134372976,-29.40832902655997,-0.4045750354455067,4.162161991870146,4.679481748562116
4.687754572124364,30.803948533169013,-29.715598967962165,-0.40865004577341046,3.8942700263314163,4.7260221562604885
4.706894728288437,31.028873807014474,-29.832439448260363,-0.41026443273333973,3.7860511230504525,4.744426729289076
4.6944559321320085,30.874517135806382,-29.558364911958154,-0.4091258632123411,3.666425347193208,4.73110650018229
4.669174910267819,30.55807085418989,-28.995809570741635,-0.4068169722904497,3.420502697073207,4.704028824647645
4.643103532704381,30.227824537300023,-28.40777501729384,-0.4044433506929636,3.162905636692604,4.676097195609992
4.6173748306808235,29.89792974794405,-27.819427447031472,-0.40210857400053496,2.9046404631764218,4.648525115918372
4.591766554227552,29.56554199870692,-27.2257108682451,-0.3997925025931179,2.643497321458984,4.621074424027983
4.566483540258807,29.23332215939904,-26.631393842920165,-0.39751369655263014,2.381582445632449,4.5939646935314284
4.541454326741177,28.90036711796714,-26.034883293043123,-0.3952656834326922,2.1182064201516053,4.567119356422079
4.516914007568909,28.56988260771448,-25.441953080435955,-0.3930694631411726,1.8559357319773324,4.540790697291251
4.492564948858781,28.2379256179595,-24.84555582185737,-0.3908983087114374,1.5916681712448506,4.514659494401555
4.468563060086196,27.906654426076223,-24.249588479021106,-0.3887660947920526,1.327141347816527,4.488893103109513
4.444960007471566,27.576869133296114,-23.655519679977395,-0.3866772758926433,1.0630234667135117,4.463547122068457
4.421614461255339,27.246662889307036,-23.05993906217872,-0.38461924647382184,0.7978120447305183,4.438469878398651
4.403773773000831,26.991561331537177,-22.599318324129463,-0.3830520113214107,0.5924168116736003,4.419300457478945
4.391276084732779,26.831594961217235,-22.46075145898659,-0.38196737225133703,0.6138991289702417,4.406981901110661
4.350801320618719,26.32519389421901,-22.163611249077874,-0.37846705079016657,0.8234235347800122,4.368006899436933
4.302055971887858,25.70463170287784,-21.794860447021147,-0.3742574260574966,1.0755492649224094,4.3210324531399955
4.254353182941796,25.08573732639586,-21.422003622436105,-0.3701438708780039,1.3218911949105343,4.275024339595061
4.207523325370815,24.466687413505763,-21.04393584934458,-0.36611111732193496,1.563169025041841,4.2298202242239515
4.161641663467071,23.848829406006622,-20.661467310498093,-0.3621650465897596,1.7988452001736295,4.185493948236606
4.116971223718412,23.236194806070774,-20.277148163884394,-0.35832765154133167,2.0274369405969024,4.142301267441199
4.089294025087872,22.85099346115603,-20.03289989574308,-0.3559521579365685,2.168559789742966,4.115521144634098
4.086208896493245,22.818547824894697,-20.15875219132943,-0.3557222749700931,2.326873820020669,4.113421701880272
4.0819519230491235,22.790492354729764,-20.620671451117325,-0.35548822561858956,2.8168655077052605,4.112210205014614
4.077266910042202,22.75316033780544,-21.126498496393772,-0.35526191973955823,3.3600431616522934,4.1108968739517335
4.07258946694355,22.708998617499716,-21.628804862590556,-0.3550693826223383,3.9065297322241,4.109607695226295
4.06798322188208,22.65863436239895,-22.12077296449081,-0.3549131498888534,4.4488802126854115,4.108360836576021
4.06336185050299,22.601099729023307,-22.611617454144476,-0.3547904795719572,4.997277436136637,4.107133732371151
4.058758329373596,22.536660486239455,-23.097782599933634,-0.35470304640982797,5.547899769417553,4.105936360304225
4.054213570234206,22.46591536964553,-23.574960521807576,-0.3546516198718813,6.095840435921364,4.1047799942825645
4.049661970682051,22.387810914328938,-24.05002826152763,-0.3546357621673432,6.649030194566142,4.103648792022442
4.0454856993289114,22.30962835855844,-24.48338026172051,-0.35465339950108254,7.160580782497084,4.102635689326053
4.043697415329525,22.274211450251098,-24.668186162544607,-0.35467056599865754,7.38081043137403,4.10220941126007
4.021661290774565,22.266681126622824,-24.71569498349965,-0.3527828753389738,7.4359847931787995,4.08035088890888
3.6278682642268825,22.294250867892647,-24.731827856134483,-0.31824058587648213,7.426858793922232,3.6835219993467634
3.0264712273983387,22.330851995314575,-24.753230615241193,-0.2654634245480391,7.414731652940637,3.077519841589585
2.416718919222761,22.361185830670294,-24.770955648579275,-0.21192731193351283,7.404671516418533,2.4631312034250796
1.8080615283193642,22.384674052197834,-24.784672634744144,-0.15846665814620656,7.396876511869056,1.8498721480570106
1.1999504131452001,22.401373053544866,-24.79441754569103,-0.1050407976984813,7.391302106194089,1.2371820459460832
0.592161322850844,22.41131615704782,-24.8002204441109,-0.05163095456945417,7.388002689288685,0.6248306337382984
-0.015611564257693151,22.41451580828682,-24.80208804478265,0.0017826087154874694,7.386945321113534,0.012502006995943003
-0.6244757988669617,22.410961395220923,-24.80001498672328,0.05529207442943353,7.388134226756343,-0.6009262937407694
-1.236124451517398,22.40057423595304,-24.793951292270712,0.10903764034268124,7.391563826533943,-1.217168588244863
-1.841668679243928,22.38356081906343,-24.784021050745586,0.1622395449865631,7.397225164730079,-1.8272720652214736
-2.4502112978086763,22.359707570128016,-24.770092040827585,0.21568939723576921,7.405154630676034,-2.4404164794580194
-3.059515467883231,22.32902879622369,-24.75216634324641,0.2691854203326391,7.415342246696848,-3.054354865856828
-3.657127284180697,22.292320226647032,-24.730701382257724,0.32162973957581614,7.427517565660282,-3.6565442575342604
-4.02658397448956,22.2663377165435,-24.71549473687847,0.3540327181096917,7.436095297859701,-4.028852242309304
-4.041383598863813,22.240086737971524,-24.543178473840033,0.35521322786097664,7.289941585017579,-4.042850733255498
-4.035059787407861,22.163519838698768,-24.035989285420683,0.35432828341378925,6.8593666058906555,-4.033797395120143
-4.028133407217512,22.07442382293699,-23.47574053583118,0.35338411626681276,6.388265534450395,-4.023899689991345
-4.021265552125377,21.980705610268867,-22.91529360287179,0.3524734771265084,5.921587882487416,-4.014103575074883
-4.014453077386237,21.882480745253744,-22.354463814185387,0.35159497854069544,5.459033463425733,-4.004403208435084
-4.00765665665915,21.77928700463987,-21.790038274119826,0.35074285421668244,4.997851901738614,-3.9947414451274663
-4.000899301801385,21.6715568737612,-21.223934137903584,0.34991941541948146,4.539527701871192,-3.9851499464352504
-3.9942290726634226,21.560216852015593,-20.660260589087404,0.3491296067673725,4.087243200478711,-3.9756956919351367
-3.9875730640112974,21.444178203935184,-20.092911301304262,0.3483640509750742,3.6359813482727485,-3.966274234685144
-3.980972418962079,21.32424736322654,-19.525412076355654,0.3476269319509923,3.188461216402811,-3.9569428349936477
-3.975893210598218,21.228673520342813,-19.08538213043026,0.34707456932690706,2.8440421575380395,-3.9497697495004482
-3.975028683543417,21.209734892659736,-18.969530119996907,0.3469706207074942,2.747135772297414,-3.9483175067597673
-3.9965953023795673,21.524854011845385,-19.176558504193622,0.34881693178530376,2.638916350363116,-3.969233761745272
-4.037058080117364,22.108472715410347,-19.556386229683163,0.35228304590681325,2.434882162574094,-4.008451394767263
-4.075080246740087,22.64804497045754,-19.903404057761577,0.35554278440553383,2.2420970914966474,-4.045274453830155
-4.087592991889486,22.825133467191268,-20.034559376792746,0.35662031900600133,2.196087225079616,-4.0574963196648826
-4.084507463053349,22.80639814279472,-20.370339250851536,0.3564430310111504,2.5506147415422986,-4.056618044017153
-4.079831300213739,22.772450021404683,-20.877032641056687,0.3562012895904609,3.0912748608301506,-4.055303991680576
-4.07514982146461,22.73162992374377,-21.381618515197705,0.3559924277620339,3.6366993855392518,-4.054009984639508
-4.0705082253397755,22.68426020907765,-21.879202498969523,0.3558188435419151,4.181671400375458,-4.052749464966128
-4.065907868811023,22.630387557219997,-22.369656561463326,0.35568048551771403,4.726016187850782,-4.051523411799935
-4.061294110423235,22.56928444842479,-22.85877562971312,0.3555762194956598,5.276256406590466,-4.050318283677132
-4.056698677901622,22.501229433721168,-23.343143756419522,0.35550756232193076,5.828697430695917,-4.049143593401546
-4.052185690039171,22.427255667202463,-23.816037384996225,0.3554751955816839,6.3755822992024935,-4.048016157049888
-4.047679018030102,22.34617323950826,-24.28545751350146,0.3554784470579186,6.926102213212245,-4.046917469833148
-4.044559952967312,22.285755181053563,-24.6086664251721,0.3555020078303018,7.309741141360874,-4.046173659019751
-4.043617140296687,22.266790680055426,-24.706090598519523,0.3555126186179911,7.426133421174717,-4.045951575379262
-4.053178845984845,22.408351320090702,-24.806594703519586,0.3563177185494052,7.385018409289012,-4.055327974948156
-4.0886564404250665,22.93077870218693,-25.139113735100405,0.35927538215463656,7.194892666888459,-4.089870486314787
-4.131882931564159,23.557894068110972,-25.533409546888915,0.36287975594205263,6.9618058387509345,-4.131921778890167
-4.175864678014506,24.185597592152444,-25.92280006813812,0.3665483005037322,6.723218187227419,-4.174668283538843
-4.220142279332246,24.807222264404643,-26.30325079226976,0.370243155367691,6.481764988225337,-4.217663075823143
-4.265694631908463,25.436224037957412,-26.6830128163783,0.3740465171900939,6.23223506463014,-4.261855601463332
-4.3119783670086695,26.064670365508658,-27.057245109596856,0.3779135845626257,5.977723203002143,-4.306717088360914
-4.345266514284396,26.510171282923434,-27.319408743541775,0.38069673004613735,5.79416985117509,-4.3389576169733886
-4.261618370565502,26.581598984443737,-27.36083963694586,0.37337001694496397,5.7647243660214995,-4.254693694127075
-3.780271783206646,26.615536139787327,-27.378836521868756,0.3313004734315986,5.751745692684189,-3.770860111845639
-3.1535768875157664,26.653600638615437,-27.39900537397271,0.2764971540372815,5.737176046751674,-3.1409698684383693
-2.519471753510698,26.685086427191486,-27.41567508335624,0.22101625275517667,5.7251149921830145,-2.5036730787013197
-1.8951563807108194,26.70919383405795,-27.428430305336377,0.16636859973561513,5.7158752877094035,-1.8762479888945347
-1.265014530085435,26.726600657627753,-27.437632835567427,0.11119439055923347,5.70917117088815,-1.24299280209323
-0.638294283914992,26.73702541598643,-27.443144449871564,0.05630719590058792,5.705176114565023,-0.6131919278536194
-0.010003928716937721,26.740584120602314,-27.445026011858356,0.0012764710857668116,5.703816740730185,0.018178435884197396
0.6181324872356255,26.73724531040206,-27.443261789497814,-0.05374100220416831,5.705105826945047,0.6493939213607914
1.2469354019839283,26.72699176678398,-27.437838683187234,-0.1088090425358192,5.709018185654527,1.2812873509739804
1.876208481654883,26.709808539218077,-27.428752472873718,-0.16390876749080877,5.715619725819134,1.913669248320965
2.5085003695987678,26.68555693458945,-27.41592222449732,-0.2192554498191967,5.7249289873209,2.549109467096203
3.139507177311393,26.654362269961137,-27.399407986754962,-0.27446641529505716,5.736892834414911,3.1832910479055667
3.763970618331539,26.616595553250956,-27.379395280532933,-0.3290728664595066,5.751331681558404,3.8109378425838223
4.25526025329148,26.582054676534664,-27.361079422509288,-0.3720125966239019,5.764552477339716,4.304764507661201
4.347321374770377,26.541531852443057,-27.29174191461206,-0.38003490507223137,5.735134634154159,4.397090684148475
4.330312868337357,26.316433227980927,-26.849841841623157,-0.3784080995595219,5.5184506482751665,4.378558428847771
4.307906170615946,26.01630248967368,-26.26090166476747,-0.3762730649434881,5.229795230450673,4.35414208531845
4.2855487242148,25.712678888852242,-25.665400042623588,-0.3741520560530273,4.938070073241421,4.329776595318105
4.263481321549938,25.408833588309868,-25.069749736654636,-0.3720678890115928,4.646415148059739,4.3057241941532105
4.2418574098368085,25.106994015373182,-24.478306818619853,-0.3700347768021198,4.356958096021054,4.282152034033914
4.220279855374233,24.801662756087133,-23.880293654886938,-0.3680152567809059,4.064421410832891,4.258627055063251
4.199130879119303,24.4982931529788,-23.286385667833976,-0.3660449840943246,3.774024625587191,4.2355658331288115
4.178222812636583,24.194295178415487,-22.691503602602918,-0.3641062318546615,3.4832798048156226,4.212763642483824
4.157632057817509,23.890852401924533,-22.097956901398575,-0.36220590875739844,3.1933123414547944,4.190303698818598
4.137051402168254,23.583441516208765,-21.49689549027415,-0.3603156405968462,2.8997975218963488,4.167850730518752
4.1167496987750445,23.276072664373384,-20.896158551190446,-0.35846012258326154,2.6065626273364373,4.145697869400504
4.098859131963803,23.00173795555832,-20.360184827467812,-0.3568326500413211,2.3450404323055225,4.1261723039257685
4.091064431148691,22.88117871951999,-20.124704062124096,-0.3561258673913946,2.230169637692779,4.11766411954642
4.070291456757381,22.827248518818845,-20.017705803131957,-0.3543059513822457,2.1772315319515156,4.096571214184113
3.7090936899518003,22.851532167673817,-20.03174295689435,-0.32287324638004067,2.1691233833754278,3.735495231173375
3.1098202280629224,22.88682068005766,-20.05212788457112,-0.2706957791141007,2.1573307164168734,3.136455146760271
2.4968963693908908,22.916472823235097,-20.06924449472176,-0.21730042591315013,2.1474128533216783,2.5238046019562184
1.8831354619012934,22.93965399776917,-20.082617963094886,-0.16380818449767262,2.1396545292708513,1.9103456180470766
1.2702405926953222,22.956308797409836,-20.092219068807893,-0.11037294485037974,2.134048065102248,1.297775284762808
0.6563044239690848,22.966500385026396,-20.098094716552747,-0.056835336449773406,2.1306374684023366,0.6841768727268357
0.04436467916297813,22.970195689405784,-20.100225282929795,-0.003465438612968192,2.1294049481042574,0.07258122876400674
-0.5708366179274889,22.967407859913216,-20.098619289139773,0.05018945969724227,2.130346895067274,-0.5422736031895314
-1.1814672010221021,22.958188692208314,-20.0933027329498,0.10343965057961202,2.1334142136735723,-1.1525656940242148
-1.7969072901314522,22.94239463819608,-20.084196825092313,0.1570985556061965,2.138715433426102,-1.7676789528444827
-2.409564827994117,22.92017744126905,-20.071381910923805,0.21049784302610253,2.1461653358411517,-2.380031386033519
-3.0218764954063566,22.89148764450704,-20.054823871584087,0.26384419436461504,2.155776054381717,-2.9920651967233463
-3.635376489433684,22.856222747278085,-20.03445307462291,0.3172634123977437,2.1675448810267595,-3.6053206609886175
-4.250276383571546,22.814317698975593,-20.01022916689024,0.3707715372195618,2.1815487249600642,-4.220016714475901
-4.862973682723518,22.766007343886873,-19.982274083906358,0.42404764950198354,2.1976693645127803,-4.83255867700857
-5.476808057412989,22.711021540512785,-19.950419133154824,0.4773764310325992,2.2159870424090893,-5.4462920849833685
-5.952647962655416,22.663843847538963,-19.923056204806656,0.5186809918302498,2.2316778959050754,-5.9220957017155085
-6.036694639924927,22.65148103531515,-19.98418995147369,0.5259984240136262,2.304407537394016,-6.006781307184911
-6.031092244048684,22.62688607314398,-20.397828312826327,0.5256892010860293,2.742673777163086,-6.005203088558726
-6.024210475863339,22.59057506195967,-20.903511875983735,0.5253530706837786,3.2847086396021323,-6.003292183879042
-6.017308958422634,22.547268116765434,-21.40792506434592,0.525065386788544,3.832469009352238,-6.001408123283458
-6.010535313866664,22.497907942720015,-21.90029039800484,0.5248322473502832,4.374233837194763,-5.9995921872376305
-6.003770458135945,22.44168698296212,-22.389292142571477,0.5246492187904284,4.919495634476608,-5.997813215854827
-5.997017408088098,22.37851335341653,-22.87466988692744,0.5245173584184143,5.468085849835573,-5.996073651815792
-5.990295045462933,22.308479273729947,-23.3550361919513,0.5244378163272381,6.01852470976991,-5.994379868312835
-5.983648934621086,22.232078589265008,-23.82714464823423,0.524411201948103,6.567071695317228,-5.992744314389893
-5.9771579341981935,22.15044300533585,-24.285482984960225,0.524436433117439,7.1070823836209795,-5.991186205678529
-5.9735937087016655,22.102613934314313,-24.535980533918934,0.5244723019157519,7.405429108485664,-5.990347821118232
-5.9725568047428395,22.088295211634232,-24.60869673552302,0.5244857103720129,7.492469870203854,-5.990106264562531
-6.257094034773041,22.055880068611287,-24.59202646793138,0.5493739962881319,7.5055550877468304,-6.276954871413287
-6.832224846115337,21.986598096659463,-24.551256152676242,0.5996383071255427,7.528314074084252,-6.85675548102573
-7.431803081045945,21.907762666452008,-24.504788687585357,0.6519843715723583,7.554148198886177,-7.461271786255185
-8.034150092364428,21.821736458884235,-24.45399138432847,0.7045109358001655,7.582262068553203,-8.068657379066321
-8.63783619652925,21.72861288441548,-24.398892423153967,0.7570848795506404,7.6125742632649755,-8.67747907397441
-9.237092577583441,21.629300027393935,-24.340011387418095,0.8092049062984915,7.644830802811313,-9.281921052988524
-9.841160912504336,21.52221238009082,-24.27637797707379,0.8616672513385285,7.679492912400738,-9.891312616478897
-10.442008016528066,21.408696815297404,-24.20875987757092,0.9137653929265783,7.716068933004048,-10.49755802311246
-11.042609383455929,21.28820729218713,-24.13680836879569,0.9657603303600499,7.754771822577265,-11.103660189912432
-11.655809332046193,21.157890280136787,-24.058776414246207,1.0187529763362437,7.796453631002742,-11.722592315897698
-12.246689964934191,21.025283185436155,-23.97914693670112,1.0697232116296194,7.838677872498562,-12.319112792906484
-12.84488035818011,20.883941140853356,-23.89401743526279,1.1212209285675319,7.883440991706926,-12.923136864681311
-13.260648789224176,20.78146870311973,-23.832138626716574,1.1569565249656626,7.915779746384754,-13.343033062004974
-13.517551692402645,20.716403612607667,-23.792777561412095,1.1790118323566146,7.936253517937102,-13.602518065644237
-13.818856535757543,20.638301056303877,-23.744891650347405,1.2048519295475377,7.9602101081813235,-13.906871340576405
-13.809036499152,20.608452361325828,-23.50921021641924,1.2034161247027715,7.754628789825107,-13.892608080577663
-13.787149128115791,20.538219809035887,-22.980638256191266,1.2002776321386164,7.296848536641004,-13.860863542347692
-13.76435552908106,20.45967073363734,-22.425344124625948,1.197098614524147,6.820684020763065,-13.827869687064089
-13.741582202873547,20.375708491138973,-21.86556798469808,1.1940122182233304,6.345448384612709,-13.79496821652982
-13.718969608703107,20.286942432497796,-21.304772514022453,1.1910351725463908,5.873991445264529,-13.762358121566322
-13.696608696139574,20.193899574342907,-20.74529820265961,1.188175953073269,5.408124454396517,-13.730165897459138
-13.67438348345866,20.096253702491765,-20.184318652375755,1.1854165352240114,4.945350230971754,-13.698220204041512
-13.652195032554138,19.993648643801833,-19.619340593368015,1.182742754379255,4.483534219330955,-13.666375354698024
-13.630137924996836,19.88659464067637,-19.0527723591809,1.1801642754759887,4.024572184664699,-13.634763748558559
-13.608647815797141,19.777457333627456,-18.495982496195616,1.1777275670155392,3.5774562258231444,-13.604005006580296
-13.595847166334666,19.710185651647535,-18.16206118906814,1.176311283009548,3.311125579055245,-13.585701299272005
-13.591378422058407,19.686303302186555,-18.04508666497307,1.1758230057259793,3.2181446482613443,-13.579314430299759
-13.642289483116699,19.90426060774704,-18.188625187749786,1.1800568528980369,3.1426958986068114,-13.628739705999546
-13.772223598077025,20.454922462305706,-18.560172885365215,1.1908763475405244,2.9609344138368954,-13.755056416451794
-13.902306144757572,20.99750935124699,-18.922176181903325,1.2017092427747522,2.7776771731080063,-13.881422228835397
-13.959842742247538,21.23477666422307,-19.079202848906682,1.2065012205133192,2.696246519257809,-13.937285091867773
-13.959556661325127,21.24348072843274,-19.256521743637574,1.2066490774668837,2.864830032123003,-13.940553115385708
-13.945185592685327,21.20884276087758,-19.72631653495849,1.20600905724314,3.3694534134775154,-13.936804254807546
-13.929807337019335,21.165264170778357,-20.22633313293773,1.2054324949340307,3.913251774460454,-13.93286140795015
-13.91460349655074,21.11542709260577,-20.717882651365674,1.2049749307990025,4.454838379942056,-13.929036930879386
-13.899387297606102,21.058688346831627,-21.206997028162903,1.2046315022865826,5.00089077921586,-13.925286621261261
-13.884171518121969,20.99494623350036,-21.693209263785526,1.2044053190805748,5.551043464384463,-13.921617787134164
-13.86909312576806,20.924727163440632,-22.17212765406051,1.2042996228537552,6.100376507282483,-13.918066486232428
-13.854056467425258,20.84756709263247,-22.646786370489636,1.2043145557533368,6.652389340022986,-13.91461291252416
-13.83916372410142,20.76397794121128,-23.1139575959008,1.2044508100961557,7.203340883415548,-13.911283183779
-13.826559375249223,20.68755200465498,-23.50701170948451,1.2046628991269825,7.672981899820174,-13.908538929253963
-13.822296504589136,20.660508816114064,-23.639454455557786,1.2047550791410122,7.832522097902878,-13.907626636580131
-13.819433364456732,20.64200303442746,-23.728268614317567,1.2048228640739513,7.939878433242395,-13.907018484976595
-13.845047778288144,20.751928011879222,-23.820978093080754,1.2069599151767993,7.922128702751965,-13.93247168515709
-13.960290811752955,21.247979255228298,-24.148618091155438,1.216306826252216,7.751322613074705,-14.045024110568278
-14.105276098547272,21.86301889221682,-24.550182663092546,1.228059064813129,7.53480866009603,-14.186509597546095
-14.252658063925564,22.47814881643494,-24.946666597779085,1.239998855132378,7.313043908244486,-14.330205914131078
-14.40126199164053,23.088346960007687,-25.3349225678983,1.2520320699978915,7.087926881951275,-14.474966292501367
-14.553186567714803,23.702025555352876,-25.720351478095317,1.2643296898124792,6.8564000469457875,-14.62283265478713
-14.709834383521768,24.32430022308657,-26.106047939727883,1.2770062203499464,6.616409644431096,-14.775163320658221
-14.868042307736042,24.94223967389196,-26.483975573199917,1.2898068143086168,6.372917504064731,-14.928877908045667
-15.029419781313713,25.561927719228756,-26.85791873108118,1.302862926183311,6.123587250052999,-15.085537838242319
-15.193348154088069,26.180694523962686,-27.226287917428436,1.3161257780742568,5.869511105635445,-15.24453912349549
-15.360516100370418,26.80084753848221,-27.590483551237817,1.3296524264362959,5.609764673142225,-15.406546394105284
-15.53232132187373,27.427084747922105,-27.95320654040353,1.3435574222925903,5.342316524353004,-15.572908463857573
-15.706921910205827,28.052258126065535,-28.310288976412565,1.3576932205706551,5.070186386276568,-15.741836765361022
-15.87510983118107,28.644014260669977,-28.64368961654516,1.3713153749609441,4.807900755009944,-15.904430536367844
-15.961739403343138,28.94489325252823,-28.811502915299346,1.3783342943990606,4.672795709251575,-15.98813002079508
-15.97803359977478,29.000521465381297,-28.800703139702534,1.3795739923228083,4.6059950264180785,-16.002869530624764
-15.913957738018041,28.773190010320075,-28.366721235130342,1.3737977363319644,4.400943220674973,-15.933634635219363
-15.82770291883681,28.463536393200705,-27.775662760029036,1.3660466200105346,4.121680240610904,-15.84042334418584
-15.742927438467113,28.155044689220176,-27.18690741485665,1.3584564764315603,3.843510436096535,-15.748796838960946
-15.65911391504849,27.84591680981524,-26.597018262713437,1.350980476805791,3.564808223571279,-15.65819567221272
-15.576799266766315,27.538222731849352,-26.009940251760927,1.3436659733293543,3.2874358693362367,-15.569200028549654
-15.495302296598986,27.22949630497472,-25.42096338024241,1.3364519605758776,3.009166618476634,-15.481073186932013
-15.414443459268035,26.919074475475078,-24.828819403562264,1.329322502806513,2.729399925590614,-15.393620534339792
-15.334215344337215,26.60693229920925,-24.233457812766733,1.3222770003726159,2.4481106484450508,-15.306833540311317
-15.255190123879835,26.29534391988489,-23.639212735465776,1.3153654526431393,2.167345351443273,-15.22133081799324
-15.17693851760947,25.98267764049184,-23.042968845225666,1.308549980701615,1.8856310489841603,-15.136647623946681
-15.099869306251824,25.67062778618269,-22.447953929770456,1.3018658550142292,1.6044918299318078,-15.053226073264725
-15.033315748715413,25.397802773372902,-21.927774013894705,1.2961169577956622,1.3587062114541093,-14.98117187342904
-15.004459412297777,25.278528828150286,-21.700372736119004,1.2936311663327358,1.2512571506380692,-14.949926063732555
-14.963469154627568,25.224409852099413,-21.60457175357621,1.2901586868069193,1.2105080502913903,-14.90807774739214
-14.568780305414966,25.14259031759938,-21.549673857227617,1.2568973634571712,1.2461787911376967,-14.514776564116287
-13.96267198966673,25.011474471870233,-21.462132274881323,1.2057044338006644,1.302743691845272,-13.910773054211695
-13.349855182775084,24.87211907714531,-21.369571278504253,1.1538085272564615,1.362123285244694,-13.300045581684984
-12.738528981645352,24.726235626341364,-21.273099443264243,1.1019078963203217,1.4235377947966787,-12.690757379313796
-12.12441734785782,24.57270937680816,-21.171941199934935,1.0496451291697468,1.4873781994845048,-12.078633689752357
-11.511782354124188,24.412515630140103,-21.06670709340063,0.9973879647887348,1.553254993496314,-11.46792589727551
-10.896638993788617,24.244513454221508,-20.956603640171327,0.9448019132972278,1.6215549124537458,-10.854648555354775
-10.286185401784568,24.07062375946673,-20.84284456328123,0.8925085672577306,1.69145073898297,-10.245970990565953
-9.670230497582942,23.887840282572707,-20.723413429096954,0.8396421515116255,1.7640639559288516,-9.631718170746034
-9.061361056938647,23.699842126839915,-20.60067039543045,0.7872858922283285,1.8379451956400135,-9.024447281331213
-8.461077436156312,23.507278840779804,-20.474982819712366,0.7355793161464975,1.9127821637124978,-8.425645166140606
-7.863236569380447,23.308284591004533,-20.345079867552638,0.684000983779522,1.9892653145845955,-7.829179815779652
-7.2700997807532195,23.103641176850676,-20.21141540814477,0.6327557596859479,2.0670181332878688,-7.2372958120515625
-6.674927276055824,22.890979532304527,-20.07239194181864,0.5812608962043733,2.1469509062488172,-6.643275653017863
-6.16856264276812,22.704198666870244,-19.950147689075443,0.5373976729980235,2.216422703054972,-6.1377986475131125
-6.037099974669997,22.65309941779227,-19.953997925333233,0.5260161283459566,2.272588671271141,-6.006900166795971
-6.032044685703907,22.631390458616693,-20.327441897381963,0.5257336315797979,2.6677713151625273,-6.005473938075273
-6.0251618740579875,22.596012921864684,-20.8335843002543,0.5253907175532095,3.2093315708480445,-6.0035584662800305
-6.018289318068889,22.553860382490807,-21.336275409098203,0.5250972602070295,3.754215309642454,-6.001677727402057
-6.0114698378497,22.50514260199251,-21.832367782503372,0.5248555243122425,4.299065073635178,-5.999844751209979
-6.00469847386137,22.449830869520856,-22.322229495955227,0.5246653786108442,4.844277674226963,-5.998059233090322
-5.997893132743861,22.387125376423953,-22.811752437828194,0.5245255784430917,5.3965452758932475,-5.996301249894747
-5.991207641164265,22.318428192331364,-23.289868465100387,0.5244395608059885,5.943396776354186,-5.9946116855064195
-5.984522446877093,22.242549882907046,-23.765144869170456,0.5244057103074355,6.49458958313945,-5.992961196783355
-5.977954942957202,22.16086288442266,-24.229252687885307,0.5244245693968308,7.040421626113258,-5.991379608235686
-5.973934165875584,22.107293341358982,-24.51199489458393,0.5244621919557184,7.37675606660226,-5.990431628038197
-5.972724417747952,22.090639664253036,-24.596854596308976,0.5244774520760856,7.478276257293208,-5.990149510331102
-5.983590574752258,22.19916594633148,-24.682477176619578,0.5253998180545781,7.45527414617069,-6.000886282809222
-6.03367740344317,22.698956298204262,-25.00214564783128,0.5295626978572444,7.274699594290432,-6.0496726191110115
-6.09708935339586,23.322553806209783,-25.396274079044552,0.5348335923069577,7.044652353742383,-6.111386708056758
-6.161905105369433,23.949626879898165,-25.787335912502595,0.5402223469257458,6.808044305071136,-6.174409032664322
-6.227465287325846,24.573543299024514,-26.171223245206953,0.5456748139551121,6.56740554690575,-6.23809704134228
-6.294310379709834,25.199228414248243,-26.55101613504937,0.5512366454696319,6.320885481562446,-6.302974565140136
-6.362435159322568,25.826296363664873,-26.92647381352348,0.5569081720350904,6.068628892980392,-6.3690346671964155
-6.432419668751607,26.459622883536806,-27.30045361904576,0.5627385416469545,5.808611430610213,-6.43683724917902
-6.503384109416687,27.090862520792808,-27.668009760002388,0.5686553384053362,5.544240774533268,-6.505527843049738
-6.57557649368056,27.721991932320964,-28.030353939627084,0.5746800968490666,5.274749242278412,-6.575345294435669
-6.649401046213849,28.356173896592164,-28.389299810861736,0.580847518207912,4.9987833211956,-6.646678532675534
-6.7250258963151905,28.9943608215861,-28.745334616492517,0.587172740637176,4.715875653576926,-6.719687357610424
-6.802514021381232,29.6365506546737,-29.09839453179236,0.5936622185578512,4.425963258678225,-6.794429698820351
-6.88035019974599,30.269989626224426,-29.441559794098357,0.6001900409508859,4.1348950897044645,-6.869443051517001
-6.939215574741028,30.74148187636307,-29.693733444689205,0.6051333354989603,3.914970028351046,-6.9261316309357
-7.0369688690615755,30.801415492113275,-29.726133846814392,0.6135893510426742,3.8864006532417736,-7.023796114121675
-7.523211133306389,30.741869603212837,-29.697583785526202,0.6557467299436975,3.912018465422658,-7.511396617925984
-8.16969817391517,30.65638578933808,-29.656524390323575,0.7117309439664895,3.9487381857889448,-8.159788769797471
-8.820049926997687,30.56307607013304,-29.61160770411938,0.7679674341979076,3.9887427202516177,-8.812180174227947
-9.467450457215966,30.4628495827804,-29.563243862122818,0.8238581904408365,4.031592199063955,-9.461742874675839
-10.114886421736552,30.35524599716681,-29.51119152822972,0.87965927919394,4.07752583732032,-10.111483020220255
-10.764137354621274,30.239875505488154,-29.45522990122097,0.9355155966825169,4.126656101319035,-10.763196147528067
-11.412819685312613,30.11707543984695,-29.39548821301831,0.9912125869027454,4.178783639611228,-11.414499655108816
-12.06035610387067,29.986924119574397,-29.33197840009051,1.0467006001648567,4.233911856848607,-12.064822288220757
-12.708905949135527,29.848914960808973,-29.264414563886305,1.1021559182079756,4.292196030845673,-12.716342117885224
-13.357896774546285,29.70306540958841,-29.192763190822614,1.1575193088215057,4.353566847634555,-13.368494647259828
-13.993810331195203,29.552567657043316,-29.118566127808464,1.2116426756914154,4.416716524088008,-14.007697639879137
-14.409823718120316,29.450008287846355,-29.06784853504884,1.246978875832588,4.459628901226907,-14.425970043137754
-14.698221541881871,29.37699067517998,-29.03166344295551,1.271441379679107,4.490120115422393,-14.715985099578242
-15.29020798542562,29.22214566812781,-28.954716628259995,1.3215651565186375,4.554614501908228,-15.31142626851135
-15.830986463847326,29.07480832465798,-28.881231145967842,1.36723967320339,4.615739610644082,-15.855525315163934
-15.983063883609653,29.018250608307337,-28.834547196869647,1.380044250730453,4.62196766778787,-16.008290572872294
-15.926817331982864,28.818975478463805,-28.454119663291454,1.3749719210244464,4.442219374117934,-15.947516203152103
-15.841521789369994,28.513408692480674,-27.87084884352106,1.367302694034308,4.166635198328843,-15.855343593811591
-15.756342963600597,28.204119413905094,-27.28055835351925,1.3596719307660567,3.8877396198905547,-15.763283360193764
-15.672595481672744,27.8959011219238,-26.692392743054025,1.3521973318437641,3.6098515209517634,-15.672755868126865
-15.589884705226131,27.587390745342073,-26.10374578626341,1.3448431376748906,3.33173793777135,-15.58333430875376
-15.50809703133389,27.278217795197335,-25.51390640998184,1.3375989560931845,3.0530614467186683,-15.494895525846088
-15.427374387271879,26.968975836826928,-24.92400301503242,1.3304770428435813,2.774353812885356,-15.407592676546022
-15.346905777926871,26.65656508770379,-24.32811951146841,1.3234058751949456,2.492818611163508,-15.320548154233204
-15.267604171023,26.344546065538818,-23.733044144558082,1.3164656508724784,2.2116618560701924,-15.234749069517271
-15.189435611351106,26.032871277360837,-23.13868250943718,1.309652890720358,1.9308378789695912,-15.150158512586872
-15.112224010185962,25.720910152849076,-22.543828710896726,1.3029518416081562,1.6497759368989786,-15.066585708460284
-15.044205635019564,25.442640079141718,-22.01326059235681,1.2970725547052824,1.3990829659070168,-14.992948103285888
-15.014066058427947,25.31828393131077,-21.776167424590323,1.2944746882336342,1.28705486972224,-14.960313791413018
-14.996732483647001,25.246469406409346,-21.63925172053642,1.2929826867074474,1.2223607603104738,-14.941544098974665
-15.021858030204298,25.079543086100365,-21.51800806236233,1.2951209284607026,1.2674657161874288,-14.967651497400489
-15.122693011718432,24.549623481402122,-21.197391149561074,1.3037237509481496,1.4744330792077245,-15.073052098897138
-15.236028220486157,23.943760663984513,-20.82623840734372,1.313410108348717,1.706498969029013,-15.191581122213972
-15.34734789605036,23.33783799839614,-20.450130057832503,1.322941915021501,1.9336962235837099,-15.308062360110117
-15.456993683989406,22.730249071598433,-20.06802414480815,1.3323475976006462,2.1565822965361865,-15.422845996101625
-15.56473280041797,22.12252778101857,-19.680838959413407,1.3416063173234674,2.374548077969888,-15.53568121762651
-15.670304411078169,21.516472762810757,-19.28971598727447,1.3506946099157797,2.586943736249745,-15.646287534214252
-15.762791890317501,20.9767199909583,-18.93715950693789,1.3586692655309383,2.7719035774813325,-15.743215311542832
-15.799450351060335,20.760460496513936,-18.794782578390876,1.3618333589007046,2.8448959854148193,-15.781640556678257
-15.792124158397522,20.74526615771014,-19.009962558803426,1.361500725842503,3.075379259863476,-15.779791459855941
-15.775621809588008,20.707289165042056,-19.490659472205856,1.3608311946420033,3.5942986949960063,-15.775611228899256
-15.758426257738552,20.661112570406313,-19.98876316040777,1.360257979322993,4.138833777852431,-15.771334441160747
-15.741354179280824,20.608466091034632,-20.480428798076055,1.3598172573323983,4.683397764271624,-15.767172490944755
-15.724263371296342,20.548835358032026,-20.969726416135824,1.359507108374192,5.232577112046869,-15.763094449064912
-15.707355774935547,20.48288703033028,-21.45086432047689,1.3593323248685698,5.779910468604147,-15.75915177352826
-15.690459268442996,20.40992890039021,-21.928736633390162,1.3592920309865097,6.33098664829757,-15.755307415169774
-15.673762265786632,20.330766115777713,-22.398014934547184,1.3593874351995199,6.879669314061167,-15.751607153999094
-15.657095717309732,20.244602260167362,-22.863455597003963,1.359620104801778,7.431513674410943,-15.748016275225869
-15.64416998816451,20.17277136451573,-23.222339988649065,1.359897360264919,7.862414044523086,-15.745305107144429
-15.640158912952359,20.14957982513777,-23.33333229806607,1.3600008956183656,7.996655158547979,-15.744477296191429
-15.637130177876964,20.131783289973264,-23.41702313133707,1.3600846182363866,8.09818571367567,-15.743856536151496
-15.673464562616324,20.269643159339374,-23.529482918254182,1.3630767150112606,8.071931187295897,-15.779876236597316
-15.808463299540621,20.782306968118206,-23.871650957295056,1.3739337387315864,7.898266137067841,-15.911838491397928
-15.971226804828017,21.39133320003183,-24.27345216325228,1.387012735957715,7.687186904309824,-16.070811521444615
-16.135776280469262,21.997193011610154,-24.66814659214237,1.4002243965917707,7.472088263653592,-16.231388486945274
-16.30571192920888,22.612746747022378,-25.064059835083736,1.4138585024095678,7.24834700761699,-16.397077174730853
-16.4772617074661,23.223958929515423,-25.45212793411384,1.4276132369635257,7.021023306126538,-16.5641946939361
-16.65293273269951,23.839512553009286,-25.837894951063028,1.441690630844562,6.786915173218503,-16.735180070825756
-16.830008771758692,24.449661673139186,-26.215296049243083,1.455874087788547,6.549768607066723,-16.907386560450455
-17.011683306847775,25.065149426469308,-26.59100811908414,1.4704205148809244,6.305435905333888,-17.083916462766794
-17.196908348048655,25.681985760438383,-26.962545471000382,1.4852470910133484,6.05544476177437,-17.263745631193558
-17.386571292635114,26.30270899918895,-27.33140501529507,1.5004260457096583,5.798728321057708,-17.447730172293657
-17.578785445427897,26.92082251852131,-27.69374284826697,1.515807675577633,5.537984950710056,-17.634035841903003
-17.77544177129696,27.54209404284118,-28.052965776435354,1.5315446634433167,5.270802185291522,-17.824491636252894
-17.963854394004194,28.12703064633319,-28.38665828402069,1.5466231313538141,5.014590169556731,-18.006820363493304
-18.057911977226517,28.40759431223205,-28.54520673403428,1.554159206317934,4.8900757403476565,-18.097882872320756
-18.316691543839465,28.323620406887876,-28.502535897007967,1.5757545224463902,4.924300568746882,-18.358647930904294
-18.893597901342396,28.13147745382341,-28.404579030564804,1.623796646246109,5.002354010102852,-18.94013298608073
-19.51293966433858,27.91753732945419,-28.294984149233603,1.6752136973820893,5.08883884953756,-19.564629665781094
-20.133031437890192,27.69527746279101,-28.180539518791257,1.7265235945937591,5.178212313208829,-20.190137760182772
-20.755162535101785,27.464061004958904,-28.060842645325348,1.7778243525156028,5.2706389824262,-20.81797162922878
-21.371133497747632,27.226901470914243,-27.937395930112572,1.8284424997391633,5.364925195188788,-21.439850073378476
-21.901786972790816,27.015924008887502,-27.827000325836572,1.8719048197292896,5.4483322319010465,-21.975810196073503
-22.138368334342516,26.91985208220263,-27.77654951331004,1.8912376725348652,5.486165673342515,-22.214823372019552
-22.61408845875067,26.722873714687914,-27.672755401302496,1.9300289870165503,5.563447101429342,-22.695558336075734
-23.216336934590167,26.46614565897601,-27.53675896430079,1.9789716847645462,5.663551708095764,-23.304404118704362
-23.815625400475525,26.202401983338586,-27.396204747082738,2.0274935108964294,5.765730983318554,-23.910525864302738
-24.37056103492487,25.950694329928023,-27.26126419783385,2.0722575304350226,5.862587273803236,-24.472037294691876
-24.587565498957055,25.846339077228354,-27.198243351035345,2.0896990334050716,5.89602025058626,-24.69149464699312
-24.532323233849407,25.7275066852247,-26.88393522925268,2.0845784614680003,5.702685220044585,-24.628862653441484
-24.4344097977255,25.513612502496912,-26.322042470521907,2.075559285633908,5.358468597414534,-24.5178806485609
-24.334745679675574,25.291559674161167,-25.743698110967397,2.0664534308141036,5.006010522141939,-24.404950555050416
-24.235923752575022,25.067017963282037,-25.163739466278393,2.057498994795194,4.65437863528462,-24.293008315388356
-24.137893649173225,24.83993120825729,-24.581908141590453,2.0486898103584044,4.30337306794853,-24.181993508076637
-24.040781665901584,24.610654457893265,-23.998999361776782,2.0400356024453288,3.953429626753135,-24.07204586736836
-23.944540291252352,24.37914259853059,-23.414782611841968,2.0315304844469875,3.604365175790014,-23.963108387735595
-23.849317140169983,24.145823887906367,-22.830220188746566,2.0231857955703134,3.2567086485787575,-23.85534502218365
-23.755261036685123,23.911155753404582,-22.24632444490026,2.015012595906811,2.911009903940658,-23.748921085017457
-23.66189174080159,23.67400918572581,-21.660178639011992,2.0069676052394256,2.5654996824024443,-23.643290297750312
-23.571785360427548,23.441137991899822,-21.08824335580386,1.9992689833343615,2.2297894136624206,-23.541363853827374
-23.523682873878574,23.31519007237805,-20.780356452834777,1.9951855563608456,2.049635512496844,-23.486955780419226
-23.498274941607416,23.248201544753865,-20.61700017227293,1.9930361355744957,1.954209153013226,-23.458218309861525
-23.49065039675755,23.225832123702904,-20.53568734819433,1.992357307275898,1.8955661954061251,-23.44855165113835
-23.643840182235266,23.577140049601834,-20.758244062346932,2.0044596459522053,1.7615590746856795,-23.59705857788187
-23.900142647021752,24.156139007770406,-21.121442461582177,2.024696530855575,1.5368963548708647,-23.845387468264676
-24.166185589551322,24.745795851479752,-21.48673707335714,2.0456879737325053,1.3032446414643348,-24.102975338775547
-24.437527974636566,25.335619587810857,-21.847525738234392,2.067083243860955,1.0646402564394037,-24.365513127201154
-24.692129270208277,25.878706549226777,-22.175670029244646,2.0871460991199204,0.8406318001987528,-24.611692183542797
-24.810734531972624,26.128355714635234,-22.325213575319935,2.096488410213151,0.7362742353665568,-24.72632220761792
-24.866477355690357,26.244964192295157,-22.39478444410812,2.1008783336575734,0.6872319903392438,-24.780185578028686
-24.866477355690357,26.244964192295157,-22.39478444410812,2.1008783336575734,0.6872319903392438,-24.780185578028686
-24.866477355690357,26.244964192295157,-22.39478444410812,2.1008783336575734,0.6872319903392438,-24.780185578028686
-24.866477355690357,26.244964192295157,-22.39478444410812,2.1008783336575734,0.6872319903392438,-24.780185578028686
-24.866477355690357,26.244964192295157,-22.39478444410812,2.1008783336575734,0.6872319903392438,-24.780185578028686
-24.866477355690357,26.244964192295157,-22.39478444410812,2.1008783336575734,0.6872319903392438,-24.780185578028686
-24.86642366194524,26.244907527000816,-22.39473609434465,2.1008737883188013,0.6872305068533008,-24.780132064584173
-24.20520182235933,25.547091979202147,-21.799323733529867,2.0448993492558705,0.6689618369742591,-24.12113057112064
-23.545881090310626,24.851282751095408,-21.20562326857079,1.9890858447259854,0.6507456921388902,-23.464023801381042
-22.43643419195325,23.68043622307446,-20.20659638016176,1.8951677916795933,0.6200931668878934,-22.3583023639375
-20.819729480201353,21.97425893654328,-18.750797567213574,1.7583088224910046,0.575425790672094,-20.747026456594135
-19.197474035941763,20.262223725766933,-17.290000469954744,1.6209799669195024,0.530605055184566,-19.130218455793788
-17.567541604567378,18.542086663768753,-15.822290453690046,1.4830012310480496,0.4855722148709881,-17.50575924677394
-15.935698947059073,16.81993365883546,-14.352860330520233,1.344860788726616,0.44048659757917735,-15.879396226053187
-14.310997875723412,15.10531747372399,-12.889861012306408,1.2073249033875764,0.3955982927056655,-14.260150810456329
-12.67622540735218,13.380072514699243,-11.417792673793121,1.0689364436689623,0.35043172868121747,-12.630867817014396
-11.054519726312765,11.668617492446145,-9.957490623426597,0.9316541272255173,0.30562618241186074,-11.014607733359943
-9.42295127290707,9.946753866771996,-8.488307413625803,0.7935368971150443,0.2605481410105154,-9.388517995979681
-7.791545888452032,8.225062334701407,-7.019271042999201,0.6554334712870297,0.21547460498489823,-7.762590779973619
-6.166937817886271,6.510544297260367,-5.556355469460232,0.5179054587459168,0.1705888695975438,-6.143438052855252
-4.538225681366004,4.7916950643554275,-4.089744295666374,0.38003002454398155,0.12558974438910958,-4.5201950410073515
-2.917105771300673,3.0808582311406996,-2.629969716199471,0.24279729539443812,0.08080038218372282,-2.9045187613406616
-1.5164179399092899,1.6026527517672104,-1.3686882543294725,0.12422481189403622,0.04210126176249631,-1.5085343617007685
-0.8586322563974863,0.9084635257105367,-0.7763700590091197,0.06854125388987559,0.023927528253085095,-0.8529574858905573
-0.1987379329332562,0.21204896217191502,-0.18215309051308162,0.01267919310275076,0.005695535858563895,-0.19527905082347666
0.00019668164709201122,0.0021047970843868662,-0.0030178571861807805,-0.004161226851176948,0.0001992400865447097,0.0029875523972255876
0.00019668164709201122,0.0021047970843868662,-0.0030178571861807805,-0.004161226851176948,0.0001992400865447097,0.0029875523972255876
0.00019668164709201122,0.0021047970843868662,-0.0030178571861807805,-0.004161226851176948,0.0001992400865447097,0.0029875523972255876
0.00019668164709201122,0.0021047970843868662,-0.0030178571861807805,-0.004161226851176948,0.0001992400865447097,0.0029875523972255876
0.00019668164709201122,0.0021047970843868662,-0.0030178571861807805,-0.004161226851176948,0.0001992400865447097,0.0029875523972255876
0.00019668164709201122,0.0021047970843868662,-0.0030178571861807805,-0.004161226851176948,0.0001992400865447097,0.0029875523972255876
0.00019668164709201122,0.0021047970843868662,-0.0030178571861807805,-0.004161226851176948,0.0001992400865447097,0.0029875523972255876
0.00019668164709201122,0.0021047970843868662,-0.0030178571861807805,-0.004161226851176948,0.0001992400865447097,0.0029875523972255876
0.00019668164709201122,0.0021047970843868662,-0.0030178571861807805,-0.004161226851176948,0.0001992400865447097,0.0029875523972255876
0.00019668164709201122,0.0021047970843868662,-0.0030178571861807805,-0.004161226851176948,0.0001992400865447097,0.0029875523972255876
0.00019668164709201122,0.0021047970843868662,-0.0030178571861807805,-0.004161226851176948,0.0001992400865447097,0.0029875523972255876
0.00019668164709201122,0.0021047970843868662,-0.0030178571861807805,-0.004161226851176948,0.0001992400865447097,0.0029875523972255876
0.00019668164709201122,0.0021047970843868662,-0.0030178571861807805,-0.004161226851176948,0.0001992400865447097,0.0029875523972255876
