RAMEL-ESPOL/ARCHIE/matlab/data/joint_goals_espol_t5_h20_p21.txt
Joint0,Joint1,Joint2,Joint3,Joint4,Joint5 
-0.003560128785521813,0.002042809427766023,-0.0012615724385247325,-0.004372520730170893,0.005678446867032911,-0.0037977137781825565
-0.003560128785521813,0.002042809427766023,-0.0012615724385247325,-0.004372520730170893,0.005678446867032911,-0.0037977137781825565
-0.003560128785521813,0.002042809427766023,-0.0012615724385247325,-0.004372520730170893,0.005678446867032911,-0.0037977137781825565
-0.003560128785521813,0.002042809427766023,-0.0012615724385247325,-0.004372520730170893,0.005678446867032911,-0.0037977137781825565
-0.003560128785521813,0.002042809427766023,-0.0012615724385247325,-0.004372520730170893,0.005678446867032911,-0.0037977137781825565
-0.003560128785521813,0.002042809427766023,-0.0012615724385247325,-0.004372520730170893,0.005678446867032911,-0.0037977137781825565
-0.003560128785521813,0.002042809427766023,-0.0012615724385247325,-0.004372520730170893,0.005678446867032911,-0.0037977137781825565
-0.003560128785521813,0.002042809427766023,-0.0012615724385247325,-0.004372520730170893,0.005678446867032911,-0.0037977137781825565
-0.003560128785521813,0.002042809427766023,-0.0012615724385247325,-0.004372520730170893,0.005678446867032911,-0.0037977137781825565
-0.003560128785521813,0.002042809427766023,-0.0012615724385247325,-0.004372520730170893,0.005678446867032911,-0.0037977137781825565
-0.003560128785521813,0.002042809427766023,-0.0012615724385247325,-0.004372520730170893,0.005678446867032911,-0.0037977137781825565
-0.003560128785521813,0.002042809427766023,-0.0012615724385247325,-0.004372520730170893,0.005678446867032911,-0.0037977137781825565
-0.003560128785521813,0.002042809427766023,-0.0012615724385247325,-0.004372520730170893,0.005678446867032911,-0.0037977137781825565
-0.003560128785521813,0.002042809427766023,-0.0012615724385247325,-0.004372520730170893,0.005678446867032911,-0.0037977137781825565
-0.003560128785521813,0.002042809427766023,-0.0012615724385247325,-0.004372520730170893,0.005678446867032911,-0.0037977137781825565
-0.003560128785521813,0.002042809427766023,-0.0012615724385247325,-0.004372520730170893,0.005678446867032911,-0.0037977137781825565
-0.003560128785521813,0.002042809427766023,-0.0012615724385247325,-0.004372520730170893,0.005678446867032911,-0.0037977137781825565
-0.003560128785521813,0.002042809427766023,-0.0012615724385247325,-0.004372520730170893,0.005678446867032911,-0.0037977137781825565
-0.003560128785521813,0.002042809427766023,-0.0012615724385247325,-0.004372520730170893,0.005678446867032911,-0.0037977137781825565
-0.003560128785521813,0.002042809427766023,-0.0012615724385247325,-0.004372520730170893,0.005678446867032911,-0.0037977137781825565
-0.003560128785521813,0.002042809427766023,-0.0012615724385247325,-0.004372520730170893,0.005678446867032911,-0.0037977137781825565
-0.003560128785521813,0.002042809427766023,-0.0012615724385247325,-0.004372520730170893,0.005678446867032911,-0.0037977137781825565
-0.003560128785521813,0.002042809427766023,-0.0012615724385247325,-0.004372520730170893,0.005678446867032911,-0.0037977137781825565
-0.003560128785521813,0.002042809427766023,-0.0012615724385247325,-0.004372520730170893,0.005678446867032911,-0.0037977137781825565
-0.003560128785521813,0.002042809427766023,-0.0012615724385247325,-0.004372520730170893,0.005678446867032911,-0.0037977137781825565
-0.003560128785521813,0.002042809427766023,-0.0012615724385247325,-0.004372520730170893,0.005678446867032911,-0.0037977137781825565
-0.003560128785521813,0.002042809427766023,-0.0012615724385247325,-0.004372520730170893,0.005678446867032911,-0.0037977137781825565
-0.003560128785521813,0.002042809427766023,-0.0012615724385247325,-0.004372520730170893,0.005678446867032911,-0.0037977137781825565
-0.003560128785521813,0.002042809427766023,-0.0012615724385247325,-0.004372520730170893,0.005678446867032911,-0.0037977137781825565
-0.003560128785521813,0.002042809427766023,-0.0012615724385247325,-0.004372520730170893,0.005678446867032911,-0.0037977137781825565
-0.003560128785521813,0.002042809427766023,-0.0012615724385247325,-0.004372520730170893,0.005678446867032911,-0.0037977137781825565
-0.003560128785521813,0.002042809427766023,-0.0012615724385247325,-0.004372520730170893,0.005678446867032911,-0.0037977137781825565
-0.003560128785521813,0.002042809427766023,-0.0012615724385247325,-0.004372520730170893,0.005678446867032911,-0.0037977137781825565
-0.003560128785521813,0.002042809427766023,-0.0012615724385247325,-0.004372520730170893,0.005678446867032911,-0.0037977137781825565
-0.003560128785521813,0.002042809427766023,-0.0012615724385247325,-0.004372520730170893,0.005678446867032911,-0.0037977137781825565
-0.003544071118440083,0.0020736378818992395,-0.001297512957200519,-0.004372513717981867,0.005690665531407522,-0.0037816148983896387
0.11071885038977876,0.22066540740341434,-0.25581173026289183,-0.004423364956965647,0.09202875011827273,0.1107737082080554
0.3565059246296478,0.6856653048261444,-0.7950613054735394,-0.005210318815162268,0.2736917019258082,0.3571862108793576
0.6209133096109449,1.1781408280869237,-1.3629618147852411,-0.007072424405295963,0.4631159010860094,0.6222667022185209
0.890435910892089,1.672104836956984,-1.9292610811652235,-0.010031934204433034,0.6500322138340381,0.8924826697435112
1.1648344600902596,2.1669029312320025,-2.4931871241132706,-0.014123055674993008,0.8341627531145054,1.1676012921957533
1.4475988783498996,2.668475900179721,-3.0614359664679216,-0.019453144664577062,1.0176382116288507,1.4511290697781252
1.7350041780143233,3.169882852116734,-3.626080334994344,-0.02600511286403654,1.1978494145284646,1.7393384259669455
2.0308241599961,3.6773808119308975,-4.194109973026545,-0.03391763628740885,1.3769812243267667,2.036021312201301
2.332075257828684,4.185496812047971,-4.759334933748122,-0.04316760796145466,1.5530300705680675,2.3381931854386093
2.6416843458551815,4.698826433089834,-5.326813407687416,-0.053900151093616365,1.7275254711673798,2.6487976047931627
2.957447229903287,5.213350362119303,-5.892042736531319,-0.06609763187695666,1.8990326777201527,2.9656311254785948
3.2816750907856367,5.73247510619894,-6.458713097268358,-0.07990769645960122,2.0686249583886682,3.2910205608053458
3.6131584972639663,6.253866639565199,-7.024214349731695,-0.09534278323179982,2.235467044020009,3.6237601190078497
3.952764242529882,6.778515874481504,-7.58957433711962,-0.11250394347210942,2.3998172238020725,3.96472757278735
4.302446097141225,7.308959396773284,-8.157443246042787,-0.13156636565796315,2.5623753994082814,4.315892968520642
4.659163613542112,7.84015990419958,-8.72237313876091,-0.1524329441281541,2.721529183419921,4.674210760974301
5.026546734621575,8.377083794486412,-9.28959244959457,-0.17538689629615953,2.8786985991351006,5.043334898464646
5.402518134350594,8.916203107789363,-9.855307512824188,-0.20037708415322603,3.0327688416815697,5.421186132556308
5.789448125764952,9.460423707994643,-10.422508862680333,-0.227640062836338,3.18449460685092,5.810154261213334
6.186088490609432,10.007463345150551,-10.988754798563708,-0.2571718838222346,3.3331580817791764,6.208992073352203
6.5922589172727095,10.556617613119583,-11.553287159122732,-0.2890327995675683,3.4785184106950924,6.617524690566229
7.012230806762293,11.113051365402596,-12.121340906439347,-0.3236542652698073,3.621846209295143,7.040055857501433
7.442080556609954,11.670955785647623,-12.686921241481283,-0.3608092169333751,3.7615564798141126,7.472644999214959
7.885256299308053,12.23422880357538,-13.253938079223966,-0.40088716050537293,3.8985573101612223,7.9187681823743
8.343277767061247,12.804039097682558,-13.823475626666523,-0.4441443928091036,4.033010952822628,8.379962392328068
8.804901884934049,13.366041043504362,-14.381246419894937,-0.4895773295458249,4.1615544721978,8.84490890238447
9.27502458639218,13.926098544142592,-14.933212548284676,-0.5376863705444058,4.285643352543824,9.31853770745596
9.746430220699239,14.475610663272528,-15.47106729248634,-0.5877371061271153,4.4035150432137895,9.793576630536782
10.223330673926672,15.019596395813476,-15.999927658197096,-0.640162779172159,4.5164255245808,10.274265624801
10.704296936333149,15.556426600117808,-16.518378154708422,-0.6948077916589286,4.6241786754561085,10.759160484279711
11.189640193155215,16.08648901940416,-17.02697167515338,-0.7517022660074532,4.727005346762106,11.24857027479778
11.678784172217615,16.609202894099877,-17.52532923853281,-0.8107714115632388,4.824946235081361,11.74190878683295
12.17914764619925,17.132304416913456,-18.020938536188716,-0.8729392519283296,4.919531687989665,12.24665485680522
12.692041373783475,17.656678446187456,-18.514675558653973,-0.938440091872788,5.01091863822789,12.764128879614082
13.209845837077967,18.17427473060907,-18.99906327268592,-1.0063375836966206,5.097771228387739,13.286639159519368
13.72660222833384,18.67933943495297,-19.46893672615596,-1.0758169059091245,5.179323054134734,13.808165133807575
14.244993333378156,19.17479639800451,-19.92725331046398,-1.1471898166480536,5.256267704068237,14.331406182261675
14.761962860446516,19.658022532579903,-20.371813541387475,-1.2199866345168398,5.328410620053633,14.853269514627906
15.281833744729639,20.13330456022318,-20.80676891138922,-1.2947744678903048,5.396584576815891,15.3781115707011
15.67520536130945,20.486006921172105,-21.128107912955777,-1.3523900916336848,5.4453996368466875,15.775273506111045
15.71317842773908,20.50745597531627,-21.277831967581694,-1.358557524005273,5.582206673481819,15.816772272728073
15.698335070391092,20.446004910763982,-21.69863167982362,-1.3584713863476814,6.064673736934722,15.813352863327976
15.681527366603119,20.36978175638179,-22.172344287003444,-1.3585006133626372,6.614853239277224,15.809572480306906
15.664834692322671,20.286966083098665,-22.63984479524301,-1.3586660889235753,7.165410214514363,15.805918754095416
15.64873617686683,20.200249433353704,-23.08784828681726,-1.3589577382493103,7.70036132133819,15.802494771344094
15.640571108202394,20.153654611717954,-23.31398364122111,-1.359156288453685,7.973208153739296,15.800797021545716
15.637308061810469,20.134536630160802,-23.404148031343066,-1.359245302122795,8.082537051484595,15.800126045158205
15.699446798790555,20.10907336014493,-23.422699292988728,-1.3646579238788517,8.12506472271915,15.863827096938545
16.14697930328886,19.972236065554462,-23.338652557604487,-1.4027058016729164,8.167052059627606,16.316309239025287
16.728105744089774,19.788191291651163,-23.225222946988644,-1.4520033270168533,8.223195944312256,16.903991748425693
17.311287617311315,19.596197782969003,-23.106419822013898,-1.501348519019019,8.281361672901108,17.493902920242217
17.89285833980027,19.397370384211367,-22.982876220434413,-1.5504267736037032,8.341162597353117,18.082337806082773
18.47620954523866,19.19045935094855,-22.85375588626563,-1.5995200437727652,8.402923087317092,18.672731723104004
19.057876189786572,18.976597815664757,-22.719700219655657,-1.6483266075792258,8.466220274995768,19.261586276269554
19.625064535550695,18.760716863997636,-22.583767405017696,-1.6957860828355016,8.529621003036395,19.835935993262055
20.034123328808906,18.600468888595287,-22.482464818679098,-1.7299274805472822,8.576340994807971,20.250257603992242
20.28636731043244,18.49973322065345,-22.41860892655881,-1.750943705806655,8.605560626207474,20.505788294453573
20.81876562166634,18.282264010487676,-22.280295661685066,-1.795207414568497,8.668245288161131,21.045228527964472
21.39026961657804,18.04141612943817,-22.126377453951804,-1.8425771721988047,8.737036787819475,21.624451764077744
21.95892240080256,17.794057200039394,-21.967491550672353,-1.8895575446360857,8.80699395697293,22.200951804783518
22.51608529710336,17.544126901600155,-21.806118785869764,-1.9354295887009292,8.876930851705238,22.7659719647777
22.834601860948286,17.397844216889407,-21.71128134003289,-1.961588545566339,8.91754676155317,23.089050015827265
22.81875877767507,17.35560328352027,-21.496530706150246,-1.9593851763981318,8.745678834879023,23.06709631742054
22.766469750832673,17.254799725887096,-20.96951607034042,-1.9529587847772278,8.321497436371457,22.999662660337943
22.71083712234536,17.14252879487104,-20.40337435047436,-1.946250466193562,7.86977915669171,22.928007524050628
22.65565587770732,17.02605024159161,-19.836225558159573,-1.9397265303458815,7.421236955666206,22.85702167886961
22.601092611651207,16.90585894787603,-19.26987029709629,-1.9334015646766238,6.977170412937871,22.786912628310013
22.546636590718883,16.780922047833787,-18.699041587628283,-1.927212662775032,6.5333652585345146,22.717018345780993
22.492594689459054,16.652005688456875,-18.12695888259105,-1.9211918546338884,6.09226320865591,22.64772755209445
22.43899820359734,16.51929057483217,-17.55400789871895,-1.9153388013626305,5.654068305209484,22.57907472198521
22.38613525290789,16.3836369360759,-16.983373129470348,-1.9096802717692636,5.2210941162600815,22.511422927008937
22.333129365850546,16.24286049330799,-16.405604831999057,-1.9041198181553793,4.786108621745259,22.443645719758894
22.29178881290695,16.129749526987812,-15.951050339965793,-1.899861482976344,4.446225771052742,22.39082223094465
22.278328527195228,16.09229249108862,-15.80229705104232,-1.8984897639345797,4.3354368906544245,22.37362992758018
22.266856583825962,16.05994977858471,-15.66566542346671,-1.8973033546444258,4.231585250057464,22.358668221780913
22.357086223576108,16.298006286851273,-15.840347533257763,-1.9044406604132704,4.1652524834958,22.446980715527243
22.565811753897684,16.84240231515548,-16.23680557584459,-1.9209351377513395,4.010429840435478,22.651163174970506
22.790949383489064,17.41996017133513,-16.652849500197398,-1.9387023278446815,3.8414255654977496,22.871234795586325
22.977221580008184,17.89043061342921,-16.988293289913944,-1.9533841168911503,3.7001512259401266,23.053188813814455
23.051602260005097,18.07646189924489,-17.12007856296862,-1.9592422551303106,3.6433977034867944,23.125813774836768
23.058804810392434,18.098088531102015,-17.257116570681667,-1.9600758001979715,3.758495260763904,23.13698162449965
23.03801040290166,18.05699630460759,-17.692043797274366,-1.9595408372809926,4.2349473391076256,23.132470481931158
23.01439224607651,18.00406967360441,-18.183165042876833,-1.9591063335223242,4.779484606737075,23.127453643432297
22.990972971690116,17.9449042741783,-18.66709607338749,-1.958860969171249,5.323064131412976,23.122597123201896
22.967500523128503,17.87880142566846,-19.149025481927573,-1.9588044433946106,5.8715783063489715,23.117853787437394
22.944128456071578,17.806088810299737,-19.625760311603432,-1.9589408002372626,6.421503244536501,23.113260654755692
22.920893838608027,17.726860242266255,-20.096541304218597,-1.9592713175141037,6.9719850485842425,23.10882950913047
22.897817790955337,17.641193641760236,-20.560948868021704,-1.9597965548314271,7.52252571912951,23.104568360127082
22.87488342590065,17.549034852885704,-21.019331457403464,-1.9605178159598062,8.073528150690855,23.100478023404097
22.85463473265959,17.46175090445152,-21.42136364821501,-1.9613236503006943,8.563249121475467,23.096991956783203
22.84732444809697,17.42885729524528,-21.56588358707189,-1.961654255012829,8.740808294069664,23.095763251357038
22.843197585440567,17.40996180516686,-21.64732204606396,-1.9618502859328504,8.841224326002347,23.09507674513973
22.84916919596977,17.419193792559426,-21.726672419751004,-1.9627368516603543,8.911089073546925,23.103539666389388
22.993532362152372,17.794650410587735,-21.993447307615366,-1.9738642826965416,8.797526161080018,23.245378240181857
23.221186909459274,18.379087245750625,-22.404780122431717,-1.9913790259059176,8.616669113181333,23.46889875905037
23.45360343668636,18.9663092715486,-22.81327506588193,-2.009220310224314,8.429956724620824,23.69690625211917
23.69141509456771,19.557534429027747,-23.219721607853995,-2.0274358581336394,8.23693426328041,23.930014628831678
23.931398153428685,20.144529288790984,-23.618488049094285,-2.045778578142067,8.040311837748854,24.165060029993153
24.177590915900904,20.73691061229733,-24.016119618333096,-2.0645568358213886,7.8368728532822285,24.405993053867892
24.429195153894522,21.332310363393944,-24.410951731382195,-2.0837087487441623,7.6273435101984886,24.65202432725578
24.68504888438107,21.927655072552145,-24.80093750639142,-2.1031453999236165,7.4127872120056235,24.902011977228266
24.94529381039225,22.523019872253226,-25.18615491694756,-2.122877379715044,7.193197584577235,25.156090313641354
25.209981101966996,23.1182623273173,-25.566541502203854,-2.142908391355564,6.968648469831828,25.414305173933787
25.478345649025318,23.711449176929964,-25.940915942957094,-2.1631805352347624,6.739915856758208,25.675907069972393
25.752356336784068,24.3066594054898,-26.311882306595248,-2.183842330153427,6.505447415626735,25.942811142752216
25.98952347730321,24.81351082582619,-26.62410070554016,-2.201697151407039,6.301886746231065,26.17366757597387
26.093457038002583,25.03323841218465,-26.758405598489983,-2.209513517186862,6.2125289635208185,26.27479001207467
26.08314008232005,25.127156975853413,-26.81426756574195,-2.2085432492230597,6.174898722178325,26.262949244044467
25.66609517468015,25.334270883453485,-26.927476352101706,-2.1753076889312095,6.097013229779439,25.840365905468786
25.081381081985768,25.617450408630845,-27.08139856457324,-2.128548211551241,5.9898044964340045,25.24812466998806
24.48811871306225,25.896308084343787,-27.231998798518944,-2.0809152316758626,5.883425182539284,24.64750541643002
23.88850622607439,26.169633363761548,-27.378676964216016,-2.0325817059104874,5.778383998323211,24.040739864293787
23.289993531782592,26.43405545073012,-27.51969664944373,-1.9841398956779488,5.676011923461333,23.435367273825374
22.686282358180755,26.692414898666257,-27.656654525573124,-1.9351014259181132,5.5753321999146115,22.82501224494732
22.0790808864279,26.943930844773014,-27.789197338746256,-1.8855952243888545,5.476674433333479,22.211403817592622
21.471331524893348,27.187431820198356,-27.91677839265402,-1.8358634437528891,5.380557853416832,21.597512613510617
20.859210553985356,27.4244731370138,-28.040276164009946,-1.7855865159286801,5.286394974589599,20.97947509911587
20.24223743163502,27.6551867509818,-28.159822622842462,-1.734742938966419,5.194240841580167,20.356803204077323
19.63017542314986,27.87603927216689,-28.273653293963775,-1.684132745595737,5.105535027304034,19.739345322157206
19.00963824486927,28.09190738450308,-28.384343223384743,-1.632652096920026,5.018369974907245,19.11359275473014
18.413298521966748,28.29182936297209,-28.48635048797483,-1.5830146064462025,4.937209385176571,18.51247788557159
18.077640627627982,28.401153174930247,-28.541928821545838,-1.5550140214851054,4.892680529520402,18.174230831200337
18.027352075315566,28.3217369310079,-28.37641782952246,-1.5506354157548339,4.807980841853101,18.121438081815953
17.941169526872585,28.052865663572014,-27.851452550407977,-1.5429032142941868,4.554307311537223,18.028061080362612
17.845595412701343,27.750712974580853,-27.26191776126279,-1.5343592925821214,4.269595976189094,17.92449787325205
17.751084105951342,27.447714874405673,-26.671153598716774,-1.5259430346236391,3.984457037291707,17.822074318144267
17.658321188147518,27.146165576906444,-26.0836148420491,-1.5177147883489142,3.7010326230536776,17.72153289857409
17.566603105733197,26.84387553480031,-25.49501771882047,-1.5096114383327999,3.4172485721060313,17.622110607630514
17.475929036703338,26.540893521452237,-24.90544448155667,-1.5016325656820857,3.1331388362142785,17.52380597638621
17.386117374806282,26.236652853895123,-24.31378120348727,-1.4937619368835509,2.848161548223434,17.426421514120403
17.297097534339795,25.93093810381859,-23.71959954569087,-1.4859932467741384,2.5621060695221094,17.32988003304155
17.209425342611066,25.62571680066543,-23.126711705393014,-1.478374612944026,2.276802457137895,17.234783819834085
17.122519827423986,25.31902485685548,-22.531291089465412,-1.4708551661722131,1.9904043005908738,17.140502215616465
17.037922760417317,25.016432615483716,-21.944135899445243,-1.4635673682556312,1.7080987349840497,17.04870768582878
16.985497464469706,24.82687203837154,-21.576459101499953,-1.4590672193937617,1.531375871288049,16.991813044063996
16.961296190666175,24.738829746581292,-21.405728220661967,-1.4569940336677214,1.449329068375411,16.96554614706973
16.953758014334383,24.688442511573665,-21.31040151652824,-1.4563368112308979,1.4045955335097031,16.956877948514165
17.273034282833432,24.593125514445546,-21.257568605072812,-1.482971192657456,1.4388916933513354,17.276688896526576
17.85922715249932,24.412847207023276,-21.15732392305235,-1.531757059224759,1.5035040961016888,17.86400740308122
18.463588427298046,24.219750570294522,-21.04948834544822,-1.581894986514985,1.5723409495216714,18.46972916064191
19.06862414482736,24.01898327044529,-20.936860256515626,-1.6319212163805532,1.6435051631586088,19.076335938069615
19.52637484077243,23.86206357894522,-20.848465313191696,-1.6696502200555763,1.6988059553415358,19.53543152706829
19.59312198120262,23.834333871346164,-20.91426388528044,-1.6752182228561925,1.7903491079974954,19.604822798147293
19.57403527495078,23.813515662095142,-21.35034188429677,-1.6741194410199243,2.247607335636371,19.59911608055722
19.551241558796942,23.782257101531638,-21.868624561368602,-1.672951450087909,2.7975793495479055,19.59239347085886
19.528666305965636,23.74428805389271,-22.379218009858807,-1.6719526876186783,3.3465667507471974,19.585839946353023
19.506253254580724,23.69953573546447,-22.883409680668475,-1.6711203062140358,3.8959307971402244,19.579442345598448
19.483988249462495,23.647962722336214,-23.381520005385944,-1.6704542393897863,4.44602956644229,19.57320024836603
19.461926484563065,23.5897082142123,-23.872323216275745,-1.6699562521022098,4.995497023972978,19.567132402697272
19.44004152651671,23.524730786610906,-24.35642206517899,-1.6696255932648238,5.544977804474036,19.561234509110946
19.418864720816988,23.454889322673832,-24.82217426734639,-1.6694644792260684,6.0809609573583385,19.555648286390678
19.407923763716454,23.416072783516125,-25.061752675716658,-1.6694437775573765,6.359556363659417,19.55281063924339
19.39559967987289,23.37008601375236,-25.330747486565727,-1.6694724135230756,6.674763099443609,19.549655120529003
19.39041723743834,23.350024651454962,-25.443585251717966,-1.6695010980569953,6.80775669976901,19.54834138905348
19.385989357298016,23.332542839645075,-25.539862596860644,-1.6695334754666618,6.92159647562421,19.547225223694163
19.47593811802133,23.293765723793726,-25.549456763284148,-1.67714720070721,6.967322630960055,19.63915437300336
19.95913583584587,23.11339064858162,-25.446148085863975,-1.717336079178743,7.030055937762932,20.127674988386453
20.55289388713767,22.88466661789135,-25.314552068265137,-1.7665793857395036,7.109106195988684,20.728163261283587
21.149074855227806,22.64705395605525,-25.17713487899146,-1.815863065803778,7.190635611292616,21.33131616441414
21.73782901514926,22.404466584655907,-25.036095579053036,-1.8643708159515002,7.273245811837799,21.927170192412365
22.286510873114423,22.171191383438025,-24.89975866922103,-1.9094285447829973,7.35208552614044,22.482664185206485
22.55005370774797,22.05664369733444,-24.832552463931464,-1.9310167665608267,7.390550671964205,22.74955476957204
22.94942699643355,21.87994017518744,-24.728552721535845,-1.9636692089610355,7.449658037862589,23.154074319633455
23.524876866175195,21.6186455720252,-24.574028760751926,-2.010577090637832,7.5364367682130045,23.737121116035553
24.08088544230847,21.358579124795455,-24.41935511780992,-2.055739601176492,7.62206471889341,24.30067617510987
24.37959352501646,21.215720179060284,-24.333982555235824,-2.0799360579799147,7.6687513287046984,24.60352199900228
24.340495518337665,21.13510060710095,-24.092496423930687,-2.0760314943872387,7.509406665911505,24.55827416544945
24.253219691416437,20.95218167495565,-23.549317825250117,-2.0673749172797824,7.152534730751158,24.45730652255062
24.161398858352495,20.755297634098767,-22.971615827552913,-2.0583558204639387,6.7752668066561315,24.35113231251629
24.06974663422379,20.554193161507953,-22.3884822620235,-2.049443384088476,6.396766843068402,24.24520274449195
23.98030855708446,20.353489456504843,-21.813066217758557,-2.040832948878193,6.0254845699334005,24.141877220293683
23.890473537864604,20.14741739045117,-21.228644687908197,-2.0322704677392247,5.650566717865662,24.038134993195534
23.801816491711737,19.93960089974882,-20.645427860325093,-2.0239049764881085,5.278539602536473,23.935791454452318
23.713957701554122,19.729250099990082,-20.061013050670727,-2.015697930543227,4.9078053633541545,23.834404245850244
23.62713320383113,19.517018856463476,-19.477051602209322,-2.0076689528862817,4.539352984753953,23.734241980396945
23.54097647735741,19.302088544806033,-18.891145036798463,-1.9997820016031658,4.17161686434079,23.634878276544843
23.456023272916802,19.08588654503154,-18.307026090541243,-1.9920837847022932,3.8068826579657196,23.53692751116877
23.400778439583608,18.942989104689822,-17.92370864410861,-1.9871196738687926,3.5685259339364803,23.47324246078986
23.379544678298164,18.88757894965983,-17.775641967001476,-1.9852205185990408,3.4766611010701545,23.448766983732405
23.365384049241257,18.84998585668951,-17.66287199235239,-1.9839292465423584,3.40201976632655,23.43198359086522
23.4805317926726,19.129362150198272,-17.856870406512332,-1.992977616107842,3.312698370348586,23.544266005624326
23.713407662714797,19.687196653726367,-18.240996057521162,-2.011260412008347,3.1309611063364446,23.771224693735558
23.9599041390335,20.26742148090046,-18.635985916538317,-2.030589077429855,2.937150995498794,24.011283875997794
24.21201263763377,20.850251881215634,-19.02809586965856,-2.0503339416607123,2.7375782450180717,24.25662884348358
24.456068547352324,21.404517835323606,-19.39668131729477,-2.069426158322142,2.543249408826819,24.493969322743148
24.577093030871342,21.67582057418399,-19.575572186405648,-2.0788860345105014,2.4465202368945316,24.611603955165545
24.621536440339366,21.80445577587776,-19.65971305773707,-2.082342711118622,2.400442799455997,24.654410624897515
24.280230073803015,21.875763804429155,-19.69727389608936,-2.0551914101988618,2.3790351587532554,24.31205303785894
23.69286897673627,21.99331946409127,-19.758749234578183,-2.008301853494546,2.343808178643676,23.723007313743175
23.09456005775039,22.10640624076244,-19.817310225530502,-1.9603286338159178,2.3100258346959297,23.12313976565363
22.493493966622705,22.213303492077642,-19.87207643611737,-1.9119260904408604,2.2782251860476426,22.520662429056586
21.894486058945212,22.313194562180293,-19.922654959315004,-1.863478658168464,2.248637371735968,21.92040125493141
21.288174629121148,22.407611421564162,-19.969848093977085,-1.814247704341115,2.220886610701362,21.31296207871976
20.68200250002661,22.495321177894738,-20.01305118878717,-1.7648309312986639,2.1953240685819413,20.705802826744552
20.074787872675323,22.576526585472163,-20.052387591791973,-1.715136771420356,2.1719043205932707,20.097734094231942
19.46781264224786,22.651085426399085,-20.087810033421107,-1.6652749800626123,2.150680516236152,19.490033788903094
18.856236933916087,22.71955770476726,-20.11959457404658,-1.6148447069289862,2.131476680730203,18.877855261761443
18.24460404127424,22.781401006889432,-20.147506675276333,-1.5642373016829139,2.114517409861518,18.26573373658067
17.630833297401974,22.836820506029476,-20.171648944430277,-1.5132782496931823,2.0997259454595785,17.65158489384661
17.019299591380847,22.885453494553857,-20.191880085266952,-1.4623363368747646,2.0872047321899214,17.039779791160495
16.40550532709092,22.927681108466793,-20.208369747699056,-1.4110369296569287,2.076829761117789,16.425815359859282
15.792341549367059,22.963307989536393,-20.221057075609078,-1.359637890963391,2.068714629684631,15.812571051741573
15.181148963170036,22.9923155148631,-20.22995239635215,-1.308252382487015,2.0628302908808407,15.201383595783204
14.565580662672248,23.014983404089964,-20.23514097678936,-1.2563515481687486,2.0591253231653512,14.585899897311275
13.954634982966393,23.03099557435671,-20.236556253236092,-1.2046953940402065,2.0576189389489707,13.97511259379125
13.34162265489544,23.040584606436664,-20.234254890919996,-1.1527340393492767,2.058336815040659,13.362322262541744
12.72663103834616,23.043689867521916,-20.228200350726258,-1.1004745730172045,2.0612665995693606,12.747612332043593
12.114265553070314,23.040302840361253,-20.21844512963127,-1.04831426696146,2.066378428890153,12.135579165468572
11.500201409290977,23.030412662072738,-20.204921756412702,-0.9958875319167725,2.073668854348434,11.521894833467053
10.889126123633794,23.0141188130826,-20.187748914563155,-0.943607408827261,2.083130070375863,10.911233923202376
10.273778909786328,22.991199753929155,-20.16669708044121,-0.8908546053348899,2.0948461896071806,10.296335260418752
9.662804666608956,22.961970595144937,-20.142050197209354,-0.8383760025770362,2.108646782669436,9.685830541551299
9.048548352888933,22.926068250015998,-20.11348859335535,-0.7855180794815743,2.1246631597974646,9.072064336093765
8.41827661883715,22.882428927985934,-20.08022940363682,-0.7311911458918288,2.1433851535411566,8.442305494016589
7.822637536089521,22.834835982275226,-20.04509054535278,-0.6797681972133929,2.163173708275033,7.847154384915738
7.209263175360042,22.77935481327385,-20.005114052550503,-0.6267373632346932,2.18567288746583,7.2342789990869
6.595490042957768,22.717240849895695,-19.961230491027386,-0.573599852564123,2.2103344952066455,6.620994701001265
6.120171749501313,22.66458358386755,-19.924551825194307,-0.5324025266406406,2.2308744609087054,6.146043330638129
6.036425272791079,22.65137956755698,-19.986029122454482,-0.5251661962143154,2.306326068347088,6.063018122929593
6.030830991503826,22.626821523558874,-20.398786853255853,-0.5248572741974512,2.743674694432939,6.061436443317801
6.02390479231715,22.59026739830264,-20.907382436500583,-0.5245188302336351,3.288864929263492,6.059506097873509
6.017026944013877,22.54709929643738,-21.409714657505415,-0.5242319588916073,3.834405328306514,6.05762141037535
6.010219999013913,22.497489719987342,-21.904153997830598,-0.5239974412468669,4.378493736504212,6.055789479510389
6.003462499227716,22.44131853814205,-22.392277919270583,-0.5238143751977121,4.922827867962191,6.054005410272071
5.996703638814914,22.378088296658,-22.877730480444512,-0.5236820587640002,5.471549523140459,6.052257229013888
5.989972941109923,22.307966432845333,-23.358351313754337,-0.5236020262690014,6.022330720639952,6.0505542061635165
5.98333376410313,22.231652758356553,-23.82963380851009,-0.5235749519746914,6.569964672849132,6.048913229093028
5.97683009589211,22.14986990405784,-24.288541752931856,-0.5235996780645051,7.110692288882625,6.047345025905189
5.97329991454532,22.102514617340734,-24.536474295849807,-0.523634809589625,7.406000019529913,6.046510742139181
5.972269430156877,22.088293444501037,-24.608691536315053,-0.5236479883300187,7.492444230767056,6.046269514933543
6.259456616833053,22.055573186122,-24.591841695950766,-0.5487678576680229,7.505629580789911,6.335789359137454
6.834585425992929,21.986262957106895,-24.551054286728377,-0.5990315217446528,7.528397324803398,6.915588080012078
7.4343265685207545,21.907375354621305,-24.504555517012637,-0.651391285236716,7.554247945162865,7.520268793611089
8.036361739017178,21.82136369440331,-24.45376619940404,-0.7038901154665339,7.582356418653122,8.127340098832434
8.638759317347537,21.728420109035625,-24.398776336595564,-0.7563542480161513,7.612640352704889,8.734860781903254
9.241397093803608,21.628510553211196,-24.339537568076167,-0.8087654522762969,7.6450589048009885,9.342715642067994
9.844774539332425,21.521496035477455,-24.275946385410595,-0.8611669697832878,7.679696180313022,9.951410695331123
10.444866619759997,21.40808503862033,-24.20839255421451,-0.9132025864170028,7.716268304310524,10.556892618572604
11.04826762439678,21.28697984933613,-24.136071753285783,-0.9654392429929756,7.755167405936568,11.165820696885627
11.648333962512762,21.159458802755772,-24.059710949422787,-1.0172933821485979,7.795923947987143,11.77149877459755
12.25111732089933,21.024194924666133,-23.97848632629595,-1.0692902715920145,7.838994213791077,12.380035071238101
12.846124753028043,20.883570770711565,-23.893790824946343,-1.1205179505806193,7.88355933598508,12.980843069126536
13.262300182391403,20.780983351615472,-23.831841881436173,-1.1562883240807937,7.91593366087801,13.40115039300622
13.517969439545809,20.71622383227805,-23.792665311817856,-1.178237624909785,7.936310900129598,13.659389365933183
13.81856434174456,20.638293720892236,-23.744820766519958,-1.2040166321705272,7.960150940153095,13.96302414295053
13.808593834870063,20.60797372727395,-23.505478361177932,-1.2025590707050176,7.751383842559447,13.948543178798786
13.786753211719727,20.53784796271307,-22.977915117392623,-1.199428004906539,7.2945044095727045,13.916868439399954
13.763864084891512,20.458916305956084,-22.42016002295328,-1.1962365196341953,6.816264032522714,13.883738460796172
13.7411843901795,20.37524476077827,-21.862550936580707,-1.1931636515388877,6.3429024611900555,13.850974380727452
13.718649349673017,20.286747461301683,-21.303561854074847,-1.1901973158325905,5.872981278920261,13.818477998437473
13.696175691205513,20.193193925211496,-20.741144062909918,-1.187324241874906,5.404684421709318,13.78612535870834
13.673708475759126,20.09440016780497,-20.173892129099144,-1.1845359928702894,4.936791868484684,13.753834108456624
13.651744278632108,19.992745427895237,-19.61445920862612,-1.1818904514347293,4.479565121102319,13.7223133407874
13.629776624406285,19.88607344183758,-19.050056714423505,-1.1793230701511275,4.0223846542964665,13.690831826104825
13.608292349278578,19.776923649680715,-18.493297320669072,-1.1768874823601718,3.5753115894272685,13.66008318472849
13.595578128932871,19.710086252269665,-18.161564106069374,-1.1754809425893744,3.310732648876418,13.64190405157068
13.591121112795737,19.68626180368294,-18.04487548081113,-1.174993974113625,3.217979442943038,13.63553427370626
13.64257584626444,19.90654838735518,-18.190173906719178,-1.1792733300987204,3.141950252179469,13.68549248066326
13.77276688177039,20.458249508362513,-18.56240135442488,-1.1901143033516046,2.9598238929638563,13.812059812963472
13.902609407241656,20.999786511684928,-18.92368326356714,-1.2009272944364766,2.7768999600167534,13.938193329112364
13.959878710585935,21.2359375194579,-19.07996546549082,-1.2056970457451845,2.695846639732371,13.993797139667672
13.959240216208325,21.243329834014283,-19.258772081448402,-1.2058179278326477,2.8672363884035375,13.996770463415697
13.944854069242995,21.208635932033918,-19.728908529521608,-1.2051773647492732,3.3722575131321113,13.993011239381143
13.929489161580792,21.16507670850789,-20.228330506853013,-1.2046013623336749,3.915441659153026,13.989064890914918
13.914209537812273,21.11496227968138,-20.72216595641789,-1.2041417146266316,4.459592490199575,13.985214551997098
13.898992353698942,21.0581769722628,-21.211142593921505,-1.2037986568468018,5.0055536691808244,13.981457359871
13.88383396026364,20.994648579211873,-21.695358875095234,-1.2035734112629233,5.553495877619385,13.97779553440692
13.868706883129834,20.924181302174663,-22.175663746273667,-1.2034673328684011,6.104464185916077,13.974225861372403
13.853757906714069,20.847462658347084,-22.647401814510673,-1.2034818835812728,6.653113759623395,13.970785408298624
13.838796794015336,20.76348985393873,-23.11656823464838,-1.2036182817067131,7.206444976365042,13.96743322382852
13.826240241325243,20.687352062222008,-23.508005628928867,-1.2038291588644654,7.674180473743888,13.964693347778773
13.821980185226652,20.660330422578085,-23.640319833070933,-1.2039210599541579,7.833570530569938,13.96377954905812
13.819136883198402,20.64195669558343,-23.728491744664296,-1.2039882041924637,7.940152302299984,13.963174183498285
13.845108186196985,20.75344395624315,-23.82198099950924,-1.2061534602802966,7.9216127316579925,13.988970629421543
13.960979590527982,21.25216035044227,-24.151362027756814,-1.215551490623774,7.749869356787916,14.102137575669493
14.106202490846806,21.86812914077521,-24.55349418060581,-1.22732316258688,7.53298863041066,14.243855607812863
14.252674346172627,22.47940484221379,-24.947467001823018,-1.2391894143031645,7.312586090692626,14.386665559285024
14.402512803899246,23.09460730281459,-25.338876135999804,-1.2513227895265304,7.085591348010262,14.532629453522866
14.553849422685325,23.705825197078056,-25.722718490532188,-1.263573005268217,6.854951084643888,14.679924241853032
14.705465753045395,24.308210719846148,-26.09613654368078,-1.2758426077763434,6.622681345661747,14.827365103188294
14.80048009384213,24.680737482428043,-26.32465481813798,-1.2835305519774771,6.4765873389178505,14.919699865876069
14.789738030706022,24.785807364283386,-26.388233783564583,-1.282514889636057,6.435347718904783,14.907961309557662
14.384279662474867,24.893774910319088,-26.447843211681903,-1.2479949810890967,6.395957932015574,14.499126358811866
13.779268174032167,25.04883939744515,-26.533200113063277,-1.1963861532519091,6.339176860564562,13.889214104540931
13.16249945088117,25.199537068668832,-26.61586558229661,-1.1436562907227419,6.283759536018511,13.267613289896682
12.548943818724508,25.342126394364918,-26.693819375719567,-1.0910875551771886,6.231079790344998,12.6494116585771
11.928239196169287,25.479018974722354,-26.768423646965648,-1.0377969425671159,6.180340839285186,12.024156560075449
11.304705364922839,25.60914924843798,-26.839126617874186,-0.9841573856721009,6.131932733025033,11.396199355120878
10.683153954735383,25.73156037652785,-26.905443701682334,-0.9305878679110821,6.0862404094859865,10.770378918352765
10.063372727810334,25.846416981539512,-26.96749596014645,-0.8770770667886313,6.043199603438304,10.146475964156139
9.440693561432504,25.95462567221381,-27.02581018733323,-0.8232258133152747,6.002558938861453,9.51977847562498
8.819608649353016,26.055432706136802,-27.08000533063458,-0.7694281487045067,5.964593075960357,8.894803505498233
8.196702787073908,26.149433446409525,-27.13042500427924,-0.715395126732988,5.929067909627824,8.268109417236747
7.567963356241194,26.237154610174116,-27.177381096264522,-0.660780075925067,5.895866552305269,7.6356487221169465
6.943938626875209,26.317144748877563,-27.220116175781705,-0.6065058086116921,5.865525114556818,7.008027028669823
6.485211294586595,26.37147448894241,-27.249097134491755,-0.5665677517988497,5.844881191738034,6.54671226588133
6.421134584671267,26.361481573477967,-27.15900042295408,-0.5609100631616923,5.765412820787986,6.481522647940101
6.411413307675919,26.275468817183185,-26.695842449167458,-0.5597035762894674,5.388380811371549,6.468048920969565
6.39975480612671,26.16751913451618,-26.136035881411672,-0.5582909356982314,4.9366593106585475,6.451915324963318
6.388179188222109,26.05518943491274,-25.57546700806768,-0.5569248576517712,4.488554152166673,6.4359222196364865
6.376549724832704,25.937200006944053,-25.007481282002953,-0.5555886159952388,4.038692092091767,6.4198792133403915
6.365073792127482,25.815745302315737,-24.442216435620367,-0.5543051689092636,3.595014029631588,6.404070734805602
6.353648606271351,25.68989230761388,-23.874682588768252,-0.5530617267732442,3.15346429808837,6.388353298911306
6.342333301331953,25.56041520763405,-23.30786302230923,-0.5518636816407158,2.7162513293170227,6.372806563464147
6.331070236847682,25.426774063824265,-22.738915894730773,-0.5507039325630957,2.2810738940859534,6.357349703657926
6.319833715146379,25.288727490337177,-22.166535056519198,-0.5495792424691525,1.846867531853039,6.341946077622208
6.310098751215571,25.165325563078305,-21.666741012987917,-0.5486307813165028,1.4705859538378476,6.328613533477489
6.306257297271814,25.115660509058443,-21.46851410485629,-0.5482631120108455,1.3220676498578565,6.323355519712879
6.31764792770946,25.214204629638846,-21.510280970747203,-0.5492378201673912,1.2651840665785903,6.334181050442284
6.373894618415983,25.704831336115895,-21.805519136972478,-0.5540727529553254,1.0692638987192062,6.388431108670265
6.444266182597918,26.308451252006133,-22.164365557959115,-0.5601293314789644,0.8238190195360161,6.456254982732733
6.491960448210464,26.7112445069828,-22.401141978400688,-0.5642390791269228,0.6573432055886878,6.502191876853371
6.4972992471009645,26.76521909132997,-22.515252148488948,-0.5647084819184689,0.7174233850597677,6.508108686309211
6.490508003491215,26.755366856881423,-22.957787645340208,-0.5641933198558278,1.1698559019994987,6.50579258190174
6.48228622751701,26.73695841871592,-23.49128791827802,-0.5636177491204015,1.7218186472231998,6.503019762632207
6.47411822185855,26.711476060931414,-24.018802634259348,-0.5630992617847974,2.274869191797788,6.500300804899393
6.46605948133037,26.679132144907804,-24.536764748861977,-0.5626410421924789,2.825227763408308,6.497655177507291
6.458073383501872,26.639846937774234,-25.047553893071562,-0.5622405046371299,3.3753539623928925,6.495071686127206
6.450205566332018,26.59392974331678,-25.548282042126758,-0.5618993461491217,3.922050162304135,6.492565793378837
6.4423522623879315,26.54078145844805,-26.045556275781255,-0.5616130968137507,4.472523212747311,6.490105561612077
6.434714279707145,26.481909791871608,-26.52671280306946,-0.5613880878358206,5.012600322632633,6.487754169903529
6.430204585472913,26.44375646260737,-26.809628040392074,-0.5612805313194618,5.3336976601874655,6.486385843217324
6.426010707357034,26.4059755117627,-27.07193482009341,-0.561197687694821,5.6338120710770205,6.485127142985168
6.42358627422853,26.38311236514231,-27.22321745462446,-0.561157449679234,5.807973241867099,6.484405713990157
6.428596406346388,26.427835147614605,-27.281805951614604,-0.5616073896687481,5.821789174966193,6.489577620387799
6.476942045686482,26.859424485084297,-27.533846814052943,-0.565637704765954,5.641773574186538,6.53638419517117
6.5480028664229994,27.484676642061387,-27.894706747949485,-0.571566100342476,5.376688793888107,6.605131776546195
6.621107227538388,28.116837565910096,-28.254438837034908,-0.5776710533694985,5.1035400940023585,6.675794463957261
6.695996759230916,28.75308736665489,-28.611338676105905,-0.5839321018338484,4.8234449186543245,6.748119328582965
6.772322262528893,29.390021539244966,-28.963472786023345,-0.5903211418322664,4.537877265166056,6.821766785683358
6.850217735719432,30.02838035209403,-29.311259733914333,-0.5968504938914312,4.24651360580564,6.896864138041804
6.921388015304987,30.601571616998083,-29.619190855789945,-0.6028244935253899,3.9805226004848957,6.965422020842286
6.959984192840021,30.810438559426874,-29.730454743447282,-0.6061006893464337,3.8825177403635327,7.0030686022529
7.299434551266364,30.76974538551365,-29.710952604454196,-0.6355400140765758,3.9000314719302427,7.34345385307204
7.917698550052562,30.690530792230795,-29.672933189593728,-0.6891074084883596,3.934080567496929,7.96349895661893
8.56673924112125,30.600256343308015,-29.629515369477023,-0.7452633176184721,3.972813135870304,8.614525986017279
9.219283791127394,30.50209444651832,-29.582191823493936,-0.8016341708149638,4.014813759206559,9.26919935184574
9.86414148379129,30.397752931381273,-29.531767682281505,-0.8572500344635662,4.059393939247496,9.916296453772697
10.513784033861944,30.285203519023256,-29.477232723054136,-0.9131798890706674,4.107368253839889,10.568342747883982
11.161656590074264,30.165466364968832,-29.419047312543075,-0.968850325510112,4.158246666445906,11.218772008810308
11.81013646088521,30.038062818051184,-29.356953296166182,-1.024463738168968,4.2122696098628145,11.869975026239743
12.459199449521492,29.902904621326012,-29.29086934127788,-1.0800097568170943,4.269415682495326,12.521939743099633
13.105395562564054,29.760673544375052,-29.221089718679302,-1.13518469681932,4.329337060455126,13.171212040402795
13.755301583343755,29.609834524366665,-29.14682736791676,-1.190549547464833,4.392710920964219,13.82440349801254
14.390269646215087,29.454833785959707,-29.0702336990305,-1.2445106299751425,4.45761054121472,14.462778761587154
14.939243469489528,29.314683472322155,-29.000731576246068,-1.2910548736234249,4.516097124034914,15.014862086286302
15.187075202215086,29.2495282161631,-28.968337294303335,-1.3120291023990653,4.543192993819887,15.264152440255423
15.666839007232078,29.12005218829065,-28.90381917753144,-1.352577392797999,4.596979841060577,15.746826082413312
15.983371883911463,29.03219155243538,-28.85992375346443,-1.3792842839266806,4.633388062385276,16.065347413928986
15.952675506997828,28.911788438765615,-28.63129403630232,-1.3764959615100991,4.525931247484523,16.031950352915352
15.871828034998396,28.62343308239364,-28.080849209980425,-1.3692181068426263,4.265854731612723,15.944590211809274
15.786723488690777,28.315897661419488,-27.49387584113922,-1.3615840001021648,3.988524716682288,15.852616993103783
15.702261781269751,28.00654152172249,-26.903510262110952,-1.3540355811190663,3.709596120644583,15.761324413682658
15.619212571642562,27.698241697963393,-26.315238314780142,-1.346641308854626,3.431659196359697,15.671544044699013
15.537085068508162,27.38925688229868,-25.72573261273001,-1.3393570082402002,3.15314035005673,15.582745072482023
15.455776262006575,27.079237241833766,-25.134321957797265,-1.3321733586935869,2.873721064909841,15.494815730331473
15.37560245434723,26.769444160465156,-24.54340879535485,-1.3251180033761019,2.5945351058588866,15.408097761073114
15.295873745159733,26.457239955962912,-23.947958664132678,-1.3181301173821836,2.313202637873627,15.32184453421829
15.217133591500925,26.14477010372043,-23.35206061431644,-1.3112572955505295,2.0316544621522037,15.236643522983742
15.139445349099647,25.832353064738605,-22.756318541999367,-1.3045046925280466,1.7501748805904076,15.152563035853749
15.064105156323857,25.52537860907381,-22.171005485626168,-1.2979838300958457,1.473616988959813,15.071006115211201
15.016888175226507,25.330944471797487,-21.800299478011482,-1.2939112912125619,1.2984566204965908,15.019883725929663
14.995031920562628,25.24040097514812,-21.627676509120665,-1.2920299192579947,1.2168904779669205,14.996217199355751
14.819540014496352,25.208885776297826,-21.593171609423553,-1.2772433798349283,1.2178310840723685,14.821012027635275
14.281720327017418,25.13877874602104,-21.54341144551669,-1.2318678933254041,1.249934316071323,14.284707666118464
13.66014012864955,25.051528707065206,-21.48236546708255,-1.1792915051678452,1.2891957606592206,13.664879677424084
13.041343638229817,24.958001948328587,-21.417780858443702,-1.1268134742838372,1.330571028971481,13.047821197742667
12.423487829286817,24.857934160543667,-21.349443491984,-1.0742799157922236,1.3741234368593058,12.431686395277923
11.802886432921783,24.75065846658649,-21.2768826189943,-1.0213926510857612,1.420171196496937,11.812792500567427
11.186014091605267,24.63725737667263,-21.20080060452577,-0.9687046145504918,1.4681884596505117,11.197588386678001
10.566557367040287,24.516535467256922,-21.120366073160866,-0.9156828446145906,1.5186491357185703,10.579770204332087
9.945200585531898,24.388490429219875,-21.035550440134962,-0.8623871083406417,1.5714804631564125,9.960011264576842
9.325077644653957,24.253701058278875,-20.946711194241598,-0.809099417391146,1.6264661978257335,9.34143216329957
8.708650692141768,24.112718066822953,-20.854169438098655,-0.756034601605114,1.6833188464004305,8.726480866391201
8.087603471053898,23.96355333518653,-20.756584290709032,-0.7024824768452469,1.7427967679987788,8.10685339467544
7.478615871200631,23.810269711835833,-20.65657017845967,-0.6498886817578416,1.8032488302526286,7.499185490506376
6.872600799563339,23.65076120558446,-20.55270131267773,-0.5974749711979314,1.8654540872764809,6.89440348064553
6.27087240466388,23.485428767035422,-20.44519999760917,-0.5453662082795767,1.929284999813351,6.293817289670619
5.671300800737329,23.313716980067113,-20.333656956995828,-0.4933820493255824,1.9948888666834863,5.695293833893721
5.071292636029206,23.134830446766305,-20.21750985429294,-0.4413032382762015,2.062523890616312,5.096238104941624
4.480313595859186,22.951654980479542,-20.098581763450728,-0.38995687274993046,2.1310328801640397,4.506093897460502
4.106022332283985,22.83202303821673,-20.020893039602083,-0.35741429737628744,2.175419631063105,4.132278531534777
4.086083857703878,22.817800661566352,-20.17241765221898,-0.355720256699192,2.3412876900603385,4.113380528355719
4.081758106893691,22.78907962915963,-20.641722704837566,-0.35548345566091344,2.839331004468997,4.112150191421867
4.077060603202766,22.751354013157787,-21.148789792443523,-0.3552579733472757,3.3841423460997366,4.11083437845558
4.072421636582958,22.707277507281145,-21.64686208917552,-0.3550683711554307,3.926309477543298,4.109556801452781
4.067786421939796,22.65631925716231,-22.14182266967749,-0.3549125058836761,4.472246542355038,4.1083031254063505
4.063178144965588,22.59865427787682,-22.631168584509187,-0.3547916153990312,5.019275482092912,4.10708060609704
4.0585871877413515,22.5341120233688,-23.11590485494471,-0.3547057872681543,5.568571899355242,4.10588758838507
4.054029343098217,22.4628795773559,-23.59435283960327,-0.3546556081327608,6.118270005271902,4.104729025233895
4.0494925280261205,22.3847417246262,-24.067772289466614,-0.3546412211100306,6.669844810761186,4.103602670999341
4.045383736285429,22.307618170494425,-24.494048747292375,-0.35465958936115505,7.173260592984826,4.10260681067432
4.043748067978642,22.27520721768701,-24.66307891859553,-0.3546753752635827,7.374707972897144,4.102217011004855
4.04462428456171,22.285573286737993,-24.72791148899505,-0.3547959863097113,7.429168000809695,4.103440048426893
4.069750365935103,22.657459797064053,-24.965608609813454,-0.3568907071412599,7.294825125380116,4.12791210019559
4.111378925997839,23.265831631898564,-25.350432926022965,-0.3603616728455493,7.071021352697265,4.168427507562588
4.154871747041039,23.891325812479575,-25.740905340645156,-0.36398904277583977,6.835729246102887,4.210718767057463
4.1991284848199495,24.51744780292859,-26.12653826914586,-0.36768154979608003,6.594962357253625,4.253713370800105
4.244091094374631,25.143123001227003,-26.506700398157378,-0.37143484191705173,6.349164203004797,4.297353961913013
4.290317267786219,25.775690541044312,-26.885802960769716,-0.37529602754733005,6.095403159531456,4.342180236658384
4.337169777059934,26.406046082839378,-27.258364909675564,-0.3792124593186051,5.837306417784734,4.387572816852014
4.385080444728203,27.039694522949006,-27.627660089199782,-0.3832208265471838,5.5726399655910015,4.433948934216569
4.433663202984178,27.67121660476761,-27.990549374797126,-0.3872894505907273,5.3036862852372595,4.480933728681808
4.483491392146312,28.307697749027767,-28.351103609825703,-0.3914670220212129,5.027426816228407,4.52908032904433
4.5345152689210755,28.94796740949945,-28.70858718196349,-0.39575015481290354,4.744296569022516,4.57833869057083
4.586123990748766,29.58405747937524,-29.05859053866443,-0.400088286019086,4.457858028331939,4.628118018012696
4.638902983024187,30.22289955487148,-29.40498003361903,-0.40453135929380957,4.165041770384827,4.678981978110815
4.687484397744522,30.80076209180126,-29.71390733666726,-0.4086272975526384,3.8957683230348534,4.725762249724167
4.706920616353142,31.029194169129738,-29.833007997386986,-0.41026685238260147,3.78630071448294,4.744454597313762
4.6946882869477315,30.877408553353757,-29.56350083877091,-0.40914716431913783,3.6686697348250648,4.731355482737029
4.669486566551863,30.56199441186635,-29.00279001291327,-0.4068454399854274,3.4235588860906527,4.704362819364706
4.64340120530116,30.231617870615963,-28.414534720079626,-0.4044704547969962,3.16587142582882,4.676416297757967
4.61760213220421,29.90086182680317,-27.824660622681552,-0.40212921256474193,2.906941503519012,4.64876888283657
4.592042774965823,29.56914901281184,-27.23215857679262,-0.3998174875438062,2.6463376149357942,4.621370705398946
4.566660421734363,29.235660778033285,-26.63558052435135,-0.39752965545753677,2.3834308329713374,4.594154528271789
4.541680269235198,28.90339139134253,-26.04030534645565,-0.39528598365173867,2.120604180916872,4.567361874711759
4.5171077206348915,28.57250742368129,-25.446665564111903,-0.3930868105357194,1.8580236184372818,4.5409987032851085
4.492763987075937,28.240655905116647,-24.850464363006097,-0.3909160655088057,1.5938466137870944,4.514873278066837
4.468807221942625,27.910044771312357,-24.255691723484496,-0.38878778575024975,1.3298541256201137,4.48915539916104
4.445226335188033,27.580613151186952,-23.6622683303595,-0.3867008404405125,1.0660278318575036,4.4638333055347665
4.421787903844282,27.249131000193646,-23.06439337517343,-0.3846345464370213,0.7997986359192687,4.438656360187591
4.403889155051648,26.993218975637824,-22.60231277042678,-0.3830621708312175,0.5937544104467629,4.41942459287904
4.3915701370728035,26.835245417224474,-22.462881450453896,-0.3819928578827478,0.6123783379597451,4.407265108577655
4.351319090873929,26.331722360725276,-22.16746363941945,-0.3785118374897545,0.820745698345065,4.368505796306613
4.302679546125851,25.712644747314545,-21.79965445400764,-0.37431127442876033,1.072327823885594,4.321633765197515
4.254852464268595,25.09227559995785,-21.425969498467435,-0.37018693070747205,1.319317224866484,4.275506229744195
4.207900367242901,24.4717178809948,-21.04702891129637,-0.36614359916798445,1.5612308478296635,4.230184475599452
4.161994150757291,23.853619650758848,-20.664452463881844,-0.3621953769459011,1.7970395141683386,4.185834775914358
4.117579150401362,23.244607526998774,-20.28246040898636,-0.3583798780400311,2.0243343204732644,4.1428894773694775
4.089386527857637,22.852288393734753,-20.03372460411019,-0.3559601254651003,2.168090596715771,4.115610820123967
4.086238103433046,22.818721519991133,-20.155576439573114,-0.35572400333776727,2.3235258533648926,4.113430221743134
4.082000351556633,22.79084264345507,-20.61542963031255,-0.3554907689574231,2.8112748023471146,4.112224043285058
4.077297188668692,22.75342378699311,-21.12323895655053,-0.355263306323256,3.3565216494620036,4.110905443135154
4.07264058305452,22.70951893760837,-21.62333116721182,-0.3550713352055439,3.900537111919762,4.109621812152553
4.06802146437093,22.65908083834312,-22.11670040998582,-0.3549143407035628,4.444362628851347,4.108371244855068
4.063393850818068,22.60152277649059,-22.608229099401385,-0.3547912403028861,4.9934675056370805,4.1071422959591875
4.05880809109934,22.53739579023508,-23.09254334506156,-0.3547038335360958,5.541926613801467,4.105949317263032
4.054233483144244,22.466240863956013,-23.572876629749686,-0.35465180045161404,6.093432569261474,4.104785156601969
4.049725519317732,22.388952319613765,-24.04341610985186,-0.3546357639570871,6.64127798978583,4.103664546378633
4.045515358668704,22.31020619507373,-24.48031226043707,-0.3546531937437284,7.156936427887731,4.102642950015516
4.043709541681361,22.274455504128344,-24.666935309452352,-0.3546704616947028,7.3793170748293235,4.102212439917042
4.023122824464452,22.266573594827832,-24.71563221877728,-0.3529110805882675,7.436022135235474,4.0818238721989095
3.633194989978166,22.293897112687613,-24.73162109041165,-0.31870793802579206,7.426977703056708,3.6888898239885313
3.03109585462796,22.330595947616406,-24.753081126985577,-0.26586937499265095,7.414818297364262,3.0821798962344253
2.424365000053303,22.360847584087043,-24.770758242342346,-0.2125987594395512,7.40478550201035,2.470835388563099
1.8132635053884034,22.384501882096387,-24.784572291319076,-0.15892360704733977,7.396935425095785,1.8551135024037322
1.2058158392276408,22.40124415823205,-24.79434249621575,-0.10555610793365029,7.3913466820114,1.2430916785485526
0.5986664301027959,22.411245523338916,-24.80017940417827,-0.05220253830943404,7.388027894994365,0.6313846475098772
-0.011164101232576365,22.414517009755606,-24.802088920963016,0.0013918517277416922,7.386946658780192,0.01698291972683848
-0.6191434589570829,22.41102208782516,-24.800050573232927,0.05482358962734016,7.388115768863924,-0.5955538450275881
-1.2283345675285005,22.400749447943515,-24.794053711592564,0.10835331744360885,7.391507213511151,-1.2093200255494951
-1.8370541228643658,22.38371600735671,-24.78411182193602,0.1618343466760688,7.397175270352666,-1.8226225723407006
-2.446641543164817,22.359867393938718,-24.77018556831693,0.21537610428929937,7.40510324609071,-2.4368195356580227
-3.0540955996989037,22.329331761670236,-24.75234360034496,0.26870987925671713,7.415243412327084,-3.0488935176954484
-3.652911900937625,22.292602064015657,-24.73086642309742,0.3212601357220466,7.427425859956338,-3.6522963411192744
-4.0263923867704055,22.266351974151114,-24.715503246220447,0.35401615504750417,7.436092196710612,-4.028659015375304
-4.041409161126316,22.24038639225997,-24.545216323984167,0.35521708691572956,7.291681057637662,-4.042887181747765
-4.0351252766356085,22.164335787470844,-24.041258923117187,0.35433757103865093,6.863821273897273,-4.0338908851774065
-4.028169768733999,22.074905298384213,-23.478690721112283,0.3533892407917146,6.390735441853872,-4.023951417035287
-4.021330099398175,21.98161086139019,-22.920580089137218,0.3524821532289915,5.925970106795519,-4.0141953759881135
-4.014505307798262,21.88325296739746,-22.358778130791574,0.3516018567417475,5.462576639681872,-4.004477330653052
-4.007725587410138,21.78035884171017,-21.79578337972903,0.3507516115309692,5.002526129964636,-3.9948391707798754
-4.000966723627305,21.67265646687752,-21.229602914697963,0.3499277490556335,4.544097857836656,-3.9852453835228494
-3.994271434724161,21.56093885669904,-20.663851578180587,0.3491347859116689,4.090113342515546,-3.975755500163622
-3.9876280658279746,21.445156334853216,-20.097615288001517,0.34837052053008893,3.639708270031389,-3.9663518435452185
-3.981033653893949,21.32538123459393,-19.530694852236007,0.3476339047687183,3.1926111424900996,-3.9570291547625502
-3.9759210566702885,21.229204480416282,-19.087798207325505,0.34707779653624465,2.845928540138811,-3.9498088587046736
-3.97500473783004,21.209382717592103,-18.96929810175974,0.346968806588928,2.747257540244128,-3.948294101777053
-3.9962087127982717,21.519229307644025,-19.1728750659761,0.34878406539371115,2.6408613972908466,-3.9688587342360533
-4.0367399024204955,22.103920565724586,-19.553441631635696,0.3522560160567676,2.43649310394623,-4.008142955013258
-4.07486850410028,22.64506312968377,-19.90149752968856,0.35552486129926203,2.2431751625522227,-4.045069288706605
-4.087602805379429,22.825188236060207,-20.033495924259395,0.35662114505317594,2.1949704324811745,-4.057498986869293
-4.084546329432599,22.806652011986788,-20.366123054752105,0.3564454163531893,2.5461459893188176,-4.0566289137807665
-4.0798767466790435,22.77281236563623,-20.87212727290786,0.35620372072599604,3.0860084360070075,-4.055316524355778
-4.075201548473302,22.732118436217423,-21.37606417850885,0.35599479262395844,3.6306577998531706,-4.054024026511007
-4.07056138218585,22.68484191019185,-21.873525617185447,0.35582088000495865,4.1754140762214815,-4.052763637154854
-4.065953142329331,22.630951531754217,-22.364849261748848,0.35568192177130264,4.720646204199958,-4.051535230676669
-4.061350937571269,22.570080375851813,-22.85277427873895,0.35557753148636834,5.269460374562177,-4.050332844945796
-4.056773365891737,22.50239321720232,-23.33530011712356,0.3555086348503375,5.819691186061691,-4.049162348459523
-4.052221445496834,22.42786915876505,-23.812307513777466,0.35547555687634597,6.371240266406947,-4.0480248620392745
-4.047707980537735,22.34671687113321,-24.282455573517524,0.3554785546559963,6.9225579984260275,-4.046924321122789
-4.044577878462433,22.286111878878156,-24.60681862327233,0.35550206559478553,7.307538041125287,-4.046177775030432
-4.043620918029019,22.266866448374703,-24.705706149683067,0.35551281749052427,7.425674657659945,-4.045952344876364
-4.0528265635053256,22.40312786181684,-24.803251674566834,0.35628859163861815,7.386902456559541,-4.054984686938804
-4.088360988791593,22.926455957224725,-25.136377402010634,0.3592509903717911,7.196482364402847,-4.089582773753746
-4.131382829303019,23.55069581828295,-25.528913499274964,0.36283829173820253,6.964512615916593,-4.1314353349600275
-4.175163654134834,24.175673044750567,-25.916684699119074,0.36649005883709673,6.727033232381435,-4.173987098353989
-4.219738504246643,24.801598511557856,-26.29983185466762,0.37020969661928615,6.483973829876552,-4.217271013135936
-4.265093728160527,25.427994235126068,-26.678077860894227,0.37399657411117215,6.235535226135582,-4.261272735756727
-4.311434506100919,26.057346983845648,-27.052914315598844,0.37786837291671266,5.980720775088328,-4.306190014013035
-4.344979744081471,26.50635599198859,-27.317174873077477,0.38067299312573766,5.795754606764615,-4.3386797982759235
-4.2629844911241035,26.581497054908553,-27.3607857265048,0.37348962835235744,5.764764948944203,-4.256066752604931
-3.7872526305847396,26.615073017192618,-27.378591185805206,0.33191098071021446,5.7519244969248415,-3.777876649123568
-3.159353099474878,26.653281431137096,-27.398836476378975,0.2770026300352747,5.73729990335485,-3.1467751660103365
-2.5303002736334137,26.684608416578815,-27.41542226215649,0.22196410901021774,5.72529978557621,-2.514555627555984
-1.9002687262498899,26.709024446160075,-27.428340871298477,0.16681635591415994,5.715941848854368,-1.881385517544702
-1.2730361696696373,26.72642283988269,-27.437538975183127,0.11189695249311138,5.709240936192298,-1.251053833858446
-0.6419415279718445,26.736984664076736,-27.44312306763487,0.05662672570242207,5.7051933214115795,-0.6168569391984511
-0.013300194278442968,26.740583461425054,-27.4450258225741,0.0015652610277664882,5.703818558698433,0.014866149520827208
0.6136058078626507,26.73729400300615,-27.44328768573857,-0.053344475595386284,5.7050886828131055,0.6448451663044822
1.2410424200466146,26.72711976941441,-27.437906518502558,-0.10829300781534018,5.708970609594059,1.2753654016670777
1.8724978141327038,26.709930207701916,-27.4288169868458,-0.16358394266732565,5.7155746260521285,1.9099402433159085
2.50051057551064,26.685907546370778,-27.416107931911657,-0.21855626603160755,5.724796079833636,2.541079759746524
3.126920457891251,26.65505316593916,-27.399774037442768,-0.27336545776914517,5.736629603859656,3.170640687407
3.756671649217486,26.617076762031342,-27.37965053079884,-0.3284349251840893,5.7511492402574005,3.8036013577341925
4.251914552467652,26.582304635217767,-27.361212206041817,-0.3717204384368753,5.7644586808240685,4.301401362126033
4.347429240433377,26.542951679658263,-27.294529706287324,-0.38004542545488473,5.736503513417596,4.397208148522831
4.330404500158426,26.31765180684881,-26.85223357141489,-0.37841703593982573,5.519624828942102,4.3786582126454485
4.308047314081094,26.018205670853945,-26.26463526035994,-0.3762866700961315,5.231626338612478,4.3542958344987746
4.2858012886865335,25.716131784993976,-25.672170591879976,-0.3741761486532356,4.9413876654820506,4.330051797497437
4.263811736379696,25.41341348297354,-25.07872590790575,-0.37209921015771114,4.650810844864927,4.306084289496416
4.24203282979578,25.109458568594665,-24.483134883514847,-0.37005141674286185,4.359322085545744,4.282343206793653
4.2205423819699925,24.805402312987194,-23.887616174931356,-0.36803995408501083,4.068004273361211,4.258913230372134
4.19939375406083,24.502088686365127,-23.293814563031024,-0.36606959971975883,3.7776578935656615,4.2358524318967925
4.17840665519708,24.19698582863748,-22.69676766970575,-0.36412342006748255,3.485853662044847,4.212964088646694
4.157752111041013,23.892632841831848,-22.101438760881233,-0.3622171429637604,3.195014629257212,4.190434592618247
4.13721332669317,23.585875922982932,-21.501654328284538,-0.36033065665201575,2.9021225500532446,4.168027332510938
4.116921992769172,23.278698391932107,-20.90128933507338,-0.3584760097590232,2.609068218161826,4.1458858212929
4.099009752855505,23.004060735680294,-20.364722073440344,-0.3568465000938796,2.347255578878219,4.126336633050319
4.091104509751547,22.881799769157453,-20.125916977989117,-0.3561296760934185,2.230762905421152,4.117707796467303
4.071576438183833,22.827158317612785,-20.0176538340787,-0.35441792976450587,2.1772634714855523,4.097855720975178
3.713995102950005,22.851217688502974,-20.031561405921277,-0.32330003536438456,2.169230255401336,3.740394824380508
3.1151856688483495,22.886532295088006,-20.051961545214706,-0.2711632197221985,2.157428970670037,3.1418182714203375
2.502322382108861,22.916238900559794,-20.069109693494497,-0.21777336259135077,2.1474929603872046,2.5292279913109645
1.8888602976109095,22.93946801672021,-20.08251088165522,-0.16430733886024684,2.139718625603047,1.9160674568938467
1.2734739638134145,22.956238175697468,-20.092178551446043,-0.11065496024625032,2.134073689528442,1.3010068273516493
0.6612327574928687,22.966444944442895,-20.098062956592504,-0.057265200817817566,2.130657990675009,0.6891023730634266
0.048008916734490995,22.97019289203205,-20.100223867137686,-0.003783317305266983,2.1294078301694968,0.07622332543924913
-0.5654407004467928,22.967460585788334,-20.098649872792404,0.04971884577352816,2.1303311360161077,-0.5368807910842166
-1.177589384736816,22.958267661897914,-20.093348454065378,0.10310152412276527,2.1333896780006945,-1.1486900449452824
-1.7919385872387048,22.942548522391228,-20.084285763506877,0.15666543894475912,2.1386657922226173,-1.7627128751103984
-2.4053273828342983,22.920353727937,-20.071483820599944,0.21012863158618053,2.1461082354275196,-2.37579602501073
-3.0157939970375445,22.89180491281734,-20.055007240600645,0.2633144730323209,2.1556718124639,-2.985985362657248
-3.632153693262874,22.856425487543795,-20.034570440548723,0.3169829930894398,2.1674792917764645,-3.6020990551971264
-4.24212931733752,22.814916333876965,-20.010575603745284,0.37006298167446744,2.1813510167762407,-4.211872058915377
-4.858153401032464,22.76641339474206,-19.982509399130265,0.4236288472645468,2.197536181175401,-4.827739423155091
-5.469670847358097,22.711699082933553,-19.950812117701865,0.4767568371855337,2.215763729775626,-5.439155720369231
-5.950103953144363,22.66410697558405,-19.923209122750684,0.51846045400812,2.231592650140681,-5.91955179421691
-6.036709812808433,22.651541536246334,-19.9830143460785,0.525996391738087,2.303145306148165,-6.006785683428838
-6.031168642656152,22.627251857569362,-20.39214701175066,0.5256902863701655,2.7366002077842557,-6.00522452902822
-6.024259297176663,22.59085747130347,-20.899881924676684,0.5253523631104602,3.2807699578967475,-6.0033056558708005
-6.01738923801252,22.547813798830333,-21.40202225239919,0.5250655171036762,3.8259940123924228,-6.001429843890437
-6.010600450451314,22.49841768806852,-21.895517958860946,0.5248313206858357,4.368925239420154,-5.999609457437336
-6.0038147092654714,22.442080390079436,-22.386052274752497,0.5246473134561388,4.915836068315828,-5.997824678704065
-5.997076748679184,22.379102973672026,-22.870367423860724,0.5245153482872487,5.46316738984192,-5.996088688833187
-5.9903470846249585,22.309053244845394,-23.351279523880148,0.5244352797562684,6.014167737219515,-5.994392715791784
-5.983708618335677,22.232802104357752,-23.82286946659703,0.524408244606334,6.562046623282846,-5.992758677204944
-5.977191215563673,22.150884901385812,-24.283092212154795,0.524433206799743,7.1042234903263495,-5.9911939201423134
-5.973601797769528,22.10273084972195,-24.535365611127272,0.5244692314513844,7.404671188269377,-5.990349520331572
-5.972559993258062,22.08834556536598,-24.60842596741711,0.5244826946218188,7.492122693954733,-5.9901068116028
-6.252289582214175,22.056430359201908,-24.592347139702298,0.5489508608971925,7.505345385398724,-6.272111930700721
-6.826621002603414,21.98730062782455,-24.55166697417429,0.5991454884144376,7.52805486472612,-6.851106053372465
-7.425844409378986,21.90857708393552,-24.505266231505395,0.6514608612018292,7.553853010808678,-7.455263852980982
-8.030352190027164,21.82229773693869,-24.454320217847734,0.7041760869989141,7.58205028921355,-8.064827597263584
-8.633309845773812,21.729337343377054,-24.399321720595132,0.7566896781307154,7.612340973776355,-8.672912408476808
-9.234580547182112,21.62972796663634,-24.34026247068517,0.8089827050799673,7.6446633970723985,-9.279387796769687
-9.833721131988028,21.52357133596616,-24.277183516714683,0.8610174546244388,7.679025228511367,-9.88380732950958
-10.438244948102005,21.409429564881066,-24.20919710592803,0.9134386168564952,7.715835459117321,-10.493759410714135
-11.03986763030589,21.288773324542774,-24.137147054384407,0.9655224682669722,7.754592758965628,-11.100891656899774
-11.639226307625817,21.16151231611572,-24.060948458087534,1.017320474808476,7.795300025438807,-11.7058512617959
-12.240496233354737,21.026706295782358,-23.979999801456078,1.0691848056895055,7.838197154347578,-12.31286094975902
-12.840569063159226,20.884985878962436,-23.89464785308909,1.120850023665049,7.88311308021699,-12.9187822161761
-13.258456573546285,20.7820184901251,-23.832471230461092,1.1567681699871204,7.915608932248937,-13.340818044279482
-13.512640552321837,20.71766042587195,-23.793538641904618,1.1785903391143269,7.935860868934565,-13.597556461562743
-13.818878291853999,20.638366288692254,-23.7454135683522,1.204855083173457,7.960668390766166,-13.906902094781929
-13.809182616415889,20.608904116750562,-23.51272429701936,1.2034373194718468,7.757689530771458,-13.89281935810243
-13.787272873698571,20.5386313454176,-22.983640090916563,1.2002950932550813,7.299437832641873,-13.861041984988281
-13.764538637358244,20.46032370547122,-22.429825369667345,1.1971237473068208,6.8245097916028605,-13.828133624678957
-13.741796584475372,20.376524566880263,-21.870861651696483,1.1940408090505192,6.349922694621343,-13.795276799637836
-13.719255566529217,20.28809864246144,-21.311896191380136,1.191072229945735,5.879953837875317,-13.762769294474163
-13.69673222133909,20.19442805590218,-20.748403070850713,1.1881914678356522,5.4106998814213,-13.730342730974153
-13.67461515001541,20.097298425736476,-20.190192395110785,1.1854448220216052,4.950175581151264,-13.698552081023426
-13.652284332078263,19.994071973239407,-19.6216250519094,1.1827533011997815,4.48539526391632,-13.666502568933227
-13.630303181810737,19.88741591933398,-19.057036703140597,1.1801832419357738,4.028013272412858,-13.634999572339096
-13.608781743467283,19.77815248980346,-18.499468000540933,1.1777424667110943,3.580245388175341,-13.604195723208612
-13.595877713999295,19.710348559834806,-18.162861020820152,1.1763145727437019,3.3117638960388605,-13.58574410772857
-13.591400375742921,19.686421451136923,-18.045662725594475,1.175825338135886,3.218604167609977,-13.579344947367597
-13.641597130396278,19.901303164356342,-18.186618658666806,1.1799991456653804,3.1436630113405295,-13.62806550624823
-13.770902404814285,20.44936817749448,-18.556446675065555,1.1907662762600022,2.962791679726271,-13.75377162942452
-13.901632900984925,20.99472353008192,-18.920328116215753,1.201653125471424,2.7786309804668683,-13.880767598236906
-13.959647673066668,21.233975345062213,-19.07867406338735,1.206484927785764,2.6965252496641656,-13.937094864082182
-13.959637917056305,21.243660108181544,-19.253858318908666,1.206652928046054,2.86198830239583,-13.940573608227464
-13.945336192025032,21.209236176110984,-19.72140573669568,1.2060152163083662,3.3641493606930646,-13.93684234891071
-13.930002448012194,21.16585997473942,-20.220006669728438,1.2054390537915838,3.9063290895163276,-13.93291009556258
-13.9147326050349,21.115879109683753,-20.713720103993992,1.204978293594754,4.4502242753305605,-13.929068211973812
-13.89952322741363,21.059226276963738,-21.202640175576956,1.2046340082423346,4.995996374977631,-13.925318891342181
-13.884267818647665,20.995372454460373,-21.690141120905306,1.2044063254980308,5.547550002911176,-13.921639861502436
-13.869238180664253,20.925436962591522,-22.167534238851616,1.2043000194041127,6.0950735707004515,-13.91809935574112
-13.854220816335264,20.848449658140296,-22.641614220187115,1.204313686118514,6.6463346634065825,-13.91464929134607
-13.8392725791078,20.76461546532964,-23.110553518362437,1.2044493194968975,7.199300042843515,-13.911306302642137
-13.826646598266613,20.6880995644254,-23.504299115381492,1.2046610686608894,7.669722789330976,-13.908556795921845
-13.822320920760397,20.66066585056441,-23.63869644977138,1.2047544710997367,7.831608901713103,-13.907630956219142
-13.819449281543344,20.642107057698585,-23.72777503767057,1.2048224242084264,7.939282785693948,-13.907020973415635
-13.844228618345339,20.748379113523406,-23.818622100455066,1.2068934110222973,7.9233407200673085,-13.93167048779367
-13.959254350363718,21.24354689211742,-24.14570573239098,1.2162227443777547,7.752866392340819,-14.044011345251189
-14.104013993003363,21.857708530474163,-24.54673802750326,1.2279567550525714,7.536703121010594,-14.185277642077487
-14.250469006771358,22.469085229719138,-24.94086179604331,1.2398215262249408,7.316351387902001,-14.328071656605859
-14.400098301593765,23.083607057254046,-25.331926050835722,1.2519378330929618,7.089697401060498,-14.473832320311503
-14.552375407818918,23.69877637226022,-25.718324430729407,1.264264020177411,6.857641920099625,-14.622042642447866
-14.707855054980174,24.316503000560882,-26.10124715491787,1.2768460477960122,6.619451561882982,-14.773238504581114
-14.867081560813777,24.93851848732618,-26.481714899459988,1.2897290761565372,6.374401409232923,-14.927943978257241
-15.027668142546872,25.555258087135456,-26.853920949579393,1.3027212094331395,6.126300362627648,-15.083837254142384
-15.192403310544822,26.177158804260976,-27.2241974301093,1.3160493344480508,5.870979800493361,-15.2436222003355
-15.359420350011844,26.79681830912354,-27.5881338337315,1.329563763512623,5.611471302265631,-15.405484055540441
-15.531059321811588,27.42252544160362,-27.95058426029073,1.3434552841650107,5.344284749474286,-15.571686093032595
-15.705862326540116,28.048497727402705,-28.30815616055869,1.3576074420747994,5.071840760372048,-15.740811160214845
-15.873876585498449,28.63971169877016,-28.64128161009231,1.3712154963451657,4.809826421677863,-15.903237901733759
-15.961283262067703,28.94331600711221,-28.810626380056323,1.3782973639100429,4.6735093384921305,-15.987688532791148
-15.978371941010813,29.00171596005502,-28.80298351390056,1.3796045663895997,4.607074602032863,-16.00323423515142
-15.914757494695959,28.776041708905606,-28.372164812770908,1.3738697671858733,4.403517340552242,-15.934497969441413
-15.828654621953781,28.466976491642022,-27.782228559317474,1.366132012058289,4.12478452744587,-15.841451019680546
-15.743833397257346,28.15836353458153,-27.19324090658244,1.3585374636097152,3.846504920113568,-15.749775226986246
-15.659993391413275,27.849182572656048,-26.60324962519455,1.3510587960112062,3.5677544289196743,-15.659145590467794
-15.57718642978474,27.539679935306594,-26.012720334028405,1.343700326466256,3.288751466617227,-15.569617790998523
-15.495837703021126,27.23153838274273,-25.42485887570768,1.3364992739203547,3.011009209420443,-15.481651340784012
-15.415292534225161,26.922356124981334,-24.835078882123586,1.3293972277452888,2.732359429170342,-15.394538074198158
-15.335144116459698,26.61056997931665,-24.240395678401036,1.3223584060006295,2.45139070150605,-15.307837478673651
-15.25594056655755,26.29832248974474,-23.644892960360586,1.3154309557974924,2.1700312455549646,-15.222141993236379
-15.177855597137592,25.986366179573725,-23.05000237079928,1.3086296898977023,1.8889564078416976,-15.137639322007104
-15.10052975668058,25.673319696199943,-22.4530865552156,1.3019230103924804,1.6069190926837038,-15.053940177669862
-15.034012779253656,25.40067691841361,-21.93325371267193,1.2961770463586335,1.3612975207321227,-14.981925728091436
-15.004862748148675,25.280200350930762,-21.703559450101373,1.293665875044843,1.2527650251848648,-14.950361956461396
-14.96499124044338,25.22472033428759,-21.604780719765067,1.2902868335265143,1.2103745178070782,-14.909593597945827
-14.574594914937094,25.14381610503038,-21.550494896050683,1.257387780668203,1.245648949782257,-14.520569957737017
-13.967752980930857,25.012601767692473,-21.462883111278714,1.2061341068972942,1.302262750782057,-13.915835688003046
-13.355800824917548,24.873504158069167,-21.370489380111678,1.1543125966576482,1.3615389978532502,-13.305970299026544
-12.744437145969062,24.727679040344018,-21.274052343604232,1.1024100102035632,1.422936093041026,-12.696645229766853
-12.129336387761736,24.57396759474562,-21.172769124754865,1.0500641507476285,1.4868603101932711,-12.083536484494545
-11.515506528521547,24.413511278229542,-21.06736055164041,0.9977058679750268,1.5528504259662905,-11.471638041527692
-10.903884460250405,24.246534169719,-20.957926913875642,0.9454217969340891,1.6207404935832848,-10.861871952896728
-10.289809745837138,24.07167459830416,-20.84352881007684,0.8928205851149377,1.6910009751326132,-10.249578783173389
-9.677837445905501,23.890143245480665,-20.724917713095063,0.8402954917821437,1.7631563709991451,-9.639304429132933
-9.066360983679527,23.701416095706115,-20.601698051515324,0.7877160012307237,1.837332661903005,-9.029434324166838
-8.465059157715059,23.50858051625742,-20.475832676033512,0.7359223390663907,1.912281693422337,-8.42961724728162
-7.870498249751324,23.31074190872013,-20.346681543589778,0.6846305561688603,1.9882961938846448,-7.836418852548847
-7.275755543574564,23.10562695887163,-20.212713152833985,0.6332444836759858,2.066270145030937,-7.242940361574367
-6.681148632977157,22.893240706155563,-20.073871210550823,0.5817992103354828,2.1461083592256447,-6.649485841505716
-6.170581325267947,22.704954507747125,-19.950642929300116,0.5375722992276227,2.216145625184296,-6.139814250036841
-6.03712723009692,22.65320730165462,-19.951974856256424,0.5260173815956988,2.2704599758483113,-6.0069081200287595
-6.032072312866906,22.631519515037223,-20.325399152000582,0.5257347651718975,2.6656017691410727,-6.005481906835959
-6.0252095334139915,22.59628209787729,-20.830083171495932,0.5253925826758384,3.20556340539633,-6.003571836200611
-6.018344618841785,22.55422769150305,-21.332235615174778,0.5250990836659284,3.7498103026944407,-6.001692942125391
-6.011541142832788,22.50568882447398,-21.82718921108445,0.5248574508927105,4.293342284371719,-5.99986394806946
-6.004748784228545,22.45026864782577,-22.318594572067493,0.5246662614655083,4.840207099673448,-5.998072572734431
-5.997983647302742,22.38800807913626,-22.805254825726802,0.5245267490531709,5.389166859272708,-5.996324584192195
-5.991267265741783,22.31907340133393,-23.285611361654386,0.5244397545963116,5.938496541135673,-5.994626782823062
-5.984604659188514,22.243528347325935,-23.759312101410952,0.5244054585521685,6.487780301570183,-5.9929814443943465
-5.978009813900327,22.161576280466168,-24.225381502025563,0.5244238473236386,7.03583915186965,-5.991392845046477
-5.97395067107422,22.1075200872905,-24.510831226221708,0.5244616486564884,7.375367977165285,-5.990435676302341
-5.972728288134121,22.090694677081043,-24.596578085925437,0.5244770518631564,7.477947130143315,-5.99015059872068
-5.983326392702102,22.19651399219458,-24.680772382309804,0.5253775210848569,7.456226102063057,-6.000629113018023
-6.033037195470734,22.692609376077645,-24.998107421701775,0.5295091485100284,7.27701651636703,-6.0490495090281104
-6.096563437360161,23.317423871705405,-25.393053167919835,0.5347895382938449,7.046568613463464,-6.110875353515106
-6.161158179248507,23.94245987754911,-25.78289619365449,0.5401599063205713,6.810780918262889,-6.17368335270667
-6.226748314701467,24.566776572095684,-26.167087800448936,0.545614843559608,6.570045948234476,-6.237401107920284
-6.293822424341199,25.194699750399064,-26.54828608589107,0.5511957079391943,6.322691121533659,-6.3025014393989345
-6.362030844894255,25.822606499182374,-26.92427970564093,0.5568741776513094,6.070130924218953,-6.3686430356691766
-6.4316936164907,26.453109204631065,-27.29663425457016,0.5626777108392733,5.811315159263383,-6.436134404288729
-6.502962724386308,27.087147545352042,-27.665862119273577,0.568619871385902,5.545814631167891,-6.505120401303713
-6.574953968769311,27.71659767720275,-28.027279108808223,0.5746278040166073,5.277077209469699,-6.574743774139585
-6.648812208469479,28.351160602681915,-28.386482697554666,0.580797986985595,5.000987774541017,-6.646110075931085
-6.724299224996644,28.988283463955707,-28.74196866205882,0.5871116167005933,4.718596776372957,-6.71898638957742
-6.801262962749279,29.62627560410999,-29.092786608924524,0.5935570693596256,4.430645508232018,-6.793223751843116
-6.879717612240591,30.264889356389354,-29.438817335643492,0.6001366474080017,4.13726181495382,-6.8688339346105
-6.938913934007726,30.739083302929036,-29.692457926931013,0.6051076909296963,3.916098626963572,-6.925841506394747
-7.034109561801353,30.801753600451566,-29.72629610470073,0.6133410298293758,3.8862577663825704,-7.020929278222711
-7.518844812080145,30.74242252370431,-29.69784935076265,0.6553680781966552,3.9117834093290846,-7.507018100608682
-8.164938715969845,30.657042021684646,-29.656840191211074,0.7113188327578159,3.9484592339345848,-8.155015125800354
-8.813635960110796,30.564032743408376,-29.612069014117893,0.7674130203286788,3.988335654719829,-8.805745733119497
-9.461420228063634,30.463817350271317,-29.563711655907596,0.8233378919598993,4.0311812144258345,-9.455692084408234
-10.110748452251267,30.355957221185264,-29.511536284933445,0.8793028602714847,4.077225197705147,-10.107330084216505
-10.758640710222238,30.24088436055749,-29.45572021089964,0.9350430982666785,4.12622964300892,-10.757678213185837
-11.406537995099486,30.1183010387167,-29.396085582769143,0.9906737920641283,4.178266457846171,-11.408191925488325
-12.05658644273933,29.98770373314256,-29.332359688022354,1.0463779904892714,4.233584792018608,-12.061036049892525
-12.702148172290444,29.850392771891645,-29.26513950549734,1.1015788275191114,4.291575549861941,-12.709552588420987
-13.351744367034833,29.704485243513993,-29.193462166344858,1.1569952395018757,4.352972584013607,-13.362311387710466
-13.987085281741363,29.55419901954531,-29.119372106286804,1.2110711961331226,4.416035642427376,-14.000936820176593
-14.40755871947235,29.450575767800263,-29.068129763599867,1.2467868760152006,4.459394237065056,-14.42369255301916
-14.693530283738644,29.378190956635656,-29.032259016062035,1.2710439221642997,4.489621792984621,-14.7112672470103
-15.286682673202193,29.223087928027805,-28.955185985307395,1.321267299466128,4.554225231253642,-15.307879880578795
-15.827097873354601,29.075888045337656,-28.88177084253324,1.366911959642086,4.61529480295642,-15.851612199293893
-15.98318318118146,29.018671398183013,-28.83535045673381,1.3800554051904705,4.6223495271802335,-16.008419369265038
-15.927419275899577,28.82111740309664,-28.45820842050215,1.3750265228123604,4.444153579405896,-15.948166532599934
-15.842342508852747,28.516368476436746,-27.876498022782997,1.3673767326346944,4.169306624002842,-15.856230446989219
-15.757118679064448,28.206955012944782,-27.285969736383368,1.3597416684650367,3.890298653277565,-15.764121704288371
-15.672985815031419,27.897347274538014,-26.695152131743516,1.3522324739035252,3.6111575595591057,-15.67317772973957
-15.590154689906544,27.588404421793896,-26.105679704710326,1.3448674635812148,3.332653968894234,-15.583626114926334
-15.508625509515126,27.280228668690626,-25.517742441815752,1.3376460372468701,3.0548761560088686,-15.495466920420071
-15.427899239634586,26.97099966133292,-24.92786332480571,1.330523617057468,2.7761800036409934,-15.408160252469221
-15.347650085381861,26.65947393974089,-24.33366740228014,1.323471504147435,2.4954421513995526,-15.321353250345481
-15.26840100355632,26.34770205034123,-23.7390627868754,1.316535595025272,2.2145078527083055,-15.23561116059221
-15.189665488281609,26.03379393389467,-23.140441844065943,1.3096732307456362,1.931671470919242,-15.150407183920198
-15.112732824657718,25.722979355995392,-22.547774057582178,1.3029962514910542,1.6516424249116675,-15.067136382613416
-15.044767721291452,25.44495303101615,-22.017670377232673,1.297121387225029,1.4011689435046981,-14.993556565545491
-15.014564332436196,25.320345080459035,-21.78009699829326,1.2945179393148754,1.2889139649171386,-14.960853211757053
-14.996892885528096,25.247134895532447,-21.640520395566515,1.2929968253457151,1.2229625607015184,-14.941717672878761
-15.021290730639757,25.08250123243229,-21.519787621650075,1.2950729088873252,1.2663026010238094,-14.967058545409515
-15.121545340447582,24.555703638875652,-21.201091380538905,1.3036261001620801,1.4720822028788467,-15.07185204489542
-15.234958940847395,23.94952848792707,-20.82979496366097,1.313318986090323,1.7043151208413851,-15.190462432073813
-15.346348407086461,23.34332717336426,-20.45355950990277,1.322856609827683,1.93166246199599,-15.307016163464649
-15.45601580914101,22.735716231000293,-20.071484676787094,1.3322639973465282,2.1546012897419846,-15.421821965498177
-15.56371855372731,22.128300224959524,-19.684540661694218,1.3415194432861006,2.372503994951126,-15.534618678651935
-15.66938706118286,21.521785479726596,-19.29316659874618,1.350615939867128,2.5851061208960995,-15.645326165131705
-15.762352236043983,20.979305927303077,-18.938858188055157,1.3586317018779677,2.771029359085078,-15.742754383194594
-15.799289761916059,20.761411313091642,-18.795410143399387,1.3618198683737786,2.8445790117330922,-15.78147211301717
-15.792264465743866,20.745563027062694,-19.005867192200466,1.3615072871111713,3.0709873056216086,-15.779827262189109
-15.775747869041346,20.707602882779177,-19.487000079788256,1.3608362432106194,3.590326086309962,-15.775642841285453
-15.758546503595936,20.66145904167003,-19.985292524966006,1.3602619221840457,4.135017266524534,-15.771364022530308
-15.741547046092839,20.60909889588636,-20.474892917959593,1.3598218961004602,4.677228613547216,-15.767218994484798
-15.724447497090539,20.549515186329025,-20.964473274239193,1.3595101198142,5.22664381751,-15.763137864722802
-15.707492885430229,20.48344993489843,-21.446976890733463,1.3593335869483387,5.775460508575405,-15.759183340884341
-15.690667226108808,20.410870027122602,-21.92287568501928,1.3592920815497076,6.324183929844597,-15.755354108618942
-15.67390280445229,20.33146205288789,-22.3940798998354,1.3593864432596567,6.875038687728774,-15.751637856218062
-15.657218454448913,20.245263043712427,-22.860041406727422,1.3596182647440958,7.427439312713834,-15.748042317514706
-15.6442128231385,20.17301664715649,-23.221156172995748,1.3598966813395001,7.860986707814923,-15.745313967877264
-15.64018465395536,20.14972979615755,-23.332622962065383,1.3600005894715927,7.995797857832202,-15.744482576620731
-15.637158935656666,20.13195323684435,-23.41623136940496,1.3600841849390204,8.097225968592625,-15.74386240131427
-15.672371495129422,20.265463395755518,-23.526678376969528,1.3629891486470822,8.073334341575983,-15.77880727838646
-15.807152221853297,20.777361283363227,-23.868367626548903,1.373828722664293,7.899961763880846,-15.910557310853564
-15.970192950940469,21.387495698141134,-24.270936607478763,1.3869300851022497,7.688535818787195,-16.069802119176302
-16.134687087190468,21.9932141728156,-24.66557081382527,1.4001373742812357,7.473519849958696,-16.230325970471487
-16.30385622688061,22.606078999653423,-25.059798661376167,1.4137100700900043,7.2508009420366175,-16.395268552058504
-16.475774578984915,23.218703927041638,-25.448813215154917,1.427494444512701,7.023002363772621,-16.562746537284763
-16.650659622317512,23.83161303714631,-25.832976525859774,1.4415089360932083,6.789954817385562,-16.732968451004993
-16.82873894782936,24.445322890855984,-26.212630220262,1.455772821280664,6.551475622139642,-16.906152105272938
-17.01008276240958,25.05977284314861,-26.587748063865195,1.4702928120636352,6.3075951419051455,-17.08236181896739
-17.195529253431097,25.67743196387495,-26.959820992148778,1.4851371496015209,6.057311549269533,-17.26240718728658
-17.385407439955326,26.298932942364562,-27.329176534405878,1.500333352612248,5.800308186109484,-17.446601554828007
-17.577741125489524,26.91749338030737,-27.691804751723865,1.5157245601191125,5.539405477550453,-17.633023957199352
-17.77373529658578,27.53675025031771,-28.049897242733998,1.5314085637711818,5.273124578203992,-17.822839549952224
-17.962146223498856,28.12177227136514,-28.383678346542776,1.5464868874631201,5.016916221105165,-18.00516789492812
-18.057286098983052,28.40779602212752,-28.545309392576417,1.5541074154124799,4.889996050633422,-18.09725215900635
-18.313523138725106,28.324657385789006,-28.503063632859927,1.5754907728637186,4.9238809570014554,-18.355454872384996
-18.88909823950387,28.13300264593174,-28.405358595751693,1.6234229826565285,5.0017384263875755,-18.935596717023834
-19.5102660996275,27.91847808106941,-28.295467523856427,1.6749926270679079,5.08846209873506,-19.561933239301815
-20.12765822625215,27.69723887193135,-28.181552377949117,1.726080288156213,5.177428318772929,-20.184716419678654
-20.74687033463306,27.467198191839113,-28.062471332478676,1.7771421931668385,5.269390731885597,-20.80960149287598
-21.366170436042463,27.228845809909814,-27.938411072682054,1.8280358652871804,5.364157157650468,-21.43483811869593
-21.972600634184573,26.987299031702648,-27.81198043860308,1.8776949290358744,5.459617196992668,-22.047347233932292
-22.541328029291105,26.75333208754805,-27.688836291895335,1.9241037568547747,5.551525399396263,-22.62201978909503
-22.816671574803234,26.637436858769355,-27.6275849766391,1.946510796373272,5.5968159235404,-22.900333598366643
-23.219804011224998,26.464644042701355,-27.535961443026633,1.979253353546395,5.664138323480033,-23.307909524425135
-23.816293974570193,26.2021033404144,-27.396045392943257,2.027547987977937,5.765849135550974,-23.911201810810596
-24.370220427111864,25.95085136643592,-27.26134891957303,2.0722305810950106,5.862529901078744,-24.471692172895484
-24.587591672552307,25.846395092742195,-27.19839163800397,2.0897019497433598,5.896114091871527,-24.691523909797972
-24.531735380718157,25.7262351809284,-26.88058015505462,2.0845245751164954,5.700626989466089,-24.628195811067826
-24.43418526956004,25.51311723573236,-26.320746725112553,2.0755391631546014,5.357679360006677,-24.517625773986943
-24.334668702985436,25.291386517954248,-25.7432487616415,2.0664468978693113,5.005739871266769,-24.404862922427128
-24.23597525821381,25.067136164838576,-25.164043288549408,2.0575041084758494,4.654564875936035,-24.293066224697217
-24.13750041313195,24.8390116742899,-24.579561019213827,2.0486550794402874,4.301963036605609,-24.181547812736017
-24.040771480379142,24.61063022401355,-23.998937741937745,2.040035154010979,3.9533952172230618,-24.07203390432982
-23.944281682153168,24.378514805940195,-23.41320385315534,2.0315081760284235,3.6034265631178224,-23.962815257788478
-23.849142495867504,24.145392087516402,-22.829141897067633,2.0231710009569395,3.256071314991621,-23.85514695818198
-23.75565246872507,23.912141039296493,-22.248767687657967,2.0150469093007777,2.91245579679288,-23.74936351199279
-23.661827404244335,23.67384436705163,-21.65977235980347,2.00696252099546,2.5652632148523904,-23.643217073209453
-23.571696057638427,23.440905285023927,-21.08767333111762,1.999261815860728,2.2294580078292863,-23.541262395171742
-23.523764902226173,23.315405887911684,-20.780882937839962,1.9951929319967308,2.049945735993875,-23.48704811101783
-23.498189490108302,23.24797574897744,-20.61644979767492,1.993029342442052,1.953890333606161,-23.458121212851783
-23.49068001121641,23.22590048064508,-20.535731084473124,1.9923600745644081,1.8955431564652017,-23.448579931472253
-23.64471898714838,23.579143936327927,-20.75950903026144,2.004529492004407,1.7607925088276013,-23.597909900608055
-23.8998139123542,24.155403500415854,-21.120984248550908,2.0246710290727967,1.5371876635396995,-23.84506863490589
-24.166524615175216,24.74654016201661,-21.48719556336905,2.04571517132969,1.302949514805907,-24.10330303930747
-24.43757291803446,25.33571637861652,-21.84758483639386,2.0670872548499464,1.0646035585131803,-24.365556157437574
-24.692569036158435,25.879636318042316,-22.176228829072674,2.087181222798715,0.8402476865660948,-24.61211683134115
-24.810921147571257,26.12874690595637,-22.32544753311067,2.0965035922272697,0.736112882036176,-24.726502100653022
-24.866477466728774,26.244964475416605,-22.394784885092733,2.100878829387323,0.6872347284531912,-24.780185242742647
-24.866477466728774,26.244964475416605,-22.394784885092733,2.100878829387323,0.6872347284531912,-24.780185242742647
-24.866477466728774,26.244964475416605,-22.394784885092733,2.100878829387323,0.6872347284531912,-24.780185242742647
-24.866477466728774,26.244964475416605,-22.394784885092733,2.100878829387323,0.6872347284531912,-24.780185242742647
-24.866477466728774,26.244964475416605,-22.394784885092733,2.100878829387323,0.6872347284531912,-24.780185242742647
-24.866477466728774,26.244964475416605,-22.394784885092733,2.100878829387323,0.6872347284531912,-24.780185242742647
-24.866421853827443,26.244905785016186,-22.39473481479206,2.100874128511622,0.6872331910535499,-24.78012982445117
-24.205327769239997,25.54722816685383,-21.799527968887123,2.0449928303875335,0.6689574711338313,-24.121349149450026
-23.546740933640773,24.85219654347954,-21.20657848966716,1.9893234662853172,0.6507510632550855,-23.465066949657423
-22.43623899436346,23.68024180054281,-20.20675354483945,1.89545439169685,0.6200516168590379,-22.358451062141615
-20.82303478324919,21.977766316554693,-18.754327615333388,1.7590926429564009,0.5754551380476547,-20.75089204158897
-19.19136452572926,20.255802914623374,-17.285276038292885,1.621169986822547,0.5303481716975045,-19.124931594069505
-17.567808792485618,18.542403077397278,-15.823530260098739,1.483933239337387,0.4854655285963632,-17.50705727514305
-15.938992808065018,16.8234518979377,-14.357048488065445,1.3462518506565486,0.44043746765007913,-15.883941112579178
-14.310952261865687,15.105319067793083,-12.891264871027987,1.208636008613367,0.3954308434282754,-14.2615976746951
-12.678686200109171,13.382726891092242,-11.42167686994634,1.0706629900349776,0.3503074062737289,-12.635043507875626
-11.04788365503227,11.661679218955845,-9.953406525711292,0.9328136803412838,0.30522442753736834,-11.009947736356533
-9.425619042071535,9.949641949849386,-8.492823189670522,0.7956860693302283,0.2603774770149737,-9.393360019611691
-7.792468974477,8.22611684831698,-7.022439286252315,0.6576383270552738,0.21522960182130438,-7.765924940413401
-6.163799039375532,6.507319800233677,-5.556089007688123,0.5199692837058085,0.1702055783585088,-6.142954316088762
-4.533736366761084,4.787052943520356,-4.088484797313618,0.3821825143291621,0.1251430531433873,-4.5185958279482294
-2.9159446606014536,3.079736102316689,-2.6319285805758064,0.24543299146661868,0.08041975460008274,-2.906465365670409
-1.5170910425195117,1.6034729150122007,-1.3724902202691236,0.12718997903249937,0.04174892463992017,-1.512506847159544
-0.85736297039756,0.9072369015253708,-0.7785132446504437,0.07142414790714133,0.023510967667727936,-0.8550874044475071
-0.2001890290845099,0.21369635898703918,-0.18683584511062634,0.015874213654116044,0.005343618768410739,-0.20021315470808523
0.0024998476060506107,-0.00020888689898609057,-0.004347739699292432,-0.0012587751425542813,-0.0002596459220465885,0.0017664395954375878
0.0024998476060506107,-0.00020888689898609057,-0.004347739699292432,-0.0012587751425542813,-0.0002596459220465885,0.0017664395954375878
0.0024998476060506107,-0.00020888689898609057,-0.004347739699292432,-0.0012587751425542813,-0.0002596459220465885,0.0017664395954375878
0.0024998476060506107,-0.00020888689898609057,-0.004347739699292432,-0.0012587751425542813,-0.0002596459220465885,0.0017664395954375878
0.0024998476060506107,-0.00020888689898609057,-0.004347739699292432,-0.0012587751425542813,-0.0002596459220465885,0.0017664395954375878
0.0024998476060506107,-0.00020888689898609057,-0.004347739699292432,-0.0012587751425542813,-0.0002596459220465885,0.0017664395954375878
0.0024998476060506107,-0.00020888689898609057,-0.004347739699292432,-0.0012587751425542813,-0.0002596459220465885,0.0017664395954375878
0.0024998476060506107,-0.00020888689898609057,-0.004347739699292432,-0.0012587751425542813,-0.0002596459220465885,0.0017664395954375878
0.0024998476060506107,-0.00020888689898609057,-0.004347739699292432,-0.0012587751425542813,-0.0002596459220465885,0.0017664395954375878
0.0024998476060506107,-0.00020888689898609057,-0.004347739699292432,-0.0012587751425542813,-0.0002596459220465885,0.0017664395954375878
0.0024998476060506107,-0.00020888689898609057,-0.004347739699292432,-0.0012587751425542813,-0.0002596459220465885,0.0017664395954375878
0.0024998476060506107,-0.00020888689898609057,-0.004347739699292432,-0.0012587751425542813,-0.0002596459220465885,0.0017664395954375878
0.0024998476060506107,-0.00020888689898609057,-0.004347739699292432,-0.0012587751425542813,-0.0002596459220465885,0.0017664395954375878
