RAMEL-ESPOL/ARCHIE/matlab/data/joint_real_states_espol_t35_h35_p12.txt
Joint0,Joint1,Joint2,Joint3,Joint4,Joint5 
-0.087890625,9.404296875,14.326171875,-0.087890625,-23.994140625,-9.052734375
-0.087890625,9.31640625,14.326171875,-0.087890625,-23.994140625,-9.052734375
-0.087890625,9.404296875,14.326171875,-0.087890625,-23.994140625,-8.96484375
-0.087890625,9.31640625,14.326171875,-0.087890625,-23.994140625,-9.052734375
-0.087890625,9.404296875,14.326171875,-0.087890625,-23.994140625,-9.052734375
-0.087890625,9.404296875,14.326171875,-0.087890625,-23.994140625,-9.052734375
-0.087890625,9.404296875,14.23828125,-0.087890625,-23.994140625,-9.052734375
-0.087890625,9.404296875,14.23828125,-0.087890625,-23.994140625,-8.96484375
-0.087890625,9.404296875,14.23828125,-0.087890625,-23.906250000000004,-8.96484375
-0.087890625,9.404296875,14.23828125,-0.087890625,-23.906250000000004,-9.052734375
-0.087890625,9.404296875,14.23828125,-0.087890625,-23.906250000000004,-9.052734375
-0.087890625,9.404296875,14.23828125,-0.087890625,-23.906250000000004,-8.96484375
-0.087890625,9.404296875,14.23828125,-0.087890625,-23.906250000000004,-8.96484375
-0.087890625,9.404296875,14.23828125,-0.087890625,-23.906250000000004,-8.96484375
-0.087890625,9.404296875,14.23828125,-0.087890625,-23.906250000000004,-8.96484375
-0.087890625,9.404296875,14.23828125,-0.087890625,-23.906250000000004,-8.96484375
-0.087890625,9.404296875,14.23828125,-0.087890625,-23.906250000000004,-8.96484375
-0.087890625,9.404296875,14.23828125,-0.087890625,-23.906250000000004,-8.96484375
-0.087890625,9.404296875,14.23828125,-0.087890625,-23.906250000000004,-8.96484375
-0.087890625,9.404296875,14.23828125,-0.087890625,-23.906250000000004,-9.052734375
-0.087890625,9.404296875,14.23828125,-0.087890625,-23.906250000000004,-8.96484375
-0.087890625,9.404296875,14.23828125,-0.087890625,-23.906250000000004,-8.96484375
-0.087890625,9.404296875,14.23828125,-0.087890625,-23.906250000000004,-8.96484375
-0.087890625,9.404296875,14.23828125,-0.087890625,-23.906250000000004,-8.96484375
-0.087890625,9.4921875,14.0625,-0.087890625,-23.906250000000004,-8.96484375
-0.087890625,9.580078124999998,13.798828125,-0.087890625,-23.642578125,-8.96484375
0.087890625,9.580078124999998,13.53515625,-0.087890625,-23.115234375,-8.96484375
0.263671875,9.580078124999998,13.359374999999998,-0.087890625,-22.5,-8.96484375
0.3515625,9.755859375,13.095703125000002,-0.087890625,-21.884765625,-8.96484375
0.615234375,9.84375,12.83203125,-0.087890625,-21.26953125,-8.96484375
0.703125,9.931640625,12.656249999999998,-0.087890625,-20.654296875,-9.052734375
0.7910156249999999,10.01953125,12.392578125,-0.087890625,-20.0390625,-9.052734375
0.9667968749999999,10.107421875000002,12.3046875,-0.087890625,-19.423828125,-8.96484375
1.1425781250000002,10.1953125,11.953125000000002,-0.087890625,-18.80859375,-8.96484375
1.3183593749999998,10.283203125,11.689453125,-0.17578125,-18.281250000000004,-8.96484375
1.40625,10.37109375,11.601562500000002,-0.17578125,-17.666015625,-8.96484375
1.4941406250000002,10.546874999999998,11.25,-0.17578125,-17.138671875,-8.96484375
1.7578125,10.546874999999998,11.07421875,-0.263671875,-16.5234375,-8.96484375
1.9335937499999998,10.546874999999998,10.810546875,-0.263671875,-15.99609375,-9.052734375
2.021484375,10.634765625,10.634765625,-0.17578125,-15.380859375,-8.96484375
2.109375,10.722656249999998,10.37109375,-0.3515625,-14.853515625,-8.96484375
2.197265625,10.722656249999998,10.283203125,-0.3515625,-14.23828125,-8.96484375
2.373046875,10.810546875,9.931640625,-0.3515625,-13.53515625,-8.96484375
2.548828125,10.8984375,9.755859375,-0.3515625,-13.0078125,-9.052734375
2.724609375,10.986328124999998,9.580078124999998,-0.439453125,-12.48046875,-8.96484375
2.8125,10.986328124999998,9.404296875,-0.439453125,-11.953125000000002,-8.96484375
2.9882812500000004,11.07421875,9.052734375,-0.439453125,-11.337890625,-8.96484375
3.1640624999999996,11.07421875,8.876953125,-0.439453125,-10.722656249999998,-8.96484375
3.251953125,11.25,8.613281249999998,-0.439453125,-10.1953125,-8.96484375
3.3398437499999996,11.25,8.4375,-0.439453125,-9.580078124999998,-8.96484375
3.515625,11.337890625,8.0859375,-0.439453125,-9.052734375,-8.96484375
3.6914062500000004,11.337890625,7.998046875,-0.439453125,-8.4375,-8.96484375
3.8671874999999996,11.337890625,7.822265625000001,-0.52734375,-7.910156250000001,-8.96484375
3.9550781250000004,11.425781249999998,7.55859375,-0.439453125,-7.294921875000001,-8.96484375
4.130859375,11.425781249999998,7.55859375,-0.52734375,-6.767578125,-8.96484375
4.21875,11.513671875,7.03125,-0.52734375,-6.15234375,-9.052734375
4.39453125,11.601562500000002,7.03125,-0.615234375,-5.625,-8.96484375
4.482421875,11.601562500000002,6.767578125,-0.703125,-5.009765625,-9.052734375
4.658203125,11.689453125,6.591796875,-0.703125,-4.482421875,-8.96484375
4.833984375,11.689453125,6.328124999999999,-0.7910156249999999,-3.8671874999999996,-8.96484375
4.921875,11.689453125,6.240234375,-0.87890625,-3.3398437499999996,-8.96484375
5.09765625,11.77734375,5.888671875,-0.9667968749999999,-2.8125,-9.052734375
5.185546875,11.77734375,5.712890624999999,-0.9667968749999999,-2.197265625,-8.96484375
5.361328124999999,11.77734375,5.537109375,-1.0546875,-1.6699218749999998,-8.96484375
5.537109375,11.865234375,5.273437499999999,-1.0546875,-1.0546875,-9.052734375
5.625,11.865234375,5.09765625,-1.1425781250000002,-0.439453125,-8.96484375
5.712890624999999,11.865234375,4.921875,-1.3183593749999998,0.17578125,-8.96484375
5.888671875,11.953125000000002,4.658203125,-1.40625,0.703125,-8.96484375
6.064453125,11.953125000000002,4.482421875,-1.4941406250000002,1.3183593749999998,-8.96484375
6.240234375,11.953125000000002,4.39453125,-1.5820312499999998,1.8457031250000002,-8.96484375
6.328124999999999,12.041015625000002,4.21875,-1.6699218749999998,2.373046875,-8.96484375
6.50390625,12.041015625000002,4.04296875,-1.6699218749999998,2.9882812500000004,-8.96484375
6.591796875,12.041015625000002,3.6914062500000004,-1.8457031250000002,3.515625,-8.96484375
6.767578125,12.12890625,3.515625,-1.9335937499999998,4.04296875,-8.96484375
6.855468749999999,12.12890625,3.4277343749999996,-2.021484375,4.658203125,-9.052734375
7.03125,12.12890625,3.251953125,-2.109375,5.185546875,-8.96484375
7.119140625,12.12890625,2.9882812500000004,-2.197265625,5.712890624999999,-8.96484375
7.294921875000001,12.216796874999998,2.8125,-2.197265625,6.328124999999999,-9.052734375
7.470703125,12.216796874999998,2.548828125,-2.373046875,6.943359375000001,-8.96484375
7.55859375,12.216796874999998,2.373046875,-2.4609375,7.470703125,-8.96484375
7.646484374999999,12.3046875,2.197265625,-2.548828125,8.0859375,-8.96484375
7.822265625000001,12.216796874999998,2.109375,-2.6367187499999996,8.613281249999998,-8.96484375
7.998046875,12.3046875,1.9335937499999998,-2.9003906250000004,9.140625000000002,-8.96484375
8.173828124999998,12.3046875,1.6699218749999998,-2.9003906250000004,9.66796875,-9.052734375
8.26171875,12.3046875,1.5820312499999998,-2.9882812500000004,10.283203125,-9.052734375
8.4375,12.3046875,1.23046875,-3.251953125,10.810546875,-8.96484375
8.613281249999998,12.3046875,1.1425781250000002,-3.3398437499999996,11.425781249999998,-9.052734375
8.701171875,12.3046875,0.9667968749999999,-3.4277343749999996,11.953125000000002,-9.052734375
8.7890625,12.3046875,0.7910156249999999,-3.6035156249999996,12.568359375,-8.96484375
8.96484375,12.3046875,0.615234375,-3.6035156249999996,13.095703125000002,-8.96484375
9.052734375,12.3046875,0.3515625,-3.779296875,13.710937499999998,-8.96484375
9.228515625,12.3046875,0.263671875,-3.8671874999999996,14.23828125,-8.96484375
9.4921875,12.3046875,0.087890625,-4.04296875,14.765625000000002,-8.96484375
9.4921875,12.3046875,-0.17578125,-4.130859375,15.380859375,-8.96484375
9.66796875,12.3046875,-0.3515625,-4.39453125,15.99609375,-8.96484375
9.755859375,12.3046875,-0.439453125,-4.570312500000001,16.435546875,-8.96484375
9.931640625,12.3046875,-0.703125,-4.658203125,17.05078125,-8.96484375
10.01953125,12.3046875,-0.87890625,-4.74609375,17.578125,-8.96484375
10.1953125,12.3046875,-1.0546875,-4.921875,18.193359375,-8.96484375
10.283203125,12.3046875,-1.1425781250000002,-5.09765625,18.80859375,-8.96484375
10.458984375,12.3046875,-1.23046875,-5.185546875,19.423828125,-8.96484375
10.634765625,12.3046875,-1.40625,-5.361328124999999,19.951171875,-8.96484375
10.722656249999998,12.3046875,-1.6699218749999998,-5.537109375,20.56640625,-8.96484375
10.8984375,12.3046875,-1.7578125,-5.712890624999999,21.181640625000004,-9.052734375
10.986328124999998,12.3046875,-1.9335937499999998,-5.976562500000001,21.62109375,-9.052734375
11.162109375000002,12.3046875,-2.109375,-6.064453125,22.236328125,-8.96484375
11.25,12.3046875,-2.2851562500000004,-6.240234375,22.67578125,-8.96484375
11.425781249999998,12.3046875,-2.548828125,-6.50390625,23.291015625,-8.96484375
11.513671875,12.3046875,-2.548828125,-6.50390625,23.906250000000004,-8.96484375
11.601562500000002,12.3046875,-2.8125,-6.679687499999999,24.345703125,-8.96484375
11.689453125,12.3046875,-2.8125,-6.767578125,24.521484375,-8.96484375
11.77734375,12.3046875,-2.8125,-6.767578125,24.697265624999996,-8.96484375
11.77734375,12.3046875,-2.9003906250000004,-6.855468749999999,24.873046875,-8.96484375
11.77734375,12.3046875,-2.9003906250000004,-6.943359375000001,24.9609375,-8.96484375
11.77734375,12.3046875,-3.076171875,-6.943359375000001,25.224609375,-8.96484375
11.865234375,11.953125000000002,-3.251953125,-6.943359375000001,25.83984375,-8.96484375
11.865234375,11.689453125,-3.6035156249999996,-7.119140625,26.279296875,-8.96484375
11.77734375,11.337890625,-3.779296875,-7.119140625,26.806640625000004,-8.96484375
11.689453125,11.162109375000002,-3.9550781250000004,-7.119140625,27.24609375,-9.052734375
11.601562500000002,11.07421875,-3.9550781250000004,-7.207031249999999,27.333984375,-8.96484375
11.601562500000002,11.07421875,-3.9550781250000004,-7.207031249999999,27.421874999999996,-9.052734375
11.77734375,10.986328124999998,-3.9550781250000004,-7.294921875000001,27.421874999999996,-8.96484375
12.3046875,10.8984375,-3.9550781250000004,-7.646484374999999,27.421874999999996,-8.96484375
12.744140625,10.722656249999998,-3.9550781250000004,-8.173828124999998,27.421874999999996,-9.052734375
13.18359375,10.722656249999998,-3.9550781250000004,-8.613281249999998,27.421874999999996,-8.96484375
13.710937499999998,10.546874999999998,-3.9550781250000004,-9.228515625,27.421874999999996,-9.052734375
14.23828125,10.37109375,-3.9550781250000004,-9.31640625,27.421874999999996,-9.052734375
14.677734375,10.283203125,-3.9550781250000004,-9.755859375,27.421874999999996,-9.052734375
15.205078124999998,10.01953125,-3.6914062500000004,-10.107421875000002,27.24609375,-9.052734375
15.908203125,9.84375,-3.4277343749999996,-10.283203125,27.24609375,-9.052734375
16.5234375,9.755859375,-3.3398437499999996,-10.458984375,27.24609375,-9.052734375
16.875,9.580078124999998,-3.251953125,-10.8984375,27.0703125,-9.052734375
16.875,9.580078124999998,-3.1640624999999996,-10.810546875,26.982421875,-9.052734375
16.962890625,9.580078124999998,-2.9882812500000004,-10.8984375,26.89453125,-9.052734375
16.962890625,9.580078124999998,-2.6367187499999996,-10.810546875,26.455078125,-8.96484375
17.05078125,9.580078124999998,-2.2851562500000004,-10.810546875,25.83984375,-9.052734375
17.138671875,9.66796875,-1.9335937499999998,-10.810546875,25.13671875,-9.052734375
17.226562499999996,9.66796875,-1.6699218749999998,-10.810546875,24.609375,-9.052734375
17.314453125,9.755859375,-1.1425781250000002,-10.810546875,23.994140625,-9.052734375
17.40234375,9.84375,-0.703125,-10.810546875,23.37890625,-9.052734375
17.490234375000004,10.01953125,-0.17578125,-10.810546875,22.939453124999996,-8.96484375
17.490234375000004,10.1953125,0.17578125,-10.810546875,22.412109375,-8.96484375
17.578125,10.283203125,0.703125,-10.810546875,21.884765625,-9.052734375
17.666015625,10.37109375,0.7910156249999999,-10.810546875,21.533203125,-9.052734375
17.666015625,10.458984375,0.7910156249999999,-10.810546875,21.533203125,-8.96484375
17.666015625,10.8984375,0.703125,-10.810546875,21.445312499999996,-9.052734375
17.9296875,11.513671875,0.0,-10.8984375,21.533203125,-9.052734375
18.017578125,11.689453125,0.0,-10.8984375,21.62109375,-9.052734375
18.017578125,11.77734375,-0.263671875,-10.986328124999998,21.533203125,-9.052734375
18.017578125,11.77734375,-0.3515625,-10.986328124999998,21.62109375,-9.052734375
18.017578125,11.77734375,-0.615234375,-10.986328124999998,22.1484375,-9.052734375
18.017578125,11.601562500000002,-0.87890625,-10.986328124999998,22.763671875,-9.052734375
17.841796875,11.337890625,-1.3183593749999998,-10.986328124999998,23.291015625,-8.96484375
17.75390625,11.162109375000002,-1.4941406250000002,-10.986328124999998,23.818359374999996,-9.052734375
17.75390625,11.07421875,-1.5820312499999998,-10.8984375,23.994140625,-9.052734375
17.75390625,10.986328124999998,-1.5820312499999998,-10.8984375,24.169921875,-9.052734375
17.578125,10.634765625,-1.9335937499999998,-10.8984375,24.609375,-9.052734375
17.490234375000004,10.283203125,-2.197265625,-10.8984375,25.13671875,-9.052734375
17.314453125,10.107421875000002,-2.4609375,-10.810546875,25.6640625,-9.052734375
17.138671875,9.84375,-2.6367187499999996,-10.810546875,26.191406250000004,-9.052734375
17.05078125,9.755859375,-2.6367187499999996,-10.810546875,26.455078125,-9.052734375
17.05078125,9.66796875,-2.8125,-10.810546875,26.54296875,-8.96484375
17.05078125,9.66796875,-2.8125,-10.810546875,26.630859375,-8.96484375
16.962890625,9.84375,-3.515625,-10.810546875,26.806640625000004,-9.052734375
17.05078125,10.283203125,-4.04296875,-10.986328124999998,27.158203125,-9.052734375
17.226562499999996,10.810546875,-4.570312500000001,-11.07421875,27.333984375,-8.96484375
17.314453125,11.25,-5.185546875,-11.162109375000002,27.421874999999996,-8.96484375
17.490234375000004,11.689453125,-5.888671875,-11.25,27.509765625,-9.052734375
17.578125,12.216796874999998,-6.416015625,-11.337890625,27.59765625,-9.052734375
17.75390625,12.656249999999998,-7.119140625,-11.425781249999998,27.685546875000004,-8.96484375
17.9296875,13.271484375,-7.734374999999999,-11.513671875,27.861328125,-8.96484375
18.017578125,13.710937499999998,-8.349609375,-11.689453125,27.94921875,-8.96484375
18.10546875,14.150390624999998,-8.96484375,-11.77734375,28.037109375,-8.96484375
18.281250000000004,14.501953124999998,-9.140625000000002,-11.77734375,28.037109375,-8.96484375
18.281250000000004,14.589843750000002,-9.31640625,-11.865234375,28.125,-8.96484375
18.193359375,14.589843750000002,-9.404296875,-11.77734375,28.125,-8.96484375
17.9296875,14.677734375,-9.404296875,-11.77734375,28.125,-8.96484375
17.40234375,14.853515625,-9.580078124999998,-11.07421875,28.212890625,-8.96484375
16.875,14.94140625,-9.755859375,-10.634765625,28.300781249999996,-8.96484375
16.347656249999996,15.029296875,-9.84375,-10.458984375,28.300781249999996,-8.96484375
15.908203125,15.205078124999998,-9.931640625,-10.107421875000002,28.300781249999996,-8.96484375
15.205078124999998,15.380859375,-10.01953125,-9.66796875,28.388671875,-8.96484375
14.677734375,15.556640625000002,-10.107421875000002,-9.404296875,28.388671875,-8.96484375
14.0625,15.644531250000002,-10.1953125,-9.052734375,28.388671875,-8.96484375
13.53515625,15.820312500000002,-10.283203125,-8.701171875,28.388671875,-8.96484375
12.919921875,15.908203125,-10.37109375,-8.349609375,28.388671875,-8.96484375
12.568359375,15.99609375,-10.546874999999998,-7.998046875,28.388671875,-8.96484375
12.48046875,16.083984375,-10.546874999999998,-8.0859375,28.388671875,-8.96484375
12.48046875,16.083984375,-10.458984375,-8.0859375,28.388671875,-8.96484375
12.48046875,16.083984375,-10.107421875000002,-8.0859375,27.861328125,-8.96484375
12.392578125,16.083984375,-9.66796875,-8.0859375,27.333984375,-8.96484375
12.392578125,15.99609375,-9.228515625,-8.0859375,26.630859375,-8.96484375
12.392578125,15.99609375,-8.613281249999998,-8.0859375,26.015625,-8.96484375
12.392578125,15.99609375,-8.0859375,-7.998046875,25.751953125,-8.96484375
12.392578125,15.99609375,-7.646484374999999,-7.998046875,24.78515625,-8.96484375
12.392578125,15.99609375,-6.943359375000001,-7.998046875,24.609375,-8.96484375
12.568359375,15.99609375,-6.240234375,-7.998046875,23.906250000000004,-8.96484375
12.568359375,15.99609375,-5.712890624999999,-7.998046875,23.37890625,-8.96484375
12.48046875,15.99609375,-5.273437499999999,-7.910156250000001,22.939453124999996,-8.96484375
12.568359375,15.99609375,-5.185546875,-7.910156250000001,22.851562499999996,-8.96484375
13.0078125,15.99609375,-5.185546875,-7.998046875,22.851562499999996,-8.96484375
13.623046875,15.820312500000002,-5.009765625,-8.26171875,22.763671875,-8.96484375
14.23828125,15.732421875,-5.009765625,-8.525390625,22.763671875,-8.96484375
14.853515625,15.556640625000002,-4.921875,-8.876953125,22.67578125,-8.96484375
15.468749999999998,15.468749999999998,-4.833984375,-9.228515625,22.67578125,-8.96484375
15.99609375,15.205078124999998,-4.570312500000001,-9.404296875,22.587890625000004,-8.96484375
16.611328125,15.1171875,-4.482421875,-9.755859375,22.5,-8.96484375
17.226562499999996,14.853515625,-4.306640624999999,-10.283203125,22.5,-8.96484375
17.75390625,14.765625000000002,-4.306640624999999,-10.546874999999998,22.412109375,-8.96484375
18.369140625,14.589843750000002,-4.04296875,-10.8984375,22.324218750000004,-8.96484375
18.544921875,14.589843750000002,-4.04296875,-10.986328124999998,22.236328125,-8.96484375
18.6328125,14.414062499999998,-4.04296875,-11.07421875,22.324218750000004,-8.96484375
18.6328125,14.0625,-4.04296875,-11.07421875,22.587890625000004,-8.96484375
18.544921875,13.886718750000002,-4.04296875,-11.07421875,23.115234375,-8.96484375
18.45703125,13.623046875,-4.306640624999999,-11.07421875,23.73046875,-8.96484375
18.369140625,13.447265625,-4.306640624999999,-11.07421875,24.082031250000004,-8.96484375
18.369140625,13.447265625,-4.482421875,-11.07421875,24.345703125,-8.96484375
18.369140625,13.271484375,-4.74609375,-11.07421875,24.609375,-8.96484375
18.281250000000004,13.0078125,-4.921875,-11.07421875,25.048828125000004,-8.96484375
18.10546875,12.744140625,-5.273437499999999,-11.07421875,25.751953125,-8.96484375
17.9296875,12.392578125,-5.537109375,-11.07421875,26.279296875,-8.96484375
17.841796875,12.3046875,-5.888671875,-11.07421875,26.806640625000004,-8.96484375
17.75390625,12.12890625,-5.888671875,-11.07421875,27.158203125,-8.96484375
17.666015625,12.041015625000002,-5.888671875,-11.07421875,27.158203125,-8.96484375
17.40234375,12.041015625000002,-5.976562500000001,-11.07421875,27.24609375,-8.96484375
16.962890625,12.12890625,-6.064453125,-10.8984375,27.333984375,-8.96484375
16.347656249999996,12.3046875,-6.328124999999999,-10.37109375,27.421874999999996,-8.96484375
15.908203125,12.392578125,-6.416015625,-10.107421875000002,27.59765625,-8.96484375
15.380859375,12.48046875,-6.50390625,-9.66796875,27.685546875000004,-8.96484375
14.765625000000002,12.656249999999998,-6.591796875,-9.404296875,27.773437500000004,-8.96484375
14.150390624999998,12.744140625,-6.679687499999999,-9.052734375,27.861328125,-8.96484375
13.886718750000002,12.919921875,-6.767578125,-8.876953125,27.861328125,-8.96484375
13.886718750000002,12.919921875,-6.855468749999999,-8.876953125,27.94921875,-8.96484375
13.886718750000002,12.919921875,-6.767578125,-8.876953125,27.861328125,-8.96484375
13.886718750000002,12.919921875,-6.240234375,-8.876953125,27.0703125,-8.96484375
13.798828125,12.919921875,-5.888671875,-8.876953125,26.54296875,-8.96484375
13.798828125,12.919921875,-5.361328124999999,-8.876953125,25.6640625,-8.96484375
13.798828125,12.919921875,-4.658203125,-8.876953125,25.48828125,-8.96484375
13.798828125,12.919921875,-4.21875,-8.876953125,24.78515625,-8.96484375
13.798828125,12.919921875,-3.6914062500000004,-8.876953125,24.2578125,-8.96484375
13.974609375,12.919921875,-3.076171875,-8.7890625,23.73046875,-8.96484375
13.886718750000002,12.919921875,-2.548828125,-8.7890625,23.291015625,-8.96484375
13.974609375,12.919921875,-1.9335937499999998,-8.7890625,22.587890625000004,-8.96484375
13.974609375,12.919921875,-1.6699218749999998,-8.7890625,22.236328125,-8.96484375
13.974609375,12.919921875,-1.4941406250000002,-8.7890625,22.236328125,-8.96484375
13.974609375,13.18359375,-1.7578125,-8.7890625,22.236328125,-8.96484375
14.0625,13.886718750000002,-2.548828125,-8.96484375,22.236328125,-8.96484375
14.23828125,14.414062499999998,-3.1640624999999996,-9.052734375,22.324218750000004,-8.96484375
14.414062499999998,14.765625000000002,-3.6035156249999996,-9.140625000000002,22.412109375,-8.96484375
14.501953124999998,15.1171875,-4.21875,-9.140625000000002,22.412109375,-8.96484375
14.589843750000002,15.380859375,-4.21875,-9.140625000000002,22.412109375,-8.96484375
14.677734375,15.468749999999998,-4.21875,-9.140625000000002,22.5,-8.96484375
14.501953124999998,15.468749999999998,-4.21875,-9.140625000000002,22.5,-8.96484375
13.798828125,15.468749999999998,-4.21875,-8.7890625,22.5,-8.96484375
13.271484375,15.468749999999998,-4.21875,-8.613281249999998,22.5,-8.96484375
12.656249999999998,15.468749999999998,-4.21875,-8.26171875,22.5,-8.96484375
12.041015625000002,15.468749999999998,-4.21875,-7.910156250000001,22.587890625000004,-8.96484375
11.425781249999998,15.468749999999998,-4.21875,-7.55859375,22.67578125,-8.96484375
10.986328124999998,15.468749999999998,-4.21875,-7.294921875000001,22.67578125,-8.96484375
10.283203125,15.468749999999998,-4.21875,-6.855468749999999,22.67578125,-8.96484375
9.755859375,15.292968749999998,-4.04296875,-6.416015625,22.67578125,-8.96484375
9.140625000000002,15.205078124999998,-3.9550781250000004,-6.15234375,22.67578125,-8.96484375
8.525390625,15.1171875,-3.779296875,-5.712890624999999,22.67578125,-8.96484375
7.998046875,14.94140625,-3.6035156249999996,-5.44921875,22.763671875,-8.96484375
7.382812500000001,14.94140625,-3.4277343749999996,-5.09765625,22.763671875,-8.96484375
6.855468749999999,14.765625000000002,-3.251953125,-4.74609375,22.763671875,-8.96484375
6.240234375,14.765625000000002,-3.076171875,-4.39453125,22.763671875,-8.96484375
5.625,14.677734375,-2.8125,-3.9550781250000004,22.763671875,-8.96484375
5.009765625,14.326171875,-2.6367187499999996,-3.6035156249999996,22.763671875,-8.96484375
4.658203125,14.326171875,-2.6367187499999996,-3.4277343749999996,22.763671875,-8.96484375
4.482421875,14.326171875,-2.4609375,-3.3398437499999996,22.763671875,-8.96484375
4.482421875,14.0625,-2.4609375,-3.3398437499999996,23.115234375,-8.96484375
4.482421875,13.798828125,-2.4609375,-3.3398437499999996,23.73046875,-8.96484375
4.482421875,13.53515625,-2.6367187499999996,-3.251953125,24.169921875,-8.96484375
4.39453125,13.271484375,-2.9882812500000004,-3.1640624999999996,24.873046875,-8.96484375
4.306640624999999,13.0078125,-3.251953125,-3.1640624999999996,25.400390625,-8.96484375
4.21875,12.656249999999998,-3.515625,-3.076171875,25.927734375000004,-8.96484375
4.306640624999999,12.3046875,-3.8671874999999996,-3.076171875,26.455078125,-8.96484375
4.21875,12.12890625,-4.130859375,-2.9882812500000004,26.982421875,-8.96484375
4.21875,11.953125000000002,-4.306640624999999,-2.9882812500000004,27.509765625,-8.96484375
4.21875,11.865234375,-4.306640624999999,-2.9882812500000004,27.685546875000004,-8.96484375
4.306640624999999,11.865234375,-4.306640624999999,-2.9882812500000004,27.773437500000004,-8.96484375
4.306640624999999,11.77734375,-4.39453125,-2.9882812500000004,27.861328125,-8.96484375
5.009765625,11.77734375,-4.482421875,-3.251953125,27.861328125,-8.96484375
5.44921875,11.689453125,-4.39453125,-3.779296875,27.861328125,-8.96484375
5.888671875,11.689453125,-4.482421875,-4.21875,27.861328125,-8.96484375
6.50390625,11.601562500000002,-4.482421875,-4.570312500000001,27.861328125,-8.96484375
6.943359375000001,11.513671875,-4.482421875,-4.921875,27.861328125,-8.96484375
7.470703125,11.425781249999998,-4.482421875,-5.273437499999999,27.861328125,-8.96484375
8.4375,11.425781249999998,-4.39453125,-5.44921875,27.861328125,-8.96484375
8.96484375,11.337890625,-4.39453125,-5.712890624999999,27.773437500000004,-8.96484375
9.4921875,11.25,-4.39453125,-6.240234375,27.773437500000004,-8.96484375
9.84375,11.162109375000002,-4.39453125,-6.591796875,27.773437500000004,-8.96484375
9.931640625,11.07421875,-4.39453125,-6.591796875,27.685546875000004,-8.96484375
9.931640625,11.162109375000002,-4.21875,-6.591796875,27.509765625,-8.96484375
9.931640625,11.162109375000002,-3.779296875,-6.591796875,26.982421875,-8.96484375
10.01953125,11.162109375000002,-3.515625,-6.50390625,26.455078125,-8.96484375
10.1953125,11.162109375000002,-3.1640624999999996,-6.50390625,25.6640625,-8.96484375
10.283203125,11.25,-2.6367187499999996,-6.50390625,25.13671875,-8.96484375
10.37109375,11.425781249999998,-2.373046875,-6.50390625,24.609375,-8.96484375
10.37109375,11.425781249999998,-1.9335937499999998,-6.50390625,24.169921875,-8.96484375
10.458984375,11.689453125,-1.40625,-6.50390625,23.115234375,-8.96484375
10.458984375,11.865234375,-0.87890625,-6.50390625,23.115234375,-8.96484375
10.458984375,11.953125000000002,-0.615234375,-6.50390625,22.5,-8.96484375
10.458984375,11.953125000000002,-0.52734375,-6.50390625,22.236328125,-8.96484375
10.458984375,12.041015625000002,-0.52734375,-6.50390625,22.060546875000004,-8.96484375
10.458984375,12.48046875,-0.52734375,-6.50390625,22.1484375,-8.96484375
10.546874999999998,13.271484375,-1.3183593749999998,-6.679687499999999,22.1484375,-8.96484375
10.722656249999998,13.53515625,-1.3183593749999998,-6.679687499999999,22.236328125,-8.96484375
10.810546875,13.623046875,-1.40625,-6.679687499999999,22.1484375,-8.96484375
10.810546875,13.623046875,-1.5820312499999998,-6.679687499999999,22.412109375,-8.96484375
10.810546875,13.447265625,-1.9335937499999998,-6.679687499999999,22.939453124999996,-8.96484375
10.722656249999998,13.095703125000002,-2.197265625,-6.679687499999999,23.5546875,-8.96484375
10.634765625,12.83203125,-2.4609375,-6.591796875,24.082031250000004,-8.96484375
10.634765625,12.568359375,-2.8125,-6.591796875,24.697265624999996,-8.96484375
10.634765625,12.3046875,-3.076171875,-6.591796875,25.224609375,-8.96484375
10.458984375,11.865234375,-3.4277343749999996,-6.591796875,25.751953125,-8.96484375
10.37109375,11.601562500000002,-3.6035156249999996,-6.50390625,26.3671875,-8.96484375
10.283203125,11.337890625,-3.779296875,-6.50390625,26.89453125,-8.96484375
10.1953125,11.337890625,-3.8671874999999996,-6.50390625,27.158203125,-8.96484375
10.1953125,11.25,-4.04296875,-6.50390625,27.333984375,-8.96484375
10.1953125,11.25,-4.130859375,-6.50390625,27.421874999999996,-8.96484375
10.1953125,11.513671875,-4.74609375,-6.50390625,27.59765625,-8.96484375
10.1953125,11.953125000000002,-5.361328124999999,-6.591796875,27.773437500000004,-8.96484375
10.1953125,12.48046875,-6.064453125,-6.679687499999999,27.94921875,-8.96484375
10.283203125,12.919921875,-6.591796875,-6.679687499999999,28.037109375,-8.96484375
10.37109375,13.359374999999998,-7.119140625,-6.767578125,28.125,-8.96484375
10.37109375,13.623046875,-7.294921875000001,-6.767578125,28.125,-8.96484375
10.458984375,13.623046875,-7.294921875000001,-6.767578125,28.125,-8.96484375
10.1953125,13.710937499999998,-7.382812500000001,-6.767578125,28.125,-8.96484375
9.66796875,13.710937499999998,-7.470703125,-6.328124999999999,28.125,-8.96484375
9.052734375,13.798828125,-7.470703125,-5.712890624999999,28.212890625,-8.96484375
8.4375,13.886718750000002,-7.55859375,-5.537109375,28.212890625,-8.96484375
7.910156250000001,14.0625,-7.734374999999999,-5.537109375,28.212890625,-8.96484375
7.382812500000001,14.0625,-7.734374999999999,-5.009765625,28.212890625,-8.96484375
6.767578125,14.0625,-7.822265625000001,-4.570312500000001,28.300781249999996,-8.96484375
6.240234375,14.150390624999998,-7.734374999999999,-4.21875,28.212890625,-8.96484375
5.625,14.23828125,-7.910156250000001,-3.8671874999999996,28.300781249999996,-8.96484375
5.09765625,14.326171875,-7.910156250000001,-3.515625,28.300781249999996,-8.96484375
4.658203125,14.326171875,-7.910156250000001,-3.076171875,28.300781249999996,-8.96484375
4.482421875,14.326171875,-7.998046875,-2.9882812500000004,28.388671875,-8.96484375
4.570312500000001,14.414062499999998,-7.998046875,-2.9882812500000004,28.300781249999996,-8.96484375
4.482421875,14.414062499999998,-7.910156250000001,-2.9882812500000004,28.300781249999996,-8.96484375
4.482421875,14.589843750000002,-7.734374999999999,-2.9882812500000004,27.333984375,-8.96484375
4.39453125,14.677734375,-7.470703125,-2.9882812500000004,26.982421875,-8.96484375
4.39453125,14.853515625,-6.855468749999999,-2.9882812500000004,25.83984375,-8.96484375
4.39453125,15.1171875,-6.328124999999999,-2.9882812500000004,25.83984375,-8.96484375
4.482421875,15.1171875,-5.888671875,-2.9882812500000004,24.78515625,-8.96484375
4.570312500000001,15.292968749999998,-5.361328124999999,-2.9882812500000004,24.609375,-8.96484375
4.482421875,15.468749999999998,-5.009765625,-2.9882812500000004,23.906250000000004,-8.96484375
4.482421875,15.556640625000002,-4.482421875,-2.9882812500000004,23.466796875,-8.96484375
4.570312500000001,15.644531250000002,-4.306640624999999,-2.9882812500000004,23.02734375,-8.96484375
4.570312500000001,15.732421875,-4.306640624999999,-2.9882812500000004,22.939453124999996,-8.96484375
4.570312500000001,16.083984375,-4.306640624999999,-2.9882812500000004,23.02734375,-8.96484375
4.570312500000001,16.875,-5.09765625,-2.9882812500000004,23.02734375,-8.96484375
4.658203125,16.962890625,-5.09765625,-3.076171875,23.02734375,-8.96484375
4.74609375,17.05078125,-5.273437499999999,-3.076171875,23.115234375,-8.96484375
4.658203125,17.05078125,-5.44921875,-3.076171875,23.37890625,-8.96484375
4.658203125,16.875,-5.800781250000001,-3.076171875,23.906250000000004,-8.96484375
4.74609375,16.5234375,-6.15234375,-3.076171875,24.609375,-8.96484375
4.74609375,16.259765625,-6.416015625,-3.076171875,25.13671875,-8.96484375
4.570312500000001,15.908203125,-6.679687499999999,-3.076171875,25.6640625,-8.96484375
4.570312500000001,15.644531250000002,-6.855468749999999,-2.9882812500000004,26.191406250000004,-8.96484375
4.482421875,15.292968749999998,-7.119140625,-2.9882812500000004,26.806640625000004,-8.96484375
4.570312500000001,14.94140625,-7.470703125,-2.9882812500000004,27.421874999999996,-8.96484375
4.482421875,14.765625000000002,-7.734374999999999,-2.9882812500000004,27.861328125,-8.96484375
4.482421875,14.589843750000002,-7.822265625000001,-2.9882812500000004,28.125,-8.96484375
4.482421875,14.589843750000002,-7.822265625000001,-2.9882812500000004,28.212890625,-8.96484375
4.482421875,14.589843750000002,-8.173828124999998,-2.9882812500000004,28.388671875,-8.96484375
4.482421875,15.029296875,-8.96484375,-2.9882812500000004,28.740234375,-8.96484375
4.482421875,15.468749999999998,-9.404296875,-3.076171875,28.740234375,-8.96484375
4.482421875,15.99609375,-10.107421875000002,-3.076171875,28.828124999999996,-8.96484375
4.570312500000001,16.5234375,-10.722656249999998,-3.076171875,28.916015625000004,-8.96484375
4.658203125,16.875,-10.986328124999998,-3.076171875,28.916015625000004,-8.96484375
4.658203125,17.05078125,-11.07421875,-3.1640624999999996,28.916015625000004,-8.96484375
4.74609375,17.05078125,-11.162109375000002,-3.251953125,28.916015625000004,-8.96484375
5.273437499999999,17.05078125,-11.162109375000002,-3.3398437499999996,28.916015625000004,-8.96484375
5.800781250000001,17.05078125,-11.162109375000002,-3.6914062500000004,28.916015625000004,-8.96484375
6.240234375,17.05078125,-11.162109375000002,-4.130859375,28.916015625000004,-8.96484375
6.855468749999999,16.962890625,-11.162109375000002,-4.658203125,28.916015625000004,-8.96484375
7.470703125,16.962890625,-11.162109375000002,-5.009765625,28.916015625000004,-8.96484375
8.0859375,16.787109375,-11.162109375000002,-5.273437499999999,28.916015625000004,-8.96484375
8.701171875,16.787109375,-11.162109375000002,-5.625,28.916015625000004,-8.96484375
9.228515625,16.69921875,-11.162109375000002,-5.976562500000001,28.916015625000004,-8.96484375
9.84375,16.5234375,-11.162109375000002,-6.416015625,28.916015625000004,-8.96484375
10.37109375,16.5234375,-11.162109375000002,-6.679687499999999,28.916015625000004,-8.96484375
10.722656249999998,16.435546875,-11.07421875,-7.119140625,28.916015625000004,-8.96484375
10.810546875,16.435546875,-11.07421875,-7.207031249999999,28.828124999999996,-8.96484375
10.810546875,16.259765625,-10.722656249999998,-7.207031249999999,28.4765625,-8.96484375
10.986328124999998,16.435546875,-10.37109375,-7.119140625,27.94921875,-8.96484375
10.986328124999998,16.435546875,-10.01953125,-7.119140625,27.421874999999996,-8.96484375
11.07421875,16.435546875,-9.580078124999998,-7.119140625,26.806640625000004,-8.96484375
11.25,16.5234375,-9.052734375,-7.119140625,26.279296875,-8.96484375
11.25,16.611328125,-8.525390625,-7.119140625,25.751953125,-8.96484375
11.337890625,16.69921875,-7.998046875,-7.119140625,25.048828125000004,-8.96484375
11.337890625,16.787109375,-7.646484374999999,-7.119140625,24.521484375,-8.96484375
11.425781249999998,16.875,-7.119140625,-7.119140625,23.994140625,-8.96484375
11.513671875,16.962890625,-6.767578125,-7.119140625,23.5546875,-8.96484375
11.425781249999998,16.962890625,-6.591796875,-7.119140625,23.37890625,-8.96484375
11.425781249999998,16.962890625,-6.416015625,-7.119140625,23.203125000000004,-8.96484375
11.425781249999998,16.962890625,-6.328124999999999,-6.943359375000001,23.115234375,-8.96484375
11.162109375000002,16.962890625,-6.240234375,-6.855468749999999,23.115234375,-8.96484375
10.458984375,16.962890625,-5.888671875,-6.679687499999999,23.02734375,-8.96484375
9.931640625,16.962890625,-5.712890624999999,-6.50390625,23.115234375,-8.96484375
9.31640625,16.69921875,-5.44921875,-6.240234375,23.115234375,-8.96484375
8.7890625,16.5234375,-5.185546875,-5.888671875,23.115234375,-8.96484375
8.173828124999998,16.259765625,-5.009765625,-5.44921875,23.115234375,-8.96484375
7.646484374999999,16.171875,-4.833984375,-5.185546875,23.115234375,-8.96484375
7.03125,15.908203125,-4.39453125,-4.74609375,23.02734375,-8.96484375
6.50390625,15.820312500000002,-4.306640624999999,-4.482421875,23.02734375,-8.96484375
5.888671875,15.468749999999998,-3.779296875,-4.130859375,23.02734375,-8.96484375
5.273437499999999,15.292968749999998,-3.6914062500000004,-3.779296875,23.02734375,-8.96484375
4.74609375,15.1171875,-3.3398437499999996,-3.4277343749999996,22.939453124999996,-8.96484375
4.21875,14.765625000000002,-2.9882812500000004,-3.1640624999999996,22.763671875,-8.96484375
3.779296875,14.677734375,-2.8125,-2.724609375,22.851562499999996,-8.96484375
3.251953125,14.501953124999998,-2.548828125,-2.4609375,22.763671875,-8.96484375
2.9882812500000004,14.414062499999998,-2.548828125,-2.373046875,22.763671875,-8.96484375
2.9882812500000004,14.23828125,-2.4609375,-2.2851562500000004,22.851562499999996,-8.96484375
2.9003906250000004,13.798828125,-2.4609375,-2.2851562500000004,23.37890625,-8.96484375
2.9003906250000004,13.623046875,-2.4609375,-2.197265625,23.906250000000004,-8.96484375
2.9882812500000004,13.359374999999998,-2.8125,-2.197265625,24.521484375,-8.96484375
2.9003906250000004,13.0078125,-3.076171875,-2.197265625,24.9609375,-8.96484375
2.9003906250000004,12.83203125,-3.4277343749999996,-2.197265625,25.6640625,-8.96484375
2.8125,12.568359375,-3.6914062500000004,-2.109375,26.103515625,-8.96484375
2.9003906250000004,12.216796874999998,-4.21875,-2.109375,26.718749999999996,-8.96484375
2.8125,11.953125000000002,-4.21875,-2.021484375,27.24609375,-8.96484375
2.8125,11.865234375,-4.306640624999999,-2.021484375,27.509765625,-8.96484375
2.8125,11.953125000000002,-4.39453125,-2.021484375,27.59765625,-8.96484375
2.8125,11.953125000000002,-4.833984375,-2.021484375,27.773437500000004,-8.96484375
2.8125,12.48046875,-5.625,-2.021484375,28.037109375,-8.96484375
2.8125,12.919921875,-6.240234375,-1.9335937499999998,28.125,-8.96484375
2.9003906250000004,13.447265625,-6.855468749999999,-1.9335937499999998,28.212890625,-8.96484375
2.9003906250000004,14.0625,-7.470703125,-2.021484375,28.388671875,-8.96484375
2.9003906250000004,14.414062499999998,-8.0859375,-2.021484375,28.564453124999996,-8.96484375
2.9003906250000004,14.94140625,-8.7890625,-2.021484375,28.65234375,-8.96484375
2.9003906250000004,15.468749999999998,-9.31640625,-2.021484375,28.828124999999996,-8.96484375
3.076171875,16.083984375,-10.01953125,-2.109375,28.828124999999996,-8.96484375
3.076171875,16.5234375,-10.634765625,-2.109375,28.916015625000004,-8.96484375
3.076171875,16.962890625,-10.986328124999998,-2.109375,28.916015625000004,-8.96484375
3.076171875,17.138671875,-11.07421875,-2.109375,29.003906249999996,-8.96484375
3.1640624999999996,17.138671875,-11.162109375000002,-2.109375,28.916015625000004,-8.96484375
3.1640624999999996,17.138671875,-10.8984375,-2.109375,28.828124999999996,-8.96484375
3.1640624999999996,17.138671875,-10.458984375,-2.109375,27.685546875000004,-8.96484375
3.1640624999999996,17.138671875,-10.01953125,-2.109375,27.158203125,-8.96484375
3.1640624999999996,17.138671875,-9.404296875,-2.109375,26.806640625000004,-8.96484375
3.1640624999999996,17.138671875,-8.7890625,-2.109375,25.83984375,-8.96484375
3.1640624999999996,17.138671875,-8.26171875,-2.109375,25.751953125,-8.96484375
3.1640624999999996,17.138671875,-7.646484374999999,-2.109375,24.873046875,-8.96484375
3.076171875,17.138671875,-7.207031249999999,-2.109375,24.697265624999996,-8.96484375
3.1640624999999996,17.138671875,-7.03125,-2.109375,24.345703125,-8.96484375
3.076171875,17.138671875,-6.50390625,-2.109375,23.818359374999996,-8.96484375
3.1640624999999996,17.138671875,-5.888671875,-2.109375,23.642578125,-8.96484375
3.1640624999999996,17.138671875,-5.800781250000001,-2.021484375,23.291015625,-8.96484375
3.1640624999999996,16.787109375,-5.361328124999999,-2.021484375,23.203125000000004,-8.96484375
3.1640624999999996,16.171875,-4.833984375,-2.021484375,23.203125000000004,-8.96484375
3.1640624999999996,15.644531250000002,-4.21875,-2.021484375,23.115234375,-8.96484375
3.076171875,15.205078124999998,-3.6035156249999996,-2.021484375,23.02734375,-8.96484375
3.1640624999999996,14.677734375,-2.9882812500000004,-2.021484375,22.851562499999996,-8.96484375
3.076171875,14.589843750000002,-2.6367187499999996,-1.9335937499999998,22.763671875,-8.96484375
3.076171875,14.501953124999998,-2.4609375,-1.9335937499999998,22.851562499999996,-8.96484375
2.9882812500000004,14.0625,-2.4609375,-1.9335937499999998,23.02734375,-8.96484375
2.9882812500000004,13.798828125,-2.4609375,-1.9335937499999998,23.466796875,-8.876953125
2.9882812500000004,13.53515625,-2.724609375,-1.9335937499999998,24.082031250000004,-8.96484375
2.9882812500000004,13.359374999999998,-3.076171875,-1.9335937499999998,24.697265624999996,-8.96484375
2.9003906250000004,13.0078125,-3.3398437499999996,-1.9335937499999998,25.224609375,-8.96484375
2.9003906250000004,12.744140625,-3.6035156249999996,-2.021484375,25.83984375,-8.96484375
2.9003906250000004,12.568359375,-4.130859375,-1.9335937499999998,26.3671875,-8.96484375
2.9003906250000004,12.12890625,-4.21875,-2.021484375,26.89453125,-8.96484375
2.9003906250000004,12.041015625000002,-4.39453125,-1.9335937499999998,27.421874999999996,-8.96484375
2.9003906250000004,11.953125000000002,-4.39453125,-1.9335937499999998,27.59765625,-8.96484375
2.8125,11.953125000000002,-4.482421875,-1.9335937499999998,27.685546875000004,-8.96484375
2.4609375,11.953125000000002,-4.482421875,-1.9335937499999998,27.685546875000004,-8.96484375
1.8457031250000002,11.953125000000002,-4.482421875,-1.6699218749999998,27.685546875000004,-8.96484375
1.3183593749999998,11.953125000000002,-4.482421875,-1.3183593749999998,27.685546875000004,-8.96484375
0.7910156249999999,11.953125000000002,-4.570312500000001,-0.9667968749999999,27.773437500000004,-8.96484375
0.17578125,11.953125000000002,-4.658203125,-0.52734375,27.773437500000004,-8.96484375
-0.3515625,11.865234375,-4.570312500000001,-0.17578125,27.773437500000004,-8.96484375
-0.87890625,11.865234375,-4.570312500000001,0.17578125,27.861328125,-8.96484375
-1.40625,11.865234375,-4.570312500000001,0.52734375,27.861328125,-8.96484375
-2.021484375,11.865234375,-4.658203125,0.87890625,27.861328125,-8.96484375
-2.548828125,11.865234375,-4.658203125,1.23046875,27.861328125,-8.96484375
-2.9003906250000004,11.865234375,-4.658203125,1.4941406250000002,27.861328125,-8.96484375
-2.9882812500000004,11.865234375,-4.658203125,1.5820312499999998,27.861328125,-8.96484375
-2.9882812500000004,11.865234375,-4.658203125,1.6699218749999998,27.773437500000004,-8.96484375
-2.9882812500000004,11.865234375,-4.482421875,1.6699218749999998,27.158203125,-8.96484375
-2.9882812500000004,11.865234375,-4.21875,1.6699218749999998,26.630859375,-8.96484375
-2.9882812500000004,11.953125000000002,-3.779296875,1.6699218749999998,25.927734375000004,-8.96484375
-3.076171875,12.12890625,-3.251953125,1.6699218749999998,25.576171874999996,-8.96484375
-3.1640624999999996,12.3046875,-2.8125,1.7578125,24.873046875,-8.96484375
-3.1640624999999996,12.392578125,-2.373046875,1.7578125,24.2578125,-8.96484375
-3.251953125,12.48046875,-2.021484375,1.7578125,23.818359374999996,-8.96484375
-3.1640624999999996,12.656249999999998,-1.40625,1.7578125,23.02734375,-8.876953125
-3.251953125,12.919921875,-1.23046875,1.7578125,22.851562499999996,-8.96484375
-3.251953125,12.919921875,-1.23046875,1.8457031250000002,22.5,-8.96484375
-3.251953125,13.0078125,-1.1425781250000002,1.7578125,22.5,-8.96484375
-3.1640624999999996,13.53515625,-1.40625,1.8457031250000002,22.587890625000004,-8.96484375
-3.1640624999999996,14.23828125,-1.9335937499999998,1.8457031250000002,22.587890625000004,-8.96484375
-3.3398437499999996,14.414062499999998,-1.9335937499999998,1.8457031250000002,22.587890625000004,-8.96484375
-3.251953125,14.414062499999998,-2.109375,1.8457031250000002,22.67578125,-8.96484375
-3.1640624999999996,14.326171875,-2.373046875,1.8457031250000002,23.115234375,-8.96484375
-3.076171875,14.0625,-2.724609375,1.8457031250000002,23.73046875,-8.96484375
-3.1640624999999996,13.710937499999998,-3.076171875,1.8457031250000002,24.2578125,-8.96484375
-3.076171875,13.447265625,-3.3398437499999996,1.8457031250000002,24.78515625,-8.96484375
-3.076171875,13.18359375,-3.6035156249999996,1.8457031250000002,25.400390625,-8.96484375
-2.9882812500000004,12.744140625,-3.779296875,1.8457031250000002,25.927734375000004,-8.96484375
-2.9882812500000004,12.568359375,-4.21875,1.8457031250000002,26.455078125,-8.96484375
-2.9882812500000004,12.3046875,-4.306640624999999,1.8457031250000002,27.0703125,-8.96484375
-2.9882812500000004,12.041015625000002,-4.570312500000001,1.8457031250000002,27.421874999999996,-8.96484375
-2.9882812500000004,12.041015625000002,-4.570312500000001,1.8457031250000002,27.685546875000004,-8.96484375
-2.9882812500000004,12.041015625000002,-4.74609375,1.8457031250000002,27.685546875000004,-8.96484375
-2.9882812500000004,12.3046875,-5.44921875,1.8457031250000002,28.037109375,-8.96484375
-2.9882812500000004,12.744140625,-5.976562500000001,1.8457031250000002,28.212890625,-8.96484375
-2.9882812500000004,13.271484375,-6.679687499999999,1.9335937499999998,28.300781249999996,-8.96484375
-2.9882812500000004,13.710937499999998,-7.207031249999999,1.9335937499999998,28.388671875,-8.96484375
-3.076171875,14.150390624999998,-7.734374999999999,1.9335937499999998,28.4765625,-8.96484375
-3.1640624999999996,14.326171875,-7.910156250000001,1.9335937499999998,28.4765625,-8.96484375
-3.076171875,14.414062499999998,-7.998046875,1.9335937499999998,28.4765625,-8.96484375
-2.8125,14.414062499999998,-7.998046875,1.7578125,28.4765625,-8.96484375
-2.2851562500000004,14.414062499999998,-7.998046875,1.40625,28.4765625,-8.96484375
-1.6699218749999998,14.414062499999998,-7.998046875,0.9667968749999999,28.4765625,-8.96484375
-1.1425781250000002,14.414062499999998,-7.998046875,0.615234375,28.4765625,-8.96484375
-0.52734375,14.414062499999998,-7.998046875,0.3515625,28.4765625,-8.96484375
0.087890625,14.414062499999998,-7.998046875,0.0,28.4765625,-8.96484375
0.615234375,14.414062499999998,-7.998046875,-0.439453125,28.4765625,-8.96484375
1.23046875,14.414062499999998,-7.998046875,-0.703125,28.4765625,-8.96484375
1.7578125,14.414062499999998,-7.998046875,-1.0546875,28.4765625,-8.96484375
2.373046875,14.501953124999998,-7.998046875,-1.40625,28.4765625,-8.96484375
2.8125,14.501953124999998,-7.998046875,-1.6699218749999998,28.4765625,-8.96484375
2.9003906250000004,14.501953124999998,-7.998046875,-1.8457031250000002,28.4765625,-8.96484375
2.9882812500000004,14.501953124999998,-7.998046875,-2.021484375,28.388671875,-8.96484375
2.9882812500000004,14.501953124999998,-7.822265625000001,-2.021484375,28.037109375,-8.96484375
2.9882812500000004,14.501953124999998,-7.382812500000001,-1.9335937499999998,27.421874999999996,-8.96484375
3.076171875,14.414062499999998,-6.855468749999999,-2.021484375,26.54296875,-8.96484375
3.1640624999999996,14.501953124999998,-6.15234375,-2.021484375,26.455078125,-8.96484375
3.1640624999999996,14.501953124999998,-5.625,-2.021484375,25.6640625,-8.96484375
3.1640624999999996,14.414062499999998,-5.009765625,-2.021484375,24.873046875,-8.96484375
3.251953125,14.501953124999998,-4.39453125,-2.021484375,24.873046875,-8.96484375
3.1640624999999996,14.501953124999998,-3.779296875,-2.021484375,23.906250000000004,-8.96484375
3.251953125,14.501953124999998,-3.251953125,-1.9335937499999998,23.466796875,-8.96484375
3.251953125,14.501953124999998,-2.8125,-1.9335937499999998,22.851562499999996,-8.96484375
3.251953125,14.501953124999998,-2.6367187499999996,-1.9335937499999998,22.763671875,-8.96484375
2.8125,14.501953124999998,-2.6367187499999996,-1.8457031250000002,22.851562499999996,-8.96484375
2.109375,14.501953124999998,-2.6367187499999996,-1.6699218749999998,22.851562499999996,-8.96484375
1.5820312499999998,14.501953124999998,-2.6367187499999996,-1.4941406250000002,22.763671875,-8.96484375
0.9667968749999999,14.501953124999998,-2.6367187499999996,-0.9667968749999999,22.763671875,-8.96484375
0.3515625,14.501953124999998,-2.6367187499999996,-0.615234375,22.763671875,-8.96484375
-0.17578125,14.501953124999998,-2.6367187499999996,-0.3515625,22.851562499999996,-8.876953125
-0.7910156249999999,14.501953124999998,-2.6367187499999996,0.087890625,22.851562499999996,-8.96484375
-1.40625,14.501953124999998,-2.6367187499999996,0.3515625,22.851562499999996,-8.96484375
-2.021484375,14.501953124999998,-2.6367187499999996,0.7910156249999999,22.763671875,-8.876953125
-2.548828125,14.501953124999998,-2.6367187499999996,1.0546875,22.851562499999996,-8.876953125
-3.1640624999999996,14.501953124999998,-2.548828125,1.4941406250000002,22.851562499999996,-8.96484375
-3.8671874999999996,14.501953124999998,-2.548828125,1.7578125,22.763671875,-8.96484375
-4.306640624999999,14.501953124999998,-2.4609375,2.109375,22.763671875,-8.96484375
-4.570312500000001,14.326171875,-2.4609375,2.2851562500000004,22.763671875,-8.96484375
-4.658203125,14.23828125,-2.4609375,2.373046875,22.851562499999996,-8.96484375
-4.658203125,14.0625,-2.4609375,2.373046875,23.02734375,-8.96484375
-4.658203125,13.710937499999998,-2.4609375,2.373046875,23.5546875,-8.96484375
-4.658203125,13.53515625,-2.724609375,2.373046875,24.2578125,-8.96484375
-4.658203125,13.18359375,-3.076171875,2.4609375,24.78515625,-8.96484375
-4.570312500000001,13.0078125,-3.3398437499999996,2.4609375,25.400390625,-8.96484375
-4.570312500000001,12.568359375,-3.6035156249999996,2.4609375,25.83984375,-8.876953125
-4.570312500000001,12.3046875,-4.130859375,2.4609375,26.3671875,-8.96484375
-4.482421875,12.041015625000002,-4.130859375,2.548828125,27.0703125,-8.96484375
-4.39453125,11.953125000000002,-4.306640624999999,2.548828125,27.421874999999996,-8.96484375
-4.39453125,11.77734375,-4.306640624999999,2.548828125,27.509765625,-8.96484375
-4.482421875,11.77734375,-4.306640624999999,2.548828125,27.59765625,-8.96484375
-4.74609375,11.77734375,-4.482421875,2.724609375,27.59765625,-8.96484375
-5.361328124999999,11.77734375,-4.482421875,3.076171875,27.59765625,-8.96484375
-6.064453125,11.689453125,-4.39453125,3.3398437499999996,27.59765625,-8.96484375
-6.50390625,11.601562500000002,-4.482421875,3.6914062500000004,27.685546875000004,-8.96484375
-7.03125,11.601562500000002,-4.482421875,4.130859375,27.685546875000004,-8.96484375
-7.646484374999999,11.513671875,-4.39453125,4.482421875,27.685546875000004,-8.96484375
-8.173828124999998,11.337890625,-4.482421875,4.921875,27.685546875000004,-8.876953125
-8.701171875,11.25,-4.39453125,5.361328124999999,27.685546875000004,-8.876953125
-9.31640625,11.162109375000002,-4.39453125,5.712890624999999,27.685546875000004,-8.96484375
-9.84375,11.07421875,-4.39453125,5.976562500000001,27.685546875000004,-8.96484375
-10.01953125,11.07421875,-4.39453125,6.15234375,27.685546875000004,-8.96484375
-10.01953125,11.07421875,-4.39453125,6.240234375,27.59765625,-8.96484375
-10.01953125,11.07421875,-4.130859375,6.240234375,27.421874999999996,-8.96484375
-10.107421875000002,11.07421875,-3.779296875,6.240234375,26.630859375,-8.96484375
-10.1953125,11.07421875,-3.3398437499999996,6.240234375,26.103515625,-8.96484375
-10.283203125,11.25,-2.9882812500000004,6.328124999999999,25.48828125,-8.96484375
-10.37109375,11.25,-2.548828125,6.328124999999999,25.048828125000004,-8.96484375
-10.458984375,11.425781249999998,-2.109375,6.328124999999999,24.345703125,-8.96484375
-10.546874999999998,11.601562500000002,-1.5820312499999998,6.328124999999999,23.906250000000004,-8.96484375
-10.546874999999998,11.77734375,-1.23046875,6.328124999999999,23.203125000000004,-8.96484375
-10.546874999999998,11.77734375,-0.703125,6.328124999999999,22.851562499999996,-8.96484375
-10.634765625,12.041015625000002,-0.439453125,6.328124999999999,22.324218750000004,-8.96484375
-10.722656249999998,12.041015625000002,-0.3515625,6.328124999999999,22.1484375,-8.96484375
-10.634765625,12.216796874999998,-0.3515625,6.328124999999999,22.1484375,-8.96484375
-10.722656249999998,12.83203125,-0.703125,6.328124999999999,22.236328125,-8.96484375
-10.722656249999998,13.447265625,-1.23046875,6.416015625,22.236328125,-8.876953125
-10.810546875,13.623046875,-1.3183593749999998,6.416015625,22.236328125,-8.96484375
-10.810546875,13.623046875,-1.40625,6.50390625,22.236328125,-8.96484375
-10.810546875,13.623046875,-1.6699218749999998,6.50390625,22.587890625000004,-8.96484375
-10.810546875,13.359374999999998,-2.021484375,6.50390625,23.115234375,-8.96484375
-10.722656249999998,13.0078125,-2.2851562500000004,6.50390625,23.73046875,-8.96484375
-10.546874999999998,12.744140625,-2.6367187499999996,6.50390625,24.2578125,-8.96484375
-10.546874999999998,12.48046875,-2.9003906250000004,6.50390625,24.78515625,-8.96484375
-10.458984375,12.12890625,-3.1640624999999996,6.50390625,25.400390625,-8.96484375
-10.37109375,11.865234375,-3.515625,6.50390625,25.927734375000004,-8.96484375
-10.37109375,11.601562500000002,-3.6914062500000004,6.50390625,26.54296875,-8.96484375
-10.283203125,11.25,-3.9550781250000004,6.416015625,26.982421875,-8.876953125
-10.283203125,11.25,-3.9550781250000004,6.416015625,27.158203125,-8.96484375
-10.283203125,11.25,-4.04296875,6.416015625,27.333984375,-8.96484375
-10.283203125,11.25,-4.306640624999999,6.416015625,27.421874999999996,-8.96484375
-10.283203125,11.601562500000002,-5.009765625,6.50390625,27.59765625,-8.96484375
-10.283203125,12.12890625,-5.625,6.50390625,27.773437500000004,-8.96484375
-10.283203125,12.568359375,-6.240234375,6.50390625,27.94921875,-8.96484375
-10.37109375,13.0078125,-6.855468749999999,6.679687499999999,28.037109375,-8.96484375
-10.546874999999998,13.447265625,-7.55859375,6.767578125,28.212890625,-8.96484375
-10.634765625,14.0625,-7.998046875,6.855468749999999,28.212890625,-8.96484375
-10.722656249999998,14.501953124999998,-8.701171875,6.855468749999999,28.388671875,-8.96484375
-10.810546875,15.029296875,-9.228515625,6.855468749999999,28.564453124999996,-8.96484375
-10.8984375,15.556640625000002,-9.931640625,6.943359375000001,28.65234375,-8.96484375
-10.986328124999998,15.99609375,-10.37109375,6.943359375000001,28.740234375,-8.96484375
-10.986328124999998,16.259765625,-10.634765625,7.03125,28.740234375,-8.96484375
-10.986328124999998,16.259765625,-10.634765625,7.03125,28.740234375,-8.96484375
-10.986328124999998,16.259765625,-10.546874999999998,6.943359375000001,28.740234375,-8.96484375
-10.986328124999998,16.259765625,-10.1953125,7.03125,27.59765625,-8.96484375
-10.986328124999998,16.259765625,-9.755859375,7.03125,27.158203125,-8.96484375
-11.07421875,16.347656249999996,-8.876953125,7.03125,26.3671875,-8.876953125
-11.07421875,16.347656249999996,-8.4375,7.03125,26.015625,-8.876953125
-11.162109375000002,16.347656249999996,-7.910156250000001,7.03125,25.224609375,-8.96484375
-11.162109375000002,16.347656249999996,-7.382812500000001,6.943359375000001,25.048828125000004,-8.876953125
-11.162109375000002,16.347656249999996,-6.767578125,6.943359375000001,24.2578125,-8.96484375
-11.162109375000002,16.347656249999996,-6.15234375,6.943359375000001,23.906250000000004,-8.96484375
-11.25,16.347656249999996,-5.625,6.943359375000001,23.291015625,-8.96484375
-11.25,16.347656249999996,-5.361328124999999,6.943359375000001,23.115234375,-8.96484375
-11.25,16.347656249999996,-5.273437499999999,6.943359375000001,23.02734375,-8.876953125
-10.810546875,16.347656249999996,-5.185546875,6.767578125,23.02734375,-8.96484375
-10.1953125,16.083984375,-4.921875,6.591796875,23.02734375,-8.96484375
-9.580078124999998,15.908203125,-4.658203125,6.416015625,22.939453124999996,-8.96484375
-9.052734375,15.820312500000002,-4.306640624999999,5.976562500000001,22.939453124999996,-8.96484375
-8.4375,15.468749999999998,-4.130859375,5.625,22.939453124999996,-8.876953125
-7.822265625000001,15.468749999999998,-3.8671874999999996,5.273437499999999,22.939453124999996,-8.96484375
-7.294921875000001,15.205078124999998,-3.6035156249999996,4.921875,22.939453124999996,-8.96484375
-6.767578125,15.1171875,-3.4277343749999996,4.658203125,22.939453124999996,-8.96484375
-6.15234375,14.853515625,-3.076171875,4.21875,22.763671875,-8.96484375
-5.712890624999999,14.589843750000002,-2.8125,3.9550781250000004,22.763671875,-8.876953125
-5.009765625,14.501953124999998,-2.548828125,3.515625,22.763671875,-8.96484375
-4.74609375,14.414062499999998,-2.548828125,3.3398437499999996,22.763671875,-8.96484375
-4.74609375,14.326171875,-2.548828125,3.251953125,22.851562499999996,-8.96484375
-4.74609375,13.974609375,-2.4609375,3.251953125,22.939453124999996,-8.96484375
-4.658203125,13.798828125,-2.4609375,3.1640624999999996,23.37890625,-8.96484375
-4.570312500000001,13.53515625,-2.548828125,3.1640624999999996,23.994140625,-8.876953125
-4.482421875,13.271484375,-2.9003906250000004,3.1640624999999996,24.609375,-8.876953125
-4.482421875,13.0078125,-3.1640624999999996,3.076171875,25.13671875,-8.96484375
-4.482421875,12.656249999999998,-3.515625,3.076171875,25.6640625,-8.876953125
-4.482421875,12.392578125,-3.779296875,3.076171875,26.191406250000004,-8.96484375
-4.39453125,12.216796874999998,-4.130859375,2.9882812500000004,26.806640625000004,-8.96484375
-4.39453125,11.865234375,-4.306640624999999,2.9882812500000004,27.333984375,-8.96484375
-4.306640624999999,11.865234375,-4.306640624999999,2.9882812500000004,27.509765625,-8.96484375
-4.39453125,11.865234375,-4.306640624999999,2.9882812500000004,27.59765625,-8.876953125
-4.39453125,11.865234375,-4.921875,2.9003906250000004,27.861328125,-8.96484375
-4.306640624999999,12.3046875,-5.625,2.9003906250000004,28.037109375,-8.876953125
-4.306640624999999,12.919921875,-6.240234375,2.8125,28.125,-8.96484375
-4.39453125,13.359374999999998,-6.855468749999999,2.9003906250000004,28.212890625,-8.96484375
-4.39453125,13.974609375,-7.55859375,2.8125,28.300781249999996,-8.96484375
-4.482421875,14.414062499999998,-8.173828124999998,2.9003906250000004,28.4765625,-8.96484375
-4.570312500000001,14.853515625,-8.7890625,2.9882812500000004,28.740234375,-8.876953125
-4.658203125,15.380859375,-9.404296875,2.9882812500000004,28.828124999999996,-8.96484375
-4.658203125,15.908203125,-10.01953125,2.9882812500000004,28.916015625000004,-8.96484375
-4.74609375,16.435546875,-10.634765625,2.9882812500000004,29.003906249999996,-8.876953125
-4.74609375,16.875,-10.8984375,3.076171875,29.091796875,-8.96484375
-4.658203125,16.962890625,-11.07421875,3.076171875,29.091796875,-8.96484375
-4.658203125,17.05078125,-11.07421875,3.076171875,29.003906249999996,-8.96484375
-4.658203125,17.05078125,-10.986328124999998,3.076171875,29.003906249999996,-8.876953125
-4.74609375,17.05078125,-10.546874999999998,3.076171875,27.861328125,-8.96484375
-4.833984375,17.05078125,-10.283203125,3.076171875,27.773437500000004,-8.96484375
-4.74609375,17.05078125,-10.01953125,3.076171875,27.333984375,-8.96484375
-4.74609375,17.05078125,-9.931640625,2.9882812500000004,26.982421875,-8.96484375
-4.74609375,17.05078125,-9.580078124999998,2.9882812500000004,26.806640625000004,-8.876953125
-4.74609375,17.05078125,-9.4921875,2.9882812500000004,26.718749999999996,-8.876953125
-4.833984375,17.05078125,-9.31640625,2.9882812500000004,26.630859375,-8.96484375
-4.833984375,16.962890625,-8.613281249999998,2.9882812500000004,25.927734375000004,-8.96484375
-4.74609375,17.05078125,-8.0859375,2.9882812500000004,25.83984375,-8.96484375
-4.833984375,17.05078125,-7.646484374999999,2.9882812500000004,25.13671875,-8.876953125
-4.833984375,17.05078125,-7.119140625,2.9882812500000004,24.521484375,-8.96484375
-4.833984375,17.05078125,-6.416015625,2.9882812500000004,23.906250000000004,-8.876953125
-4.921875,17.05078125,-5.888671875,2.9882812500000004,23.5546875,-8.96484375
-4.921875,17.05078125,-5.712890624999999,2.9882812500000004,23.291015625,-8.876953125
-4.921875,17.138671875,-5.712890624999999,2.9882812500000004,23.291015625,-8.876953125
-4.921875,17.666015625,-6.240234375,2.9882812500000004,23.37890625,-8.96484375
-5.009765625,18.369140625,-6.855468749999999,2.9882812500000004,23.37890625,-8.876953125
-5.09765625,18.896484375,-7.470703125,3.076171875,23.37890625,-8.96484375
-5.185546875,19.423828125,-7.998046875,3.076171875,23.37890625,-8.876953125
-5.273437499999999,19.775390625,-8.4375,3.1640624999999996,23.37890625,-8.876953125
-5.185546875,19.951171875,-8.4375,3.1640624999999996,23.466796875,-8.96484375
-5.09765625,19.86328125,-8.701171875,3.1640624999999996,23.906250000000004,-8.96484375
-5.09765625,19.51171875,-9.052734375,3.1640624999999996,24.433593749999996,-8.876953125
-5.009765625,19.160156249999996,-9.228515625,3.076171875,25.048828125000004,-8.96484375
-5.009765625,18.896484375,-9.4921875,3.076171875,25.576171874999996,-8.876953125
-5.009765625,18.544921875,-9.84375,3.076171875,26.103515625,-8.876953125
-4.921875,18.193359375,-10.107421875000002,3.076171875,26.630859375,-8.96484375
-4.921875,17.9296875,-10.37109375,3.076171875,27.333984375,-8.876953125
-4.921875,17.666015625,-10.722656249999998,3.076171875,27.861328125,-8.876953125
-4.921875,17.314453125,-10.810546875,3.076171875,28.388671875,-8.876953125
-4.921875,17.314453125,-10.986328124999998,3.076171875,28.65234375,-8.96484375
-4.833984375,17.138671875,-10.986328124999998,3.076171875,28.740234375,-8.96484375
-4.921875,17.138671875,-10.986328124999998,3.076171875,28.740234375,-8.96484375
-5.273437499999999,17.05078125,-10.986328124999998,3.251953125,28.828124999999996,-8.876953125
-5.888671875,17.05078125,-10.986328124999998,3.4277343749999996,28.828124999999996,-8.96484375
-6.416015625,16.962890625,-10.986328124999998,3.779296875,28.828124999999996,-8.96484375
-7.119140625,16.875,-10.986328124999998,4.21875,28.828124999999996,-8.876953125
-7.646484374999999,16.875,-10.986328124999998,4.570312500000001,28.828124999999996,-8.96484375
-8.26171875,16.787109375,-10.986328124999998,4.921875,28.828124999999996,-8.96484375
-8.7890625,16.69921875,-10.986328124999998,5.273437499999999,28.828124999999996,-8.876953125
-9.31640625,16.611328125,-10.986328124999998,5.712890624999999,28.828124999999996,-8.96484375
-9.931640625,16.5234375,-10.986328124999998,6.064453125,28.828124999999996,-8.96484375
-10.458984375,16.435546875,-10.986328124999998,6.416015625,28.828124999999996,-8.96484375
-10.810546875,16.347656249999996,-10.986328124999998,6.855468749999999,28.828124999999996,-8.876953125
-10.8984375,16.347656249999996,-10.986328124999998,7.119140625,28.828124999999996,-8.876953125
-10.8984375,16.259765625,-10.722656249999998,7.119140625,28.65234375,-8.876953125
-10.986328124999998,16.259765625,-10.283203125,7.03125,28.125,-8.876953125
-11.07421875,16.171875,-10.01953125,7.03125,27.685546875000004,-8.876953125
-11.162109375000002,16.259765625,-9.755859375,7.03125,27.24609375,-8.876953125
-11.162109375000002,16.171875,-9.228515625,7.03125,26.718749999999996,-8.876953125
-11.162109375000002,16.171875,-8.4375,7.03125,26.3671875,-8.876953125
-11.162109375000002,16.171875,-7.998046875,7.03125,25.400390625,-8.96484375
-11.25,16.171875,-7.470703125,6.943359375000001,25.312499999999996,-8.96484375
-11.25,16.171875,-6.943359375000001,6.943359375000001,24.433593749999996,-8.876953125
-11.25,16.171875,-6.328124999999999,6.943359375000001,24.082031250000004,-8.876953125
-11.25,16.171875,-6.15234375,6.943359375000001,23.818359374999996,-8.876953125
-11.25,16.171875,-5.712890624999999,6.943359375000001,23.466796875,-8.876953125
-11.337890625,16.259765625,-5.273437499999999,6.943359375000001,23.115234375,-8.876953125
-11.337890625,16.171875,-5.185546875,6.943359375000001,22.939453124999996,-8.876953125
-11.337890625,15.556640625000002,-4.570312500000001,6.943359375000001,22.939453124999996,-8.96484375
-11.513671875,15.205078124999998,-4.21875,7.03125,22.851562499999996,-8.96484375
-11.689453125,14.589843750000002,-3.3398437499999996,7.03125,22.5,-8.876953125
-11.953125000000002,14.0625,-2.9003906250000004,7.119140625,22.5,-8.876953125
-12.041015625000002,13.710937499999998,-2.2851562500000004,7.207031249999999,22.5,-8.876953125
-12.216796874999998,13.53515625,-2.021484375,7.207031249999999,22.5,-8.876953125
-12.216796874999998,13.447265625,-1.9335937499999998,7.207031249999999,22.412109375,-8.876953125
-12.3046875,13.271484375,-1.9335937499999998,7.207031249999999,22.412109375,-8.876953125
-12.216796874999998,13.0078125,-1.8457031250000002,7.207031249999999,22.587890625000004,-8.876953125
-12.12890625,12.83203125,-1.8457031250000002,7.207031249999999,22.939453124999996,-8.96484375
-12.12890625,12.568359375,-1.8457031250000002,7.207031249999999,23.5546875,-8.876953125
-12.12890625,12.3046875,-2.109375,7.207031249999999,24.169921875,-8.96484375
-12.12890625,12.041015625000002,-2.4609375,7.207031249999999,24.697265624999996,-8.876953125
-12.041015625000002,11.77734375,-2.8125,7.207031249999999,25.224609375,-8.96484375
-11.953125000000002,11.425781249999998,-3.076171875,7.294921875000001,25.83984375,-8.876953125
-11.77734375,11.07421875,-3.251953125,7.294921875000001,26.3671875,-8.876953125
-11.77734375,10.986328124999998,-3.515625,7.294921875000001,26.89453125,-8.96484375
-11.689453125,10.986328124999998,-3.6035156249999996,7.294921875000001,27.158203125,-8.876953125
-11.601562500000002,10.810546875,-3.6035156249999996,7.294921875000001,27.158203125,-8.876953125
-11.601562500000002,10.810546875,-4.21875,7.294921875000001,27.421874999999996,-8.96484375
-11.601562500000002,11.162109375000002,-4.570312500000001,7.294921875000001,27.509765625,-8.96484375
-11.601562500000002,11.77734375,-5.273437499999999,7.382812500000001,27.685546875000004,-8.876953125
-11.601562500000002,12.12890625,-5.888671875,7.382812500000001,27.773437500000004,-8.876953125
-11.77734375,12.656249999999998,-6.591796875,7.470703125,27.94921875,-8.96484375
-11.865234375,13.18359375,-7.119140625,7.55859375,28.037109375,-8.96484375
-11.953125000000002,13.710937499999998,-7.822265625000001,7.646484374999999,28.125,-8.96484375
-12.12890625,14.150390624999998,-8.4375,7.822265625000001,28.212890625,-8.96484375
-12.3046875,14.677734375,-9.052734375,7.822265625000001,28.388671875,-8.96484375
-12.392578125,15.205078124999998,-9.66796875,7.910156250000001,28.4765625,-8.96484375
-12.48046875,15.644531250000002,-10.1953125,7.910156250000001,28.65234375,-8.876953125
-12.48046875,15.908203125,-10.283203125,7.910156250000001,28.65234375,-8.876953125
-12.48046875,15.908203125,-10.283203125,7.910156250000001,28.65234375,-8.96484375
-12.83203125,15.908203125,-10.283203125,7.910156250000001,28.65234375,-8.876953125
-13.447265625,15.908203125,-10.283203125,8.173828124999998,28.65234375,-8.876953125
-14.0625,15.820312500000002,-10.283203125,8.525390625,28.564453124999996,-8.96484375
-14.589843750000002,15.732421875,-10.283203125,8.7890625,28.4765625,-8.876953125
-15.1171875,15.556640625000002,-10.283203125,9.228515625,28.4765625,-8.96484375
-15.732421875,15.380859375,-10.283203125,9.66796875,28.4765625,-8.876953125
-16.259765625,15.292968749999998,-10.283203125,10.107421875000002,28.300781249999996,-8.876953125
-16.787109375,15.029296875,-10.1953125,10.458984375,28.212890625,-8.876953125
-17.138671875,14.94140625,-10.107421875000002,10.722656249999998,28.037109375,-8.876953125
-17.138671875,14.94140625,-10.01953125,10.8984375,28.037109375,-8.876953125
-17.138671875,14.94140625,-9.66796875,10.986328124999998,27.94921875,-8.876953125
-17.226562499999996,14.853515625,-9.140625000000002,10.986328124999998,27.158203125,-8.876953125
-17.314453125,14.853515625,-8.613281249999998,10.8984375,26.630859375,-8.96484375
-17.314453125,14.853515625,-7.998046875,10.8984375,26.015625,-8.96484375
-17.40234375,14.853515625,-7.55859375,10.8984375,25.6640625,-8.96484375
-17.490234375000004,14.853515625,-7.03125,10.8984375,24.873046875,-8.876953125
-17.578125,14.853515625,-6.328124999999999,10.8984375,24.345703125,-8.96484375
-17.578125,14.853515625,-5.712890624999999,10.810546875,23.818359374999996,-8.96484375
-17.578125,14.853515625,-5.185546875,10.810546875,23.466796875,-8.96484375
-17.578125,14.853515625,-4.658203125,10.810546875,22.67578125,-8.876953125
-17.666015625,14.853515625,-4.306640624999999,10.810546875,22.5,-8.96484375
-17.666015625,14.853515625,-4.306640624999999,10.722656249999998,22.412109375,-8.96484375
-17.75390625,15.1171875,-4.39453125,10.810546875,22.412109375,-8.876953125
-17.9296875,15.820312500000002,-5.273437499999999,10.8984375,22.5,-8.96484375
-18.10546875,16.435546875,-5.800781250000001,10.986328124999998,22.5,-8.96484375
-18.369140625,16.875,-6.328124999999999,11.07421875,22.5,-8.96484375
-18.45703125,17.138671875,-6.767578125,11.07421875,22.5,-8.96484375
-18.45703125,17.314453125,-6.767578125,11.07421875,22.5,-8.96484375
-18.45703125,17.40234375,-6.943359375000001,11.162109375000002,22.587890625000004,-8.876953125
-18.45703125,17.40234375,-6.943359375000001,11.162109375000002,22.587890625000004,-8.96484375
-18.45703125,17.40234375,-6.943359375000001,11.162109375000002,22.587890625000004,-8.96484375
-18.45703125,17.40234375,-6.943359375000001,11.162109375000002,22.587890625000004,-8.96484375
-18.45703125,17.40234375,-7.03125,11.07421875,22.587890625000004,-8.876953125
-18.45703125,17.40234375,-7.03125,11.162109375000002,22.587890625000004,-8.876953125
-18.45703125,17.40234375,-7.03125,11.162109375000002,22.587890625000004,-8.96484375
-18.369140625,17.40234375,-7.03125,11.162109375000002,22.5,-8.96484375
-18.017578125,17.40234375,-6.943359375000001,10.986328124999998,21.533203125,-8.96484375
-17.578125,17.314453125,-6.591796875,10.810546875,20.7421875,-8.876953125
-16.787109375,16.69921875,-5.625,10.634765625,19.072265625,-8.96484375
-16.171875,16.611328125,-5.009765625,10.37109375,17.490234375000004,-8.96484375
-15.468749999999998,16.259765625,-4.04296875,9.931640625,15.556640625000002,-8.96484375
-14.677734375,15.908203125,-3.1640624999999996,9.404296875,13.798828125,-8.96484375
-13.974609375,15.644531250000002,-2.4609375,9.052734375,12.12890625,-8.96484375
-13.359374999999998,15.292968749999998,-1.5820312499999998,8.701171875,10.37109375,-8.876953125
-12.568359375,15.1171875,-0.7910156249999999,8.26171875,8.4375,-8.876953125
-11.865234375,14.677734375,0.087890625,7.822265625000001,6.855468749999999,-8.96484375
-11.337890625,14.501953124999998,0.7910156249999999,7.470703125,5.09765625,-8.96484375
-10.634765625,14.150390624999998,1.7578125,7.03125,3.3398437499999996,-8.876953125
-9.84375,13.710937499999998,2.548828125,6.50390625,1.6699218749999998,-8.96484375
-9.31640625,13.53515625,3.1640624999999996,6.15234375,-0.17578125,-8.96484375
-8.525390625,13.271484375,4.130859375,5.712890624999999,-1.8457031250000002,-8.96484375
-7.822265625000001,12.83203125,4.921875,5.361328124999999,-3.515625,-8.96484375
-7.119140625,12.656249999999998,5.712890624999999,4.921875,-5.361328124999999,-8.96484375
-6.50390625,12.3046875,6.50390625,4.482421875,-6.943359375000001,-8.96484375
-5.800781250000001,11.953125000000002,7.294921875000001,4.130859375,-8.7890625,-8.96484375
-5.185546875,11.77734375,8.0859375,3.6914062500000004,-10.458984375,-8.96484375
-4.570312500000001,11.425781249999998,8.876953125,3.251953125,-12.3046875,-8.96484375
-3.8671874999999996,11.07421875,9.580078124999998,2.724609375,-13.798828125,-8.96484375
-3.251953125,10.810546875,10.634765625,2.4609375,-15.732421875,-8.96484375
-2.4609375,10.634765625,11.425781249999998,1.9335937499999998,-17.40234375,-8.96484375
-1.7578125,10.1953125,12.12890625,1.5820312499999998,-19.160156249999996,-8.96484375
-1.1425781250000002,9.931640625,12.919921875,1.0546875,-21.005859375,-8.96484375
-0.703125,9.84375,13.447265625,0.87890625,-22.1484375,-8.96484375
-0.52734375,9.66796875,13.710937499999998,0.615234375,-22.851562499999996,-8.96484375
-0.263671875,9.580078124999998,14.23828125,0.439453125,-23.818359374999996,-8.876953125
0.087890625,9.580078124999998,14.326171875,0.3515625,-24.082031250000004,-8.96484375
0.087890625,9.4921875,14.326171875,0.3515625,-24.082031250000004,-8.96484375
0.087890625,9.4921875,14.326171875,0.263671875,-24.082031250000004,-8.96484375
0.087890625,9.4921875,14.326171875,0.263671875,-24.082031250000004,-8.876953125
0.087890625,9.4921875,14.326171875,0.263671875,-24.082031250000004,-8.96484375
0.0,9.4921875,14.326171875,0.263671875,-24.082031250000004,-8.96484375
0.0,9.4921875,14.326171875,0.263671875,-24.082031250000004,-8.96484375
0.0,9.4921875,14.326171875,0.263671875,-24.082031250000004,-8.96484375
0.087890625,9.4921875,14.326171875,0.263671875,-24.082031250000004,-8.96484375
0.087890625,9.4921875,14.326171875,0.263671875,-24.082031250000004,-8.96484375
0.087890625,9.4921875,14.326171875,0.263671875,-24.082031250000004,-8.96484375
0.0,9.4921875,14.326171875,0.263671875,-24.082031250000004,-8.96484375
0.0,9.404296875,14.23828125,-0.087890625,-23.906250000000004,-15.029296875
0.0,9.404296875,14.23828125,0.0,-23.906250000000004,-15.029296875
0.0,9.404296875,14.23828125,0.0,-23.906250000000004,-15.029296875
0.0,9.404296875,14.23828125,0.0,-23.994140625,-15.029296875
0.0,9.404296875,14.23828125,-0.087890625,-23.906250000000004,-15.029296875
0.0,9.404296875,14.23828125,0.0,-23.906250000000004,-15.029296875
0.0,9.404296875,14.326171875,-0.087890625,-23.906250000000004,-15.029296875
0.0,9.404296875,14.23828125,0.0,-23.906250000000004,-15.029296875
0.0,9.404296875,14.23828125,-0.087890625,-23.906250000000004,-14.94140625
0.0,9.404296875,14.23828125,0.0,-23.906250000000004,-14.94140625
0.0,9.404296875,14.23828125,0.0,-23.906250000000004,-15.029296875
0.0,9.404296875,14.23828125,0.0,-23.906250000000004,-15.029296875
0.0,9.404296875,14.23828125,0.0,-23.906250000000004,-15.029296875
0.0,9.404296875,14.23828125,0.0,-23.906250000000004,-14.94140625
0.0,9.404296875,14.23828125,0.0,-23.906250000000004,-14.94140625
0.0,9.404296875,14.23828125,-0.087890625,-23.906250000000004,-15.029296875
0.0,9.404296875,14.23828125,0.0,-23.906250000000004,-14.94140625
0.0,9.4921875,14.23828125,0.0,-23.906250000000004,-15.029296875
0.0,9.4921875,14.23828125,0.0,-23.906250000000004,-15.029296875
0.0,9.4921875,14.23828125,0.0,-23.906250000000004,-15.029296875
0.0,9.4921875,14.23828125,0.0,-23.906250000000004,-15.029296875
0.0,9.4921875,14.23828125,0.0,-23.906250000000004,-14.94140625
0.0,9.4921875,14.23828125,0.0,-23.906250000000004,-15.029296875
0.0,9.4921875,14.23828125,0.0,-23.906250000000004,-14.94140625
0.0,9.4921875,14.150390624999998,0.0,-23.906250000000004,-15.029296875
0.0,9.580078124999998,13.974609375,-0.087890625,-23.906250000000004,-15.029296875
0.087890625,9.755859375,13.798828125,-0.087890625,-23.466796875,-15.029296875
0.263671875,9.755859375,13.447265625,-0.087890625,-22.67578125,-14.94140625
0.439453125,9.84375,13.18359375,-0.087890625,-22.060546875000004,-15.029296875
0.52734375,9.931640625,12.919921875,-0.087890625,-21.445312499999996,-14.94140625
0.703125,9.931640625,12.744140625,-0.087890625,-20.830078124999996,-14.94140625
0.87890625,10.01953125,12.48046875,-0.087890625,-20.214843750000004,-14.94140625
0.9667968749999999,10.107421875000002,12.216796874999998,-0.087890625,-19.51171875,-15.029296875
1.1425781250000002,10.1953125,12.041015625000002,-0.087890625,-19.072265625,-15.029296875
1.3183593749999998,10.283203125,11.77734375,-0.087890625,-18.45703125,-14.94140625
1.40625,10.283203125,11.601562500000002,-0.17578125,-17.841796875,-14.94140625
1.4941406250000002,10.37109375,11.337890625,-0.17578125,-17.314453125,-15.029296875
1.5820312499999998,10.458984375,11.07421875,-0.17578125,-16.611328125,-15.029296875
1.8457031250000002,10.458984375,10.8984375,-0.17578125,-16.083984375,-15.029296875
1.9335937499999998,10.546874999999998,10.634765625,-0.263671875,-15.468749999999998,-15.029296875
2.021484375,10.634765625,10.283203125,-0.263671875,-14.853515625,-15.029296875
2.197265625,10.634765625,10.107421875000002,-0.263671875,-14.326171875,-14.94140625
2.2851562500000004,10.722656249999998,9.84375,-0.3515625,-13.623046875,-14.94140625
2.4609375,10.722656249999998,9.66796875,-0.3515625,-13.095703125000002,-14.94140625
2.6367187499999996,10.722656249999998,9.580078124999998,-0.3515625,-12.48046875,-15.029296875
2.8125,10.810546875,9.228515625,-0.3515625,-11.953125000000002,-15.029296875
2.8125,10.810546875,9.052734375,-0.3515625,-11.337890625,-14.94140625
2.9882812500000004,10.986328124999998,8.7890625,-0.439453125,-10.722656249999998,-15.029296875
3.1640624999999996,10.986328124999998,8.525390625,-0.439453125,-10.1953125,-15.029296875
3.251953125,11.07421875,8.4375,-0.439453125,-9.4921875,-15.029296875
3.4277343749999996,11.07421875,8.0859375,-0.439453125,-9.140625000000002,-14.94140625
3.515625,11.07421875,7.822265625000001,-0.439453125,-8.349609375,-15.029296875
3.6914062500000004,11.162109375000002,7.55859375,-0.439453125,-7.822265625000001,-15.029296875
3.779296875,11.162109375000002,7.382812500000001,-0.439453125,-7.294921875000001,-15.029296875
3.9550781250000004,11.25,7.207031249999999,-0.439453125,-6.679687499999999,-15.029296875
4.04296875,11.25,7.03125,-0.52734375,-6.064453125,-14.94140625
4.21875,11.25,6.679687499999999,-0.52734375,-5.361328124999999,-15.029296875
4.21875,11.25,6.591796875,-0.615234375,-4.921875,-14.94140625
4.482421875,11.337890625,6.328124999999999,-0.615234375,-4.306640624999999,-15.029296875
4.658203125,11.337890625,6.064453125,-0.7910156249999999,-3.779296875,-14.94140625
4.74609375,11.425781249999998,5.800781250000001,-0.7910156249999999,-3.076171875,-15.029296875
4.833984375,11.425781249999998,5.625,-0.87890625,-2.548828125,-15.029296875
5.009765625,11.425781249999998,5.44921875,-0.87890625,-2.021484375,-15.029296875
5.09765625,11.425781249999998,5.273437499999999,-0.9667968749999999,-1.3183593749999998,-15.029296875
5.273437499999999,11.425781249999998,5.009765625,-1.0546875,-0.87890625,-15.029296875
5.361328124999999,11.513671875,4.833984375,-1.0546875,-0.263671875,-14.94140625
5.537109375,11.513671875,4.658203125,-1.1425781250000002,0.263671875,-15.029296875
5.712890624999999,11.601562500000002,4.482421875,-1.23046875,0.87890625,-15.029296875
5.800781250000001,11.601562500000002,4.130859375,-1.40625,1.4941406250000002,-14.94140625
5.888671875,11.601562500000002,4.04296875,-1.4941406250000002,1.9335937499999998,-15.029296875
6.064453125,11.601562500000002,3.8671874999999996,-1.5820312499999998,2.724609375,-15.029296875
6.240234375,11.601562500000002,3.6035156249999996,-1.5820312499999998,3.1640624999999996,-15.029296875
6.416015625,11.601562500000002,3.4277343749999996,-1.6699218749999998,3.779296875,-15.029296875
6.50390625,11.689453125,3.251953125,-1.8457031250000002,4.306640624999999,-15.029296875
6.591796875,11.689453125,2.9882812500000004,-1.9335937499999998,4.921875,-14.94140625
6.767578125,11.689453125,2.8125,-2.021484375,5.625,-15.029296875
6.855468749999999,11.77734375,2.548828125,-2.109375,6.064453125,-15.029296875
7.03125,11.77734375,2.4609375,-2.197265625,6.679687499999999,-14.94140625
7.119140625,11.77734375,2.197265625,-2.197265625,7.207031249999999,-14.94140625
7.294921875000001,11.77734375,2.021484375,-2.2851562500000004,7.822265625000001,-15.029296875
7.382812500000001,11.77734375,1.7578125,-2.373046875,8.349609375,-15.029296875
7.55859375,11.77734375,1.6699218749999998,-2.4609375,8.876953125,-15.029296875
7.646484374999999,11.77734375,1.4941406250000002,-2.548828125,9.4921875,-14.94140625
7.822265625000001,11.77734375,1.3183593749999998,-2.724609375,10.1953125,-14.94140625
7.822265625000001,11.77734375,1.1425781250000002,-2.724609375,10.722656249999998,-15.029296875
8.0859375,11.77734375,0.7910156249999999,-2.9003906250000004,11.337890625,-15.029296875
8.26171875,11.77734375,0.615234375,-3.076171875,11.865234375,-15.029296875
8.349609375,11.77734375,0.52734375,-3.251953125,12.392578125,-14.94140625
8.4375,11.77734375,0.263671875,-3.3398437499999996,13.0078125,-15.029296875
8.613281249999998,11.77734375,0.17578125,-3.3398437499999996,13.623046875,-15.029296875
8.701171875,11.77734375,-0.087890625,-3.515625,14.150390624999998,-15.029296875
8.876953125,11.77734375,-0.17578125,-3.6035156249999996,14.765625000000002,-14.94140625
8.96484375,11.77734375,-0.3515625,-3.779296875,15.205078124999998,-14.94140625
9.052734375,11.77734375,-0.52734375,-3.8671874999999996,15.908203125,-15.029296875
9.140625000000002,11.77734375,-0.7910156249999999,-4.04296875,16.347656249999996,-15.029296875
9.31640625,11.77734375,-0.9667968749999999,-4.130859375,17.05078125,-14.94140625
9.4921875,11.77734375,-1.0546875,-4.306640624999999,17.490234375000004,-15.029296875
9.580078124999998,11.77734375,-1.23046875,-4.482421875,18.369140625,-15.029296875
9.66796875,11.689453125,-1.40625,-4.658203125,18.80859375,-15.029296875
9.84375,11.689453125,-1.5820312499999998,-4.74609375,19.3359375,-14.94140625
10.01953125,11.689453125,-1.6699218749999998,-4.833984375,19.951171875,-15.029296875
10.107421875000002,11.601562500000002,-1.9335937499999998,-5.009765625,20.478515625,-14.94140625
10.1953125,11.513671875,-2.197265625,-5.273437499999999,21.181640625000004,-15.029296875
10.283203125,11.513671875,-2.2851562500000004,-5.361328124999999,21.533203125,-15.029296875
10.37109375,11.513671875,-2.4609375,-5.44921875,22.236328125,-14.94140625
10.634765625,11.513671875,-2.724609375,-5.625,22.851562499999996,-15.029296875
10.722656249999998,11.425781249999998,-2.9003906250000004,-5.800781250000001,23.37890625,-15.029296875
10.8984375,11.337890625,-3.076171875,-5.976562500000001,23.994140625,-15.029296875
10.986328124999998,11.337890625,-3.1640624999999996,-6.15234375,24.521484375,-14.94140625
11.07421875,11.25,-3.4277343749999996,-6.416015625,25.13671875,-15.029296875
11.25,11.25,-3.515625,-6.50390625,25.6640625,-14.94140625
11.25,11.25,-3.6035156249999996,-6.591796875,26.191406250000004,-15.029296875
11.337890625,11.162109375000002,-3.6035156249999996,-6.591796875,26.3671875,-14.94140625
11.425781249999998,11.162109375000002,-3.6914062500000004,-6.855468749999999,26.54296875,-14.94140625
11.425781249999998,11.162109375000002,-3.779296875,-6.943359375000001,26.718749999999996,-14.94140625
11.513671875,11.162109375000002,-3.779296875,-6.943359375000001,26.806640625000004,-14.94140625
11.513671875,11.07421875,-3.8671874999999996,-7.119140625,26.89453125,-15.029296875
11.513671875,10.8984375,-3.9550781250000004,-7.119140625,27.158203125,-14.94140625
11.513671875,10.8984375,-3.9550781250000004,-7.207031249999999,27.158203125,-14.94140625
11.601562500000002,10.810546875,-4.04296875,-7.207031249999999,27.333984375,-14.94140625
12.041015625000002,10.810546875,-4.04296875,-7.470703125,27.333984375,-14.94140625
12.48046875,10.722656249999998,-4.04296875,-7.910156250000001,27.333984375,-14.94140625
12.919921875,10.546874999999998,-4.04296875,-8.349609375,27.333984375,-14.94140625
13.359374999999998,10.37109375,-4.04296875,-8.7890625,27.333984375,-14.94140625
13.886718750000002,10.283203125,-4.04296875,-9.140625000000002,27.333984375,-14.94140625
14.501953124999998,10.1953125,-3.8671874999999996,-9.31640625,27.333984375,-15.029296875
15.292968749999998,10.01953125,-3.6914062500000004,-9.931640625,27.333984375,-15.029296875
15.732421875,9.84375,-3.6035156249999996,-9.931640625,27.333984375,-15.029296875
16.259765625,9.66796875,-3.4277343749999996,-10.458984375,27.333984375,-15.029296875
16.787109375,9.4921875,-3.251953125,-10.634765625,27.24609375,-15.029296875
16.962890625,9.580078124999998,-3.251953125,-10.810546875,27.24609375,-15.029296875
16.962890625,9.4921875,-3.076171875,-10.810546875,26.982421875,-15.029296875
16.962890625,9.4921875,-2.724609375,-10.810546875,26.806640625000004,-15.029296875
17.05078125,9.404296875,-2.2851562500000004,-10.810546875,26.103515625,-15.029296875
17.138671875,9.404296875,-1.9335937499999998,-10.810546875,25.400390625,-14.94140625
17.226562499999996,9.4921875,-1.5820312499999998,-10.810546875,24.609375,-15.029296875
17.314453125,9.4921875,-1.1425781250000002,-10.722656249999998,24.433593749999996,-14.94140625
17.40234375,9.4921875,-0.52734375,-10.722656249999998,23.994140625,-15.029296875
17.40234375,9.580078124999998,0.0,-10.722656249999998,23.115234375,-14.94140625
17.40234375,9.580078124999998,0.52734375,-10.722656249999998,22.763671875,-15.029296875
17.490234375000004,9.755859375,0.9667968749999999,-10.722656249999998,21.884765625,-14.94140625
17.490234375000004,9.84375,1.3183593749999998,-10.722656249999998,21.62109375,-15.029296875
17.490234375000004,9.931640625,1.5820312499999998,-10.722656249999998,21.357421875,-15.029296875
17.490234375000004,10.283203125,1.4941406250000002,-10.722656249999998,21.445312499999996,-15.029296875
17.666015625,10.810546875,1.0546875,-10.810546875,21.445312499999996,-15.029296875
17.9296875,11.25,0.3515625,-10.8984375,21.445312499999996,-15.029296875
18.10546875,11.601562500000002,0.087890625,-10.986328124999998,21.445312499999996,-15.029296875
18.193359375,11.77734375,0.087890625,-10.986328124999998,21.445312499999996,-15.029296875
18.281250000000004,11.77734375,-0.263671875,-10.986328124999998,21.445312499999996,-15.029296875
18.193359375,11.77734375,-0.439453125,-10.986328124999998,21.796875,-15.029296875
18.10546875,11.601562500000002,-0.7910156249999999,-10.986328124999998,22.412109375,-15.029296875
18.017578125,11.337890625,-1.1425781250000002,-10.986328124999998,23.02734375,-15.029296875
17.9296875,11.07421875,-1.40625,-10.986328124999998,23.5546875,-14.94140625
17.841796875,11.07421875,-1.4941406250000002,-10.8984375,23.906250000000004,-15.029296875
17.75390625,10.986328124999998,-1.5820312499999998,-10.8984375,23.994140625,-15.029296875
17.666015625,10.722656249999998,-1.7578125,-10.8984375,24.345703125,-15.029296875
17.490234375000004,10.283203125,-2.109375,-10.8984375,24.9609375,-15.029296875
17.314453125,10.107421875000002,-2.2851562500000004,-10.8984375,25.48828125,-15.029296875
17.226562499999996,9.84375,-2.548828125,-10.8984375,26.015625,-14.94140625
17.138671875,9.755859375,-2.6367187499999996,-10.810546875,26.455078125,-15.029296875
17.05078125,9.66796875,-2.8125,-10.810546875,26.54296875,-15.029296875
16.962890625,9.66796875,-2.8125,-10.810546875,26.630859375,-15.029296875
16.962890625,9.755859375,-3.1640624999999996,-10.810546875,26.718749999999996,-15.029296875
16.875,10.107421875000002,-3.779296875,-10.8984375,27.0703125,-15.029296875
17.05078125,10.546874999999998,-4.39453125,-10.986328124999998,27.24609375,-14.94140625
17.226562499999996,11.07421875,-5.009765625,-11.07421875,27.421874999999996,-14.94140625
17.226562499999996,11.513671875,-5.625,-11.162109375000002,27.509765625,-14.94140625
17.40234375,11.953125000000002,-6.240234375,-11.25,27.59765625,-14.94140625
17.578125,12.48046875,-6.855468749999999,-11.337890625,27.685546875000004,-14.94140625
17.75390625,13.0078125,-7.55859375,-11.425781249999998,27.861328125,-14.94140625
17.9296875,13.53515625,-8.173828124999998,-11.513671875,27.94921875,-14.94140625
18.10546875,14.0625,-8.7890625,-11.689453125,28.125,-14.94140625
18.281250000000004,14.23828125,-9.228515625,-11.77734375,28.125,-14.94140625
18.193359375,14.589843750000002,-9.404296875,-11.77734375,28.125,-14.94140625
18.281250000000004,14.589843750000002,-9.404296875,-11.77734375,28.125,-14.94140625
18.281250000000004,14.589843750000002,-9.228515625,-11.77734375,27.94921875,-14.94140625
18.369140625,14.589843750000002,-8.7890625,-11.77734375,27.158203125,-14.94140625
18.369140625,14.589843750000002,-8.349609375,-11.77734375,26.015625,-14.94140625
18.45703125,14.589843750000002,-7.910156250000001,-11.77734375,25.83984375,-14.94140625
18.45703125,14.589843750000002,-7.382812500000001,-11.689453125,25.400390625,-14.94140625
18.544921875,14.589843750000002,-6.767578125,-11.689453125,24.78515625,-14.94140625
18.544921875,14.589843750000002,-6.064453125,-11.601562500000002,24.521484375,-14.94140625
18.6328125,14.589843750000002,-5.44921875,-11.601562500000002,23.642578125,-14.94140625
18.6328125,14.589843750000002,-4.921875,-11.601562500000002,23.203125000000004,-14.94140625
18.6328125,14.589843750000002,-4.39453125,-11.601562500000002,22.587890625000004,-14.94140625
18.6328125,14.589843750000002,-4.130859375,-11.513671875,22.324218750000004,-14.94140625
18.6328125,14.677734375,-4.130859375,-11.601562500000002,22.324218750000004,-14.94140625
18.6328125,15.029296875,-4.482421875,-11.601562500000002,22.324218750000004,-14.94140625
18.80859375,15.556640625000002,-5.185546875,-11.77734375,22.412109375,-14.94140625
19.160156249999996,16.171875,-5.712890624999999,-11.865234375,22.412109375,-14.94140625
19.3359375,16.611328125,-6.240234375,-11.953125000000002,22.412109375,-14.94140625
19.51171875,16.875,-6.50390625,-12.041015625000002,22.412109375,-14.94140625
19.599609375,16.962890625,-6.591796875,-12.041015625000002,22.412109375,-14.94140625
19.599609375,17.05078125,-6.767578125,-12.041015625000002,22.412109375,-15.029296875
19.599609375,16.875,-7.119140625,-12.041015625000002,22.763671875,-14.94140625
19.423828125,16.69921875,-7.294921875000001,-12.041015625000002,23.37890625,-15.029296875
19.248046875,16.435546875,-7.646484374999999,-12.041015625000002,23.994140625,-14.94140625
19.072265625,15.99609375,-7.910156250000001,-11.953125000000002,24.521484375,-14.94140625
18.984375,15.820312500000002,-8.349609375,-11.953125000000002,25.13671875,-14.94140625
18.896484375,15.556640625000002,-8.525390625,-11.953125000000002,25.751953125,-15.029296875
18.80859375,15.205078124999998,-8.701171875,-11.865234375,26.279296875,-14.94140625
18.720703125,15.029296875,-8.876953125,-11.865234375,26.89453125,-14.94140625
18.544921875,14.765625000000002,-9.140625000000002,-11.865234375,27.421874999999996,-14.94140625
18.45703125,14.677734375,-9.31640625,-11.865234375,27.773437500000004,-14.94140625
18.369140625,14.677734375,-9.31640625,-11.865234375,27.861328125,-14.94140625
18.10546875,14.765625000000002,-9.31640625,-11.689453125,27.861328125,-14.94140625
17.578125,14.765625000000002,-9.4921875,-11.25,27.861328125,-14.94140625
17.05078125,14.94140625,-9.66796875,-10.8984375,28.125,-14.94140625
16.611328125,15.029296875,-9.66796875,-10.546874999999998,28.125,-14.94140625
16.083984375,15.1171875,-9.84375,-10.283203125,28.212890625,-14.94140625
15.292968749999998,15.380859375,-10.01953125,-10.01953125,28.300781249999996,-14.94140625
14.677734375,15.468749999999998,-10.01953125,-9.66796875,28.388671875,-14.94140625
14.23828125,15.556640625000002,-10.1953125,-9.31640625,28.388671875,-14.94140625
13.710937499999998,15.732421875,-10.283203125,-8.876953125,28.564453124999996,-14.94140625
13.095703125000002,15.820312500000002,-10.283203125,-8.613281249999998,28.564453124999996,-14.94140625
12.656249999999998,15.99609375,-10.37109375,-8.173828124999998,28.564453124999996,-15.029296875
12.48046875,15.99609375,-10.458984375,-8.173828124999998,28.564453124999996,-14.94140625
12.392578125,15.99609375,-10.458984375,-8.173828124999998,28.65234375,-14.94140625
12.392578125,15.99609375,-10.1953125,-7.998046875,28.4765625,-14.94140625
12.392578125,16.083984375,-9.755859375,-7.998046875,27.59765625,-14.94140625
12.216796874999998,15.99609375,-9.31640625,-8.0859375,26.982421875,-14.94140625
12.216796874999998,16.083984375,-8.613281249999998,-7.998046875,26.455078125,-14.94140625
12.3046875,15.99609375,-8.173828124999998,-7.998046875,25.927734375000004,-14.94140625
12.3046875,16.083984375,-7.646484374999999,-7.998046875,25.312499999999996,-14.94140625
12.392578125,16.083984375,-7.03125,-7.998046875,24.78515625,-14.94140625
12.48046875,15.99609375,-6.240234375,-7.998046875,24.2578125,-14.94140625
12.48046875,15.99609375,-5.800781250000001,-7.998046875,23.906250000000004,-14.94140625
12.48046875,15.99609375,-5.44921875,-7.910156250000001,23.02734375,-14.94140625
12.48046875,15.99609375,-5.273437499999999,-7.910156250000001,22.851562499999996,-14.94140625
12.48046875,15.908203125,-5.273437499999999,-7.910156250000001,22.939453124999996,-15.029296875
12.48046875,15.556640625000002,-5.185546875,-7.910156250000001,23.203125000000004,-14.94140625
12.392578125,15.292968749999998,-5.273437499999999,-7.910156250000001,23.906250000000004,-14.94140625
12.3046875,15.1171875,-5.361328124999999,-7.910156250000001,24.433593749999996,-14.94140625
12.216796874999998,14.677734375,-5.712890624999999,-7.910156250000001,24.9609375,-14.94140625
12.12890625,14.326171875,-6.064453125,-7.822265625000001,25.576171874999996,-14.94140625
12.12890625,14.150390624999998,-6.328124999999999,-7.822265625000001,26.103515625,-14.94140625
12.041015625000002,13.886718750000002,-6.591796875,-7.822265625000001,26.718749999999996,-14.94140625
12.041015625000002,13.623046875,-6.767578125,-7.822265625000001,27.333984375,-14.94140625
11.953125000000002,13.53515625,-6.943359375000001,-7.822265625000001,27.773437500000004,-14.94140625
11.953125000000002,13.447265625,-7.03125,-7.822265625000001,27.861328125,-14.94140625
11.77734375,13.447265625,-7.03125,-7.734374999999999,27.861328125,-14.94140625
11.25,13.53515625,-7.119140625,-7.382812500000001,27.94921875,-14.94140625
10.722656249999998,13.53515625,-7.207031249999999,-6.943359375000001,28.037109375,-14.94140625
10.283203125,13.623046875,-7.207031249999999,-6.591796875,28.125,-14.94140625
9.580078124999998,13.710937499999998,-7.382812500000001,-6.240234375,28.125,-14.94140625
8.876953125,13.886718750000002,-7.470703125,-5.976562500000001,28.212890625,-14.94140625
8.4375,13.886718750000002,-7.470703125,-5.537109375,28.212890625,-14.94140625
8.173828124999998,13.974609375,-7.55859375,-5.185546875,28.212890625,-14.94140625
7.998046875,14.0625,-7.55859375,-5.273437499999999,28.212890625,-14.94140625
7.998046875,14.0625,-7.55859375,-5.185546875,28.212890625,-14.94140625
7.998046875,14.0625,-7.294921875000001,-5.185546875,28.037109375,-14.94140625
7.910156250000001,14.0625,-6.767578125,-5.185546875,27.158203125,-14.94140625
7.822265625000001,14.0625,-6.240234375,-5.185546875,26.54296875,-14.94140625
7.822265625000001,14.0625,-5.625,-5.185546875,26.191406250000004,-14.94140625
7.910156250000001,14.0625,-5.09765625,-5.185546875,25.400390625,-14.94140625
7.910156250000001,14.0625,-4.482421875,-5.185546875,24.873046875,-14.94140625
7.910156250000001,14.0625,-3.8671874999999996,-5.185546875,24.169921875,-14.94140625
7.910156250000001,14.0625,-3.251953125,-5.185546875,23.73046875,-14.94140625
7.998046875,14.0625,-2.8125,-5.185546875,23.02734375,-14.94140625
8.0859375,14.0625,-2.548828125,-5.09765625,22.763671875,-14.94140625
8.0859375,14.0625,-2.548828125,-5.09765625,22.587890625000004,-14.94140625
7.998046875,14.23828125,-2.548828125,-5.185546875,22.67578125,-14.94140625
8.0859375,14.853515625,-2.9882812500000004,-5.185546875,22.67578125,-14.94140625
8.173828124999998,15.380859375,-3.6035156249999996,-5.273437499999999,22.67578125,-14.94140625
8.349609375,15.99609375,-4.21875,-5.273437499999999,22.67578125,-14.94140625
8.4375,16.435546875,-4.658203125,-5.361328124999999,22.763671875,-14.94140625
8.525390625,16.611328125,-4.833984375,-5.44921875,22.851562499999996,-14.94140625
8.525390625,16.611328125,-5.009765625,-5.361328124999999,22.851562499999996,-14.94140625
8.26171875,16.611328125,-5.09765625,-5.273437499999999,22.939453124999996,-15.029296875
7.55859375,16.611328125,-5.09765625,-5.09765625,22.939453124999996,-14.94140625
7.03125,16.611328125,-5.009765625,-4.833984375,22.939453124999996,-14.94140625
6.416015625,16.435546875,-5.09765625,-4.482421875,22.939453124999996,-14.94140625
5.800781250000001,16.435546875,-5.009765625,-4.130859375,22.939453124999996,-14.94140625
5.185546875,16.171875,-5.009765625,-3.6914062500000004,22.939453124999996,-15.029296875
4.570312500000001,16.083984375,-4.74609375,-3.4277343749999996,22.939453124999996,-14.94140625
4.04296875,15.908203125,-4.570312500000001,-3.076171875,22.939453124999996,-14.94140625
3.4277343749999996,15.820312500000002,-4.39453125,-2.724609375,22.939453124999996,-14.94140625
2.8125,15.732421875,-4.21875,-2.2851562500000004,23.02734375,-14.94140625
2.197265625,15.468749999999998,-3.9550781250000004,-1.9335937499999998,23.02734375,-14.94140625
1.6699218749999998,15.380859375,-3.779296875,-1.5820312499999998,23.02734375,-14.94140625
1.1425781250000002,15.292968749999998,-3.515625,-1.23046875,23.02734375,-14.94140625
0.439453125,15.1171875,-3.3398437499999996,-0.87890625,23.02734375,-15.029296875
-0.087890625,14.853515625,-3.251953125,-0.615234375,23.02734375,-14.94140625
-0.615234375,14.765625000000002,-3.076171875,-0.263671875,23.02734375,-14.94140625
-1.1425781250000002,14.589843750000002,-2.724609375,0.087890625,23.02734375,-14.94140625
-1.6699218749999998,14.501953124999998,-2.548828125,0.3515625,23.02734375,-14.94140625
-1.6699218749999998,14.414062499999998,-2.548828125,0.439453125,23.02734375,-14.94140625
-1.7578125,14.150390624999998,-2.548828125,0.439453125,23.115234375,-14.94140625
-1.7578125,13.886718750000002,-2.548828125,0.439453125,23.642578125,-15.029296875
-1.8457031250000002,13.53515625,-2.8125,0.439453125,24.2578125,-14.94140625
-1.7578125,13.271484375,-2.9882812500000004,0.52734375,24.78515625,-14.94140625
-1.7578125,13.0078125,-3.251953125,0.52734375,25.312499999999996,-14.94140625
-1.7578125,12.656249999999998,-3.6035156249999996,0.52734375,25.83984375,-14.94140625
-1.6699218749999998,12.392578125,-3.9550781250000004,0.615234375,26.3671875,-14.94140625
-1.6699218749999998,12.12890625,-4.21875,0.615234375,26.982421875,-14.94140625
-1.6699218749999998,12.041015625000002,-4.306640624999999,0.615234375,27.509765625,-14.94140625
-1.6699218749999998,11.953125000000002,-4.39453125,0.615234375,27.773437500000004,-14.94140625
-1.5820312499999998,11.865234375,-4.482421875,0.615234375,27.861328125,-14.94140625
-1.40625,11.865234375,-4.482421875,0.615234375,27.861328125,-14.94140625
-0.87890625,11.865234375,-4.482421875,0.439453125,27.861328125,-14.94140625
-0.3515625,11.865234375,-4.482421875,0.0,27.861328125,-15.029296875
0.3515625,11.865234375,-4.482421875,-0.263671875,27.861328125,-14.94140625
0.9667968749999999,11.865234375,-4.482421875,-0.615234375,27.861328125,-15.029296875
1.4941406250000002,11.865234375,-4.482421875,-0.9667968749999999,27.861328125,-14.94140625
2.109375,11.865234375,-4.482421875,-1.23046875,27.861328125,-14.94140625
2.724609375,11.865234375,-4.482421875,-1.6699218749999998,27.861328125,-14.94140625
3.251953125,11.77734375,-4.482421875,-2.021484375,27.861328125,-14.94140625
3.6914062500000004,11.77734375,-4.482421875,-2.373046875,27.861328125,-15.029296875
4.130859375,11.77734375,-4.482421875,-2.724609375,27.861328125,-14.94140625
4.21875,11.77734375,-4.482421875,-2.9003906250000004,27.861328125,-15.029296875
4.21875,11.865234375,-4.482421875,-2.9003906250000004,27.861328125,-14.94140625
4.21875,11.865234375,-4.306640624999999,-2.9003906250000004,27.685546875000004,-15.029296875
4.39453125,11.953125000000002,-4.21875,-2.9003906250000004,26.630859375,-14.94140625
4.39453125,11.953125000000002,-3.779296875,-2.724609375,25.83984375,-14.94140625
4.482421875,12.12890625,-3.251953125,-2.724609375,25.400390625,-14.94140625
4.482421875,12.216796874999998,-2.9003906250000004,-2.724609375,25.048828125000004,-14.94140625
4.482421875,12.3046875,-2.4609375,-2.724609375,24.2578125,-14.94140625
4.482421875,12.392578125,-1.9335937499999998,-2.724609375,23.642578125,-14.94140625
4.570312500000001,12.568359375,-1.5820312499999998,-2.724609375,23.203125000000004,-14.94140625
4.570312500000001,12.744140625,-1.23046875,-2.9003906250000004,22.763671875,-14.94140625
4.570312500000001,12.744140625,-1.23046875,-2.724609375,22.412109375,-14.94140625
4.570312500000001,13.0078125,-1.23046875,-2.724609375,22.5,-14.94140625
4.570312500000001,13.623046875,-1.3183593749999998,-2.9003906250000004,22.5,-15.029296875
4.658203125,14.0625,-1.6699218749999998,-2.9003906250000004,22.5,-14.94140625
4.658203125,14.23828125,-1.8457031250000002,-2.9003906250000004,22.5,-14.94140625
4.74609375,14.326171875,-1.9335937499999998,-2.9003906250000004,22.587890625000004,-15.029296875
4.74609375,14.0625,-2.2851562500000004,-2.9003906250000004,22.851562499999996,-14.94140625
4.74609375,13.886718750000002,-2.6367187499999996,-2.9003906250000004,23.466796875,-14.94140625
4.74609375,13.53515625,-2.9003906250000004,-2.9003906250000004,23.994140625,-14.94140625
4.658203125,13.447265625,-3.076171875,-2.9003906250000004,24.521484375,-14.94140625
4.658203125,13.447265625,-3.1640624999999996,-2.9003906250000004,24.697265624999996,-15.029296875
4.658203125,13.18359375,-3.3398437499999996,-2.9003906250000004,24.78515625,-14.94140625
4.570312500000001,12.919921875,-3.6035156249999996,-2.9003906250000004,25.400390625,-14.94140625
4.570312500000001,12.744140625,-3.8671874999999996,-2.9003906250000004,25.927734375000004,-14.94140625
4.482421875,12.3046875,-4.130859375,-2.9003906250000004,26.54296875,-14.94140625
4.482421875,12.041015625000002,-4.306640624999999,-2.9003906250000004,27.158203125,-15.029296875
4.482421875,11.953125000000002,-4.482421875,-2.9003906250000004,27.509765625,-14.94140625
4.482421875,11.953125000000002,-4.482421875,-2.9003906250000004,27.685546875000004,-14.94140625
4.482421875,11.953125000000002,-4.833984375,-2.9003906250000004,27.685546875000004,-14.94140625
4.39453125,12.216796874999998,-5.44921875,-2.9003906250000004,28.037109375,-14.94140625
4.39453125,12.744140625,-6.064453125,-2.9003906250000004,28.212890625,-14.94140625
4.39453125,13.359374999999998,-6.679687499999999,-2.9003906250000004,28.388671875,-14.94140625
4.39453125,13.798828125,-7.294921875000001,-2.9882812500000004,28.4765625,-14.94140625
4.482421875,14.150390624999998,-7.734374999999999,-2.9882812500000004,28.564453124999996,-14.94140625
4.482421875,14.326171875,-7.822265625000001,-2.9882812500000004,28.564453124999996,-14.94140625
4.482421875,14.414062499999998,-7.910156250000001,-2.9882812500000004,28.564453124999996,-14.94140625
4.482421875,14.326171875,-7.822265625000001,-2.9882812500000004,28.4765625,-14.94140625
4.482421875,14.414062499999998,-7.646484374999999,-2.9882812500000004,27.861328125,-14.94140625
4.482421875,14.414062499999998,-7.470703125,-2.9882812500000004,27.509765625,-14.94140625
4.482421875,14.414062499999998,-7.294921875000001,-2.9882812500000004,27.24609375,-14.94140625
4.482421875,14.414062499999998,-7.119140625,-2.9882812500000004,26.982421875,-14.94140625
4.482421875,14.414062499999998,-7.03125,-2.9882812500000004,26.718749999999996,-14.94140625
4.482421875,14.326171875,-6.767578125,-2.9882812500000004,26.630859375,-14.94140625
