RAMEL-ESPOL/ARCHIE/matlab/data/joint_goals_square_t35_h35_p12.txt
Joint0,Joint1,Joint2,Joint3,Joint4,Joint5 
-0.0012385949806841495,9.580054722015612,14.249667275983539,-0.00452939233568449,-23.82354776890895,0.004118554486023692
-0.0012385949806841495,9.580054722015612,14.249667275983539,-0.00452939233568449,-23.82354776890895,0.004118554486023692
-0.0012385949806841495,9.580054722015612,14.249667275983539,-0.00452939233568449,-23.82354776890895,0.004118554486023692
-0.0012385949806841495,9.580054722015612,14.249667275983539,-0.00452939233568449,-23.82354776890895,0.004118554486023692
-0.0012385949806841495,9.580054722015612,14.249667275983539,-0.00452939233568449,-23.82354776890895,0.004118554486023692
-0.0012385949806841495,9.580054722015612,14.249667275983539,-0.00452939233568449,-23.82354776890895,0.004118554486023692
-0.0012385949806841495,9.580054722015612,14.249667275983539,-0.00452939233568449,-23.82354776890895,0.004118554486023692
-0.0012385949806841495,9.580054722015612,14.249667275983539,-0.00452939233568449,-23.82354776890895,0.004118554486023692
-0.0012385949806841495,9.580054722015612,14.249667275983539,-0.00452939233568449,-23.82354776890895,0.004118554486023692
-0.0012385949806841495,9.580054722015612,14.249667275983539,-0.00452939233568449,-23.82354776890895,0.004118554486023692
-0.0012385949806841495,9.580054722015612,14.249667275983539,-0.00452939233568449,-23.82354776890895,0.004118554486023692
-0.0012385949806841495,9.580054722015612,14.249667275983539,-0.00452939233568449,-23.82354776890895,0.004118554486023692
-0.0012385949806841495,9.580054722015612,14.249667275983539,-0.00452939233568449,-23.82354776890895,0.004118554486023692
-0.0012385949806841495,9.580054722015612,14.249667275983539,-0.00452939233568449,-23.82354776890895,0.004118554486023692
-0.0012385949806841495,9.580054722015612,14.249667275983539,-0.00452939233568449,-23.82354776890895,0.004118554486023692
-0.0012385949806841495,9.580054722015612,14.249667275983539,-0.00452939233568449,-23.82354776890895,0.004118554486023692
-0.001232359414113182,9.580067754193456,14.249635797935667,-0.00452936845557709,-23.823468370950856,0.004124838497538817
0.017055402420653024,9.618204767857076,14.157424787087734,-0.004521869933119345,-23.590770794669204,0.022529316849261776
0.05805099704120971,9.703088916379782,13.951496511425173,-0.00495642414819429,-23.070295830761506,0.06360684726906282
0.10078417664768057,9.790685736860105,13.737970941931886,-0.00606450815116051,-22.529429322089076,0.10617303962707199
0.1439346009194849,9.878232009749807,13.52350935525249,-0.007850726265020551,-21.984958017045088,0.14890851942810343
0.18747457600659811,9.965656775883396,13.3082594011878,-0.01032179989920284,-21.43722654486198,0.19179405245076342
0.23064223186588087,10.051440039303827,13.095966725597808,-0.013424555961017215,-20.8957700237294,0.23409367286230506
0.27416760549511165,10.137042847642057,12.883019754843245,-0.017201376850869164,-20.35138192382922,0.27653710794915415
0.31771359776744673,10.221800114517864,12.671061977113157,-0.021622193406101414,-19.808251259116116,0.318806846643058
0.36141243705317017,10.3059731339044,12.45943664160355,-0.026695436547394476,-19.264691418251026,0.3610437127853926
0.40559271740383945,10.39018460617077,12.24655657093608,-0.03246467636661837,-18.71660136919259,0.4035748951612747
0.44936005817442554,10.472736149239786,12.036715383649355,-0.038806776326524295,-18.175035917420985,0.4455520618780122
0.493336947289987,10.554816265354278,11.826903200249365,-0.04580005404809396,-17.632239576650797,0.4875861395088818
0.537939689794865,10.637185190979244,11.615145688971575,-0.05352135170945145,-17.08307014611039,0.5300837132388306
0.5826801211005932,10.718926622459932,11.403769805754889,-0.06189555190774546,-16.533530559848106,0.572588913143798
0.6273380819074214,10.799644231538682,11.193800667840543,-0.07087624983006649,-15.98628613141044,0.6149048234582628
0.6724745745630629,10.880347760555296,10.982597431258116,-0.0805784961591829,-15.434438381184659,0.6575739767998848
0.7174323466262762,10.959860337046353,10.773229495682116,-0.09086164234713809,-14.885995744908508,0.6999862207016216
0.7625699713882209,11.038822814432491,10.564011386150703,-0.10180256860337045,-14.336545084633137,0.7424918282753783
0.8077569234508309,11.117006828093713,10.355540274049226,-0.11336946631910977,-13.787646060140354,0.7849791365081741
0.8532247722533867,11.194809860151668,10.146743552414565,-0.12562388371019637,-13.236460746437764,0.8276769360148966
0.8986406991979532,11.271661832874326,9.939142456011146,-0.13847673153435022,-12.686995545622747,0.8702838803833199
0.9442098076553266,11.347912750158436,9.731788466059191,-0.15198437802768627,-12.136736533406877,0.9130037478132099
0.9898097798101821,11.42335832704989,9.525230103934627,-0.16611089190902353,-11.587131751028604,0.9557330513079602
1.0354848456151988,11.498074075313744,9.319256903720747,-0.18086911633712416,-11.037617044189856,0.9985244298757436
1.0812770832897005,11.572128546750045,9.113671905663113,-0.1962738471229878,-10.48765841001308,1.0414284397547469
1.127017043945963,11.645250744486624,8.909225178981401,-0.21226710984229777,-9.939259714374208,1.0842973884574103
1.172874862200045,11.71771550114179,8.705145876876491,-0.22890774880154935,-9.39035045277469,1.127301757105006
1.2188963937491553,11.789591953981288,8.501226127791458,-0.24621638178158992,-8.840357843809873,1.1704957593817558
1.264942502405302,11.860661891930258,8.298076135347015,-0.2641431284439975,-8.290918364346465,1.2137599685638523
1.3110630569124075,11.931003627328556,8.095467291991273,-0.28270843421122055,-7.741408563764266,1.2571523026204268
1.3572779529481667,12.000646759208587,7.893305820632558,-0.3019230493815154,-7.19156523251511,1.3007026984622903
1.4036650839977738,12.0697050873072,7.691247530498887,-0.3218243767434293,-6.6404381730897795,1.3444960995189403
1.4497685141330612,12.137506373611558,7.4912648339558805,-0.3422146447453068,-6.093412134821067,1.3881125874266265
1.496421180255202,12.205271684448125,7.289741589330527,-0.36346791742158086,-5.540581060289252,1.4323519327590688
1.5426018583309697,12.271518686179238,7.091081227997503,-0.3851212017542168,-4.994019582894666,1.4762568311987234
1.5891929299918803,12.337517820600443,6.89147645843421,-0.40758803990908754,-4.4432547439442915,1.5206769087194092
1.635716559243636,12.402585775958226,6.692973944449655,-0.4306462352754846,-3.893914487246647,1.5651689450028918
1.682269390277161,12.466861389699233,6.495151040108785,-0.4543446103134119,-3.3448294058975865,1.6098362104105424
1.7289346789536038,12.530458279359362,6.29764857124858,-0.47873043689375583,-2.7949931231181293,1.6547703512275944
1.7755770909324868,12.593191921755267,6.101032794890077,-0.5037371598135263,-2.245975167758065,1.6998526498915616
1.8223059767975063,12.655209824143316,5.904835794619767,-0.5294274075209539,-1.696463162092079,1.7452003815111354
1.8692686172920898,12.716700951099194,5.708438772899156,-0.5558917246574618,-1.144704285833111,1.7909697424763802
1.9160446908868007,12.777115499972956,5.513592540354319,-0.5828976287688395,-0.5956118798364901,1.8367628429554272
1.9628915843767827,12.836790730580997,5.319214093907281,-0.6105949997875935,-0.04613737485043848,1.8828424314986043
2.00977557692145,12.89568236747526,5.12543823890072,-0.6389701985751678,0.5033472049035486,1.9291877418714083
2.0566797543891777,12.953769043658228,4.932328729442369,-0.6680185888001284,1.0526675770776583,1.9757942550572651
2.1036085480818123,13.011056259250607,4.739861106465414,-0.6977486550206164,1.601899462382892,2.0226786543342374
2.150552784061528,13.067532947584034,4.548066735392453,-0.7281604759576986,2.1509591644687203,2.0698441349089802
2.197650292325608,13.123361427019535,4.356379497825156,-0.7593524585427845,2.7014807819797797,2.1174428904852802
2.2447679800412486,13.178380169373973,4.165338331904751,-0.7912460916875805,3.2519304864511787,2.1653544360256647
2.291805473616382,13.2324742147146,3.9753422588735496,-0.8237783851339447,3.8011596198918434,2.2134887940750696
2.3388731768610422,13.285772521369735,3.785937685343609,-0.8570311040522066,4.350480876527165,2.2619712265330016
2.3858823114546066,13.338175714900494,3.597475029937737,-0.8909478747773918,4.898881118360534,2.310722978570144
2.433182517781618,13.390067694544808,3.408551719294347,-0.9257936265540376,5.450460150314064,2.3601224183642038
2.480237277781452,13.440858885877937,3.2213057568186314,-0.961181871769758,5.998983567983627,2.409623160928144
2.5274280329856254,13.490963926654613,3.0342111307588784,-0.9974051928523242,6.548920729134847,2.4596389919824335
2.5745431430032673,13.540156475421643,2.8481026564423404,-1.0343110954144807,7.097826852332227,2.5099602588976726
2.621663334238106,13.588522508576412,2.6626545082531576,-1.0719701399589556,7.6466644191999995,2.5606865286417135
2.669044806710156,13.636317594684122,2.4768588849964552,-1.1106029928982135,8.19843810184559,2.6121116532206723
2.7161073616735196,13.682957630202594,2.2929845206293336,-1.1497450213268796,8.746412747127888,2.6636199447113724
2.763356675837641,13.728946621363,2.1090480168638055,-1.1898240168634038,9.296497699403012,2.7157782693264023
2.8106690790423725,13.774156999868971,1.9255311980602068,-1.2307520565921217,9.84727366485619,2.7684691494859015
2.857743314027083,13.818304665056488,1.7435943432295686,-1.2722755053014465,10.395254529953394,2.8213703743398773
2.905095963559322,13.86187222600049,1.5612371403577037,-1.3148628054815983,10.946474316258351,2.8750792919112746
2.9522441787189817,13.904412327990205,1.380316329257483,-1.358094041496128,11.495332647308665,2.929066052642961
2.9995086225573084,13.94621565244672,1.1995952808281214,-1.40227364971257,12.045582573954457,2.9837133500691366
3.0467262309583236,13.987134783264093,1.019694899982834,-1.4472645551379768,12.595345837171982,3.0388513065433074
3.0939644584468224,14.027227618865629,0.8403536245688046,-1.4931441856893146,13.145427652280839,3.0945760664283983
3.1409774505897468,14.066289513454606,0.6624969303043104,-1.539682534957041,13.69298412751747,3.1506121513897507
3.188172132110104,14.104658112294384,0.4845808686842675,-1.5872963133096516,14.242774021454109,3.207462562972048
3.2355281390021737,14.142306095211634,0.306685398741587,-1.6359903891866925,14.794580833386993,3.2651285905963188
3.28311267923836,14.179274436656074,0.12856242408166377,-1.6858619675250315,15.349208986032504,3.3237200236304894
3.33070370209342,14.215382384333996,-0.048955602385961125,-1.7367026281999045,15.904091031274612,3.3829890568622782
3.3784578519998236,14.250742111900573,-0.22645288633370753,-1.7887030913133042,16.461073844326148,3.4431559865239016
3.425945017577267,14.285035847993285,-0.40233592511467553,-1.8414106126202547,17.015159413650903,3.503698740366588
3.4733415518531867,14.318398527038985,-0.5772678975760689,-1.8950291078432708,17.568421988267165,3.564856716902219
3.520973044401001,14.351052988375292,-0.7524505253164617,-1.9499519194141404,18.124682242417638,3.6270768394234865
3.56848730170203,14.38275213265204,-0.9265889746293956,-2.0057978731999477,18.67984686291569,3.6899259451261064
3.6159364199305286,14.413533233482228,-1.0998803424483172,-2.06264398391731,19.234541596702247,3.753493221290154
3.6635368728668944,14.443531668957347,-1.2731160680595193,-2.120775415940688,19.791316459756914,3.818096571672736
3.710849878694792,14.472471943305793,-1.4447042333058753,-2.1796751678357382,20.34505604794849,3.883163207960048
3.758639543923415,14.500813333742718,-1.6174146920043333,-2.240326023728976,20.904723647368748,3.949776594428804
3.8055384949455884,14.527753521713906,-1.7863157319997194,-2.301002834822774,21.454319150307793,4.016046938926399
3.8517843380061625,14.553468891020062,-1.9522939205164576,-2.36198152621178,21.996626415884926,4.082293494469781
3.8768236656290864,14.567039163052367,-2.0419252405177892,-2.395482003098184,22.29041024998786,4.118544342640591
3.8880846414729717,14.573061073977398,-2.0821813305466246,-2.4106606686367904,22.42257107976816,4.134936720750533
3.878359957723817,14.482552012717166,-2.192790565395742,-2.4086101265747693,22.62989262078307,4.134000558726501
3.8522965029074805,14.249273501984437,-2.4626786029376992,-2.401335894728154,23.13368554191584,4.129278278893801
3.8252075806833616,13.997897479816759,-2.7416313080149055,-2.394049276262151,23.664660344102657,4.124560118775304
3.798294549937935,13.73884879252758,-3.017038590071037,-2.387096903071362,24.199753099809612,4.120073836656416
3.774863196778644,13.505514430901032,-3.255272399186475,-2.3812855623409654,24.67187145714987,4.11633916855781
3.7649020085897926,13.404064286827836,-3.356083807813697,-2.3788851674180074,24.87436569679872,4.114801573814589
3.7584967752220524,13.338107873660288,-3.420753543323868,-2.3773641925789835,25.00514108237414,4.11382904166104
3.7370932991862285,13.113543916884312,-3.635939329920184,-2.372412110841672,25.44538729838635,4.110673288582278
3.711461041375943,12.83598477640529,-3.8916818174600136,-2.3667526523824636,25.979278943116512,4.107090829332154
3.6861050067647017,12.55188304343703,-4.142399301394414,-2.3614555097144447,26.51467684129787,4.103767668715798
3.662295038182173,12.276200182257153,-4.375609247931996,-2.3567646747998143,27.024108440009112,4.100856440560093
3.650898836299714,12.141120149489971,-4.486421796725837,-2.3546196460028646,27.270257296762892,4.099537527228929
3.645621319162457,12.078985608507752,-4.54395579559517,-2.3537611379702,27.39003969931038,4.099187917753076
3.658821548951946,12.310744245276926,-4.8372721406059505,-2.3635833235208037,27.45100657785919,4.11677279231369
3.685626658308663,12.776484375608801,-5.424162086716786,-2.383486510674995,27.570951474480072,4.152373489429919
3.7140694857908954,13.26370766960876,-6.034455000401196,-2.4045435618541484,27.69273503709413,4.189992555411024
3.7433477227052805,13.757969737379016,-6.649710621777874,-2.426151928923272,27.812396705939026,4.22855000491224
3.7731566692574314,14.2538449816203,-7.263052115919355,-2.448081701531319,27.928498571013645,4.267634872342134
3.803486903196562,14.75101845570203,-7.874033911084483,-2.470321951816632,28.040910030601665,4.307227765782136
3.8348658415303767,15.257797915259317,-8.492713001149951,-2.4932534721666166,28.15135539714835,4.348005598528986
3.8664270619090777,15.759982097710758,-9.101670668538812,-2.5162383295286137,28.256656874976624,4.388833778194869
3.8988361647276264,16.2680340941618,-9.713558442777606,-2.5397572091894167,28.35897144716257,4.430566451222727
3.932063028659123,16.781136075460303,-10.327235054946554,-2.5637816885535676,28.457976384285775,4.473152226351205
3.9659849351649323,17.297110875620994,-10.939976579388256,-2.5882169902116092,28.553130080461283,4.516422531042984
4.00053883938576,17.814790880117645,-11.550318535258047,-2.61301235673985,28.644138102677204,4.560287327931828
4.03502918227089,18.323808731681634,-12.146108182701377,-2.637666466743884,28.729248151072674,4.603860975478561
4.0591243091818585,18.674968779395414,-12.554612956012635,-2.654833374335761,28.785425564955194,4.634178349061553
4.036061364600412,18.74196270148406,-12.631472623744125,-2.640038156897478,28.796342123947518,4.608560018056456
3.664930085482054,18.763528401613215,-12.645724798528592,-2.3976475938669535,28.805263039740076,4.187489028704048
3.1027297664411533,18.79221403070998,-12.664672703474654,-2.0302482429614073,28.81713862132174,3.549570698814426
2.5289617692397064,18.816553877056382,-12.680739196692175,-1.6550547439232024,28.82720476814839,2.8984537018769916
1.9556546634273317,18.835907489066322,-12.693512281219313,-1.2799706380327898,28.835243852703517,2.2478009127552707
1.3830016401459935,18.85029073331906,-12.702998734904265,-0.9051654039812361,28.841195752679546,1.5978438383678957
0.8075758493141796,18.85977070222072,-12.709253082381954,-0.5284394823793449,28.845146968456216,0.9447073023828041
0.23359885175812645,18.864263909615985,-12.712214581103131,-0.15260071290431426,28.846998163997323,0.2931959470727925
-0.34050482877159444,18.863803525475486,-12.71191348422276,0.22333970191917152,28.8468243431884,-0.35846480538104825
-0.9135661562296239,18.858400517432212,-12.70834929076403,0.5985703768443243,28.844566688613984,-1.0089340418146644
-1.4878620433460803,18.848029918941524,-12.701512150766018,0.974541224871426,28.840279763775808,-1.6607834949581606
-2.0587490625095684,18.83279691141059,-12.691461781949844,1.3481656863179212,28.833946138491434,-2.3087280735431883
-2.6314933270639513,18.812575394213475,-12.678119828343723,1.722851784282303,28.82558165875485,-2.9587331833384707
-3.2052441143428005,18.787347615312665,-12.661466785610477,2.097996195992324,28.815152094153593,-3.6098187479480655
-3.7525408079771885,18.75863453577401,-12.642498527016128,2.455613186268929,28.803258070629138,-4.230812733502022
-4.043060833136827,18.741544285300286,-12.631203730286975,2.6453427450678215,28.796188263418223,-4.5604213364334205
-4.066076068775877,18.74664889276833,-12.502026849138055,2.656943529940894,28.660993990807317,-4.579404163753505
-4.074385401555786,18.766488959678885,-12.034657182073508,2.6501384492260387,28.17392424974036,-4.563135671030998
-4.083776278074729,18.782760206164358,-11.504662747652437,2.642856505167956,27.62781061055808,-4.545131365065674
-4.093174500756488,18.792661696915705,-10.972413163062894,2.6359874238061884,27.085805438224583,-4.527501150793916
-4.102684810084273,18.796340114765304,-10.432006236665417,2.6294466756048407,26.54186166924443,-4.510038402537142
-4.112259869793257,18.79375658298566,-9.886144633607842,2.623262885198113,25.998720266961556,-4.492823575654582
-4.121776246011636,18.785090909872608,-9.341924448043823,2.617501584297704,25.463296031469568,-4.476062756947099
-4.131256522806031,18.77056053522156,-8.798137645365124,2.612129697466237,24.934164146491618,-4.459695710977358
-4.14071508743019,18.750338838267304,-8.25402912133291,2.607122898077483,24.410396616909193,-4.443680189795041
-4.1501645492308255,18.724563491155315,-7.708933893845349,2.6024607189135,23.89119121053511,-4.427979672177059
-4.15917562871833,18.69491707846745,-7.18776713825401,2.598320697288318,23.399775856302305,-4.413274537197408
-4.163336612739129,18.681336920609816,-6.9539339142240255,2.596613982416803,23.179564292869312,-4.40684073731019
-4.180078626204944,18.915623791293594,-7.223581416322151,2.607717755875882,23.214144415033726,-4.42640388155274
-4.215944848564779,19.41182561035116,-7.791768215123519,2.6314527280969724,23.284449231062407,-4.468174771376354
-4.254765959867508,19.94036582016767,-8.39263396768043,2.657062971570487,23.354943789362203,-4.513176550563304
-4.294567810205977,20.47332959748908,-8.993970431325488,2.6832343445590996,23.421425899345984,-4.55909195987524
-4.335234720932211,21.008841035189164,-9.593558558332264,2.7098855214303432,23.48355702729928,-4.605775983634612
-4.364328123801994,21.386509456430716,-10.013624080548087,2.7288972331366677,23.524553670684973,-4.639034142597375
-4.343896110292414,21.43372092356037,-10.06527562192045,2.716249347078709,23.52994136232625,-4.617441476661556
-3.9927258431954584,21.186561713446388,-9.78159859578771,2.4965188187081027,23.50913320855794,-4.240567787441868
-3.4733221245846084,20.8145160927733,-9.354305997901207,2.171488441737146,23.47466117722822,-3.6834693291783025
-2.94948446259164,20.431279610379,-8.913748215843727,1.8436828680972561,23.43535479252025,-3.122047313435745
-2.4271329724990727,20.04089887011114,-8.464470493857782,1.5168554091778814,23.391485019951265,-2.56270719028082
-1.9082520016950693,19.644750366221253,-8.007956599772445,1.1922958872837512,23.34314694119003,-2.0076257278413387
-1.398567971844004,19.247285077080463,-7.549247838056716,0.8736307917159958,23.290906112667727,-1.462968966437517
-0.8904526727374694,18.842586323763946,-7.081424200396675,0.5561341590512082,23.23398722319866,-0.9206279623954806
-0.3871267486590008,18.433142685112763,-6.607260593786005,0.24186261093728498,23.1726931322221,-0.38409135020265184
0.10947441457765757,18.020581935592855,-6.1285523263466555,-0.0679362727480761,23.107275754045865,0.1445372980212358
0.4248198893983101,17.754064262984965,-5.818777079073905,-0.264501732454161,23.063136317690287,0.4798151425289432
0.6899759808272744,17.527176188931882,-5.554719683124747,-0.4296684364481171,23.024378736989682,0.7614590663534212
1.1740086659236642,17.1062999458846,-5.064034978590357,-0.730897463351522,22.949770252317666,1.2749410688727707
1.66946024102969,16.66630025370358,-4.549805176792671,-1.0388159385219229,22.86805797199689,1.799597238086482
2.160640650251205,16.220638904536866,-4.027598860623074,-1.3436223312869306,22.781566189447513,2.318728893733361
2.6394091052234145,15.776897025307463,-3.506217537614245,-1.6402264161902018,22.691760653050004,2.823684076598274
3.109985140842203,15.331488369569989,-2.981397543303471,-1.9312348327149447,22.59805019314107,3.318915746538273
3.566112493350162,14.890727403635458,-2.4605437600842275,-2.2127724144075582,22.501890669653662,3.7978433733081087
3.859178183639924,14.602721309450716,-2.119370959855899,-2.393370818598416,22.43727763475417,4.1049628489952905
3.884134104462557,14.533104501054623,-2.132841275826246,-2.410263381330632,22.519271621184433,4.135082698921705
3.860790747237279,14.326194351004627,-2.374898653995744,-2.4036864020385242,22.968801282449746,4.130810590844944
3.8334819757509,14.075647125947908,-2.656625123578336,-2.396252464454103,23.501727880975476,4.125992725231035
3.8064731084764283,13.81855467863096,-2.933560150139367,-2.3891864364123916,24.036395980212497,4.121427859911604
3.7804928821150443,13.562235664833171,-3.1981918094657704,-2.3826685434324593,24.55795798420454,4.117234011873094
3.7664215675166823,13.419613789425833,-3.340743117214992,-2.3792562899119254,24.843460233457613,4.115046633198267
3.7597373757679957,13.350912389581229,-3.408256301570201,-2.3776650979404734,24.979830622531352,4.114028881871557
3.7445561072403235,13.192563294832343,-3.5610908386668725,-2.374123458621686,25.291366892031498,4.111769434648189
3.719192227408468,12.92069510339282,-3.814795907689811,-2.368435627195632,25.817525456622064,4.10816066071195
3.693781937098001,12.638905564482465,-4.066754986897983,-2.363034664347605,26.3518555155755,4.104762420743929
3.6689084719200222,12.353642112641575,-4.3110719650171925,-2.358047160372595,26.882000213399944,4.101656570781696
3.652600786317656,12.161412564865433,-4.469919814348043,-2.3549434919142715,27.233444881822564,4.09974374443465
3.645900929948432,12.081218869425795,-4.534860134049691,-2.3537074826474873,27.3787291636263,4.098987064177895
3.4751044925846326,12.085346449165643,-4.546900994427768,-2.243808479235922,27.393439739691267,3.9088089281827267
2.9822248977652785,12.11126897364387,-4.56632147068752,-1.925893135201772,27.40472574894693,3.3585529552979176
2.4444891074701536,12.135018310322865,-4.584106357471263,-1.5788482800546542,27.415077292218353,2.7581376592609317
1.9014350609576363,12.154212111842737,-4.598470637704726,-1.2281986835848908,27.4234186629321,2.1517109357537194
1.3573594457777574,12.168625062890765,-4.609256868482685,-0.8767560592012696,27.429710786724666,1.5440897629548254
0.8151178194207845,12.178197694966862,-4.6164196574957455,-0.5264022680574069,27.43389421761671,0.93847701212039
0.2704450194501546,12.183000887703816,-4.620010092005654,-0.17442007934850864,27.4359663646553,0.3301236171192034
-0.27370503786819494,12.182987375246338,-4.620001437872729,0.17724354974488446,27.435969368559025,-0.2776524165463365
-0.815753612008462,12.178190563339232,-4.616414824926022,0.5275300341254656,27.433885866585797,-0.8830733837471628
-1.359224655354739,12.168586743335084,-4.6092316020524,0.8786783761563596,27.429706604763116,-1.4900593537555693
-1.902251296888734,12.154190201187335,-4.598456704141123,1.2294421339357595,27.42340761254773,-2.096509739909808
-2.446260482098613,12.134951853746934,-4.584058248951625,1.5807076572412124,27.41503379119066,-2.7040011016030268
-2.9920014389541376,12.110798815577077,-4.5659739600931095,1.932917618866914,27.404524930128673,-3.3133542320373435
-3.4686119721135795,12.085720429081764,-4.547187648313653,2.240339135620627,27.393615651636864,-3.8454472838838347
-3.6456239657066662,12.075921071836936,-4.5382426555925015,2.354429824599763,27.387419638340987,-4.042966445197979
-3.652842525348876,12.142253165134484,-4.355031061981674,2.353793373206397,27.137792630506823,-4.0394776454020525
-3.668037462993519,12.276881252547467,-3.968248509257121,2.3526879738963777,26.616203810049196,-4.032330742818508
-3.683880413638533,12.410189708455125,-3.5634263339010985,2.3518635219960387,26.077883510746638,-4.025152812510558
-3.699928325466724,12.538067034027591,-3.1518570343077523,2.3513574229487997,25.538240887892904,-4.018154057910391
-3.716145265853907,12.660172891239046,-2.7345070768206114,2.35116999908007,24.998583220278544,-4.01134686735732
-3.732490644659805,12.776201720040138,-2.3124773738742643,2.351298649159004,24.460317549183696,-4.004743082861602
-3.748977528656171,12.886267392052224,-1.885490844821136,2.3517396807969204,23.923052830104243,-3.9983316007559866
-3.765701397894765,12.990963114221161,-1.4511230581424523,2.3524949698753113,23.383770232917872,-3.9920719008247976
-3.7825678001038203,13.089657602280127,-1.0118768242888234,2.353559569577161,22.845605130643193,-3.9859958684064156
-3.798173926755336,13.174979986415988,-0.6044765514736854,2.3548061999161862,22.352671931370125,-3.980575975198887
-3.8045167932252824,13.208046326040606,-0.43864340681115455,2.355382781783912,22.153686099606887,-3.9784266063959017
-3.810106349687935,13.290167746631468,-0.5094732748755921,2.358646581737952,22.142179972314906,-3.983805610462784
-3.833907255301838,13.683436946403173,-0.9948970122777374,2.374905163629159,22.233297525017306,-4.01296498887317
-3.864129507821928,14.17592526689333,-1.5994331741147907,2.3955035102695392,22.344021388415236,-4.0498475919560555
-3.8831290413018564,14.481689497217808,-1.9728780180807854,2.408426098765207,22.410865541897543,-4.0729529875466906
-3.888551568973315,14.570708791157095,-2.08789492049453,2.4122331557926286,22.436617585328126,-4.079857534632706
-3.8732079881724046,14.436215531453833,-2.247285601150123,2.4078648521638173,22.730871905884293,-4.0770218009819486
-3.846218156645318,14.192706156692585,-2.526505584606155,2.4003931562156473,23.254248903337487,-4.072179904439699
-3.8189680843909954,13.937621743668727,-2.806785283557527,2.3931330422382677,23.790261802435918,-4.067488624425287
-3.7923679151099603,13.679374867168118,-3.0786312812754035,2.3863316014493847,24.320982945524353,-4.0631100776951214
-3.7704925060603336,13.459936373381208,-3.300774839896239,2.3809573537794946,24.763077862270848,-4.059664948293642
-3.761710104363975,13.370001354412098,-3.389575398918202,2.378856930162372,24.9420183590317,-4.058322762142273
-3.7540966612864195,13.291171706432642,-3.4663703480989594,2.3770631014049823,25.097820139178094,-4.057178662467118
-3.7311228585859997,13.048352910343835,-3.6970079919162324,2.3718051714810717,25.571808614299858,-4.053838352031497
-3.7056599293960555,12.770335488904342,-3.95059384636548,2.366257322696631,26.103996896955007,-4.050339748056298
-3.6805053623555963,12.486222387070715,-4.198831172193174,2.3610762998254247,26.63692032015617,-4.047103511105361
-3.65821797046607,12.226336357573784,-4.416779552571199,2.356776931224092,27.11524735693099,-4.044425269196116
-3.6486512211194992,12.112415591094903,-4.509690750923505,2.3549940028097844,27.322294224060403,-4.0433337326781675
-3.646855306171314,12.098033954275639,-4.568104126659717,2.355384637369878,27.395100929477774,-4.044698903667421
-3.6645125320615697,12.407505117854647,-4.959492055761462,2.368518901488177,27.476226884354414,-4.068209969862253
-3.6923314819525825,12.889348965021236,-5.565878546321798,2.38916204150117,27.599517534417863,-4.105124423142197
-3.72107853119181,13.38010235260566,-6.179701192306433,2.4104294582245793,27.721285253051956,-4.143108616224679
-3.7503697836187944,13.872884700259453,-6.792206379389968,2.4320318423088345,27.83967381875748,-4.18164478695802
-3.7802983598528925,14.369050282638982,-7.404991713144928,2.454033455521405,27.95492186152005,-4.2208473001216555
-3.8108264979576942,14.867749655148145,-8.016916897037019,2.4764018816466074,28.066739774316805,-4.260658076805136
-3.842302391507104,15.374342646075464,-8.634411342003283,2.4993863576035307,28.17618045336076,-4.301519779505332
-3.8740970151427025,15.878486594316929,-9.244781014718791,2.522522645582444,28.28092120663663,-4.342606840806788
-3.9067423222070436,16.388440878996672,-9.857963329054794,2.546193237179903,28.382614747971033,-4.3845985424087885
-3.940028380584937,16.900644387591004,-10.469555665461854,2.5702400185172634,28.480428811841076,-4.427213803803169
-3.9743524598868745,17.42087283635677,-11.086303971218177,2.5949432407845374,28.575314110595798,-4.470948410808556
-4.008673366912403,17.933237934836594,-11.689350993393994,2.619549412272306,28.664350836635123,-4.514468769861069
-4.042587328263849,18.432089381461513,-12.272299717096859,2.643770903856815,28.74681188011777,-4.557269106865226
-4.06182711143034,18.71189238671735,-12.597455445173297,2.657471055473943,28.791231710516893,-4.581461000544347
-4.065445412745485,18.744935048404805,-12.537319977898234,2.6574604832059228,28.69798698702863,-4.5806322663348995
-4.073236986666954,18.764056840933826,-12.099224899800143,2.6510448371958812,28.240901908383712,-4.565345160382654
-4.0824235387233845,18.78081453661032,-11.581006777093922,2.6438658815840435,27.70607565432676,-4.547681065434167
-4.087519594773962,18.7874611611873,-11.292769316621268,2.6400579325482143,27.41127192149681,-4.5380443569742575
-4.092307361604136,18.792011746412644,-11.021482474170462,2.6365908386258607,27.135508339952224,-4.5290928156066945
-4.095513450265591,18.794152022414902,-10.839558252283847,2.634327919552885,26.951492421530613,-4.523152680510085
-4.098475030931646,18.795488414082374,-10.671325872237636,2.6322788949325058,26.781967914983444,-4.5177035343664125
-4.100165646248176,18.795977368851847,-10.575212843554933,2.6311268127201313,26.685390941435895,-4.514609037671141
-4.104561702009848,18.796324713397333,-10.325031648512752,2.62819022326743,26.4349265679985,-4.506616612306529
-4.113537491052033,18.792941116371047,-9.813064687089884,2.6224545259760443,25.92647042914737,-4.490534846785673
-4.122962910022947,18.783588357135486,-9.273833316537809,2.616796604287385,25.39672015389769,-4.473977898670207
-4.132412543553889,18.76838871797744,-8.731608332647976,2.6114865149461344,24.86981831809016,-4.457703573297778
-4.141837002113407,18.747562152283525,-8.18927834989089,2.606539364940013,24.34843318525895,-4.4417827348162255
-4.151274604726074,18.72118728993692,-7.645018969229705,2.6019593032934045,23.830659671577415,-4.426171396524483
-4.1600447179533395,18.691813920673717,-7.137653034699707,2.597961195712758,23.352768867135353,-4.411886536580079
-4.163802636369295,18.687828733284967,-6.9614172723237795,2.596943420275821,23.180528404963702,-4.407392109684895
-4.183914331205573,18.96900576771553,-7.28489667271498,2.610279642676875,23.221892790095062,-4.43088633212782
-4.22059552319879,19.475553301622917,-7.864454204090153,2.6345453135241628,23.29318309922558,-4.4735836448870785
-4.259686171913992,20.00668055651728,-8.467705121013298,2.6603230802122724,23.363461451889073,-4.51887101670924
-4.299620054942585,20.540297139516625,-9.069204182183675,2.6865704081426047,23.42944537310295,-4.564910655717543
-4.339876047790121,21.069339789750046,-9.661003888838483,2.7129417417413184,23.490274858089464,-4.611095929804839
-4.365964268908055,21.407564881437512,-10.036974630842046,2.729985264413246,23.526764008413437,-4.640907539620817
-4.314707474801559,21.42929217952341,-10.059535745694225,2.698042207695209,23.529979353038858,-4.58620451727179
-3.9049840370237674,21.260978603033827,-9.86187262937796,2.441914160532706,23.51866514303611,-4.147141451822371
-3.3324655922824085,21.020535664663445,-9.580810444570966,2.083925790764665,23.500240836919197,-3.5338872616398884
-2.7616741870569945,20.774621359836992,-9.29480090329175,1.7269502129844423,23.478773140238157,-2.9228137388726965
-2.1883351331232688,20.521264217317768,-9.001510517188148,1.368360880214583,23.454008416971476,-2.30937883182057
-1.6144458565465605,20.261176029707844,-8.701736031988228,1.0094537242482013,23.42599766339525,-1.6957498004951759
-1.0483463432123574,19.998133893914762,-8.399760150020992,0.6554906338810879,23.39512876088472,-1.0908713858346364
-0.49044772931025604,19.7324770107704,-8.09587662728211,0.3067711515460094,23.361494529386544,-0.49519889079206914
0.06750650376364034,19.46028454680851,-7.785526348150295,-0.04182081101906548,23.324573747494455,0.10005416832495052
0.6213223472319097,19.183544920926096,-7.470922650127322,-0.38762580722237683,23.284678677002926,0.6903924453234788
1.1742802397273568,18.900570543845948,-7.150079621171494,-0.7326483321089646,23.241519770062467,1.2792788730624838
1.723529840276789,18.612761655474635,-6.82452074042863,-1.0750683497327445,23.195292711123255,1.8636471480642922
2.2719934744294434,18.31852559984538,-6.49237843457579,-1.4166665977808086,23.14572254172103,2.446574678891374
2.8168338909533444,18.019317860438633,-6.155228527126807,-1.7556354582891258,23.093034202755998,3.025013262273393
3.359684412631255,17.7141939676798,-5.811935973512567,-2.092952402833445,23.037047827414273,3.600665504503066
3.8622727596078903,17.42532605144675,-5.4873314582025925,-2.4048437788170167,22.982038514221927,4.1329855586635675
4.067166323839813,17.303942662407156,-5.354942750697654,-2.5319398547939347,22.962391592365286,4.349988806852257
4.05165781484994,17.175764135059318,-5.5036969818597115,-2.527510120324521,23.239724453199216,4.3467920712883785
4.022739539218887,16.92988843607508,-5.780178334001206,-2.5194743610318078,23.762822957436715,4.3409941447858875
3.9933234596426104,16.670341135502987,-6.060085710136394,-2.5116099824026117,24.30302559390187,4.335323285753858
3.964698848813997,16.408316372128276,-6.331006995289563,-2.5042693562643565,24.836693292459298,4.330035887555758
3.946733006744065,16.23894770816269,-6.500238010989147,-2.49982505315989,25.175742731552518,4.326838827557006
3.9391220952504904,16.166030065514974,-6.571728407059934,-2.4979811859835217,25.320340554519056,4.325513608897678
3.925908246581495,16.037756768488464,-6.69554972938869,-2.494835890727885,25.572763603886816,4.323254945779093
3.8988954536220035,15.768783663983593,-6.9474276933802015,-2.48863227458931,26.094281804412613,4.3188087778366056
3.871429431983455,15.485753401966326,-7.201674214779715,-2.482646508845313,26.632230928436396,4.314533212787647
3.8442912628567507,15.196335891301779,-7.450870903073142,-2.477064076603902,27.171503385130965,4.3105634425442405
3.81897293420292,14.917289166167237,-7.681388563409297,-2.4721655359697383,27.68167633781609,4.307099250828593
3.8071962567486883,14.784442458631307,-7.787920236755171,-2.4699921650985064,27.92133593225737,4.3055696898935025
3.7911724726340648,14.722042712413533,-7.8382125769312125,-2.462189655351473,28.03460876087537,4.293066317965284
3.487719953791685,14.739491144750023,-7.8506690073783405,-2.265387379438376,28.04206958328099,3.9518013149805857
2.9498611568454036,14.766822092305846,-7.870165489157112,-1.9163765840454625,28.053707575993545,3.346848833189505
2.3933425263643127,14.790275805495547,-7.886891780720375,-1.5550470975698742,28.06373248221963,2.720832058047107
1.8388895472365385,14.808771527014102,-7.900077361932093,-1.1948840559605125,28.071645900162604,2.0970737423276447
1.2821263174610307,14.822460462567843,-7.909829964377661,-0.8330853419987473,28.077477894639802,1.470664843019435
0.7247974702597837,14.831269682420732,-7.916107822837932,-0.4708251859250097,28.08125701040235,0.843585881353585
0.17099511063556655,14.835175700317844,-7.918890385234247,-0.1108043569279213,28.08292532729215,0.22045451916405834
-0.3845370867891538,14.83424232201937,-7.918225339743308,0.2503533008245757,28.082521447134994,-0.4046278635363078
-0.9405527402722941,14.82844177054024,-7.914095070769912,0.611797706807142,28.080053221621874,-1.0302434398856184
-1.4990926366456463,14.81770977163579,-7.906446825812757,0.9748122568803181,28.075446143525284,-1.6586737314109705
-2.05167943880743,14.80225107634924,-7.895431909085287,1.3338505221972146,28.06885213667356,-2.280365280284926
-2.609948234095911,14.781735032006434,-7.880807923982922,1.6964302479133126,28.0601025059228,-2.9083934242380463
-3.1652683496444283,14.75643275263445,-7.862760117792006,2.0569014074701943,28.049284419549497,-3.533032966507654
-3.6429477116196622,14.730755161420422,-7.844438815413152,2.3667928523975084,28.038340419306547,-4.070272022261069
-3.801903431882211,14.721582653835762,-7.832555901269975,2.469749569746261,28.028986018776248,-4.248768702577832
-3.8062035174042412,14.729821874983589,-7.553693737765997,2.4659898483260623,27.741967042547763,-4.239606678081926
-3.8141904858187443,14.740538049869008,-7.034132513789838,2.459288153171176,27.21183888855312,-4.22284411467505
-3.8223426521645516,14.745439383687971,-6.50172492382923,2.45281409296487,26.674677377209544,-4.206064236062465
-3.830564743074872,14.744338364057691,-5.962658332207689,2.446646232470955,26.136855683976634,-4.189463052655359
-3.8387326211150326,14.73736431336608,-5.425120364982612,2.4408663068302023,25.60643015254633,-4.173278314330324
-3.846937050898149,14.72458599983395,-4.883197169676317,2.4353971233444525,25.07741993188101,-4.1573159273904805
-3.8551468391308252,14.706131713728261,-4.338984869806436,2.430250810115561,24.55179251802097,-4.141626174551175
-3.8632859100218826,14.682359771116797,-3.7975979367840402,2.425460596603757,24.03430310251929,-4.126339103228316
-3.8715358707473606,14.652817565379992,-3.24698989059274,2.4209117115470136,23.513360776881857,-4.111103966225218
-3.879720841735829,14.618203497807782,-2.698928607882775,2.416694091372172,23.00003253428276,-4.096236698917545
-3.886937452696453,14.583391116789095,-2.214263334727642,2.4132122316361695,22.55028173009573,-4.083324703257756
-3.8902047934992603,14.594830806075956,-2.1106972549314627,2.4132299457414694,22.435243578585194,-4.0815342299819175
-3.91020958569375,14.912519750532091,-2.4966134674770544,2.4268058081385755,22.502585447793994,-4.105771104225304
-3.9420482133143064,15.411713954198506,-3.099842235274311,2.4483652065699832,22.605203602711516,-4.144206114093353
-3.975184553103377,15.923107174361764,-3.713775889654335,2.4707417444596835,22.706260458704392,-4.184028868177386
-4.009090464134806,16.438047131299346,-4.327822837719858,2.493573042706403,22.80383948170531,-4.224590924401435
-4.0429359042832775,16.943931163266434,-4.927004871201332,2.5162982954682573,22.895602248112603,-4.26489665886924
-4.0641093117202605,17.25638655789623,-5.295064726042988,2.5304819117445607,22.95024121515417,-4.290019474297204
-4.067466277007757,17.30564663426902,-5.3529503216549,2.532728341591861,22.958713302466982,-4.293996169970252
-4.067466277007757,17.30564663426902,-5.3529503216549,2.532728341591861,22.958713302466982,-4.293996169970252
-4.067466277007757,17.30564663426902,-5.3529503216549,2.532728341591861,22.958713302466982,-4.293996169970252
-4.067466277007757,17.30564663426902,-5.3529503216549,2.532728341591861,22.958713302466982,-4.293996169970252
-4.067466277007757,17.30564663426902,-5.3529503216549,2.532728341591861,22.958713302466982,-4.293996169970252
-4.067466277007757,17.30564663426902,-5.3529503216549,2.532728341591861,22.958713302466982,-4.293996169970252
-4.067225530341452,17.305188884107995,-5.351789946078446,2.5325781452152514,22.955943982302188,-4.293742302920223
-3.9800654805860987,17.139464774932044,-4.9316869617633685,2.478200969990742,21.953337852560914,-4.201832142537023
-3.893023130187592,16.97396445659971,-4.512151276930133,2.4238972247214594,20.952085624027504,-4.110046095974262
-3.8059557811794136,16.80841660648727,-4.092495101223423,2.3695778833874392,19.950545835317584,-4.018233688409749
-3.69311819654996,16.5938698244837,-3.5486288898250424,2.2991810774135035,18.65256982070728,-3.899246600521941
-3.5435224705092216,16.309431959840232,-2.8275920027776644,2.2058517019646873,16.93176318587252,-3.7414980997852156
-3.394232083231339,16.02557465928104,-2.1080268189459543,2.1127128204343264,15.214468877110837,-3.5840715783812684
-3.245028783403301,15.741882944791223,-1.3888813881740318,2.019628270785754,13.498176339358725,-3.4267368905811932
-3.09518338111633,15.456970351489321,-0.6666410858412152,1.9261431279982442,11.77449766698352,-3.2687251065638865
-2.9458288582186527,15.172991104941266,0.053233225456026795,1.832964233711517,10.056465603187037,-3.1112309542313428
-2.79667616128661,14.88939560563127,0.7721347551783024,1.7399112540603248,8.340755152914797,-2.9539496271200205
-2.647339653387835,14.605450612386795,1.4919222359284952,1.6467435989222066,6.622930316493437,-2.7964744715806527
-2.4979279191212993,14.32136258546097,2.2120723004734884,1.5535290117619902,4.90424014764459,-2.638919989933219
-2.3482431147685556,14.03675534936871,2.9335385363431343,1.4601440623777042,3.182408840819684,-2.481077556231033
-2.1986397380315355,13.752302937867718,3.6546122990043894,1.366809913833261,1.4615141996676821,-2.3233209878449164
-2.0494667705645786,13.468668896629966,4.37361153073848,1.273744287855776,-0.2544294235159424,-2.1660182854805945
-1.9001150606764476,13.184694998673406,5.093472283602605,1.1805671485418079,-1.9724291291320246,-2.0085270994629987
-1.7507007860313073,12.900602141530264,5.81363459252603,1.087350976497084,-3.6911485200748078,-1.8509699389895926
-1.6011878055582693,12.616321607401568,6.5342726539643445,0.9940732241284115,-5.411003328773423,-1.693308693347599
-1.4517167021874398,12.332120697429557,7.254708871832563,0.9008215979325795,-7.130376423206292,-1.535691607056033
-1.3019566072130413,12.04737030548507,7.97653800119455,0.8073896764396503,-8.853073801574237,-1.377769779490133
-1.1529774271761117,11.764104727199106,8.694603196315471,0.7144449500379282,-10.566788278884749,-1.2206714257215736
-1.0035476420480356,11.479982378781294,9.414840264261954,0.6212191013552169,-12.285686087638332,-1.063097909463857
-0.854058722417094,11.195747593383052,10.135362354775534,0.527956359999393,-14.005264123344729,-0.9054620359489138
-0.7041679873208477,10.910748805322722,10.857821156851262,0.43444293510189924,-15.729464261145724,-0.7474024485425226
-0.5551362592140331,10.627383313348146,11.576139628571276,0.3414654251529914,-17.443783201362365,-0.5902486829018434
-0.40533364537727795,10.342552077019024,12.298173694725012,0.24800697710764255,-19.16696967619306,-0.43228201925026577
-0.27995757682336314,10.104164910749603,12.902474182265248,0.1697876958216362,-20.60917645794511,-0.300073116188028
-0.1929915524950569,9.938809717047485,13.321641982844607,0.11553156865382472,-21.60955070412242,-0.20836755536814155
-0.10598179735842544,9.773371374594609,13.741020561677711,0.061248158828033014,-22.61042798783365,-0.116615880467112
-0.018897509539576567,9.607791317418076,14.160758380808597,0.0069182497547963795,-23.61216262447512,-0.024785610948529782
-0.00025293268941649745,9.572340948836047,14.250623432492588,-0.0047136782353056446,-23.82663206418829,-0.0051249286361053446
-0.00025293268941649745,9.572340948836047,14.250623432492588,-0.0047136782353056446,-23.82663206418829,-0.0051249286361053446
-0.00025293268941649745,9.572340948836047,14.250623432492588,-0.0047136782353056446,-23.82663206418829,-0.0051249286361053446
-0.00025293268941649745,9.572340948836047,14.250623432492588,-0.0047136782353056446,-23.82663206418829,-0.0051249286361053446
-0.00025293268941649745,9.572340948836047,14.250623432492588,-0.0047136782353056446,-23.82663206418829,-0.0051249286361053446
-0.00025293268941649745,9.572340948836047,14.250623432492588,-0.0047136782353056446,-23.82663206418829,-0.0051249286361053446
-0.00025293268941649745,9.572340948836047,14.250623432492588,-0.0047136782353056446,-23.82663206418829,-0.0051249286361053446
-0.00025293268941649745,9.572340948836047,14.250623432492588,-0.0047136782353056446,-23.82663206418829,-0.0051249286361053446
-0.00025293268941649745,9.572340948836047,14.250623432492588,-0.0047136782353056446,-23.82663206418829,-0.0051249286361053446
-0.00025293268941649745,9.572340948836047,14.250623432492588,-0.0047136782353056446,-23.82663206418829,-0.0051249286361053446
-0.00025293268941649745,9.572340948836047,14.250623432492588,-0.0047136782353056446,-23.82663206418829,-0.0051249286361053446
-0.00025293268941649745,9.572340948836047,14.250623432492588,-0.0047136782353056446,-23.82663206418829,-0.0051249286361053446
-0.00025293268941649745,9.572340948836047,14.250623432492588,-0.0047136782353056446,-23.82663206418829,-0.0051249286361053446
