RAMEL-ESPOL/ARCHIE/matlab/data/joint_goals_espol_t5_h20_p21.txt
Joint0,Joint1,Joint2,Joint3,Joint4,Joint5 
-0.0022250424286547658,0.0013058002612780927,-0.004904382358156629,0.004070090412449895,0.003373145820288235,0.000767794622001836
-0.0022250424286547658,0.0013058002612780927,-0.004904382358156629,0.004070090412449895,0.003373145820288235,0.000767794622001836
-0.0022250424286547658,0.0013058002612780927,-0.004904382358156629,0.004070090412449895,0.003373145820288235,0.000767794622001836
-0.0022250424286547658,0.0013058002612780927,-0.004904382358156629,0.004070090412449895,0.003373145820288235,0.000767794622001836
-0.0022250424286547658,0.0013058002612780927,-0.004904382358156629,0.004070090412449895,0.003373145820288235,0.000767794622001836
-0.0022250424286547658,0.0013058002612780927,-0.004904382358156629,0.004070090412449895,0.003373145820288235,0.000767794622001836
-0.0022250424286547658,0.0013058002612780927,-0.004904382358156629,0.004070090412449895,0.003373145820288235,0.000767794622001836
-0.0022250424286547658,0.0013058002612780927,-0.004904382358156629,0.004070090412449895,0.003373145820288235,0.000767794622001836
-0.0022250424286547658,0.0013058002612780927,-0.004904382358156629,0.004070090412449895,0.003373145820288235,0.000767794622001836
-0.0022250424286547658,0.0013058002612780927,-0.004904382358156629,0.004070090412449895,0.003373145820288235,0.000767794622001836
-0.0022250424286547658,0.0013058002612780927,-0.004904382358156629,0.004070090412449895,0.003373145820288235,0.000767794622001836
-0.0022250424286547658,0.0013058002612780927,-0.004904382358156629,0.004070090412449895,0.003373145820288235,0.000767794622001836
-0.0022250424286547658,0.0013058002612780927,-0.004904382358156629,0.004070090412449895,0.003373145820288235,0.000767794622001836
-0.0022250424286547658,0.0013058002612780927,-0.004904382358156629,0.004070090412449895,0.003373145820288235,0.000767794622001836
-0.0022250424286547658,0.0013058002612780927,-0.004904382358156629,0.004070090412449895,0.003373145820288235,0.000767794622001836
-0.0022250424286547658,0.0013058002612780927,-0.004904382358156629,0.004070090412449895,0.003373145820288235,0.000767794622001836
-0.0022250424286547658,0.0013058002612780927,-0.004904382358156629,0.004070090412449895,0.003373145820288235,0.000767794622001836
-0.0022250424286547658,0.0013058002612780927,-0.004904382358156629,0.004070090412449895,0.003373145820288235,0.000767794622001836
-0.0022250424286547658,0.0013058002612780927,-0.004904382358156629,0.004070090412449895,0.003373145820288235,0.000767794622001836
-0.0022250424286547658,0.0013058002612780927,-0.004904382358156629,0.004070090412449895,0.003373145820288235,0.000767794622001836
-0.0022250424286547658,0.0013058002612780927,-0.004904382358156629,0.004070090412449895,0.003373145820288235,0.000767794622001836
-0.0022223589856278816,0.0013109464438866203,-0.004910442313036361,0.004070089829229325,0.003375249291972373,0.000770483967242168
0.11131326565727609,0.21827682193965856,-0.26008314845986386,0.003946086644713889,0.09176621528911597,0.11455524251263917
0.35550599182786036,0.6797855751918932,-0.8007402804374798,0.0030113517135570297,0.2778285195381993,0.3592821268001415
0.6159033662551424,1.1643632601855616,-1.3653179670014481,0.0010264187751682823,0.47032361564525543,0.6202522312567079
0.8830065977954634,1.6535413181286651,-1.9320307076225396,-0.002048053131772128,0.661657822391331,0.8879532037781109
1.1555197872116496,2.1446350015214515,-2.4977047677422437,-0.006246526344563216,0.8507121684736784,1.161093659645229
1.4351652200979188,2.6404272686634456,-3.0654821146630242,-0.011646577029294131,1.0384884370292715,1.4414074901478893
1.7200269008516729,3.1372155552705903,-3.6310683553923546,-0.01826055014285832,1.2235230699001942,1.7269818277999305
2.011978360145866,3.6379717627103756,-4.197800650616651,-0.026180268956011093,1.4068686556068841,2.01970267522065
2.3102025018756662,4.140961135757343,-4.763657586204946,-0.03543732039290666,1.5878241513051718,2.3187587955750497
2.616177573372842,4.648324471292746,-5.330986107527726,-0.046134333613792405,1.7670900755562478,2.6256407689748964
2.9288601163118893,5.1579686485573335,-5.897384379029304,-0.05829333281981716,1.9438566811077538,2.9393103559305533
3.248956477703025,5.670705221848127,-6.463706905784353,-0.07199739210858352,2.1183477799229373,3.2604843023671894
3.576928996529655,6.1868954802104446,-7.03029448918052,-0.08732772133945185,2.2906176297857734,3.589634935729468
3.911840598764359,6.704713544143825,-7.595100646799456,-0.10429820288857693,2.4600026687914944,3.925829942986718
4.256043400157896,7.227396477960905,-8.161600629352245,-0.12309284526251517,2.6274940219683143,4.271438910810931
4.609076233140022,7.753775993201434,-8.728452423584988,-0.14376129695659953,2.7926290388977613,4.626007760610475
4.969869931924862,8.281863033865328,-9.293472352415947,-0.16630555452990628,2.954727410649878,4.98847078432353
5.340968711808669,8.814937571295994,-9.860116443427115,-0.1909564443134136,3.1147271593660895,5.3613923621104895
5.722260467723447,9.352305328001655,-10.427567630533046,-0.21779150389259597,3.2723246190769886,5.744668925525099
6.1128903694321455,9.892280723003074,-10.993994207110237,-0.2468280991241814,3.4269554879125974,6.137449427838441
6.513821380881653,10.435720491382254,-11.560253532333933,-0.27821447460774473,3.5788039108492926,6.540709931437211
6.924001146993701,10.98073943780698,-12.124353125980566,-0.311942593319715,3.72729354960646,6.95339914797105
7.347653191950648,11.532376879283195,-12.691450235623034,-0.3484508957856135,3.8737155240173395,7.37977445711681
7.7818588584289135,12.086219225144717,-13.256944902686591,-0.38758497260439767,4.016810137370793,7.816906389097455
8.23093258075442,12.647116675656827,-13.825725748596504,-0.42983664915305586,4.157738601219023,8.26914626391211
8.692145819638537,13.210958616791078,-14.39355628365095,-0.4750594083226348,4.295368750245521,8.733754005315145
9.159150976862778,13.769655668004773,-14.95235268325104,-0.522684768613674,4.427758635636973,9.204337901908005
9.629976448822843,14.320850328230401,-15.499928088704548,-0.57251526765478,4.554493475482904,9.678909331776282
10.105143176905578,14.865209940450079,-16.0371325809496,-0.6246003346322745,4.675887666676577,10.157990235830278
10.58448476451289,15.402584090550041,-16.5639972530653,-0.6789177825287813,4.7920611806202835,10.641409371821778
11.067100603928708,15.932039787530934,-17.079795066425174,-0.7353552931963864,4.902975120398072,11.128254137761608
11.555594913858535,16.456447341834306,-17.587489853418397,-0.7942159028191986,5.009372366921136,11.621147491580915
12.053160072536176,16.979044846521724,-18.090328089785412,-0.8559125333708912,5.111990261742526,12.123308106742044
12.563193689479656,17.50299073009697,-18.591405674835272,-0.9209272891462494,5.211467201325329,12.638164123286117
13.078842416505184,18.020961531331064,-19.08381444127733,-0.9884273494798201,5.306471888033553,13.15879476089412
13.598674488092545,18.531523089396487,-19.56636199882138,-1.0582219287338626,5.39688440190924,13.683748774004806
14.11529185789374,19.027700322657715,-20.032691616065843,-1.1292704987912545,5.481688676293841,14.205547073238163
14.632840090796114,19.51385717024287,-20.487153520176214,-1.2020816652385349,5.5618681929469105,14.728368059419566
15.149593863972507,19.988661086027975,-20.92871928873148,-1.2763648573953772,5.637407238074262,15.250461079495624
15.602837354995705,20.396606126692667,-21.30634998050658,-1.3427842121561835,5.700135675719972,15.708443088061479
15.70726247306229,20.483616522064178,-21.44581861932117,-1.358511341615346,5.774119094605289,15.815400563789796
15.694206512116194,20.42793999711577,-21.81526714844459,-1.3584665561427585,6.199434106873107,15.812415091713493
15.67737702193354,20.34985873918859,-22.288858946655154,-1.3585295006073181,6.751350906080406,15.808654474484213
15.660739620902756,20.265550780712484,-22.754074319671815,-1.358728421226189,7.301113912202189,15.805038308866406
15.644106350044833,20.17404645368117,-23.21616417328067,-1.3590666730683305,7.854946375722664,15.80152883120608
15.632811683200467,20.107724594256467,-23.528196675927763,-1.3593776611941097,8.23346175430554,15.799208593227732
15.629407440569807,20.087062703289998,-23.62196389732221,-1.35948450398013,8.347939269423733,15.798519524762225
15.685152291228276,20.06227881221077,-23.645714136506065,-1.3643796020037078,8.395137364563814,15.855906293446608
16.11566195697718,19.93052317997058,-23.564726250253443,-1.4010138868134525,8.435523182554789,16.29135041905341
16.69750690101167,19.74617559429545,-23.45102858450694,-1.4504202376094735,8.491704765475706,16.87999095294437
17.278143565616396,19.55494643785789,-23.332614585319824,-1.4995988972382965,8.54958215114091,17.46755764045754
17.86257611921142,19.355055228126066,-23.208321987449814,-1.5489686467757953,8.609642763521457,18.059119138749878
18.44409679947028,19.148692999191844,-23.079452631570778,-1.5979583704268447,8.671175985228526,18.647889767265468
19.02560427525608,18.93479398072298,-22.94527937607564,-1.6468032506104135,8.734418341159234,19.236811578087504
19.595353422889822,18.717821383042835,-22.8085621754448,-1.69452818084486,8.798070807342262,19.813977839365048
20.02709003308982,18.54847040691865,-22.701417805374778,-1.7305992991641308,8.84738066553578,20.251440571635143
20.26457941418462,18.453482822951234,-22.641154555003087,-1.75040632183042,8.874895028032967,20.49211907672959
20.786523704591236,18.24011459321901,-22.505348896123085,-1.7938485342480368,8.936323805726943,21.02117134453759
21.35725896682919,17.999474594328124,-22.35145688579824,-1.84120899141096,9.004977802730018,21.59983655643836
21.928451157669752,17.750877327364876,-22.191663632670785,-1.888454280143567,9.075202089444497,22.1791317914959
22.486140851615865,17.50055503482244,-22.029922318841752,-1.934424032781693,9.145161757348378,22.744901347386076
22.820115511015626,17.3470117841252,-21.93029896839055,-1.9618840901517494,9.187732950138026,23.083788753893153
22.809419405994436,17.307448568860043,-21.73241264752888,-1.960146139500582,9.029867700482093,23.06750789090521
22.75761561386598,17.210316644757764,-21.211510214960835,-1.9536938348618373,8.608109158692601,23.000609804266606
22.702046962538773,17.101101477894666,-20.64735854574021,-1.9469025859537592,8.155323871041562,22.92894288746769
22.646703234755105,16.98715635160631,-20.079870424510467,-1.94027102704333,7.703916291484086,22.8576573684355
22.591873098596835,16.869175106846782,-19.512044515745256,-1.9338296605765808,7.256180329103499,22.787118870191527
22.53780431560503,16.747860531591456,-18.94656576217534,-1.9276018779524176,6.814088925495852,22.71763900462213
22.48367114401164,16.621447914979967,-18.374828962939386,-1.921489017176086,6.370833449991877,22.648151041559476
22.429844400254844,16.49082601610888,-17.800709553655246,-1.915531110342566,5.929386524892831,22.579126465350015
22.376861663227917,16.357444256778788,-17.230041668207924,-1.9097829370602242,5.494112656484809,22.511248541498073
22.324066397654292,16.219776715362954,-16.65583631559514,-1.9041690932139392,5.059573958174354,22.443670508104187
22.2819057543381,16.10641813604726,-16.193254925056504,-1.899767328057513,4.711943300520967,22.38974512193502
22.26794646855821,16.068214469126197,-16.039297183573954,-1.8983257533555609,4.596715554196635,22.371898083555863
22.255509637341664,16.03386195664917,-15.899156004005903,-1.8970412489733426,4.491396894213456,22.35591408844756
22.3378225119477,16.251613850638694,-16.05902811381049,-1.903545984052528,4.430819090796561,22.436506366422122
22.54320665256919,16.78897806820134,-16.450687817403736,-1.9197606697802956,4.278343601173435,22.63749412049771
22.7670657565972,17.36518462700638,-16.866136979822343,-1.9374092435891326,4.110142850600957,22.856397060082724
22.958802094101323,17.851023645476932,-17.212808947011606,-1.9525056882525456,3.964548117379276,23.043755612128344
23.03787161601596,18.04935100543266,-17.353376384513084,-1.9587261525648874,3.904123433530583,23.120984817262727
23.04840413656034,18.078174227814706,-17.474948075174083,-1.959791225632974,3.9964575457994718,23.134714525322547
23.02821213267203,18.03585244109367,-17.896165628426456,-1.9593386970052833,4.460416217124485,23.130375036778492
23.00462798425472,17.980217693361276,-18.385306242458213,-1.9589820125234894,5.00567936642247,23.125414124036986
22.981241821243955,17.9183329923196,-18.86727468546558,-1.9588149462021276,5.550013992666817,23.120615164355257
22.957798615084027,17.849460067076585,-19.34730599269552,-1.9588381158990789,6.099398571768433,23.115931014508615
22.93450797636859,17.774130665350718,-19.82107698092617,-1.9590544699134278,6.648973789409961,23.111409184928576
22.91131017696827,17.6921337157453,-20.289800730676713,-1.9594660133923805,7.200164948616825,23.107042522259597
22.888322552625294,17.60389370090085,-20.751116097225935,-1.9600714702264699,7.750183985754442,23.102857014221854
22.865345374885678,17.508617254730282,-21.209023528229,-1.9608780815934659,8.303828672627326,23.09882097611135
22.844446221795632,17.4157034954984,-21.622694865178282,-1.9617909238862639,8.810830522468082,23.09528392001727
22.83595187052691,17.376212650249368,-21.7900504127137,-1.962211682576955,9.017845633987234,23.093884057558906
22.832031757084216,17.357648526698433,-21.86713140215611,-1.9624156701958884,9.113568477303621,23.093245540971314
22.838660294495735,17.368341168205653,-21.945787508086827,-1.963355906329071,9.181257280785436,23.10230171504838
22.984116295839968,17.74748338546759,-22.215359455272452,-1.9745577090030029,9.066769095597321,23.24526386950895
23.21142906157874,18.332354582522438,-22.627253513690082,-1.9920298194517292,8.886050795418441,23.468525259354163
23.44365387553407,18.920454670443004,-23.036607866456123,-2.009838699030035,8.69932665185107,23.696421557936805
23.68042372295886,19.510514375028357,-23.44250082176161,-2.0279554673334945,8.506952675904095,23.928586129240013
23.92024310193405,20.098585241958915,-23.84224240380034,-2.0462655060666988,8.310235801659529,24.163548575008654
24.16741563600971,20.694838861362864,-24.24269814249459,-2.06509658765834,8.105714691590547,24.405518276593412
24.417426901756127,21.288021358842613,-24.63627426037592,-2.0841040856099124,7.897204023440015,24.650069222408753
24.672930116913395,21.884183977683332,-25.027014952217673,-2.1034895504533764,7.6825983463305025,24.899792584419824
24.93169297168779,22.477855486800348,-25.41135674824535,-2.123083393143275,7.463881500903295,25.152502190265587
25.1960265852844,23.074077015472938,-25.79259078933305,-2.1430604246511913,7.239215386493702,25.41045088900977
25.463653768824326,23.66745580671873,-26.167301041351482,-2.163248383524014,7.010655771738566,25.67141250415748
25.737790568393333,24.264821170241582,-26.539816240057675,-2.1838895534002134,6.775578346281116,25.938518252813207
25.974498533945756,24.772322391371905,-26.8525992716512,-2.201683030096025,6.571951581162626,26.168994448973027
26.078769163577782,24.99348268152636,-26.98784846016329,-2.2095127365162903,6.48209342588193,26.270473831797965
26.070974127358525,25.08740028561207,-27.04380286902264,-2.2087338442309727,6.4444592828762035,26.261166678075753
25.661543593210972,25.29128935159796,-27.15533952636698,-2.1760713130551625,6.367835297008895,25.846137011298094
25.072428265165343,25.57741174759983,-27.310989431763986,-2.128912901564349,6.25958034102894,25.249203914818445
24.479295976982918,25.856978112433083,-27.462091765469246,-2.081243692471011,6.1529906346586145,24.6484814364189
23.879295483366686,26.131241680052455,-27.609388462087935,-2.0328329853450033,6.0476444016228745,24.041085277078157
23.28051116313481,26.396522636424205,-27.750975132925685,-1.9843246704666366,5.944990195838065,23.435200265644287
22.674793014857954,26.656455369750294,-27.888870486483725,-1.9350790410712444,5.843742598391886,22.82257595456124
22.069094463010355,26.90804207753548,-28.021548806431014,-1.8856524719705547,5.74509789495195,22.21024591956399
21.46137653522343,27.15221866033701,-28.14957866825282,-1.8358817411629114,5.648752544104565,21.596144669024103
20.850810917201386,27.389340383334645,-28.273209865443484,-1.7856924068279687,5.554592902014418,20.979434053840702
20.237115679029927,27.619528161885885,-28.392574001436934,-1.7350804787258143,5.462682746219144,20.35982431825544
19.620938799243337,27.84254156313177,-28.507604018736057,-1.6840924865807476,5.373139351675206,19.73796833667848
19.001728224453927,28.058589047989102,-28.618466339482534,-1.6326849850763658,5.285928160476259,19.11330577929822
18.404921736204745,28.259270864031603,-28.72093535424563,-1.5829743570072474,5.204482081463507,18.511481334185845
18.06733915390414,28.369546045571184,-28.777037113398244,-1.5547940954821096,5.1595771872440235,18.17115971400366
18.0167550365842,28.291013756047278,-28.61217647258411,-1.5503776496700852,5.074651750294251,18.11804383250121
17.930944511205983,28.024773636898527,-28.089684554982753,-1.5426407827885804,4.8208100136768826,18.02500079997981
17.83565172357093,27.725145652393824,-27.502145080321466,-1.5340800488945756,4.535561481149486,17.921666924852392
17.741310757314356,27.42431018164234,-26.912724741360893,-1.5256377396162524,4.249599059416252,17.819354479650407
17.647782462696146,27.121851108738095,-26.320595200538886,-1.5173012139761315,3.962514789433221,17.71791181569118
17.556350098520944,26.82202417971697,-25.73406703426535,-1.509184056504581,3.678328652592289,17.61873028474791
17.465549225444544,26.52012268529857,-25.143913809908774,-1.5011555466912971,3.3925617981339227,17.52022083539284
17.375895316068437,26.217892704970442,-24.553536960129104,-1.4932610536080984,3.1068558526939625,17.422942036661492
17.287586257968716,25.91608415009731,-23.96438507227894,-1.4855174004219542,2.8219046287610183,17.32710812798992
17.19924720664287,25.609999899814778,-23.367281053127897,-1.477804073619135,2.533265672957487,17.231226362378468
17.112407129469723,25.30495097926757,-22.77257685505732,-1.4702545318161684,2.2459390109764907,17.13695555716659
17.02788086499401,25.00398267220698,-22.186185948884162,-1.4629382320963353,1.9627717530557967,17.045180259812184
16.975834887325547,24.816641077319034,-21.821353127418128,-1.458449392017648,1.786663716433753,16.988662323399705
16.951621757010834,24.72895157718561,-21.650629567791288,-1.4563653108054386,1.7042717216847874,16.962366434993616
16.9446779650518,24.679436987106815,-21.556790914223146,-1.4557529635753885,1.6601382672603342,16.95430499663382
17.267494051989786,24.582804601862666,-21.503207924001053,-1.4826909751776252,1.6949092786936113,17.277784069955462
17.856036158600205,24.401284498242656,-21.402230744094545,-1.531687417861364,1.7599670788669892,17.867680196687935
18.460419026884022,24.20761497639403,-21.294028725150998,-1.5818431179728618,1.8290063933713498,18.473653651436287
19.066301319321678,24.005975366560055,-21.180861567805096,-1.631956108991134,1.9004761147526137,19.08133972435861
19.517465893416677,23.85088810852739,-21.09346194280532,-1.669155972171971,1.9551282856496501,19.534000893784743
19.58237281824558,23.823203965696827,-21.1600885155017,-1.6745866210253957,2.047507418195659,19.601600593325863
19.563727124763425,23.8002498996714,-21.585071200686716,-1.673572217741195,2.495797192131811,19.59606323693614
19.541205719824546,23.766247909357396,-22.095951001664133,-1.672488437946235,3.0411038437427846,19.589467043897614
19.51886882962602,23.72559927782543,-22.599959307726973,-1.6715697023564795,3.586180421464048,19.583029807799296
19.496847038281828,23.67862195573732,-23.094186629924298,-1.6708197503099342,4.127797013103154,19.57679131065821
19.47471182852366,23.62434429257444,-23.588232829109796,-1.6702255851489707,4.6765330914171885,19.5706344634385
19.452705700509107,23.56321289763153,-24.076632484817257,-1.6697974825461293,5.226472031773945,19.564632532097527
19.430859212855857,23.49529714659488,-24.55870478769269,-1.6695369283299,5.776863038493553,19.55879754868527
19.409221420571065,23.420774328824397,-25.033379342475047,-1.6694446012006359,6.3264574890921,19.553145617701833
19.3889502402276,23.344267023558302,-25.475500357264167,-1.6695116441188447,6.845455904734629,19.547971137618603
19.380244169389805,23.309387501249383,-25.66460536888505,-1.6695870044848424,7.069598803832967,19.54578593193048
19.375737628665913,23.290850466460327,-25.762306731606827,-1.6696371575032674,7.18591903561779,19.544663776390156
19.441121283493015,23.25985979466851,-25.781520985863942,-1.6752354474522029,7.234196216584678,19.6119549631792
19.8978994124706,23.089337107986864,-25.683807223205392,-1.7132678965568873,7.293482315790915,20.073938290596345
20.491723913231954,22.86074127084907,-25.55223545814891,-1.762574551229269,7.372472248467119,20.674713829292894
21.088529541270937,22.623024786450056,-25.414707180330716,-1.8119692766249587,7.45402006692647,21.278719164821272
21.679954530761727,22.379454449921845,-25.27304279821878,-1.860756862141302,7.536945314344256,21.87749448777748
22.24147173676964,22.14072876027825,-25.133458315850085,-1.906924544288784,7.617598856990001,22.446192407166475
22.541634938233504,22.01009197234873,-25.056761012827252,-1.9315396799673343,7.661440176138291,22.750283799124634
22.89783734934419,21.852309683658202,-24.963837732939297,-1.9606952213607638,7.714183046538758,23.11121319619275
23.46615448076027,21.594302870507363,-24.811197594484874,-2.007081967513364,7.799842649189883,23.687241878481647
24.02923824169874,21.33097413424629,-24.654522375089968,-2.0528801521700455,7.886516226748342,24.258174230653207
24.359686472171553,21.172823680589588,-24.559994614703754,-2.0796808187513083,7.93820366914435,24.59332584824454
24.33347957456915,21.10095568969286,-24.350886457126773,-2.0768950625220564,7.802002966679258,24.5619061545036
24.24748227171079,20.92315120118392,-23.816738328928675,-2.068286442107391,7.4489990354864055,24.462317996946947
24.155431800643758,20.728384983388157,-23.23878690539316,-2.059161161606933,7.069374482193054,24.355773982543617
24.064553945280863,20.531548081460897,-22.661789900920216,-2.050242476154429,6.692715390879587,24.250639010707665
23.974428209787884,20.33183048956637,-22.083164302880864,-2.041486107046101,6.317265457811633,24.146422050469422
23.88483415124896,20.128795046470664,-21.50151383069342,-2.032868672209771,5.9420743693574485,24.04286429270472
23.795951092593924,19.92289537392674,-20.918017601833128,-2.0244055979472404,5.567861101827361,23.940169251351893
23.707985314277376,19.71468467713449,-20.33408730433291,-2.0161142285895473,5.195476702106407,23.838571360501607
23.620941158383115,19.5042633679819,-19.74983318605455,-2.0079924647766894,4.82493129734901,23.738071747951395
23.53512647004667,19.29248906126145,-19.16744002536381,-2.0000661573292655,4.457540942399999,23.63902194794596
23.44936417263951,19.07650353849412,-18.578941160126867,-1.9922250189809334,4.088241798916813,23.540060028834695
23.391169355572938,18.927446954636892,-18.17586801921518,-1.986950224026913,3.8363992695495157,23.47292273750127
23.36977352466484,18.872133157208697,-18.026904380661975,-1.985020255045099,3.7435473089834956,23.448241826581082
23.352616768248588,18.82734869445935,-17.899498598488563,-1.9834598193707864,3.6615696943489633,23.428194311155583
23.454602698120738,19.075583026851934,-18.071978638165064,-1.9914644810754485,3.5823241284682883,23.527676126127314
23.683729096791577,19.626549969931467,-18.451755899055314,-2.0094319447851365,3.40324116420071,23.7510612120415
23.93013262028059,20.20889303882554,-18.84860772053084,-2.0287301264195823,3.2091849112870063,23.99111635306854
24.18223088405608,20.79407235551759,-19.242700780757847,-2.048449604385942,3.0092537669924884,24.23653819162543
24.428290910577164,21.355147205043764,-19.616164878662364,-2.0676737263079077,2.812930222425254,24.475910136050405
24.558779114463515,21.648735749774787,-19.809875735075043,-2.077859582975277,2.7084001287052613,24.602784539563554
24.61299009669193,21.789084968301864,-19.90185267091977,-2.082078031873235,2.6580930903672533,24.655233194232263
24.305730693686872,21.85353962803539,-19.935837435856307,-2.057628683719787,2.638739510177243,24.346913308352597
23.727521017054595,21.969973557423167,-19.99680932755375,-2.0114652581540535,2.603837768029664,23.76682451912288
23.128722605596835,22.083915780556314,-20.05590195774201,-1.9634500475825154,2.5697851615786345,23.16623619740831
22.52627752663697,22.191794658581145,-20.11125780556934,-1.91493368015394,2.537675167475434,22.562145224546736
21.92860483364379,22.292171950285155,-20.162167305310273,-1.8665917434522892,2.5079237884103707,21.962992259446157
21.321711785632836,22.387381400601246,-20.209842188834724,-1.8173113575108604,2.4799172329590355,21.35473679589325
20.714177055665107,22.475960250463757,-20.25355771165464,-1.767781232271545,2.454076199619873,20.745978909067425
20.11006457448587,22.557406895037648,-20.29309589741449,-1.718339141636732,2.430558772777982,20.140783849282876
19.50475950987834,22.63242282739082,-20.328824310715,-1.6686136210392368,2.409172651386337,19.534521776508697
18.894007114647813,22.70146323921182,-20.360965618010454,-1.6182507962744364,2.389773407799774,18.9229309696548
18.280569016510082,22.764125779545044,-20.389343152815073,-1.567493505371244,2.372549526349889,18.308765392388857
17.668976937541046,22.819964716334585,-20.41376816549012,-1.5167149353646372,2.3576019498178615,17.696559764512454
17.05381052924762,22.869477500393632,-20.434470875283385,-1.465469835352778,2.3448054310911943,17.080882238294397
16.442236793550478,22.91211120957304,-20.451231356426067,-1.4143552123602992,2.3342770368201338,16.46890231313515
15.82874389302809,22.948307466585923,-20.46424889348632,-1.3629280390198533,2.3259691679105883,15.8550912736906
15.217434698126816,22.97784576237321,-20.473452854751432,-1.3115320637279515,2.3199034077437304,15.243550506373888
14.602540479417497,23.00100031227651,-20.47893291386865,-1.259687389204843,2.316026567118441,14.628502655079256
13.99057988743558,23.01752625759745,-20.480631957387185,-1.2079446069531388,2.3143499207264457,14.016463693096505
13.377665352924886,23.02757730952501,-20.478597156228936,-1.1559904812139121,2.3149077961460023,13.403533822424741
12.762950064594387,23.031128280431943,-20.472800553850163,-1.1037533037691392,2.3176819862539277,12.788862097332219
12.150473817398245,23.02816767670009,-20.463285848955604,-1.051582198957942,2.322647405197969,12.176481116646467
11.537601869119671,23.018710053412004,-20.450021817263423,-0.9992557167240392,2.3297809089445005,11.563750974081115
10.924864888884299,23.002764167465948,-20.433022060335272,-0.9468316473908007,2.3391327935740196,10.951192339867163
10.312305207200113,22.980328307779505,-20.412276862008795,-0.894315844451674,2.3506655192200117,10.338842120126335
9.69912934444352,22.95135829979914,-20.38774283249628,-0.8416459027916763,2.3643909864138566,9.725900227836002
9.086473396065692,22.915895033511134,-20.35944859084602,-0.7889251277937681,2.3802786073654616,9.113495414485852
8.470979182321694,22.873689401862535,-20.327192967999785,-0.7358680128466635,2.398391739559181,8.498264728032005
7.859577287469063,22.825225128982314,-20.291337561335606,-0.6830818600072667,2.4185733422928544,7.88712739477127
7.244841730352792,22.769901613041156,-20.25142222362635,-0.6299294026021199,2.4410278540989006,7.272654398498627
6.633720043285378,22.708324636331145,-20.20787054023866,-0.5770171523282994,2.465493079514096,6.661783413164781
6.1370342973497705,22.653424905858856,-20.16960300287877,-0.5339632632529213,2.4869155920840265,6.165289049720278
6.033353062083156,22.63843691038743,-20.212921021925627,-0.5249928487340838,2.5461781225778344,6.062147062393194
6.027984760514045,22.612630710907496,-20.608118254147975,-0.5247124442366394,2.967213025568625,6.060639351331961
6.021127286630769,22.57366673523275,-21.11057155656067,-0.5243972157110229,3.5086703608437655,6.058741021935665
6.014269650826808,22.52783745032502,-21.61032797839073,-0.524131176539396,4.054295956982968,6.0568752397779635
6.0075020172299025,22.475734058773906,-22.100817247958098,-0.5239179818978388,4.596927811078168,6.055067643320556
6.0006995607065186,22.416330715405827,-22.591064848444148,-0.5237542781490824,5.14661796880246,6.053286280015088
5.993966352169382,22.350440413450865,-23.07353615412272,-0.5236434089728583,5.695018204870407,6.051559956470417
5.987277470228657,22.277847530486,-23.550030537696216,-0.5235849470329056,6.244143654195482,6.0498832064428285
5.980616609083879,22.198338732298584,-24.021696984950278,-0.523579238331328,6.7953567249393485,6.048253212912545
5.9741112321979255,22.113583915828745,-24.479568642822496,-0.5236255684025151,7.338019943492299,6.046701399104709
5.970375885308316,22.061689182832232,-24.741209636285618,-0.5236758821466709,7.651576676677189,6.045829009681327
5.969107014932944,22.0435183680862,-24.829874449836492,-0.5236969712569695,7.758419425250813,6.045535845854475
6.1807486800653795,22.018626483411133,-24.82164121505599,-0.542228591804538,7.773111507843565,6.259029657138686
6.734295108628278,21.95266423068989,-24.782800117205507,-0.5906451657876199,7.794766844372713,6.817292464406128
7.3347032657894795,21.874604439766223,-24.736763132085585,-0.6431075824893425,7.820332912743423,7.422883925770218
7.936917213372208,21.789468138811937,-24.686463140404882,-0.6956676524748774,7.848141486801627,8.030373405581253
8.54029768300432,21.697258683869624,-24.6318787785199,-0.748264242233863,7.878171922996815,8.639122650818612
9.139941835642423,21.598725678682445,-24.573426704870336,-0.800463010013221,7.910129102833014,9.244192593432539
9.743452041255749,21.492580361706736,-24.510321893843603,-0.8529256346167635,7.944470770547053,9.853256312631265
10.345379290030374,21.379692055693692,-24.443048430292816,-0.9051709445771671,7.9808598352354885,10.460823039274567
10.945470506767945,21.260118478511707,-24.371611123957706,-0.9571728527065829,8.019252771776102,11.066642181723505
11.545082730533542,21.133574773033885,-24.295804704833124,-1.0090411287901215,8.059683185285357,11.67209143467193
12.147411215329983,20.999295919450333,-24.215140647038858,-1.0610537236678828,8.102426660305861,12.280397807800664
12.747348975309512,20.858353274076077,-24.130221572207684,-1.1127615746511246,8.147079202168786,12.886411887712525
13.214104486238304,20.743690793600734,-24.060945899246633,-1.1529197425408095,8.183245176757083,13.357982532912263
13.446089938510505,20.685060618549535,-24.02545714679737,-1.1728551998585073,8.201682075079109,13.592390587641372
13.795952256666435,20.594566928145696,-23.97059352498603,-1.202889585267271,8.230064578414625,13.945944251356288
13.804212519769404,20.56972996903162,-23.796165556297115,-1.203145113018074,8.080333546313929,13.951099707445358
13.7831057397569,20.505435187038696,-23.288022632987257,-1.2000567486755553,7.6370252867501796,13.920428746085298
13.760209383219696,20.43028744339006,-22.73200987114711,-1.1967963681834128,7.156744150642719,13.887224047442585
13.737652498136503,20.350786132833097,-22.179325698974576,-1.193674384932675,6.684134744864649,13.854576379729405
13.714951659555258,20.26532606309199,-21.61814097632583,-1.1906214150845265,6.208985471116699,13.821781977796936
13.692440329695794,20.17520397510181,-21.056664311615645,-1.1876808408582884,5.7381997855170574,13.789319242910775
13.670233889549024,20.081079956344492,-20.497885854245013,-1.1848638103231108,5.274104923079218,13.757349655193739
13.648081834354285,19.982037700043577,-19.93556836856674,-1.1821355505544526,4.811386338732611,13.72550836737053
13.62594709104757,19.87795383307697,-19.36874063125874,-1.1794902063720667,4.349197153252701,13.693738985235864
13.604157507105914,19.770509456731084,-18.805863997775784,-1.176964200689979,3.8943094726792378,13.662508164201657
13.589350895821257,19.694682924946182,-18.42057802592151,-1.1752915603141048,3.5852192762581203,13.641309043445158
13.584437310967122,19.66901723830791,-18.29221695128202,-1.1747442902867462,3.482646278955148,13.634278051172792
13.622224222913033,19.83105034153637,-18.391188236115514,-1.1778726904145527,3.4188220710579027,13.670817211319221
13.74651400388107,20.360262019174442,-18.748831581852922,-1.188208524314923,3.244724456533857,13.791698563828099
13.881048753950399,20.924111749990356,-19.125626746266484,-1.1993968877426766,3.054908137851471,13.922445040061955
13.946746598782052,21.196132020198306,-19.305840302208047,-1.2048609686613485,2.9617437092948053,13.986256316955782
13.953327049669626,21.229774711678203,-19.452307669775536,-1.2055432253150855,3.0744050377580545,13.995217945477513
13.939730766678128,21.194864246746317,-19.895750146331896,-1.2049730874129343,3.552938017929751,13.99168725863775
13.924386592745847,21.149101825524408,-20.393560804666674,-1.2044354983452814,4.096713482965966,13.987770628759499
13.909170718135469,21.096925787715758,-20.88439705894187,-1.2040156212766904,4.639925595304855,13.983961651623082
13.893886535992543,21.037561681600593,-21.374565626514546,-1.2037099751216014,5.1896580715301,13.980214689455694
13.878770889737794,20.971856448260155,-21.856445868007587,-1.2035248701592274,5.737440204023853,13.976591104023441
13.863670696911415,20.899128748023575,-22.33491571060142,-1.2034591412500235,6.288833227552993,13.973056876542731
13.848769151140097,20.820268422280805,-22.804176881401492,-1.2035139823460854,6.837146635966072,13.969657264394975
13.833821817617268,20.733946802702263,-23.27191493164767,-1.2036915021630454,7.391397770224276,13.966339450078992
13.820322136213445,20.649648800362733,-23.691751276305837,-1.2039599596632904,7.895704109562548,13.963426067668145
13.815036330831775,20.614977933850835,-23.85545547770511,-1.204093602142975,8.094146273506896,13.962307589748555
13.812428415265142,20.59752386169674,-23.936081149159634,-1.2041655263051132,8.192259068709584,13.961760468943979
13.828199846905886,20.663683779380534,-24.016821266672668,-1.2055574925747539,8.206504893975332,13.977974015911151
13.934250168522343,21.12212690627459,-24.32019390894303,-1.2141491488940976,8.049232929168209,14.081594303959175
14.077606489561795,21.73326303609453,-24.72014195799981,-1.2257558579063812,7.835044321729154,14.221555852982876
14.223889599835323,22.346942361584855,-25.116642984808156,-1.2375920888022147,7.614775086099418,14.364247614531585
14.371995507870778,22.958298607547157,-25.506580394449482,-1.2495694548244127,7.390196827811909,14.508589769180078
14.52360867962154,23.573997371608645,-25.894210753509974,-1.2618251559825449,7.1588629744393835,14.65622041209568
14.6775882847874,24.18907094080121,-26.276391410692963,-1.2742679908360188,6.92262135814412,14.806024555508188
14.785148071003977,24.612737026469773,-26.536716553560485,-1.2829579226065357,6.7569219493574515,14.910591305701113
14.80477696921032,24.739450026457806,-26.61393119195534,-1.284491826893366,6.706996549154839,14.92922407984759
14.457977251537047,24.83238874415847,-26.66529933877839,-1.2549512788269082,6.673122840055905,14.579386790885838
13.860871199655898,24.9868177684604,-26.750415084765283,-1.2039981532935886,6.6166415420290505,13.977178011986053
13.245524986085071,25.138627794281692,-26.833797186557177,-1.151371669959666,6.56088025910466,13.35673620477845
12.631404674706081,25.282783091199445,-26.912709066603696,-1.0987366906722202,6.507713112471698,12.737688837307173
12.012623547445626,25.420670318171208,-26.987944609953157,-1.0455928879138319,6.456628638462437,12.114099931157634
11.390328233095872,25.551960162073392,-27.05936389421873,-0.9920418530296479,6.407839411186871,11.487114162333556
10.771582887959942,25.67522295189831,-27.126221944534127,-0.9386964799310324,6.36187479226078,10.863845235933878
10.150698594469063,25.791673531713002,-27.189208885984367,-0.8850726696349241,6.3182783900557125,10.238557920103458
9.52693286406192,25.901425129480604,-27.248421801386282,-0.8311092188562571,6.277095257727281,9.610492804274621
8.908064864906397,26.003193512087773,-27.303194588039116,-0.7774853382843627,6.238800158792576,8.987477627292133
8.286332843443923,26.098338599661055,-27.354286980106107,-0.7235342518476304,6.202904055538146,8.361690583683263
7.657167056405282,26.187426393478155,-27.402022242533732,-0.6688647864803363,6.169180275954695,7.728529656605083
7.029284754570758,26.269165392745975,-27.44573675429256,-0.6142355559809352,6.138198224843922,7.096756359125773
6.5257001965751735,26.329574250953517,-27.4779909336739,-0.5703743334960669,6.115258796503107,6.59011679705349
6.418245305230118,26.332164193225477,-27.430197169457248,-0.5609634870401505,6.065940144014964,6.481577373326242
6.4094082984154355,26.256600059231797,-27.010233142147396,-0.5598459431262376,5.721643250510624,6.469307155324665
6.397654535671883,26.151388111676415,-26.447429468766426,-0.5583933355093333,5.2641881432755735,6.453012394738995
6.386091746610839,26.04267136810647,-25.88901854349946,-0.5570014981939452,4.814627946969455,6.437009345819313
6.3744866441498145,25.9283861876118,-25.323775523508942,-0.5556411528446535,4.3638041784011286,6.420973207760708
6.362980560753844,25.809988867192274,-24.758568097371086,-0.5543281618406075,3.9171266065936368,6.405097725807323
6.351556832379776,25.687450542060137,-24.192637084899225,-0.5530593955011719,3.4738651242726624,6.389358031117664
6.340245877584894,25.561245815864854,-23.62755804415148,-0.5518369934876677,3.0351203528884634,6.373794199844784
6.328953856246693,25.430430306859378,-23.05867002524299,-0.5506499172811037,2.597176811878502,6.358275516950381
6.31770689979602,25.295363042654717,-22.48727304055778,-0.5495003584153907,2.160975196877559,6.342836524834506
6.307473850160252,25.16834347077635,-21.96319315158896,-0.5484826528014538,1.7640311394411414,6.328803742302846
6.302965530590029,25.111137268626262,-21.731021849507385,-0.5480427758317671,1.5891171707857936,6.322625506678271
6.309619265753372,25.167126113547802,-21.73370373590163,-0.5486054547786304,1.5357490549888069,6.328759162359793
6.3610565210358425,25.618153820786326,-22.005495421965232,-0.5530190897748958,1.356027464917513,6.378389297493898
6.431625551913431,26.22703457470966,-22.368125809868175,-0.5590813730237253,1.1091048835642758,6.446430620241297
6.484416321155823,26.675198739318617,-22.631906622372977,-0.563621931828893,0.924214097029657,6.497294659112944
6.49401680513227,26.761054650667386,-22.72935485280037,-0.5644552455182187,0.9357115206233676,6.506986379374301
6.487771702119191,26.75003575155143,-23.13562110651638,-0.5639960622460641,1.353037801866788,6.504865851404488
6.479546812090462,26.729219880360095,-23.668490015971106,-0.5634380720844457,1.9067765675576618,6.502103770395036
6.471435671279709,26.701512509918437,-24.191499341453348,-0.5629409868849428,2.457546290966853,6.499415939111993
6.463422859178029,26.666966668538237,-24.705683115038397,-0.5625030451805864,3.00632807546283,6.496797894206399
6.455453250664974,26.625359343548947,-25.214585992727592,-0.5621211341276836,3.556889944800437,6.494232715822625
6.447559670494158,26.576847978906855,-25.716108470207175,-0.5617969800293798,4.106974733266095,6.491732201263433
6.439736962500489,26.521428771220236,-26.210588335222788,-0.5615302562605159,4.656924061967215,6.489295712814335
6.432022506199153,26.459442648715502,-26.695688878846344,-0.5613218042421864,5.204060051916655,6.486935593287674
6.426761893980373,26.412906521007272,-27.02501046788585,-0.5612115002542748,5.579951263532453,6.485351587417646
6.4231181965358575,26.378611061034093,-27.252396933178886,-0.5611505345573741,5.841656320179229,6.484266948912389
6.4202485058104966,26.350397226940757,-27.431064422266875,-0.5611115438828335,6.048555820835489,6.483420101214538
6.42032595240819,26.350193735472264,-27.48944940194162,-0.5611793498053836,6.107140717498074,6.4840752306783225
6.453783622483032,26.650788731580885,-27.66549374023602,-0.5639634349578155,5.9822674187662255,6.516482486947895
6.520956790946627,27.246987994297548,-28.011193242999738,-0.5695563267482625,5.731115147051493,6.58150549101618
6.593386558174122,27.879139682716318,-28.372734307308864,-0.5755922740179789,5.459793857255251,6.651556468246479
6.667881583579151,28.518018260969694,-28.732922529748787,-0.5818067988885508,5.180364897925754,6.723541235287131
6.743313814809284,29.15355693675427,-29.08607595097986,-0.5881068361586708,4.897223821708923,6.796367639986313
6.8203598013206825,29.79117502972099,-29.43525607829518,-0.5945499079229875,4.608005634624162,6.87068739329163
6.896735393995674,30.412050005901744,-29.77036399268145,-0.6009457551345896,4.321456934841982,6.94429774127927
6.941988866834357,30.774781608076324,-29.963916732883497,-0.6047397569082132,4.151811089268608,6.987883995725515
7.139817134925654,30.763007117942788,-29.95887069422594,-0.6219015753226221,4.156422481271923,7.186274305904321
7.708158478646638,30.69172452460097,-29.92465482364696,-0.6711802805974282,4.187076394297322,7.756454393424224
8.354486856968167,30.603855856401463,-29.882395295851516,-0.7271487225004148,4.224798411188997,8.404982480576809
9.002797545428924,30.508395955274505,-29.83638043178668,-0.7832050433145992,4.265685283583766,9.055625773812285
9.652012397226892,30.405404364181926,-29.786614245738424,-0.8392491886075042,4.309700536348674,9.70731209113622
10.29963685550328,30.29523568587598,-29.733243412094296,-0.895060858875526,4.356693439534747,10.357545380802343
10.947113287191323,30.17761241206864,-29.676102953560438,-0.9507578697501418,4.4067420491277325,11.00778375612265
11.598439287877161,30.05167791546262,-29.614740439452067,-1.0066746604741326,4.4601535389422935,11.662055086056744
12.244708318397155,29.919113554942303,-29.549947898062502,-1.0620452042186566,4.516250245911665,12.311416535384923
12.890358569135026,29.779034104890542,-29.481255811244583,-1.117243195633746,4.5753487828647526,12.960336941806869
13.537824194707419,29.630810875384107,-29.408313297493685,-1.1724672572219785,4.637651926159705,13.611275455056726
14.178643168795144,29.476394570756945,-29.33204846321263,-1.2269972629900072,4.702370943163788,14.25572539487764
14.794957751281027,29.32056180077729,-29.254796058381764,-1.2793147773936628,4.767455525305024,14.875724921373607
15.156579650456377,29.22575112852205,-29.20764981978921,-1.309948060769953,4.806910373323142,15.239603684222528
15.49467882718964,29.134836334373343,-29.162343043895167,-1.3385507793323619,4.844693561104545,15.579872206537365
15.926181942135681,29.015590762525274,-29.10276800281088,-1.3749960014337976,4.8941314721212015,16.01423394697324
15.960557011039528,28.94398474113262,-28.98559515163546,-1.3777931167870776,4.847752428074946,16.04762469698191
15.888941739613413,28.690756121376932,-28.499817062020067,-1.3713099193008182,4.616988485843394,15.970186171663551
15.802790847385763,28.382296311633173,-27.908228641377164,-1.3635369338940728,4.335997187132327,15.877018722362127
15.718096343516548,28.074881638948245,-27.318792488123556,-1.355923776242216,4.056065582333537,15.785413374238779
15.634576688243039,27.76759090975093,-26.72973434391325,-1.3484445039989053,3.776348080108937,15.695065361330636
15.55221454511338,27.460440645160336,-26.14107900992857,-1.3410970709611838,3.49685384479698,15.605955632272071
15.470833911552164,27.15284279039343,-25.551693333966988,-1.3338653667466254,3.217042492849264,15.517893443408543
15.390552059713647,26.8453060702623,-24.962546338869494,-1.3267594247438201,2.9373718736176864,15.431005378115788
15.310585421997702,26.534844425429483,-24.367913597382795,-1.3197098479662965,2.6551228207549777,15.344442896982043
15.231774034208243,26.224740311665343,-23.774078059948625,-1.3127906145845278,2.3732759160605954,15.2591148554225
15.153660702935747,25.91324688102508,-23.177689948403277,-1.3059612985256737,2.0902395079334823,15.174525910698767
15.076934228976496,25.603183149034884,-22.584141674063012,-1.2992816958418658,1.8085709891818755,15.091421715624168
15.01663687990984,25.356599616321578,-22.11218211265277,-1.2940526367616574,1.58461569206567,15.026099794228276
14.991098849239345,25.251377619510375,-21.91080603482125,-1.2918434235817453,1.4890616338709661,14.99843024221957
14.911302077477817,25.21360403085843,-21.849297949981484,-1.285107593578899,1.4671256863644302,14.918229748336524
14.452374205098915,25.154697311130747,-21.80734418501756,-1.2464097034741175,1.4942027184917628,14.460423067443456
13.83351754815345,25.069491515128625,-21.74749562201252,-1.1941008360438876,1.5327217412092906,13.843080180412635
13.214665489356385,24.977623850865914,-21.683844298898997,-1.1416537565027014,1.5735353397439233,13.225737073570876
12.595393422457478,24.878982976099657,-21.616292373167877,-1.0890382719843943,1.61666371463619,12.607962565272443
11.975907715300018,24.773542985430574,-21.544797151341523,-1.0362730792919161,1.6620561488399963,11.989954391803526
11.356316589123505,24.661273827222566,-21.469318822102515,-0.9833826699701574,1.7097544968349123,11.37181390950175
10.735854115342802,24.541964386565592,-21.389686719786134,-0.9303024594161081,1.759782429924621,10.75276879218249
10.116191139392685,24.41587851181073,-21.30604747560267,-0.8771813178742237,1.8119936069551366,10.134478478058297
9.499423790500071,24.283441682703973,-21.21864476844421,-0.824202433491751,1.8661492850112984,9.519026076820055
8.879558968082591,24.143304629262442,-21.126560227288305,-0.7708639152180753,1.922823615590676,8.900426281086508
8.258482400667777,23.99574955127425,-21.029944009645757,-0.717329291737912,1.9818235141021352,8.280551584543014
7.649372323610185,23.844020926408255,-20.93087458869016,-0.6647425757599574,2.0418258556618105,7.672549168558075
7.041812531904156,23.68568130993667,-20.827709543749993,-0.6122107148274234,2.1037409351419356,7.0660150766048515
6.440483361870448,23.52201491090087,-20.721246733593485,-0.5601498918386051,2.167096234835455,6.465620386738737
5.837431978772948,23.35085392441196,-20.610028496215822,-0.5078753103114703,2.232660566228943,5.863416804231612
5.238993486292757,23.173966001033328,-20.495157890980536,-0.45594189081226116,2.2997135394501784,5.265724590081581
4.6423255453825645,22.990535916215386,-20.376054696262408,-0.40410816116411324,2.3684938453975377,4.66969732818775
4.169217338403131,22.840022544544077,-20.278307410764917,-0.36297514581978363,2.4244304653597575,4.197023585505777
4.084627340231866,22.80876704861307,-20.330685875376915,-0.3556375586330626,2.5085941624321153,4.112964186850493
4.08086884732172,22.782464455613088,-20.737918094606442,-0.3554383406568088,2.9421439299562033,4.111899311829499
4.0761745676496774,22.743463645666925,-21.244126273912105,-0.35521931884881264,3.4873715299057806,4.110588513463905
4.071524914641001,22.697963282053216,-21.742827733275462,-0.3550356955218434,4.031591708823076,4.1093123105034435
4.066932267545551,22.646162869381662,-22.232730249644987,-0.3548876294375185,4.57331268928792,4.10807455933388
4.06231174990209,22.587020945037473,-22.72285875197688,-0.35477286798457314,5.122601193706433,4.1068533866388925
4.057714951786398,22.521036823144367,-23.207680985569198,-0.3546935772455018,5.673425447688872,4.105663708404555
4.053163423199057,22.448527992218196,-23.68492960364503,-0.35465021526068996,6.223200530325338,4.104511801878416
4.048624319603757,22.36895312558048,-24.158042954558837,-0.3546427103003529,6.775906241856254,4.103390154129216
4.044262589592377,22.285508510124583,-24.609947759163056,-0.3546700048882063,7.311272382640214,4.102339082352001
4.041999343191033,22.239467092641707,-24.84336606817795,-0.3546977915137557,7.59074074951569,4.101804432968516
4.04110001183178,22.220645315412927,-24.935912653872283,-0.3547114570394366,7.7021125388647835,4.101594073757399
4.054992496522752,22.427182749353214,-25.07267827855715,-0.3558718055457891,7.63225592944673,4.115159567211536
4.092987095526829,22.98713741189789,-25.428680657525092,-0.35903518549299934,7.428070569925312,4.15216225501634
4.136175470911022,23.61397365134675,-25.82219718647576,-0.3626315842203968,7.1944834496253005,4.194186014497112
4.18000237601564,24.239816529515327,-26.209843684556844,-0.366282207485386,6.956013016958016,4.236791662308783
4.224450066153327,24.86422949299067,-26.591413298883335,-0.36998604589554007,6.712888968093929,4.279961239952591
4.270316044543239,25.49796753925875,-26.973412489810805,-0.37381009543037425,6.460857537632639,4.324467599463136
4.316678628967723,26.12789728494697,-27.347889169366557,-0.37767807489261257,6.2051057167900385,4.369414864113558
4.3639754152729875,26.759742895885072,-27.71830382512403,-0.38162704780906004,5.943366868132764,4.4152264441364215
4.412266511784463,27.39392237901835,-28.08488307895403,-0.3856626614225433,5.675449023666385,4.461959115345556
4.46161530781315,28.030850361440027,-28.447838542998756,-0.3897908899933561,5.40114854335783,4.509672660936434
4.512025835297419,28.670147600884405,-28.806926127458873,-0.3940127923118424,5.1206003332414385,4.55836937813881
4.563861433067508,29.31587761587156,-29.164356037624426,-0.39835961542984627,4.831948376072623,4.6083982316779375
4.615381081955091,29.946275890509263,-29.50822372617593,-0.40268597450855825,4.545064339403724,4.658078662443935
4.6676875460067535,30.574975940028096,-29.846204645191982,-0.40708497650787295,4.253982544440774,4.708474674438822
4.7010350999661386,30.969974218189996,-30.056031672610345,-0.4098931623927091,4.068578073534407,4.74058208368461
4.698876133862915,30.941631704614725,-29.960649911243824,-0.40967130123058537,4.001556005611593,4.7379371923137255
4.676833705957587,30.66802164745242,-29.472500096112185,-0.40764789005518165,3.7871790808222796,4.714313598855515
4.650591662116824,30.338611407534007,-28.883942512610588,-0.40524600460138865,3.5282245882469097,4.686182426119764
4.624554833392079,30.0077369985548,-28.291854345505538,-0.4028706791059125,3.2672010926849406,4.658263856630168
4.599059956790253,29.679748743629403,-27.704051453308512,-0.400552532776296,3.007571715075426,4.630919091311362
4.57366422933964,29.348998675401926,-27.1104371225957,-0.3982512447900352,2.744890966402718,4.60367327747533
4.548532149164935,29.01761315279553,-26.514838460737277,-0.395981787995921,2.480858428550687,4.576702852208664
4.523835532803306,28.68792494590469,-25.921475472915194,-0.39375958124352595,2.217360143927459,4.550192302206974
4.4994008331169635,28.3576863291536,-25.326329499961318,-0.3915689079377735,1.9526264605380568,4.5239554339342165
4.4752180175803025,28.02678754033777,-24.729220235372114,-0.38940885226312943,1.686586935557295,4.497981490627943
4.4514767339234105,27.697897218384988,-24.134989006150295,-0.3872962424106455,1.4214129565463482,4.472474266402532
4.428088110360132,27.369885578487352,-23.54162440481527,-0.3852230026726806,1.1562235707807806,4.447338426830718
4.406619565107746,27.065216022977786,-22.989857187063446,-0.38332714368734877,0.9092752932837735,4.424259344264472
4.39676604968475,26.92773519718766,-22.768646557520682,-0.38246226306947556,0.8256131204078447,4.4138703873504985
4.366712897940112,26.55230908173135,-22.549168308801104,-0.37986657522043793,0.9817571893849958,4.384928800286292
4.318893405605637,25.945870326651182,-22.19070955007065,-0.3757414735493699,1.2300467543922127,4.338847804655947
4.270842040025261,25.3249929963999,-21.818667652019034,-0.3716023912702135,1.4791900130009388,4.29250512853449
4.223707001288265,24.704442722074344,-21.441691370225175,-0.3675478213765103,1.7230628018333711,4.247007924859607
4.1775353822459325,24.085211045368087,-21.06037762681517,-0.36358119652668125,1.9612703891214718,4.202402906962837
4.132301905322007,23.467349425427873,-20.674765938928978,-0.3596997470577499,2.1938011762177907,4.158666979183135
4.0951137905228014,22.9508516318102,-20.348456075837632,-0.3565118491240941,2.3842178473118807,4.122681757686296
4.084991296172637,22.811086755459613,-20.291097314070154,-0.3556527501992396,2.466685291841631,4.113073479404669
4.081653737103867,22.788318921418302,-20.65294816679012,-0.3554729892165763,2.8513172654352115,4.112125989553356
4.076957568014519,22.750453943421544,-21.159805272000284,-0.35524829647742256,3.396057979714249,4.110810930548351
4.072309579623444,22.706134171716528,-21.658777546779277,-0.3550590875693741,3.939368388899781,4.109531289658017
4.067678718613465,22.65506043282752,-22.153202420902957,-0.35490415974390055,4.484885217091673,4.108279247287748
4.0630568567860195,22.59705184961758,-22.643916161753708,-0.3547837553777133,5.0336256379221105,4.107053632408214
4.0584661433712,22.53232656673191,-23.128547056749145,-0.3546988392012665,5.582999704925575,4.10586124975883
4.0539071450822135,22.460886127537577,-23.607035235876083,-0.35464957496640725,6.132946000630987,4.1047029969404605
4.049384711160411,22.382814977672194,-24.07887667824313,-0.3546361205681806,6.682876038011641,4.103580801999048
4.0448899633179956,22.297959572912962,-24.544998383434482,-0.35465862361090167,7.233870393317105,4.102493191475836
4.042059095341084,22.24073093450994,-24.837094042930605,-0.3546915846845732,7.583205503339568,4.101822973514223
4.041136205065272,22.221433497311097,-24.932070386022364,-0.35470552016948087,7.69748280005137,4.1016070150186765
3.8679925941623154,22.232416879084838,-24.947147140030875,-0.339518024754508,7.702626819019602,3.927111828885806
3.3255830112596256,22.268215118731234,-24.96810575094062,-0.2918989277001199,7.690782213657668,3.3803072888423307
2.7183404799570527,22.30186238824099,-24.987790179947655,-0.23856163359582175,7.6796379433130015,2.7681782682042813
2.112016757057317,22.328695827022877,-25.00347810857857,-0.1852821178635231,7.670743193896565,2.1570047897236155
1.5027480022720234,22.348864231517254,-25.015263501618552,-0.13172586088732305,7.664054434158293,1.5428856825863162
0.8939976431010075,22.362218636605025,-25.023061397954866,-0.07820477844120917,7.659594472997931,0.9293043857599229
0.2859395234884054,22.368786576196452,-25.02689763757896,-0.024734748966735085,7.657418954714681,0.3164317016719643
-0.32308779814534827,22.368581612229246,-25.02677872256499,0.028823049267132736,7.657493850264081,-0.2974147213694488
-0.9298199421707801,22.361626973955495,-25.022718161418872,0.08217642316682332,7.659811358133776,-0.9089512700566084
-1.5397592258069106,22.347838426860832,-25.014661807515967,0.1358005288374997,7.664367011331425,-1.5237322885754607
-2.148393070687332,22.32728561271259,-25.002653015412616,0.18930019497337794,7.67119667966314,-2.137212377465447
-2.7573657962381146,22.299917447380267,-24.986653421980947,0.24281161104639581,7.680281837028678,-2.751057383282588
-3.3649987521989955,22.26581414882477,-24.966702794153676,0.2961821952162565,7.691589931735013,-3.3635817361200897
-3.8889766861430792,22.230941610512996,-24.946283488877107,0.3421780361935456,7.703108444134716,-3.891809160092636
-4.041013692057492,22.216101364378236,-24.91288738342634,0.35550161560248816,7.683630947573046,-4.044939285697369
-4.036267491205494,22.162091022990197,-24.53422194263611,0.35481969171765826,7.359011420385646,-4.038127862592956
-4.029367886165488,22.078942135746708,-23.97962088868829,0.3538507880954777,6.887610826357247,-4.028242877985018
-4.022449775226751,21.990085420030884,-23.418575109898807,0.35290559305169056,6.415473311813384,-4.018350559748136
-4.015615526812744,21.896941154058233,-22.859407629106702,0.35199735073356675,5.949500864067037,-4.008596072693798
-4.008818991102414,21.79904817574075,-22.298423188463925,0.35111891254714245,5.4864597373822495,-3.9989121608292533
-4.002080310556736,21.696828956947854,-21.737335466580912,0.35027205857700666,5.027640995402256,-3.9893262976809627
-3.995322953678254,21.58918790382604,-21.169761474579293,0.34944667941265495,4.567757812376714,-3.9797286178562645
-3.988646731822714,21.47780293572643,-20.604097775273704,0.3486543882044094,4.11352810154686,-3.9702598516630956
-3.9820375723910235,21.362620655794196,-20.039258715029362,0.3478925254744399,3.663919716655981,-3.9608987866511405
-3.9757860505051537,21.24918084015471,-19.5004848959765,0.3471922840706398,3.2386313708125836,-3.952055089123491
-3.972802000467423,21.19349573835866,-19.241753604706318,0.34686498269315374,3.035606934967642,-3.9478372240947306
-3.9801365843530734,21.299599853157375,-19.280869882206385,0.3474822751661323,2.96857596603173,-3.9547711749320005
-4.014147377748473,21.7952183832566,-19.605219743271693,0.35039052397240145,2.797103745544911,-3.987757956931179
-4.056014511956807,22.395803946669286,-19.993755088638444,0.3539732008451693,2.584800716042792,-4.028333072466128
-4.083602410084302,22.785936266617544,-20.243505902652675,0.3563356798827995,2.444251271751483,-4.055051021109756
-4.084189808518592,22.804304889549215,-20.404846641637302,0.3564257573486864,2.5872169873069395,-4.056528070291239
-4.079918358403597,22.773143673783252,-20.867627186826525,0.35620567177311113,3.0811757438499945,-4.0553282124023236
-4.075236035286503,22.732444036470394,-21.372354183052988,0.355996151965653,3.6266209350843885,-4.054033564049263
-4.070606561748485,22.685335676172667,-21.868692475608235,0.3558223522598349,4.170085858086184,-4.052775882625753
-4.06600222223721,22.631562339290195,-22.35962820791597,0.3556831637528272,4.714813017768317,-4.051548271729662
-4.061396062921031,22.5707118279618,-22.848000983484766,0.35557832751374735,5.2640543184743835,-4.050344596150453
-4.05680814172751,22.50293456848593,-23.33164233703733,0.3555089667165538,5.815490787015077,-4.049171225452899
-4.052285376143636,22.42896676453396,-23.80562531207804,0.3554757121072926,6.363459079360004,-4.0480407304115245
-4.047759582250636,22.347686342478074,-24.27709409507867,0.35547825560539636,6.916225717743048,-4.046936825958521
-4.043654849526999,22.267554606496322,-24.70219949693026,0.35551234893971495,7.421478584421623,-4.045960397126788
-4.041965602065902,22.232776935354558,-24.876444020775313,0.35553534220672556,7.630507228885904,-4.0455656537797235
-4.041933474363958,22.228549989802172,-24.94537510999117,0.3555935600958234,7.703664059150236,-4.0459910963930055
-4.063487264874655,22.548818617926003,-25.150371742471712,0.35738790217252847,7.588260499233178,-4.066991349642474
-4.104171826517866,23.146267708520956,-25.52908067873598,0.3607751329909648,7.369270219871383,-4.106603861269409
-4.147494849535151,23.772488854966795,-25.920876564563244,0.36438274696141126,7.1345760458907685,-4.148746992730698
-4.191502950264094,24.398338179023323,-26.307204861797953,0.3680485822729737,6.894779143552085,-4.191517060423714
-4.23625108349301,25.024355570013313,-26.688433495953923,0.37177769976203534,6.64970707264416,-4.234966543554197
-4.282224657818597,25.65691209214417,-27.068392206329268,0.37561109496771355,6.396815249693327,-4.2795651590359745
-4.325921040241876,26.248415166075894,-27.418943831000274,0.37925702466310746,6.155581592338077,-4.321917352573903
-4.347270837293759,26.534043834671127,-27.586586350028004,0.38103936831353774,6.037456579739847,-4.342597426271098
-4.102453614878647,26.55676039339363,-27.598889417544573,0.35963529595704624,6.02862618899362,-4.096395148422468
-3.523528446489697,26.59558096061267,-27.61948490994841,0.309001533012253,6.013780740784885,-3.5142556057261944
-2.8941444840501798,26.63106757922877,-27.63829554295926,0.25392347619931194,6.000198339859076,-2.8814209788640923
-2.2660136719106783,26.6595229020805,-27.653367993050413,0.19892839394003484,5.989299558248225,-2.249884025879346
-1.639442436719581,26.680990267321864,-27.664729422846026,0.14404991683358873,5.981042634621168,-1.6199452013512896
-1.0096622347552577,26.69562202418164,-27.67247224280741,0.08887458232728379,5.975435725797386,-0.9868008710849329
-0.3829660663288377,26.703273887942576,-27.67652066548351,0.03396004983226543,5.972506029830584,-0.3567702089918642
0.24576745692424126,26.704029228547103,-27.6769207586589,-0.02113665429949247,5.972223179140245,0.27530362448393325
0.874010058040004,26.697857228497536,-27.673653269493368,-0.07618618720503081,5.974568095091357,0.9068872338448366
1.5042006352890813,26.684712460546926,-27.666698866776475,-0.13140021182822545,5.979619045330144,1.5404403516030016
2.1317870131814027,26.664691757675808,-27.656102299039485,-0.18637241390196166,5.987305081824955,2.1713948610396767
2.75914985664599,26.637756283558517,-27.64183792669019,-0.24130567096496439,5.997637033203628,2.802152205980838
3.3874754073540574,26.603827136644465,-27.62385390916684,-0.29629487791375675,6.010608468271642,3.4339143049870664
3.9942512603835634,26.56444768806968,-27.6029668097161,-0.3493716270115315,6.025684117523575,4.044049354902031
4.339859360537722,26.539105307147253,-27.5895149450894,-0.37958828191602395,6.0353773283236105,4.39159188959854
4.339320621734807,26.433624763639045,-27.382142388841018,-0.37947037919182336,5.933491249203781,4.390371198975275
4.318606450690436,26.159782063956026,-26.84185161590084,-0.37748194704603866,5.667185985523392,4.367782685221484
4.296316338451368,25.861166648014834,-26.253030623418518,-0.3753511817721754,5.377133298034954,4.3434733710009015
4.274164753028104,25.560273337166958,-25.660072790668387,-0.3732430196527818,5.085219908892371,4.319312574990787
4.252241422557949,25.258331700397903,-25.065396507393263,-0.3711659474532,4.792634047284838,4.295397979166222
4.23063480265064,24.956622189115105,-24.471514939208017,-0.369128179298302,4.500607857023769,4.271825925726333
4.209174177922604,24.652801009017043,-23.873807966157717,-0.36711350055566205,4.206866190203954,4.248410010149343
4.188116327830123,24.350570029702354,-23.279549844810013,-0.3651458460113644,3.9149797386450684,4.225430272619356
4.167349877024817,24.048442419158082,-22.685805535582368,-0.3632145392351206,3.623501075436301,4.202765080588206
4.146820305079228,23.74568925990629,-22.09113491522182,-0.3613143488808512,3.331719384631599,4.180354803497303
4.126363587290846,23.439892304022997,-21.490785286142934,-0.35943007625085954,3.03730131758048,4.158020210347792
4.106306188530255,23.13598267263302,-20.89443137655336,-0.3575916653573557,2.744988357316017,4.136117604392474
4.0924348707961,22.92339191313972,-20.477438192613835,-0.3563256160635348,2.540676367543748,4.120967724949584
4.086569780881102,22.832901689572704,-20.29998441013295,-0.35579164070918884,2.4537509523760694,4.114561402608327
3.9704498421105723,22.820864194487356,-20.265292672712107,-0.3456810697010848,2.4318092277459797,3.9983136940540764
3.4692755588655317,22.853173269262033,-20.28397226127173,-0.30205080654977884,2.421018664493268,3.497122080008897
2.8618779325929884,22.8864684807053,-20.303207908851363,-0.24914387418067385,2.4098884377457472,2.8897380870121934
2.2464396877786075,22.913668267850568,-20.318911506266748,-0.19550928382159433,2.4007886516259025,2.2743459255540346
1.6348320162451697,22.934193801094416,-20.33075559370798,-0.14218709501221935,2.393918337710724,1.6628093764719365
1.021869121438745,22.94826619303291,-20.338869898834393,-0.08873087281092319,2.389176744881189,1.0499379533120674
0.4080534166345397,22.95585136785821,-20.343244573264723,-0.03519098766999984,2.386639975347726,0.43622368798460354
-0.20414767442427514,22.956931882196237,-20.343868342323393,0.018212068272957186,2.3862844533239738,-0.1758715891448457
-0.8185326127832319,22.95150562725781,-20.340740268211047,0.07180380484353208,2.3881111434432802,-0.7901526145515146
-1.4309777270428152,22.93959934725128,-20.333871255875295,0.12521778415360546,2.392078916996478,-1.402502348018813
-2.044726463041978,22.92116062508646,-20.323234337576825,0.17873260053658968,2.3982650119955395,-2.016172590218074
-2.659371407874622,22.89615457818435,-20.30880153786826,0.2323061955330673,2.406646324564365,-2.6307620394558864
-3.2713433509683227,22.864742380130792,-20.290659572322205,0.2856217479594732,2.4171637934279913,-3.242708591694473
-3.8829169214277233,22.826838107653447,-20.268747768237255,0.3388697503451777,2.429808848321968,-3.854293199201994
-4.496259290301456,22.782272714003067,-20.242964961823397,0.3922368925773369,2.444692287751752,-4.467690410282405
-5.110144453732205,22.731073403329948,-20.21331218560044,0.44560870744851144,2.4617647108290437,-5.081681018524065
-5.702761354126172,22.67536546576531,-20.181009343950162,0.4970856153265522,2.4803086638723646,-5.6744540900275915
-6.030298838626185,22.64191846222961,-20.16159530434818,0.5255154993197824,2.4914265727115894,-6.002103074506859
-6.031553260847677,22.629076946251114,-20.3638622129687,0.5257137055611558,2.706514545524938,-6.0053322335563815
-6.025010223981817,22.595143996554725,-20.844888778622376,0.5253898861647386,3.2215123801277987,-6.003512663819049
-6.018136377820742,22.55282865135069,-21.34760223628005,0.5250974887781941,3.766581277958502,-6.001632266383475
-6.011350781140769,22.50421420111467,-21.841164301509178,0.5248579551447422,4.308797203876678,-5.999809037213386
-6.004588307700032,22.448855904440205,-22.330325248021563,0.524668922394714,4.853355547910504,-5.99802642625115
-5.997782569943944,22.386029421439368,-22.81981983960245,0.5245299672090886,5.405715789039387,-5.996268912210612
-5.991097664167921,22.317220037281096,-23.297836977397438,0.5244448202533694,5.952580594196678,-5.994580091094859
-5.98442886020816,22.241417173522297,-23.771894179806953,0.5244118646387734,6.50247865786141,-5.992934220272787
-5.977784713268797,22.15863168522502,-24.24135068700106,0.5244320137876137,7.054758310117736,-5.991334959911427
-5.972044890505649,22.081157609445278,-24.64457497947948,0.5244930916698984,7.53548904243467,-5.989987452711666
-5.9699886086926774,22.052038857291798,-24.788494693942024,0.5245250139722208,7.708539064577884,-5.9895126605627365
-6.003713996214288,22.038544793012633,-24.833363215169722,0.5275477142674506,7.76659048466337,-6.02404738553339
-6.417732506105988,21.991126600146874,-24.80545951799294,0.563775239403306,7.782173035599479,-6.441574721728588
-7.015048943364365,21.917047972859095,-24.76180926850706,0.615997392892208,7.806467934884852,-7.044010135228836
-7.616838762250361,21.83561620048351,-24.713744652793217,0.6685533179580564,7.83310580520457,-7.651030428374194
-8.219152650368697,21.747242995979466,-24.66148302333552,0.7210898401334098,7.861902109749032,-8.258660539361522
-8.82285349766598,21.65173559658692,-24.604892525253355,0.7736820725331628,7.89296155701329,-8.867774129290114
-9.423902599642096,21.549710640344983,-24.544310105688538,0.8259711582013517,7.926031360056492,-9.474303599532147
-10.025641695827714,21.44058970245948,-24.4793652004015,0.8782433230307236,7.961276241769179,-10.08162657536188
-10.626769207399292,21.324556777422625,-24.410134385215976,0.9303768768383438,7.998580736647363,-10.68843719565799
-11.22840354868758,21.2013521210485,-24.33643703398561,0.9824713233109145,8.038063485065592,-11.29586603276448
-11.829947796124186,21.07103397860297,-24.258270422892384,1.034466613118604,8.079645749656796,-11.903318164683917
-12.428906534437507,20.934132758736187,-24.17591772759641,1.0861429215438916,8.123128701603951,-12.508278357565173
-13.001552277533428,20.796522345438373,-24.092889764444326,1.135450720156572,8.16659922122982,-13.086780192916956
-13.300854257394557,20.72196656598179,-24.04780492253348,1.1611868466148931,8.190081018089828,-13.389188307322991
-13.648692838262116,20.63303505826466,-23.993932194992812,1.1910629510187718,8.218010628079366,-13.740678047416935
-13.810785687838237,20.587937919687565,-23.946590006967455,1.2049152838712844,8.21238567291835,-13.90408669924773
-13.795473336471103,20.542814820231083,-23.579339580486632,1.2026492759344891,7.890650448632219,-13.881815448866229
-13.772651628996226,20.470886746387638,-23.02786941368478,1.1993501440334595,7.411691203647385,-13.848681037545983
-13.749922589620237,20.393715576711255,-22.473701753983,1.1961560857009914,6.935273389028994,-13.815748278707709
-13.727171263468088,20.31096584206569,-21.91400945039057,1.1930491522840783,6.458908295394781,-13.782847000716554
-13.704630749267267,20.223579883169887,-21.354539687009087,1.190058805226391,5.987394907475858,-13.75031031339327
-13.682279625625641,20.1316414514673,-20.794842260436067,1.1871787381266024,5.52019989229958,-13.718102638877648
-13.660065850511007,20.035072940262662,-20.233670323303972,1.1843993540546687,5.0561553914609485,-13.686144801117765
-13.637918950631413,19.933657364428946,-19.66925753074234,1.1817097668163012,4.593713872276663,-13.654331811315824
-13.615881405902432,19.82766709809471,-19.10269097251119,1.1791133105017693,4.133689034312107,-13.622721281697581
-13.595839079062916,19.7268878028474,-18.583091785160818,1.1768204569789307,3.7153693956457996,-13.594009646646807
-13.587185201357071,19.682084605809845,-18.357453377396,1.1758504860893744,3.534749815410029,-13.581622876387433
-13.588545605039306,19.68516772435441,-18.291921371724694,1.1758797167602582,3.466121234840432,-13.581574670934065
-13.67379693498271,20.05055108103727,-18.540001957185623,1.18296906064622,3.3470898930717925,-13.664513554729904
-13.81403229917784,20.643344936633518,-18.938554667591657,1.194631012293075,3.149983521327068,-13.80085423400134
-13.92421675834737,21.102061546619577,-19.243637412640698,1.2037946111286695,2.994079413701273,-13.907900995951117
-13.956970936884181,21.237676539687747,-19.341230568957297,1.2065272858495508,2.955377759216613,-13.939874080315471
-13.947959754844122,21.215983203566093,-19.63581965976359,1.2061255421004764,3.271779716834859,-13.937523110864918
-13.932780338440894,21.1742202081904,-20.129890271546714,1.2055356021852521,3.8078140270423098,-13.933617855661648
-13.917469632847773,21.12534163495367,-20.625436199230823,1.2050530095004703,4.352440110967639,-13.929752038880398
-13.902243175446417,21.069866763944685,-21.115417843118795,1.2046875960541061,4.898096208378405,-13.925984353283049
-13.887081562645728,21.007685131378892,-21.600448737448804,1.2044398704614478,5.445506545120711,-13.922312902015586
-13.871897810290886,20.938326129302204,-22.083269358257443,1.2043107155749535,5.997883303285889,-13.918720434305298
-13.856940991395719,20.862927672935626,-22.55596345676199,1.2043027273927425,6.546169063694643,-13.91526835633211
-13.842017043531479,20.78055170329961,-23.024683684070357,1.204415691246014,7.097457027362506,-13.911913874998808
-13.827188702745936,20.691492624898938,-23.48744046725274,1.204650664382935,7.649462381829408,-13.908674244958023
-13.817014229887512,20.626150970438836,-23.803223618722736,1.2048843366207072,8.030716583338249,-13.906507500964505
-13.813951700222429,20.605800063182496,-23.897994489581922,1.2049664064579986,8.145877207576213,-13.905864512269291
-13.811751337993748,20.590981561258697,-23.96600457777275,1.2050287611603487,8.22873367817094,-13.905405214624851
-13.869253990210849,20.84054261157066,-24.134202047624797,1.2096958752160991,8.146179107334152,-13.961657429694533
-14.001577550990355,21.4091226733504,-24.50865172129708,1.22041282695213,7.949292013828566,-14.090903337989213
-14.146221189520164,22.0211291356369,-24.906773323757083,1.2321199337273263,7.732366210213971,-14.232060884727503
-14.293804756826791,22.635580870364986,-25.301375041947185,1.244058031993496,7.509383780048691,-14.375959488441799
-14.443243591630193,23.24772543698302,-25.689433543338847,1.2561403543134606,7.282095424893313,-14.521538637825637
-14.596580286945157,23.865603845005808,-26.07603451399153,1.2685330408468993,7.047500299006446,-14.670784136152207
-14.753273735085134,24.486567420679936,-26.45944316971071,1.2811933728369478,6.8065217432067024,-14.82316350861507
-14.91232437684697,25.10634748496282,-26.837031862524036,1.2940417476267712,6.560820818969795,-14.977701014073434
-15.074207425978393,25.726548730467453,-27.20981978068496,1.3071177923613995,6.309799870602548,-15.134855498588939
-15.23874360740119,26.346215224998318,-27.5772661317846,1.3204083162677445,6.053876245484494,-15.294449807648212
-15.40781215471346,26.97199837331123,-27.943280147233935,1.3340664896856957,5.790263074634323,-15.458301678819957
-15.579457953156668,27.59625139735297,-28.303366919772124,1.3479358217397264,5.522154266778936,-15.62451152837801
-15.754856425875037,28.222922250461416,-28.65982573620207,1.3621128050357127,5.247871961494982,-15.794213872174637
-15.906447487264424,28.755611605857858,-28.958895569963058,1.3743700997595603,5.0107008726242706,-15.940770044379327
-15.970896021839668,28.979624071416964,-29.08358993497649,1.379582755596635,4.909863352602381,-16.003047245032775
-15.953171739773472,28.917037649950096,-28.933905776500687,1.3779140937839707,4.823217204037472,-15.98316089232586
-15.876984244281957,28.647228945779478,-28.416336981052208,1.3710197197581855,4.577355364335942,-15.90077566951056
-15.790956097775895,28.33862357201913,-27.824490453884444,1.3632617226631343,4.296246742525734,-15.807737483579746
-15.70682192818256,28.03267425355901,-27.237883532476197,1.3557027500965577,4.017663536468743,-15.716734699732035
-15.623362728394062,27.725044760696967,-26.64819446119501,1.3482326744044497,3.737650788880405,-15.626448530820904
-15.54095419930341,27.417155320290245,-26.058140304401253,1.3408849366150946,3.4574964626691984,-15.537284967092415
-15.459918405163048,27.110298951221573,-25.470192295177487,1.3336876967344724,3.178371385453081,-15.449592226666029
-15.379362556251959,26.801142979679287,-24.877959709394606,1.3265613938541538,2.8972395290765505,-15.36240379775545
-15.299796835236632,26.491665817157028,-24.285228331727424,1.319551086143921,2.6158962306945326,-15.276271395324773
-15.220707130901156,26.179888203702433,-23.68820337589479,1.3126114061992054,2.3325385885281382,-15.190638002767038
-15.14310787239883,25.869870516107643,-23.09465524440829,1.305831013231448,2.0508527563237458,-15.106601676377439
-15.06634706940706,25.55910008253702,-22.499767893139037,1.2991523766856814,1.7685512882048817,-15.023456173395855
-15.012234595867637,25.337519912565803,-22.075671383274177,1.2944617040908557,1.5673092330623886,-14.964832029358671
-14.989470891627251,25.243679036384563,-21.896077857597536,1.292492841242447,1.4820912796154986,-14.940167623288001
-14.866578463783974,25.198481764174737,-21.839552670266514,1.2821327437632424,1.4735226272376944,-14.817221439243502
-14.364627488851472,25.092821127740294,-21.768775378608204,1.239803320837647,1.5194260835315136,-14.316843201759644
-13.750038082914202,24.95723103584729,-21.678423932230462,1.1878464868454977,1.577653849407234,-13.704147304616924
-13.136729027932892,24.815037140520932,-21.58413730837214,1.1358620720652286,1.6379687022860352,-13.092685464505273
-12.523219694343615,24.66584493341143,-21.485614266914457,1.0837307650430004,1.7004649254805835,-12.480968821512585
-11.912243180305753,24.51029367549453,-21.38324306785493,1.031691317312227,1.7648987016466562,-11.871725990332514
-11.296842596636205,24.346500593799448,-21.275742954141993,0.9791560879252365,1.8319671765284367,-11.258006770438332
-10.683387759068834,24.176039437841517,-21.164105680814483,0.9266738368458772,1.9009722652676684,-10.646155781552313
-10.072482159406688,23.9990695078219,-21.048385054606353,0.874304550039848,1.9717742299926988,-10.036762387485899
-9.457506572668759,23.81356543248929,-20.927215109606028,0.8214833739363648,2.045191371477602,-9.42322825673751
-8.854848837916904,23.624524044351137,-20.80380494535202,0.7696265587644444,2.119174902141923,-8.82189147140774
-8.255134334151238,23.42918800584287,-20.67630090512484,0.7179363171923066,2.194778241662217,-8.2233946139345
-7.65935786456476,23.227907940517078,-20.544875845878362,0.6665080224203869,2.2717898430876193,-7.628718789828408
-7.062657938674855,23.019004276642466,-20.408383932755925,0.6149221265448979,2.350863696156368,-7.033019288095819
-6.4750863120781865,22.806044382538285,-20.269097935790086,0.5640568109837593,2.4305739433592075,-6.446320248952516
-6.067873280133054,22.654177626808337,-20.169657780278772,0.5287675596195742,2.4868786094380275,-6.0396432220429155
-6.032593824888095,22.633922782326973,-20.28694411836486,0.5257632273225816,2.624738419227996,-6.005628101718557
-6.026432431413189,22.603054541800347,-20.740352324543764,0.525450514025717,3.1090509754715283,-6.00390972229478
-6.019570302510426,22.56224138435596,-21.242784113709597,0.5251483555784844,3.652335983035524,-6.002025802697343
-6.01273419006344,22.51470014077356,-21.740596688223185,0.5248967274518925,4.197729540251434,-6.0001820284946765
-6.005944189938288,22.46053226633396,-22.232316354967622,0.5246967305695548,4.743656377033716,-5.998385067866379
-5.999177109587957,22.39950948429029,-22.719609623781903,0.524548115848255,5.2920114091684525,-5.996630066139129
-5.992452027197302,22.331754705627862,-23.201086503650032,0.5244518164984631,5.841281619558088,-5.994923293514699
-5.985781919567357,22.257401709926793,-23.675821404136464,0.5244081934637463,6.390407559959078,-5.993269098171927
-5.979111757163476,22.17577208016103,-24.147706931742324,0.5244175957368422,6.943960562057042,-5.991655268572546
-5.972972206061569,22.094071290655265,-24.57948017150524,0.5244743333237522,7.457469241760425,-5.990207203537195
-5.970310654971957,22.056665808259076,-24.765878576305223,0.5245135510710872,7.68128809377096,-5.98959100130875
-5.969756713151519,22.046815927847057,-24.838481244552,0.5245673428971224,7.7637422569933685,-5.989794096382507
-5.999076235813732,22.341825506763048,-25.02812739739431,0.5270008874308849,7.658114757384149,-6.0183710342792205
-6.058526605000013,22.933226132819268,-25.40475828017044,0.5319353405722865,7.442805845365127,-6.076277327022472
-6.122576402764036,23.560425729625898,-25.799041020257405,0.5372520754648735,7.20930254229809,-6.138607246070198
-6.187203756324794,24.183069101113343,-26.185250778374964,0.54261791048428,6.972271347014049,-6.201441405358386
-6.253215386142371,24.808720332266855,-26.56813061315382,0.5481005016581513,6.728883507168788,-6.265562966168866
-6.3207240933145625,25.43803279515674,-26.948030340482916,0.5537099701098755,6.4788340149725645,-6.331079163858074
-6.389652275440958,26.069867370497626,-27.324218915327695,0.5594406746814802,6.222531264835439,-6.3979123658898285
-6.459868830325905,26.70266194612155,-27.69575618296394,0.5652825572448805,5.96059807229978,-6.465933462998108
-6.530881518461727,27.331774800521345,-28.059985070775138,0.5711954844324555,5.695023520932053,-6.534664504109456
-6.603702166245167,27.96584984878418,-28.421927707048596,0.5772646170526741,5.422175594963071,-6.605083072685478
-6.678397999585992,28.60491790215717,-28.78151500801808,0.5834966434755348,5.141953178058146,-6.67725113880691
-6.754349161398092,29.24325517237868,-29.135509003026783,0.5898409179943315,4.85684775474805,-6.750567556528219
-6.83163554358517,29.88124631535474,-29.484171700313066,0.5963051451024654,4.56673546598236,-6.825107949663203
-6.906340080454593,30.487113310868118,-29.81055361869465,0.6025620785826746,4.286484779533944,-6.897097668598542
-6.94520660892096,30.786164627189063,-29.969975310100903,0.605825248744386,4.1464534256316234,-6.934588703409141
-7.204915628602909,30.755158338107666,-29.955108062701704,0.6283593410956598,4.159799524772084,-7.1951143777826765
-7.798275598763577,30.679944510371747,-29.91899668923645,0.6797991378691699,4.192137476178981,-7.790406504800005
-8.444447259704239,30.59108824426481,-29.876249547049852,0.7357428655057136,4.230273720433828,-8.43879431732621
-9.09267113318228,30.494621849476673,-29.829732857004522,0.7917782567091628,4.271562613746824,-9.089367566631504
-9.741247269559702,30.3907121520716,-29.7795076011773,0.8477550828803266,4.315974737443795,-9.740431291224475
-10.390729496926117,30.279189348800205,-29.725460723119873,0.9037130280694455,4.363529701186167,-10.392550954489966
-11.03742646576839,30.160660061206965,-29.667857222733023,0.9593282958792441,4.413946007899665,-11.04202900641095
-11.687486967297732,30.03391944773976,-29.60607611806028,1.0151202671811699,4.467679568660524,-11.695050446354376
-12.33531658875322,29.899976340493637,-29.540580611688135,1.0706082544957876,4.524336999436706,-12.346004871805436
-12.983582013548956,29.758235175992095,-29.47104027129448,1.1260123256562473,4.584110459596262,-12.997580521342083
-13.628244117756978,29.60955537265502,-29.397836107526256,1.180978288521874,4.646576451300027,-13.645726102722
-14.21563454757929,29.46731294789309,-29.327558323999764,1.2309498555648153,4.706173118220415,-14.236463267563863
-14.492835701279326,29.397924205841907,-29.293187956434757,1.2544932071710433,4.73517633896616,-14.51530321614195
-14.927831305082709,29.286089891637857,-29.237672144290475,1.2913862645929886,4.7818251824981886,-14.95294950882979
-15.54684408977037,29.120688470242765,-29.155288130271657,1.3437686704470937,4.85056979029204,-15.575906659492777
-15.947926837754881,29.009563916309833,-29.099757062137197,1.3776392616138355,4.896630352159244,-15.97965482243381
-15.955551672189001,28.92539263493554,-28.949931471728945,1.3781460118193942,4.830812062608413,-15.985720510760386
-15.880258326550809,28.658869509624648,-28.43866123548628,1.371331763233583,4.587941280013788,-15.904302469354253
-15.794682071286735,28.352056617865085,-27.850246597067457,1.3636133744376586,4.308461357487271,-15.811753457400803
-15.709990195179586,28.044249863647078,-27.26007288489054,1.356003155345348,4.028183028818837,-15.720147916373339
-15.626651892665377,27.737227043237446,-26.67154182754241,1.3485428239896529,3.748719103533547,-15.629993005346304
-15.544534117094448,27.430596517862366,-26.083895269063078,1.341219852101295,3.469706833071739,-15.541144560826746
-15.46290189924454,27.121649084284417,-25.491936036885654,1.3339685156204761,3.188676513959043,-15.452806937064953
-15.382877485183347,26.814699306769622,-24.903925294739405,1.3268881029292159,2.909547908100821,-15.366194254477135
-15.302971825920412,26.504074828726267,-24.308992034423106,1.3198466621929934,2.6271586481213127,-15.279694466068351
-15.224172895301976,26.19361872139716,-23.71449336064777,1.312931308381395,2.34499926653966,-15.194376537634094
-15.146207333038529,25.8823129717241,-23.118475058045046,1.306117717370439,2.0621404556958822,-15.109944176742577
-15.069640651864496,25.572500019165865,-22.52541672181852,1.2994548018930172,1.7807063353910015,-15.027009604279174
-15.018390575374266,25.362813869482256,-22.124081119571596,1.2950110626614155,1.590264154365469,-14.971487221942724
-14.996468109777494,25.272544986093184,-21.95132141845172,1.2931142401548918,1.5082885040098215,-14.947734736537576
-14.985803984225234,25.215205799347512,-21.8513273144071,1.2921910084314532,1.4658845357723589,-14.936125339865695
-15.053067416156264,24.863499709096843,-21.639598400198455,1.2979403596173362,1.6043088950384212,-15.006448317359752
-15.165281980005952,24.26836586807425,-21.277577657497357,1.3075462946511396,1.8348153770981883,-15.12381988625882
-15.277596155860016,23.661963250606046,-20.903837435893607,1.3171788850510835,2.0648487486862943,-15.241358305977096
-15.388313782636443,23.05338307516163,-20.523793815344778,1.3266923685173129,2.2907740179056555,-15.35728303422358
-15.496549051612911,22.447808881956455,-20.140669730408064,1.3360096408924615,2.510652593191991,-15.470659076095698
-15.603554046775532,21.838502835132598,-19.750169008844352,1.3452375161459873,2.726897400877098,-15.582790818691864
-15.707391368543213,21.236877663060643,-19.35963141505137,1.354207735472609,2.935483002140943,-15.69164067769706
-15.778144623412423,20.820957557310557,-19.086748706072537,1.3603285411930501,3.0768058797423783,-15.765828094977493
-15.789896164217572,20.740496809701323,-19.075017328184178,1.3614041049405257,3.1452370224973576,-15.779222838722342
-15.777200557813977,20.711188644546937,-19.444788818977024,1.3608907450029808,3.5445055552092377,-15.776007948856348
-15.760006229784608,20.6656398895529,-19.943120141726457,1.3603057949734163,4.088640514612915,-15.771723883333511
-15.742915245701004,20.613564582957576,-20.43559476391324,1.3598526922320648,4.633442694781935,-15.767549427326776
-15.72588460090287,20.554792720441153,-20.923442077281216,1.3595313404615028,5.180312092686736,-15.763477337366147
-15.708902108466727,20.489209064994014,-21.406986216628887,1.359343297175562,5.729688219445291,-15.759508430712502
-15.692025747674338,20.41699249667902,-21.884562344140264,1.35929055708836,6.279726474063197,-15.755659658087326
-15.675239665966833,20.33805707273693,-22.356615485583383,1.3593740105919345,6.830958024874398,-15.75193046957283
-15.658559685234948,20.25245962057445,-22.822696474748387,1.359594607565162,7.382876618357781,-15.748327454833799
-15.642409267528047,20.162643172788787,-23.271087496362476,1.35994231156052,7.921315332158391,-15.74494092707355
-15.633935201429173,20.112741987948347,-23.505199994671607,1.3601786763073491,8.205449826208293,-15.7432057739161
-15.630881784869876,20.094287680580738,-23.58935913222385,1.3602730838925081,8.308106712140125,-15.742587785028649
-15.630800754892627,20.088460793322298,-23.662327154626574,1.3605404709347375,8.386881356634744,-15.744396496252588
-15.7157385051588,20.413802530283473,-23.880630338194923,1.3673660350686059,8.277855952343986,-15.827480089908288
-15.870994803834623,21.001434185501992,-24.27124037194752,1.3798329634214197,8.077177107183807,-15.979245667855057
-16.03405338544856,21.608981390805347,-24.670120494465753,1.3929144802398805,7.8646335598182695,-16.13849975503361
-16.200509666076297,22.21927508791735,-25.06574760934695,1.4062573994642655,7.64597231520495,-16.300929736837446
-16.371137765468106,22.834726703535296,-25.459616599535867,1.4199244732567196,7.420255711176486,-16.46728502818529
-16.543594285523856,23.446603010992266,-25.846148978531396,1.4337289235409716,7.190693221524949,-16.635277087244305
-16.719651350340868,24.060969778187967,-26.229221054968832,1.4478136477041084,6.955050166465193,-16.8066292368283
-16.898465510668796,24.67458514084221,-26.606820577101843,1.462112208751831,6.714574753717237,-16.98051659694992
-17.081887358763996,25.293423533851882,-26.98260123394219,1.4767736580170396,6.466897444345712,-17.158733757750966
-17.268847594796686,25.913441510689925,-27.354061775372127,1.4917136477961632,6.213584384632296,-17.34023596379938
-17.458754494209373,26.532391677500478,-27.71988639871287,1.5068861566872693,5.955579806856038,-17.5244451794986
-17.651311846075274,27.149107263787222,-28.079457624194216,1.5222688507373576,5.693438511803074,-17.711071742308942
-17.848348633442242,27.76912385147192,-28.436023107528406,1.5380092060732997,5.424822382700519,-17.90188432148594
-18.009772434350314,28.26894873880391,-28.719890855934825,1.5509054421510537,5.204594722564029,-18.058094925512478
-18.096259642543025,28.36027986031423,-28.77233673350693,1.5580030053817242,5.163378933634526,-18.143844079571952
-18.52571325180065,28.21933936136918,-28.700593358916993,1.5938417894859134,5.2207469779894895,-18.57680036228625
-19.142850540855637,28.01015125998039,-28.59366756984261,1.645207607324096,5.305537988061315,-19.199176741099926
-19.76177194002581,27.792380370267605,-28.4817922922922,1.696557181307179,5.39335345562562,-19.823602207904205
-20.3825601489468,27.56581323693748,-28.364787813102463,1.7478913028826608,5.484221469469718,-20.450169243441813
-21.002776788068683,27.331191406665702,-28.24296286321584,1.799000249076353,5.577753243832098,-21.076429558627424
-21.612119085244316,27.09252623340207,-28.118353712914292,1.8490410774039006,5.672369122690928,-21.691968470132032
-22.033617291722663,26.92263739254327,-28.029229462365077,1.883552124128343,5.73937318291894,-22.11790940910784
-22.296295635222798,26.814757085882096,-27.972451865020613,1.905015946891446,5.781771093508737,-22.383422123072638
-22.854785399882847,26.580214457735366,-27.84851945798838,1.950538107204969,5.8735446047462245,-22.948108149173997
-23.455978194174147,26.319772972201935,-27.710107296669662,1.9993627051130167,5.974768622178368,-23.55623917983413
-24.055484026949436,26.05171504307429,-27.566778562020108,2.047869827803733,6.07826707203958,-24.16293386042824
-24.508278795830595,25.843645710680164,-27.454913872282916,2.0843822213303116,6.158097982702769,-24.621343796798193
-24.560152305945238,25.78011129529988,-27.351711889406936,2.0883590346396184,6.116569941414468,-24.672008953099184
-24.47922406291293,25.60684047339218,-26.89033008078669,2.080816291802025,5.831591890766202,-24.580180741909672
-24.37861341598658,25.387406668197794,-26.310854512217812,2.071509245606629,5.475429994104233,-24.466056243015903
-24.279848817840342,25.167619756610534,-25.735557902203556,2.0624486904230923,5.123712815859662,-24.354063269159695
-24.18135768230569,24.944072397491066,-25.155364630597163,2.0534880952870616,4.770833022091372,-24.242414815797257
-24.083689128982538,24.71803457164933,-24.573494592647606,2.044676387029344,4.418719835074124,-24.131730235520333
-23.986864975010313,24.489617390102527,-23.990119854246757,2.0360139183841754,4.067433816516828,-24.02203093787359
-23.890471968319492,24.25787939410172,-23.4027533369319,2.0274626043920456,3.715445357423095,-23.91284566216874
-23.796242386927503,24.02710694826649,-22.822090369714083,2.019173583832001,3.36909864868037,-23.80613314225863
-23.702716351356383,23.7938641565853,-22.239304519049924,2.0110156620570083,3.023058750838685,-23.700236732904102
-23.609292717856366,23.556652107323004,-21.650607519891214,2.0029359715981805,2.6750590458257624,-23.59447316676308
-23.530739698615864,23.35388916030841,-21.150455023991675,1.9961963400786389,2.3805891156262877,-23.50555572877772
-23.49785102827935,23.268089534712125,-20.939630110930995,1.9933893149407496,2.25678327509903,-23.468330369805035
-23.475574899387748,23.20966973174817,-20.796353373856306,1.991493023893441,2.172751310170731,-23.443117740961828
-23.52067315113705,23.31260125998803,-20.842788057104876,1.9950267802208248,2.114721951231933,-23.486213323253136
-23.734708099250405,23.802357370886366,-21.15199146610658,2.0119067680927056,1.9268066809774633,-23.693722791954485
-23.996010790169326,24.389974602438052,-21.518753142751358,2.032500514932939,1.6968815990957653,-23.946895313654213
-24.2642575433754,24.981734755387212,-21.883464823133664,2.0536264165767104,1.4604301135419742,-24.20661449271586
-24.535388043129025,25.568369361210973,-22.24044969354951,2.0749648028862238,1.2211812828082755,-24.468945225098953
-24.743711422073716,26.01146269382166,-22.50708461346634,2.091350720315794,1.0372826303422158,-24.67038779860489
-24.831623462225025,26.196491323939703,-22.61766554429503,2.0982631767087137,0.9596783043673521,-24.755365732962836
-24.852447867786434,26.240152877074415,-22.643694489334507,2.09990038309679,0.9412965024350859,-24.775492514099955
-24.852447867786434,26.240152877074415,-22.643694489334507,2.09990038309679,0.9412965024350859,-24.775492514099955
-24.852447867786434,26.240152877074415,-22.643694489334507,2.09990038309679,0.9412965024350859,-24.775492514099955
-24.852447867786434,26.240152877074415,-22.643694489334507,2.09990038309679,0.9412965024350859,-24.775492514099955
-24.852447867786434,26.240152877074415,-22.643694489334507,2.09990038309679,0.9412965024350859,-24.775492514099955
-24.852447867786434,26.240152877074415,-22.643694489334507,2.09990038309679,0.9412965024350859,-24.775492514099955
-24.852289685904825,26.23998583869129,-22.643550353217925,2.0998869835226777,0.9412905285284221,-24.77533478159313
-24.215618357429946,25.56766769322493,-22.063412274881642,2.0459546079286968,0.9172459600033372,-24.140472156091864
-23.584550358073837,24.901266603660225,-21.48837997788317,1.9924968898810735,0.8934130071501686,-23.511196941357795
-22.442584575867762,23.69536289394241,-20.44781508233211,1.8957610628901749,0.8502854572268342,-22.3724753399616
-20.841796752866845,22.004947993332394,-18.989169263170616,1.760158458759772,0.7898300059086967,-20.776235153340846
-19.21129175900577,20.28315207663506,-17.50344501024692,1.6220385155428754,0.728252254089247,-19.150362218595657
-17.586425777940725,18.567310897422704,-16.022859053805078,1.4843962526336858,0.6668874655736616,-17.530112276922093
-15.959341007267042,16.849126700002778,-14.540251325245954,1.3465660362402023,0.6054388821133357,-15.907649848941437
-14.332431438869984,15.131127514321923,-13.057803241871923,1.2087506612170855,0.5439969153529576,-14.285362125509819
-12.704384191506442,13.411926951763126,-11.574318499770131,1.0708389135027838,0.4825119829388024,-12.661939955114228
-11.070658091779697,11.686729581560494,-10.085659159174893,0.9324461106743323,0.42081258263723975,-11.032855065259016
-9.448625173462412,9.973880086451663,-8.60765470358724,0.7950438362762632,0.3595547877435247,-9.415430137959138
-7.817428514127602,8.251353778376881,-7.121300201646767,0.6568653021342742,0.2979509144432797,-7.788867502674621
-6.193215646920648,6.53620228044624,-5.641309365797955,0.5192783644460031,0.23661079146580374,-6.169268819445027
-4.5647235074095915,4.816531916515567,-4.157419235760531,0.3813289299546695,0.17510905722745945,-4.545403020784419
-2.946328518095095,3.1075240357077196,-2.68272967915829,0.24423482422163634,0.11398865258407427,-2.9316056875897023
-1.4860916942167028,1.565529493997575,-1.352154628841548,0.12053828360589486,0.058841258937963825,-1.4755172124234286
-0.8518523180420539,0.8957794642719846,-0.7742325575264074,0.0668119184901883,0.034888535672932944,-0.8430796303525218
-0.2200381801228926,0.2285904603273877,-0.19852037536147665,0.013290995106581082,0.011027404104929509,-0.21306039674098942
-0.005664009127787974,0.0022136177820054545,-0.0031815654547243206,-0.004868623193573675,0.002931335986317183,0.000704764262298996
-0.005664009127787974,0.0022136177820054545,-0.0031815654547243206,-0.004868623193573675,0.002931335986317183,0.000704764262298996
-0.005664009127787974,0.0022136177820054545,-0.0031815654547243206,-0.004868623193573675,0.002931335986317183,0.000704764262298996
-0.005664009127787974,0.0022136177820054545,-0.0031815654547243206,-0.004868623193573675,0.002931335986317183,0.000704764262298996
-0.005664009127787974,0.0022136177820054545,-0.0031815654547243206,-0.004868623193573675,0.002931335986317183,0.000704764262298996
-0.005664009127787974,0.0022136177820054545,-0.0031815654547243206,-0.004868623193573675,0.002931335986317183,0.000704764262298996
-0.005664009127787974,0.0022136177820054545,-0.0031815654547243206,-0.004868623193573675,0.002931335986317183,0.000704764262298996
-0.005664009127787974,0.0022136177820054545,-0.0031815654547243206,-0.004868623193573675,0.002931335986317183,0.000704764262298996
-0.005664009127787974,0.0022136177820054545,-0.0031815654547243206,-0.004868623193573675,0.002931335986317183,0.000704764262298996
-0.005664009127787974,0.0022136177820054545,-0.0031815654547243206,-0.004868623193573675,0.002931335986317183,0.000704764262298996
-0.005664009127787974,0.0022136177820054545,-0.0031815654547243206,-0.004868623193573675,0.002931335986317183,0.000704764262298996
-0.005664009127787974,0.0022136177820054545,-0.0031815654547243206,-0.004868623193573675,0.002931335986317183,0.000704764262298996
-0.005664009127787974,0.0022136177820054545,-0.0031815654547243206,-0.004868623193573675,0.002931335986317183,0.000704764262298996
