RAMEL-ESPOL/ARCHIE/matlab/data/joint_goals_square_t35_h35_p12.txt
Joint0,Joint1,Joint2,Joint3,Joint4,Joint5 
-0.0054557499527576325,9.575622836002578,14.252109981912161,0.002345109439472736,-23.82446840648131,0.0032485676061926286
-0.0054557499527576325,9.575622836002578,14.252109981912161,0.002345109439472736,-23.82446840648131,0.0032485676061926286
-0.0054557499527576325,9.575622836002578,14.252109981912161,0.002345109439472736,-23.82446840648131,0.0032485676061926286
-0.0054557499527576325,9.575622836002578,14.252109981912161,0.002345109439472736,-23.82446840648131,0.0032485676061926286
-0.0054557499527576325,9.575622836002578,14.252109981912161,0.002345109439472736,-23.82446840648131,0.0032485676061926286
-0.0054557499527576325,9.575622836002578,14.252109981912161,0.002345109439472736,-23.82446840648131,0.0032485676061926286
-0.0054557499527576325,9.575622836002578,14.252109981912161,0.002345109439472736,-23.82446840648131,0.0032485676061926286
-0.0054557499527576325,9.575622836002578,14.252109981912161,0.002345109439472736,-23.82446840648131,0.0032485676061926286
-0.0054557499527576325,9.575622836002578,14.252109981912161,0.002345109439472736,-23.82446840648131,0.0032485676061926286
-0.0054557499527576325,9.575622836002578,14.252109981912161,0.002345109439472736,-23.82446840648131,0.0032485676061926286
-0.0054557499527576325,9.575622836002578,14.252109981912161,0.002345109439472736,-23.82446840648131,0.0032485676061926286
-0.0054557499527576325,9.575622836002578,14.252109981912161,0.002345109439472736,-23.82446840648131,0.0032485676061926286
-0.0054557499527576325,9.575622836002578,14.252109981912161,0.002345109439472736,-23.82446840648131,0.0032485676061926286
-0.0054557499527576325,9.575622836002578,14.252109981912161,0.002345109439472736,-23.82446840648131,0.0032485676061926286
-0.0054557499527576325,9.575622836002578,14.252109981912161,0.002345109439472736,-23.82446840648131,0.0032485676061926286
-0.005454701980828387,9.575625018274907,14.25210467556056,0.0023451116202719024,-23.824455049718225,0.003249621908161743
0.012793759473668164,9.61354164859769,14.159812221493787,0.002321051126450927,-23.592031696025366,0.021583229512968614
0.053795035448869793,9.69812680697642,13.953226363849499,0.0018171841352821348,-23.070965061655382,0.06259731706693482
0.09678632163713921,9.785923938764295,13.737754481287658,0.0006297260390864301,-22.526275248293977,0.10534899974994734
0.1398146669213841,9.872891778423389,13.523243664480955,-0.001223287097192499,-21.98277278379643,0.147893198878706
0.182907686966823,9.95909343629463,13.309538321594792,-0.003734716957810397,-21.44006375973601,0.1902711701792853
0.22625485508271362,10.044908108087474,13.095689969392765,-0.006912701401408912,-20.89573006901547,0.23268119664591233
0.2699074592584871,10.130429795777362,12.881446351668586,-0.010763893042912136,-20.349109305155775,0.27518353660123795
0.3139564747497407,10.215824700426666,12.666367174578117,-0.015302619875975617,-19.7990511698236,0.31787599563081026
0.35821451412161304,10.300720171173795,12.451370210210245,-0.020514110074003597,-19.247879561182774,0.3605869441480896
0.4023868026308285,10.384556142463238,12.237872281218994,-0.02635777176642133,-18.69922508595192,0.4030448694549023
0.446801238746922,10.467958870389038,12.024275273104957,-0.03287235268436508,-18.148977304185376,0.4455774897103848
0.491189482155166,10.550426245489103,11.8118591179443,-0.04001561526932026,-17.600426905822303,0.48793980919731944
0.5357853215602084,10.632395297183363,11.599493480961453,-0.04782186969498778,-17.0506498157924,0.5303669927368785
0.5805904636515639,10.713864572108239,11.387167320000167,-0.05629348217877642,-16.499601280100833,0.5728715618559314
0.6252513692520071,10.79419668645866,11.176541417532787,-0.06535873549885388,-15.951591120301996,0.6151303180584888
0.6702581585082732,10.874274513392026,10.965294629369158,-0.07511540291495135,-15.400573315252322,0.6576186253374149
0.7150830983438251,10.953161244886143,10.75589342919711,-0.08544696236160224,-14.852976194771811,0.6998498088512574
0.760299452115189,11.03186631592692,10.545651115235374,-0.09648475134252515,-14.301766116072363,0.742375348678079
0.8054657093678256,11.109617753127745,10.336616549636025,-0.10812324696570201,-13.752300572134859,0.7847909718348063
0.8507860831283948,11.186770246385748,10.127833161418684,-0.12041284411584123,-13.202061875559053,0.8272999256351775
0.8960069389626236,11.26289634096755,9.920456788924565,-0.13328189898096243,-12.654095108098176,0.8696756905448425
0.9415675084312348,11.338734256726463,9.71246672634423,-0.14685664979833468,-12.103050540137401,0.9123409833056237
0.986995652186925,11.413497691066352,9.506011125793663,-0.1609972967108946,-11.554610649857256,0.9548647439201197
1.032664469406226,11.487802794725651,9.299384428604437,-0.17581926078152327,-11.004240296112583,0.9976073802258645
1.0782266653986132,11.561085720529434,9.094149113967264,-0.19120994354209805,-10.456095499221313,1.0402548967236498
1.1240311538750758,11.633908622284121,8.88872497418028,-0.20728770903791519,-9.905949648417076,1.083144960238386
1.1698469881460234,11.70590182497496,8.684142985995004,-0.2239746535433731,-9.356551624541476,1.1260724320609379
1.2158696532160649,11.777370809561692,8.479524625905096,-0.24134477364438295,-8.805531450506425,1.1692316574716888
1.2616766731433322,11.847663891361595,8.27673638012698,-0.2592372500656452,-8.257915777909409,1.2122372853714318
1.307887797021085,11.917730863799461,8.073028612698257,-0.2778970399256008,-7.7062696236106785,1.2556823869973517
1.3538421808246068,11.986569455062407,7.871307577590749,-0.2970596690626525,-7.1584553275125815,1.2989567674933762
1.4000624682788438,12.054965877718224,7.6692685798566265,-0.31694307309015407,-6.608212830955676,1.3425634643444109
1.44636697790403,12.122645124371495,7.467704918913462,-0.3374761588505454,-6.057683888015139,1.3863428783436167
1.4926586384393086,12.189466596376528,7.267030837464085,-0.3586177482697161,-5.507995180796501,1.4302143247967256
1.5389666222338219,12.255475327581802,7.0671100220745675,-0.3803820258935377,-4.958771831533897,1.4742163357778766
1.5852806301893956,12.320658855207485,6.867977884519051,-0.4027657221766062,-4.410108435406083,1.5183500822815943
1.6317855768298521,12.385274850848893,6.6688350508867185,-0.4258635450366409,-3.8597906149328916,1.5628035294349476
1.6784505231897684,12.449273371520746,6.469813924769923,-0.4496689678267469,-3.3081638383338885,1.607559749195757
1.7247305431364135,12.511915501937152,6.273223799521204,-0.4739015379282698,-2.7616386692905577,1.652106007727818
1.7714107678402697,12.574265705829239,6.075721236921435,-0.49897511799662764,-2.210917109324195,1.6972092470748237
1.8180542518701046,12.635732633775715,5.879155639653066,-0.5246651681569724,-1.661134080207408,1.7424605178987433
1.864588542940203,12.696226654299757,5.683820350931885,-0.5509318350826133,-1.1131153827206248,1.7877999156823288
1.9112902968055194,12.75610760114988,5.4885474295930115,-0.5779358855637861,-0.5635783248577411,1.8335087329462652
1.9582649750693804,12.815500458705326,5.292898871624247,-0.6057512570638249,-0.01126296438763848,1.8797047405005807
2.004936249424283,12.87367876916247,5.099266675501346,-0.6340401801800638,0.5370797291456046,1.9258325985869482
2.0516906753757915,12.931131659439957,4.906034212592784,-0.6630367087755813,1.0860188941669346,1.9722844517878122
2.098567344991616,12.987902777564488,4.713037619278263,-0.6927742858174261,1.6360352920245274,2.019112668353618
2.145431022815809,13.043826430317129,4.520829193443491,-0.7231746235502576,2.185564966486911,2.0661951215063783
2.1923452248410196,13.098978348301733,4.329142353731877,-0.7542852108670344,2.735376136381231,2.1136081718042727
2.2393119444936653,13.153358783267832,4.137964706642883,-0.7861155774761528,3.2855146690462256,2.1613672252383984
2.2861098563847566,13.206715215068591,3.9481879247106924,-0.8185193765797509,3.8334123298095357,2.209258659193267
2.3330898652628194,13.259447799310085,3.7583830015034643,-0.8517465404045225,4.38320026049402,2.257654502486127
2.38007666087047,13.311355091580609,3.569256312063199,-0.8856842989404994,4.932848168346007,2.306389080076851
2.427299669585566,13.362684295852553,3.3798838020256476,-0.9205113206046027,5.485060887262936,2.355716276766182
2.4740661583410883,13.412688300486728,3.1930327914400043,-0.9557195416170235,6.031761324119602,2.4049234941898128
2.5212900082058574,13.462344279909699,3.0050461938092217,-0.9920051817442653,6.583654941784779,2.454986061535098
2.5682788115219237,13.510917951276518,2.8186797992076245,-1.0288501494333,7.132670481691822,2.5051866300308867
2.615321436804892,13.558712581620583,2.6327784916563246,-1.0664856410338694,7.682205495610132,2.555845778000278
2.6622809817196873,13.605589354341701,2.4478775451512047,-1.104810980540223,8.230682172753038,2.6068302319429892
2.7094237065371822,13.6518108733141,2.2629256631993155,-1.144055844369926,8.781231354428735,2.6584452622703503
2.75648912500352,13.697118283923986,2.0789421455037482,-1.1840163776561894,9.330831817297149,2.7104222916868905
2.8035950891330335,13.741625171325975,1.8954608278816067,-1.2248026962951526,9.880880701620725,2.7629065186888537
2.850667963359716,13.785260960715444,1.712764022198704,-1.2663625163040022,10.430538845088584,2.8158318228530974
2.897966579641655,13.828259296459454,1.529846795626916,-1.3089413579781182,10.982849203371783,2.8695085848026824
2.945473026035428,13.870591166478691,1.3467829995398393,-1.352546938891316,11.537623569124253,2.92394024000823
2.9928669780082116,13.911967295382073,1.1648047217556206,-1.3969009454895958,12.091141916822021,2.9787787167274864
3.040389386125155,13.952596150817442,0.982983044646037,-1.4422431715322919,12.646238860071312,3.0343210301742096
3.08785672275269,13.992317381473224,0.8020176394166498,-1.4884148407552689,13.200791155313077,3.0903722874957538
3.13542199904084,14.031256268424436,0.6213221631129491,-1.535580973849587,13.75660676558455,3.147132830483137
3.1829198113147115,14.069274845300098,0.4415218698218859,-1.5835940339847432,14.31177305894982,3.2044252326004283
3.230570049153318,14.106544930941661,0.2617825043934663,-1.6326951061719865,14.868880541841712,3.262536402752494
3.277817052198586,14.14263682628887,0.0841916056299446,-1.6823210422072845,15.421450994468852,3.320804004464508
3.325336704669974,14.17806838779083,-0.0937972520564035,-1.73319537022505,15.977407922771139,3.380079849234988
3.3726895589790233,14.212506930498451,-0.27053917303556413,-1.784868964537381,16.531629970839425,3.4398394846589158
3.420235801009368,14.246211369628645,-0.44738104247698146,-1.8377547544951347,17.088352280789213,3.500560346536423
3.4676250878159878,14.278929947108807,-0.6230219936151615,-1.8914839451980916,17.643492043660043,3.5618187179136225
3.514994051433207,14.310759513414691,-0.7979747453902277,-1.946226088776889,18.198667299108145,3.6238105048475626
3.5622655228954336,14.34164890908544,-0.9719592211900919,-2.0019093005112523,18.752991290482203,3.686455985119364
3.6095777130957907,14.371687289433838,-1.145487698508523,-2.0587165632672866,19.308102804352785,3.74996182560036
3.657003747366063,14.40091408472335,-1.3188279017099442,-2.1167638197652976,19.864879836002793,3.814455813247288
3.7040195074713207,14.429011694817822,-1.4900721283568579,-2.1754228570384697,20.41718437448954,3.8792436556803445
3.7514209850515656,14.456453541298485,-1.6621222526210633,-2.235710633609876,20.974385033958573,3.9454488916205066
3.798625616486856,14.482894056039598,-1.832862295904269,-2.2969186221374294,21.529653994968758,4.012291242170813
3.844778661678571,14.507886280377177,-1.9992258966143548,-2.3579181184463733,22.072939088656,4.078552476894057
3.8713087871270284,14.52186685426998,-2.094600924414276,-2.393509359992653,22.385414521478886,4.1170586167445915
3.8827057203430684,14.527786074723311,-2.1355153800700712,-2.408918517727609,22.519690329608103,4.133695520612995
3.8742738535898735,14.44652452615774,-2.235193716914074,-2.407453281061876,22.708421765535505,4.133248485133968
3.8485945853842156,14.215463310495212,-2.5008971814861742,-2.4003237023656636,23.205802905127367,4.12862164543935
3.821456845029849,13.96235844170804,-2.780121577929435,-2.393063216386592,23.738778707550747,4.12392239011062
3.7946247483546713,13.702789519635195,-3.054449503597607,-2.3861719265844066,24.273309720332342,4.119477953815135
3.772674542153346,13.483340026442589,-3.27744752746724,-2.380754796705117,24.716272180261697,4.115998501404243
3.7638428451190347,13.393196653734464,-3.366786419701541,-2.378632708793957,24.895960642937915,4.11463964736103
3.756366140879707,13.316041203789917,-3.442238376352947,-2.3768624838102417,25.04874216260427,4.1135081560782645
3.7335293351772307,13.075519832979813,-3.671630001632592,-2.37160758015705,25.51918439251782,4.110161912405249
3.7079915803218144,12.797677475225495,-3.926125224121321,-2.3660101665206335,26.05210912918227,4.106622704040303
3.682765204609917,12.513739014859357,-4.175245343262803,-2.3607810226719788,26.5857427613122,4.103346652507501
3.6586768961500846,12.233535547607525,-4.4108494622132595,-2.3560768163734163,27.102094769136187,4.10043217418262
3.646674670203004,12.090526942615353,-4.527358022141878,-2.353841657455402,27.361881456197985,4.099060999285167
3.6409445770924997,12.021837062143874,-4.585046857252807,-2.3528408918589228,27.488386842316743,4.0985131683873535
3.6532750142960344,12.23877586058935,-4.859886588787067,-2.36203582702633,27.545735741340877,4.1149739073867835
3.6795288537700652,12.696050147654299,-5.43678149992828,-2.381573435870376,27.664176107658424,4.149919449250748
3.708021662534919,13.185369694821512,-6.050444847042787,-2.4027152111584225,27.78723151223178,4.18768903359993
3.737127324762474,13.677968603801025,-6.664378622737514,-2.424244754374168,27.90724226386983,4.226105175308846
3.7667305715090484,14.171706956783908,-7.275841946158887,-2.4460726328306777,28.023612216073936,4.265008179115318
3.7970461468562515,14.6699503570013,-7.8889150979122205,-2.468352623386715,28.137045744692664,4.3046718543480225
3.828076094128564,15.172444194453542,-8.50315831578132,-2.491080791430187,28.247357030949015,4.345088520308202
3.8597937139353196,15.678485537041478,-9.117596104096238,-2.5142321439966953,28.354274178440942,4.386213196015395
3.8920987599617423,16.18625902247872,-9.729938673626723,-2.537728497196082,28.457326915695337,4.4279068034332925
3.925083803222278,16.69701322571699,-10.341612224379604,-2.5616321343340873,28.556687998725074,4.4702797300884445
3.958957426333761,17.213676088604416,-10.955991466311525,-2.58608791891771,28.652793675064945,4.513588113783933
3.993370472336294,17.73067633971502,-11.566351907538921,-2.610837974022497,28.744506715578183,4.557374947027972
4.027919167853354,18.241965103460032,-12.165601970655825,-2.635589224757558,28.83080348366246,4.601122791679701
4.052821466421649,18.605817342524546,-12.58939617811872,-2.6533698822695766,28.889538945201576,4.632525700402397
4.038208401609795,18.681696896453882,-12.676894007326267,-2.644123465670759,28.901817761877773,4.616557369217571
3.684213666690098,18.702364871363827,-12.69057464567298,-2.412695667731089,28.910396956403638,4.214444988256807
3.125266799751856,18.73111620447515,-12.709589730306565,-2.0470606453796343,28.922285722673536,3.5794521671845683
2.5511013765879667,18.755714752513793,-12.725853448610083,-1.6712355219420698,28.93249808711886,2.9270975728790973
1.979156792972186,18.775256067165877,-12.73876446892308,-1.2966688046488943,28.94058897577572,2.2772045720854686
1.40750435504462,18.789849662320012,-12.748406737658163,-0.9221432698639439,28.946663427496183,1.6275970724728164
0.8340531649618481,18.79953487083625,-12.754801361464873,-0.5463318380324143,28.950670333605533,0.975911532273556
0.2608864024116214,18.804263242105193,-12.757925863277743,-0.170642598311132,28.952650853899502,0.3245294327910383
-0.3154378276840123,18.804026706272722,-12.757768176076256,0.20713541759394347,28.95253685539129,-0.3304471761309183
-0.8842995499711317,18.798886533399514,-12.754376327141424,0.5799992593600041,28.95041716263068,-0.9769356992434651
-1.456386179252348,18.78879713928844,-12.747711607825957,0.9549079902249034,28.946210772725543,-1.6270675883727064
-2.029489349698291,18.77373925155012,-12.73776703354406,1.3303736865019156,28.939976087415104,-2.2783206283542907
-2.602951842951125,18.75370340764806,-12.7245257184467,1.70591712264909,28.931648903336143,-2.9299324006480765
-3.1766395683943123,18.72867851650002,-12.707984105074601,2.081411633874858,28.92129316811008,-3.5817389738188052
-3.7247514031495284,18.70010279148978,-12.68908480756145,2.4399397207123026,28.909476302978195,-4.2044162867023
-4.034234238008873,18.681948840643532,-12.677070871337063,2.6422630668125966,28.90196116966682,-4.555965504481373
-4.060130005002671,18.686385114090218,-12.563313867047958,2.6561564367968926,28.782706014573503,-4.579095269956461
-4.068228698208888,18.707069530339023,-12.107314024641335,2.649424560351704,28.306159879930753,-4.563133285334697
-4.077595977613906,18.724883515618536,-11.578096759370748,2.642045396471662,27.759282236146785,-4.545051587519373
-4.08695917398421,18.73629149127956,-11.0472552414654,2.6350900812312847,27.21717998642511,-4.527368399454486
-4.096430857686371,18.741480661020404,-10.508440932214125,2.6284660313036055,26.673319357828937,-4.509860078462627
-4.105996551489014,18.74039622181468,-9.962482746423113,2.6221810464337807,26.12858395198828,-4.492548408254738
-4.11549118225301,18.733187824400094,-9.418857326327952,2.6163302812538376,25.592298636264314,-4.475717095640116
-4.125001300672085,18.71999254154398,-8.872683312262017,2.6108430623886076,25.059446498789498,-4.45919407656421
-4.13440507306315,18.701206224341853,-8.331036905650436,2.6057714587635714,24.536706596764564,-4.443171759513017
-4.143816113421568,18.67682978233437,-7.787452092684696,2.6010364252085636,24.017613777768048,-4.4274378477262495
-4.152905507097301,18.64811572595681,-7.261049932284552,2.5967758083133483,23.52003300028865,-4.4125151102649545
-4.157262708141176,18.632583986491927,-7.008234235842904,2.5948393637964533,23.282799061584953,-4.405453485311086
-4.172969750568042,18.85268451686449,-7.260915774863335,2.6052552502367132,23.314648790646505,-4.42379677734791
-4.208354428181179,19.34367367243555,-7.823708582037588,2.6287091027061362,23.38479516925386,-4.465087117436989
-4.247031490672707,19.87187073001506,-8.424824739917465,2.654265341326615,23.45589053008904,-4.510010289228212
-4.2866942770333125,20.404622979086703,-9.026569161316749,2.680386893832612,23.52299922445636,-4.5558554655889
-4.327191730532628,20.939581304934254,-9.626188590895728,2.706969052028653,23.585723412363468,-4.602436625707187
-4.357071198504991,21.32861762466961,-10.059335712744328,2.7265244319351756,23.628396226301263,-4.636658908879718
-4.344031316589396,21.3895330897082,-10.126421291475841,2.718515595460905,23.635167715205476,-4.623035129043802
-4.007415430860109,21.15248750494416,-9.854149026687793,2.507716979851442,23.615044280331496,-4.261343520748356
-3.489324818015372,20.7812965203654,-9.42752586916905,2.1832405142261235,23.58044460133759,-3.7049765190571056
-2.967750172822258,20.399654272205456,-8.988483394801406,1.8565822399344851,23.541098210684147,-3.1452996472992534
-2.4424908052869827,20.00703118916514,-8.536300400621382,1.5276655249470497,23.496762122277342,-2.5821637176142196
-1.9247488933619197,19.611668417334965,-8.080366081917868,1.2035538216280668,23.448294119000554,-2.02763254956612
-1.415852885030075,19.21474898082596,-7.62196317133496,0.8851223841093535,23.39590187258178,-1.4831632457205797
-0.9101229460566721,18.81190720567582,-7.1559615334814195,0.5688597071629116,23.339025789287298,-0.9427190240493092
-0.4072342463564975,18.402800454650322,-6.681862821604674,0.25460695395579247,23.277567270718873,-0.40600425318064687
0.0942041846766877,17.9861642078849,-6.198092134802583,-0.058460098492857465,23.211265612513486,0.12840925195971845
0.5175155922898217,17.627486114312564,-5.780804932430536,-0.3224954790332286,23.151268098407556,0.5789205719930307
0.7154146774523623,17.457571584978766,-5.582852922054078,-0.44584671901539785,23.12194065542643,0.7893274413118861
1.1554827650593111,17.07452707027293,-5.135926749751094,-0.7199153944046666,23.053671147723968,1.256684969624576
1.6505769937955683,16.634808054954327,-4.621681096677751,-1.0278528438737728,22.97175765802693,1.7815797210414712
2.142543585106001,16.188391026517134,-4.0982378849568875,-1.333376161679362,22.884824971909335,2.3021383807406695
2.6237144811792095,15.742353397841715,-3.573808106693405,-1.6316948368192035,22.79427773197495,2.8102133869665944
3.091040506639583,15.299964785835307,-3.05220437532057,-1.920918734828144,22.700959551584905,3.302602982937743
3.548340658902873,14.858034829299147,-2.5296287373244186,-2.203391496636939,22.604276138037907,3.7833142060806977
3.850576024401475,14.56092264371192,-2.1774252235169222,-2.389764820797147,22.537380970464415,4.100382193872084
3.8793998430149,14.491676496474119,-2.182011183662634,-2.4089088507386482,22.609970744266853,4.134197353884626
3.856492529042322,14.287378621639496,-2.4193394072948755,-2.4024930629367693,23.052147774724894,4.130031402285217
3.8292628940327265,14.036108781370533,-2.6999926600986424,-2.3951251726220675,23.5847210789909,4.1252584270938115
3.8024021873397076,13.778988549353313,-2.975135902546887,-2.3881422912071693,24.117620879480185,4.120749795996017
3.7770264291084694,13.527356875267875,-3.233353491491646,-2.3818156315113894,24.628066561013433,4.116681632954558
3.7652043215096045,13.407153931877078,-3.3530395693496433,-2.3789605770104583,24.86823184671497,4.114852307970705
3.7588422092905387,13.341670138046316,-3.4172797160400794,-2.377448949265996,24.998104035078704,4.113885669344139
3.740828550847482,13.153192311384615,-3.5984996324590437,-2.3732648571564177,25.36821989748812,4.111217886342859
3.715223266198171,12.877315945519396,-3.8542932122577223,-2.367567564485552,25.900479970725662,4.107607242776248
3.6899688503854775,12.595793344978816,-4.104354361204135,-2.3622459925245147,26.432640832885035,4.104263783220207
3.665005326847625,12.3080188975045,-4.349182600621367,-2.3572875377451754,26.96580906775534,4.101181546397041
3.648235456417239,12.109249283018329,-4.512246269582064,-2.354130919975808,27.328019472077337,4.099240598932705
3.641509597536423,12.028273419565776,-4.577312741601189,-2.352905266769124,27.474212417068376,4.098492316560113
3.4810505232854116,12.02987346024943,-4.590427403011518,-2.24965357765097,27.492118056240262,3.919812798932689
3.0005314755931405,12.055283498177417,-4.609486375594284,-1.939438982085811,27.50319260294566,3.3827565236625436
2.459306157162718,12.079373358632413,-4.627547570387172,-1.5898357462536876,27.5137035980278,2.777768817008538
1.9167311604435848,12.098716791605634,-4.642044727845464,-1.2391870098240783,27.52215079909659,2.1711997786656583
1.3728051964979504,12.113285232901195,-4.652956353048761,-0.8875287908012814,27.528486257609032,1.563062057140651
0.8300512732609098,12.12301713411905,-4.660246876805318,-0.5365315695642537,27.532744047107972,0.9561956747448952
0.2844210392022391,12.127966210606292,-4.663954656512525,-0.18361495637696928,27.534914354568578,0.3460884256289264
-0.2552882847731021,12.128094396203739,-4.664050626576259,0.16549197785411607,27.53496702723897,-0.2574070431867548
-0.7994010910446987,12.123425127956876,-4.660552954870345,0.5174287114699107,27.532917110516358,-0.8658188851358039
-1.3436513790687772,12.11393264785343,-4.653444734671767,0.8693982396041148,27.52878161735501,-1.474360348922493
-1.885601709252555,12.099684130994579,-4.642772002270187,1.2197856737386195,27.52257158723189,-2.0802906165861317
-2.429070028226066,12.080581944833947,-4.628455007839489,1.5710188402786436,27.514215590410625,-2.68786215434129
-2.970887479601817,12.056732359053914,-4.610577236027018,1.9210158594961972,27.503826372620683,-3.293516515019204
-3.453109085014504,12.03146139470276,-4.591624824512193,2.2323408125024065,27.492820671551186,-3.8324803087962107
-3.6410437978064367,12.020731893341614,-4.583054306326592,2.35361110398707,27.48753591234703,-4.042482098972611
-3.647922991237106,12.084623598050458,-4.408455594323577,2.3529733170798908,27.248966552764408,-4.03912849248655
-3.6629582088339387,12.219394838251644,-4.025744894606033,2.3518080380439628,26.73130935009379,-4.031991331093864
-3.678787587672831,12.354217932940708,-3.6212585359543614,2.350910150697721,26.191811476492855,-4.024752110670426
-3.694755422728728,12.483069497974123,-3.211709910732654,2.35033376352832,25.653217336561127,-4.0177223652876854
-3.7108787966740637,12.60608396167754,-2.796716039641378,2.350075097485548,25.115009378009255,-4.010889374920748
-3.7272724844146667,12.724052590942533,-2.3733620919251375,2.3501330229850046,24.57348010138357,-4.004202395445799
-3.743743274569322,12.835555376065356,-1.9466882634557792,2.3505052876914205,24.035092195790348,-3.997736209449037
-3.76043923268814,12.941599361639454,-1.5129166918203247,2.3511923171211486,23.495058919597746,-3.99142749678756
-3.7771627271823007,13.040966014543253,-1.0772448067684068,2.352181878103915,22.959798892241817,-3.985344791848936
-3.792890086487707,13.128327871232955,-0.6665205088361911,2.3533781997918326,22.46150146399189,-3.979830224479633
-3.799455498891018,13.163089984304296,-0.4947925311293643,2.3539517277108946,22.254922353177356,-3.9775849832449044
-3.804665853071819,13.238093654217645,-0.5538334589153414,2.3569042135889298,22.2387642305988,-3.982363658159952
-3.8278678685113814,13.622408426700446,-1.0286085155317053,2.3727800720929384,22.328213629413824,-4.010842522994706
-3.8582424539294156,14.118641587363827,-1.638282588843586,2.393516833671397,22.440323947270485,-4.047981287452301
-3.8777365550911203,14.43310835068772,-2.0226686622746586,2.4067974405304002,22.509384997646247,-4.071731776070099
-3.8834356473988967,14.52617632938406,-2.1410941042612905,2.4107689202812375,22.534486199802494,-4.078905655061999
-3.868829533083014,14.397316070783006,-2.292689188863017,2.4066360042052266,22.81529365530679,-4.076223660747594
-3.841954654261531,14.153414215641488,-2.570474462796069,2.3992400001383696,23.337624871515903,-4.071432766486113
-3.814908676914677,13.89880812538215,-2.8483914574141562,2.392078404169062,23.870791098988146,-4.066807539998477
-3.788256211478708,13.638620433538545,-3.1204906597624165,2.3853079795289185,24.403706720847797,-4.06245181657452
-3.7685960723219596,13.440604517768199,-3.319973264736676,2.3805028417231098,24.801665740504156,-4.059373337190557
-3.761106813616573,13.363782554646944,-3.3956710491173476,2.3787157236997882,24.9543601651654,-4.058231678425514
-3.75131296252118,13.262145694644191,-3.4944088737180703,2.3764153969273303,25.15496265330391,-4.056765141369568
-3.7271518366209424,13.005615943557627,-3.7367048444909456,2.3709222031433805,25.654347293987122,-4.053278660039
-3.70168569180819,12.726079194564129,-3.989972674807797,2.3654205288541386,26.187736178200513,-4.0498139124587915
-3.6766086006092813,12.441347041658267,-4.23707587236193,2.3603029689422943,26.720141985812123,-4.04662270964052
-3.654110829154538,12.177605725586501,-4.456715354037574,2.356006223495391,27.204007056102647,-4.043952285796864
-3.644405728159093,12.061392686897834,-4.550799026582764,2.354218247945868,27.4145214482506,-4.042860471810984
-3.642095026612878,12.039429961825876,-4.607371696606948,2.354404190224331,27.493084690020197,-4.043916146720965
-3.659242723845626,12.34058116847414,-4.988616830770909,2.3671870393761254,27.572410422607323,-4.066796462031266
-3.686785726416202,12.81870319563748,-5.59096694245518,2.3876703371713033,27.69539869477173,-4.10342311998889
-3.71545948479548,13.309324194690968,-6.2053036644632265,2.4089303717113313,27.817815980108882,-4.141392519885444
-3.744626185743179,13.801144262553414,-6.817297598723553,2.4304883997830036,27.936661034954074,-4.179848227698881
-3.7745838688937345,14.298940213748857,-7.432787076447751,2.4525599280706283,28.05298129793915,-4.21917418887633
-3.8049287437245574,14.795798367041181,-8.043142554317393,2.474842984854645,28.165078955353508,-4.2588321804622336
-3.8360875379962134,15.298502047093383,-8.65661656057776,2.4976463011884875,28.274403050760323,-4.299371505572365
-3.868002231255216,15.805786672465967,-9.271517808350326,2.520921338818146,28.380528927304,-4.340704995590238
-3.900518693611684,16.31495863308766,-9.884480592864401,2.5445503394348674,28.482791130548758,-4.382623173736659
-3.9336502178303316,16.82603957839151,-10.49546285226212,2.568538101888578,28.58112482162042,-4.425134537293807
-3.967687730400526,17.343234487122842,-11.109370586350533,2.593089145252818,28.676216609493355,-4.468600991202291
-4.002028491265105,17.85721501868585,-11.715074228315363,2.6177638178166687,28.766293463204867,-4.512244220996228
-4.03604320412083,18.358811594842408,-12.301948300543149,2.6421102086838633,28.849929719664175,-4.555267175090775
-4.056013842477474,18.649920292051743,-12.640623567448175,2.6563608947041852,28.896527789799524,-4.580432204232195
-4.05961689367627,18.684911505656384,-12.592023434569452,2.6565777959540258,28.812860208054367,-4.580095280548778
-4.067256546231231,18.704851161546387,-12.161996653200546,2.650198884217956,28.363024497203973,-4.565011307886076
-4.07658649393477,18.723276193181146,-11.635088297898436,2.6428040531255075,27.817844779907084,-4.54695976368933
-4.083246337845239,18.73252403262597,-11.257839682370573,2.6377829086657654,27.431454155987332,-4.534313683724135
-4.086865691052683,18.736208751230762,-11.052433674063575,2.6351416803480268,27.22241964013793,-4.527522085865117
-4.090901683890233,18.739217957647853,-10.82306699044794,2.6322677124062563,26.990105375914347,-4.520014422290759
-4.093859362346473,18.74069363556269,-10.654772750818156,2.6302086641023044,26.82037992517893,-4.514555892994995
-4.096018772463503,18.74138442174937,-10.531790496821769,2.6287301843214905,26.6967389853924,-4.5105933852432045
-4.100005340941865,18.74180908122707,-10.304506850383978,2.6260551292155325,26.469089144536664,-4.503327842159617
-4.108742218951989,18.738930116593274,-9.805321267011314,2.6204346662458726,25.97290713400573,-4.487625441991453
-4.118133138589341,18.73011162264037,-9.267163452823237,2.6147538050552463,25.443696557938466,-4.471073776875833
-4.127565548931523,18.715424474752414,-8.725011202499545,2.6094106681113627,24.916355606380005,-4.454774684248616
-4.136969454620948,18.695104938771237,-8.182938721783792,2.60443305571748,24.39472153435252,-4.438835636284233
-4.146401757146521,18.669183100940852,-7.638045433326057,2.599815844178903,23.875861093952686,-4.42318173706306
-4.154848878065386,18.641340047233726,-7.148531810466846,2.595925885742055,23.414289326011854,-4.409373932384428
-4.1585506594514765,18.650377215580804,-7.027895135993065,2.59569590299748,23.284584256145095,-4.406923600344903
-4.181447216661064,18.970952003984895,-7.396829941718469,2.610898845642191,23.331875947196544,-4.433711541934984
-4.2187663438961485,19.486673821647035,-7.986890916501864,2.63561518907127,23.40446419488958,-4.477207468396444
-4.257778613987041,20.017054623209024,-8.589261600247278,2.6613699979462617,23.474610990929218,-4.5224604157743675
-4.297599466474489,20.54950991010833,-9.189423496473854,2.6875719064387127,23.540422931787152,-4.568427170100024
-4.3373556167736504,21.07239971200825,-9.774340019054128,2.713644616359094,23.600544625059488,-4.614097318128406
-4.360376787548576,21.371318219813748,-10.106725780400913,2.728703007293238,23.632902635585264,-4.640443192565883
-4.2802631499280155,21.369043467539832,-10.101900848887443,2.678655824407342,23.63406616968285,-4.55464410458174
-3.8367742248320424,21.1862895837287,-9.887214285050113,2.401184847267487,23.621435638273255,-4.078853950059929
-3.2635314657043737,20.94460272695695,-9.604649504115908,2.042441345935776,23.602384580971304,-3.4641358064588994
-2.693954915552103,20.698257234303213,-9.31807718373485,1.685932327501591,23.580348665813073,-2.853685902563599
-2.1199522482593207,20.44362326874323,-9.023233193828755,1.3266399674626226,23.55491886423236,-2.2388663025426836
-1.5473122849079124,20.18309867524394,-8.722867595951588,0.9682342126720569,23.526328937877093,-1.625906497137684
-0.983641471282186,19.92019432259512,-8.420945866303338,0.6155216139092639,23.494952260465364,-1.022973971454452
-0.4269903775122199,19.654149062790403,-8.11649931781525,0.2673242414958044,23.460756510086664,-0.4279987776134865
0.132095580339948,19.380393636476757,-7.804234540422817,-0.08222581673103008,23.423104960974648,0.1690907106251279
0.6830822093799205,19.104056187658582,-7.48994325429601,-0.42650431463666894,23.382756372859493,0.7570254795184665
1.2349315267108658,18.820633482178376,-7.168430810873418,-0.7710685917237287,23.33902045752387,1.3453375370282437
1.7834418077219132,18.532189027994377,-6.841978170950681,-1.1132522809264058,23.292184568141913,1.9295135649193933
2.331028202356132,18.23738572094514,-6.509006536231,-1.4545207518992564,23.242010990452282,2.5120934004963935
2.8738544829232473,17.938247058282418,-6.17173193166868,-1.7924441001831177,23.188832068879588,3.0889651581800894
3.415650113635993,17.632675116225,-5.827717898417908,-2.1293058515973735,23.132263454839617,3.6640612935846097
3.9008263681494384,17.352969459175863,-5.513196329758855,-2.43057119998072,23.078578752819734,4.178445034901974
4.061160282453025,17.25460359187478,-5.41258797158611,-2.5302140027580036,23.069526689042757,4.348742220883193
4.043179510947333,17.10461264339335,-5.584880411092923,-2.525123082623561,23.39227303169953,4.345068485931256
4.01381410994377,16.852157885701615,-5.865256590558183,-2.5170540373319907,23.92585503579765,4.339247310998804
3.984502665346196,16.59060734154724,-6.143731063462855,-2.5093139928811152,24.466623429692394,4.333667655380581
3.957342252044249,16.339428856414727,-6.400381120520147,-2.5024335229151715,24.975135050759395,4.328713707654451
3.944664388659038,16.219198292605626,-6.519679971486992,-2.4993210543230604,25.2149813869595,4.3264754157531
3.9377332594151957,16.15264841897241,-6.58475958353641,-2.497646712586942,25.346783613336864,4.32527219686029
3.918351262889222,15.963430346641044,-6.766185902931661,-2.4930689456503874,25.717909066473723,4.32198617764719
3.890558509021152,15.683905455365469,-7.024805836549195,-2.4867799274927136,26.256738532446715,4.317482811170802
3.8631373545914576,15.398366679414579,-7.278036269810689,-2.4809046278029703,26.79617713428062,4.313291308028812
3.8362022340222532,15.108144327979279,-7.52473303370679,-2.475465423462949,27.33374775231752,4.3094295034559265
3.811734180605709,14.835864877787143,-7.746923102571679,-2.4708210512289353,27.82880381169447,4.306151297463419
3.8009632133331896,14.713333310002886,-7.844117335189722,-2.46886894638444,28.04878618603227,4.3047801947367095
3.773271082779459,14.665982018135848,-7.883328610516163,-2.4528980117198484,28.136451247995993,4.277854891413633
3.4268646717390627,14.685717660182865,-7.897435040929338,-2.2280152856916295,28.14490030432996,3.887829096515569
2.882321357564598,14.712881366065538,-7.916835256297235,-1.8743076946606019,28.156479817809505,3.2746398867878868
2.3285502511622664,14.735679551428353,-7.9331135624235944,-1.5143997138669953,28.16623546822844,2.6509835992256576
1.7737361626629526,14.753649412478058,-7.945939826982727,-1.1536435546609443,28.17393269668906,2.0260886573810692
1.2172281098209035,14.766784238603437,-7.955308897408703,-0.7916553203516032,28.179532916891485,1.3992354391439807
0.6613292486468358,14.775023070228848,-7.961187567767459,-0.42997415832103997,28.183071378954054,0.7730361647065309
0.10744021313494899,14.778382144275847,-7.963585150445259,-0.06955204121367213,28.18452103321368,0.14908257482332476
-0.4486417736005912,14.776885680577458,-7.9625157842758085,0.29230409159149384,28.183860036561992,-0.47734499916924583
-1.0034565795052903,14.77053191395854,-7.957985599246442,0.6533037447219289,28.181151695244925,-1.1023321242893802
-1.5579213605966677,14.7593270654108,-7.94999391049174,1.01400258246283,28.176367777244337,-1.7268975526218067
-2.114681967391482,14.743186811900665,-7.9384745646347845,1.3760784712456315,28.16944314973587,-2.3540060312381907
-2.669785043252119,14.722211409871374,-7.923503564396301,1.7369235363262523,28.160487300625213,-2.979189374172604
-3.2245213319276136,14.696367738349428,-7.9050493249280915,2.097335251829132,28.14945852130365,-3.6038864038673113
-3.6771689925716298,14.671655317489162,-7.887389676437585,2.3912436611610928,28.138881898016226,-4.113554101351308
-3.7970320527985417,14.664938201495346,-7.871972902598758,2.4687975220327107,28.125152833468594,-4.247981978819076
-3.802070379209239,14.675112531320163,-7.544825180565153,2.464354244972011,27.787927952846257,-4.237204066554874
-3.8101369404092056,14.686433831038743,-7.019307629565118,2.45754564576965,27.25124053580911,-4.220224726358867
-3.8182726890586665,14.691773614771513,-6.4871620992981365,2.451047520638928,26.71390300150864,-4.203431601099686
-3.8264740336894882,14.691110617075777,-5.948627383732979,2.444858848190446,26.176175456928668,-4.186825895385254
-3.8346410912203353,14.68454894119404,-5.410305310532135,2.4390445733575095,25.644554070175854,-4.170597802852039
-3.8428021443881053,14.672236067604633,-4.870399457282833,2.43357018276972,25.117095669649835,-4.154675645131924
-3.851019751674731,14.654148422163605,-4.324803907551243,2.4283855326659123,24.58971911321163,-4.1389273825343045
-3.859172672751822,14.630681794860223,-3.781619979651528,2.4235559718715245,24.070128195935208,-4.123572870858166
-3.867351896103707,14.601730623490216,-3.2348458599779786,2.419015255229506,23.55242829493472,-4.108427299760547
-3.875546875793645,14.567405233732773,-2.685217613931245,2.4147619279329224,23.037245145540382,-4.093501105657697
-3.8823565747103985,14.534912977826291,-2.2271586997916946,2.4114464560380053,22.611775361589963,-4.081279647136791
-3.8862810426474863,14.56999098105661,-2.18950551934194,2.4126050953527307,22.538947279329108,-4.0821130059434845
-3.9085490503484173,14.923952298165155,-2.6195808335184263,2.4277376338830576,22.614075113872822,-4.109130512654034
-3.9407594284471994,15.429122551916194,-3.2300009271755994,2.449576030316212,22.717890763159517,-4.14806266555704
-3.973857941527898,15.940047468680424,-3.8433166813610122,2.471954271967715,22.818798379553083,-4.187888404454094
-4.007706097580696,16.454246470157837,-4.4564253390441495,2.4947741555973524,22.916181307065614,-4.228430801518546
-4.040449353863228,16.943925828434264,-5.036424244263112,2.5167865531440343,23.00501445073903,-4.267474438192744
-4.057357420102488,17.19388710353529,-5.331028572236847,2.528129353364898,23.048886297347032,-4.287569345450832
-4.061779657554406,17.258942987433606,-5.407541135396964,2.5310933229214285,23.060140860982752,-4.292817676109766
-4.061779657554406,17.258942987433606,-5.407541135396964,2.5310933229214285,23.060140860982752,-4.292817676109766
-4.061779657554406,17.258942987433606,-5.407541135396964,2.5310933229214285,23.060140860982752,-4.292817676109766
-4.061779657554406,17.258942987433606,-5.407541135396964,2.5310933229214285,23.060140860982752,-4.292817676109766
-4.061779657554406,17.258942987433606,-5.407541135396964,2.5310933229214285,23.060140860982752,-4.292817676109766
-4.061779657554406,17.258942987433606,-5.407541135396964,2.5310933229214285,23.060140860982752,-4.292817676109766
-4.061747119193591,17.258881397177042,-5.407383453735371,2.531073050786515,23.05976487368067,-4.292783282230126
-3.974421917108612,17.093587833942177,-4.984203471119721,2.476667474299329,22.050704604075953,-4.200478310040726
-3.888061858095697,16.930121142373267,-4.565700594525089,2.422863203780805,21.0527967567417,-4.109193518764726
-3.801468385288971,16.76621263335915,-4.146066589197295,2.368913511188136,20.05219176608468,-4.017662003138457
-3.6897307154140697,16.554709915241077,-3.6045832136517304,2.299298414976129,18.761040522263364,-3.899552428078167
-3.540876056003138,16.27295028032833,-2.883230034068174,2.206558594572685,17.04099500080045,-3.7422092457077714
-3.3920726586564984,15.991287676845959,-2.1621252716535264,2.113850711595015,15.321541822798311,-3.584920248650503
-3.243261733401916,15.709610824158341,-1.4409840288199822,2.02113813856039,13.602001658306168,-3.4276232944019926
-3.094358078216592,15.42775844756348,-0.7193934145616682,1.928367792681052,11.881389980818001,-3.270228322244862
-2.945346579358919,15.145701939006145,0.0027198126686226692,1.8355302577540549,10.159532148010427,-3.1127193565676543
-2.7967423683095562,14.864416365430813,0.7228593136031175,1.7429464723458494,8.44238060772608,-2.9556409045213545
-2.6484125385275905,14.583650154608618,1.4416691564641766,1.6505336326746536,6.728399598159584,-2.798852480492758
-2.499503676417766,14.301787922083468,2.1632850036010516,1.5577600427635536,5.007727753611794,-2.6414520044832486
-2.350909315806739,14.020520993916485,2.8833767690797565,1.4651823944012805,3.290690037123153,-2.4843839646022206
-2.2021536829029675,13.738948801389586,3.604250063881163,1.3725042697521088,1.5717887868629126,-2.327145455782773
-2.052908420493647,13.456449813347708,4.327496114779309,1.2795210948439224,-0.1527702307895439,-2.1693893960523205
-1.9039982381648841,13.174585081845317,5.049118359728205,1.1867466824065556,-1.8734573307326419,-2.0119875245376244
-1.7553733907103632,12.89326044663761,5.769357865167331,1.0941500400510717,-3.5908473288282043,-1.8548872592832377
-1.6067820200390908,12.611999177979955,6.489435141327681,1.001574254488908,-5.30785049596176,-1.6978223798450067
-1.4582104930475819,12.33077547044392,7.209416254549307,0.9090108319881675,-7.024624365385447,-1.540778475683843
-1.3094236665932375,12.049144233185364,7.9304407140302535,0.8163132730512864,-8.74388606339501,-1.383506994483578
-1.160496254956678,11.767246889176963,8.65214645260985,0.723528126365378,-10.464772251454196,-1.2260869111498536
-1.011979140406103,11.486126176263689,9.37186388186329,0.6309986040463308,-12.180917374181536,-1.0691005223305072
-0.8633172223997023,11.204731372038733,10.09228303206848,0.5383788658983654,-13.898735729958288,-0.9119610725546005
-0.7138456469027753,10.921804007127818,10.816625801510556,0.44525469281664093,-15.625909840845491,-0.7539657941019594
-0.5657055522624116,10.641396936586748,11.534516183414093,0.35296006243110717,-17.33769842269848,-0.5973779249710418
-0.4166266280319768,10.359212801870529,12.256956155586183,0.2600805199714928,-19.060335369246328,-0.43979768895023413
-0.28827879280733015,10.116269521909745,12.87893278297797,0.1801169149690797,-20.54342041368666,-0.30413074426396075
-0.20119094440672255,9.951425233744388,13.30096254405816,0.12585921519699222,-21.54973801374094,-0.21207666098992528
-0.11452446478600675,9.787378533736875,13.720950342123187,0.07186403770754904,-22.551186612813957,-0.12046797529391713
-0.027719000364527298,9.623068756262546,14.141611663800719,0.017782269542928872,-23.55424120920711,-0.02871237910857794
-0.004094368701607359,9.578350857483736,14.25609718433449,0.0030635895487183392,-23.82722857855668,-0.003740539175032412
-0.004094368701607359,9.578350857483736,14.25609718433449,0.0030635895487183392,-23.82722857855668,-0.003740539175032412
-0.004094368701607359,9.578350857483736,14.25609718433449,0.0030635895487183392,-23.82722857855668,-0.003740539175032412
-0.004094368701607359,9.578350857483736,14.25609718433449,0.0030635895487183392,-23.82722857855668,-0.003740539175032412
-0.004094368701607359,9.578350857483736,14.25609718433449,0.0030635895487183392,-23.82722857855668,-0.003740539175032412
-0.004094368701607359,9.578350857483736,14.25609718433449,0.0030635895487183392,-23.82722857855668,-0.003740539175032412
-0.004094368701607359,9.578350857483736,14.25609718433449,0.0030635895487183392,-23.82722857855668,-0.003740539175032412
-0.004094368701607359,9.578350857483736,14.25609718433449,0.0030635895487183392,-23.82722857855668,-0.003740539175032412
-0.004094368701607359,9.578350857483736,14.25609718433449,0.0030635895487183392,-23.82722857855668,-0.003740539175032412
-0.004094368701607359,9.578350857483736,14.25609718433449,0.0030635895487183392,-23.82722857855668,-0.003740539175032412
-0.004094368701607359,9.578350857483736,14.25609718433449,0.0030635895487183392,-23.82722857855668,-0.003740539175032412
-0.004094368701607359,9.578350857483736,14.25609718433449,0.0030635895487183392,-23.82722857855668,-0.003740539175032412
-0.004094368701607359,9.578350857483736,14.25609718433449,0.0030635895487183392,-23.82722857855668,-0.003740539175032412
