RAMEL-ESPOL/ARCHIE/matlab/data/joint_goals_square_t0_h30_p10.txt
Joint0,Joint1,Joint2,Joint3,Joint4,Joint5 
-0.004268653321636143,0.000596642409162704,-0.00032039844558377913,-0.004578338218490482,-0.0027554770804827248,0.0007209536456556876
-0.004268653321636143,0.000596642409162704,-0.00032039844553289026,-0.004578338218490482,-0.0027554770803809472,0.0007209536457574654
-0.004268653321636143,0.0005966424091118152,-0.00032039844553289026,-0.004578338218490482,-0.0027554770804318358,0.0007209536456556876
-0.004268653321636143,0.0005966424092644818,-0.00032039844558377913,-0.004578338218490482,-0.0027554770804827248,0.0007209536456556876
-0.004268653321636143,0.0005966424091118152,-0.00032039844553289026,-0.004578338218490482,-0.0027554770804318358,0.0007209536457065765
-0.004268653321636143,0.0005966424092644818,-0.00032039844558377913,-0.004578338218490482,-0.0027554770803809472,0.0007209536457065765
-0.004268653321636143,0.0005966424091118152,-0.00032039844553289026,-0.004578338218490482,-0.0027554770803809472,0.0007209536457065765
-0.004268653321636143,0.000596642409162704,-0.00032039844553289026,-0.004578338218490482,-0.0027554770803809472,0.0007209536457065765
-0.004268653321636143,0.0005966424091118152,-0.00032039844553289026,-0.004578338218541371,-0.0027554770804827248,0.0007209536457574654
-0.004268653321636143,0.0005966424092644818,-0.00032039844553289026,-0.004578338218490482,-0.0027554770803809472,0.0007209536456047988
-0.004268653321636143,0.0005966424092135929,-0.00032039844553289026,-0.004578338218490482,-0.0027554770803809472,0.0007209536457065765
-0.004268653321636143,0.0005966424091118152,-0.00032039844553289026,-0.004578338218490482,-0.0027554770803809472,0.0007209536456556876
-0.004268653321636143,0.0005966424092644818,-0.00032039844553289026,-0.004578338218490482,-0.0027554770803809472,0.0007209536456556876
-0.004268653321636143,0.0005966424091118152,-0.00032039844553289026,-0.004578338218490482,-0.0027554770803809472,0.0007209536457065765
-0.004268653321687032,0.0005966424091118152,-0.00032039844553289026,-0.004578338218490482,-0.0027554770803809472,0.0007209536457574654
-0.004268653321687032,0.0005966424092135929,-0.00032039844558377913,-0.004578338218541371,-0.0027554770804318358,0.0007209536456556876
-0.004268653321687032,0.000596642409162704,-0.00032039844553289026,-0.004578338218490482,-0.0027554770803809472,0.0007209536456047988
-0.004268653321687032,0.0005966424093153706,-0.00032039844558377913,-0.004578338218541371,-0.0027554770804318358,0.0007209536456047988
-0.004268653321687032,0.0005966424092644818,-0.00032039844558377913,-0.004578338218490482,-0.0027554770804827248,0.0007209536457065765
-0.004268653321687032,0.000596642409162704,-0.00032039844558377913,-0.004578338218490482,-0.0027554770803809472,0.0007209536457065765
-0.004268653321687032,0.000596642409162704,-0.00032039844558377913,-0.004578338218490482,-0.0027554770804318358,0.0007209536456556876
-0.004268653321687032,0.0005966424090609263,-0.00032039844553289026,-0.004578338218490482,-0.0027554770803809472,0.0007209536457065765
-0.004268653321687032,0.0005966424092644818,-0.00032039844558377913,-0.004578338218541371,-0.0027554770804827248,0.0007209536456556876
-0.004268653321687032,0.000596642409162704,-0.00032039844553289026,-0.004578338218490482,-0.0027554770804827248,0.0007209536456556876
-0.004268653321687032,0.0005966424092135929,-0.00032039844558377913,-0.004578338218490482,-0.0027554770804318358,0.0007209536457065765
-0.004268653321687032,0.0005966424092135929,-0.00032039844553289026,-0.004578338218490482,-0.0027554770803809472,0.0007209536457574654
-0.004268653321687032,0.0005966424091118152,-0.00032039844553289026,-0.004578338218541371,-0.0027554770803809472,0.0007209536456556876
-0.004268653321687032,0.0005966424093153706,-0.00032039844553289026,-0.004578338218541371,-0.0027554770804318358,0.0007209536457065765
-0.004268653321687032,0.0005966424092135929,-0.00032039844553289026,-0.004578338218541371,-0.0027554770803809472,0.0007209536457065765
-0.004268653321687032,0.000596642409162704,-0.00032039844558377913,-0.004578338218490482,-0.0027554770804827248,0.0007209536457065765
-0.004268653321636143,0.000596642409162704,-0.00032039844553289026,-0.004578338218490482,-0.0027554770803809472,0.0007209536456556876
-0.004268653321636143,0.0005966424091118152,-0.00032039844558377913,-0.004578338218490482,-0.0027554770803809472,0.0007209536456556876
-0.004268653321636143,0.0005966424091118152,-0.00032039844558377913,-0.004578338218541371,-0.0027554770803809472,0.0007209536457065765
-0.004268653321636143,0.0005966424091118152,-0.00032039844553289026,-0.004578338218490482,-0.0027554770804827248,0.0007209536457065765
-0.004268653321636143,0.0005966424091118152,-0.00032039844558377913,-0.004578338218541371,-0.0027554770804318358,0.0007209536457574654
-0.004268653321636143,0.0005966424092644818,-0.00032039844553289026,-0.004578338218541371,-0.0027554770803809472,0.0007209536457065765
-0.004268653321636143,0.000596642409162704,-0.00032039844558377913,-0.004578338218490482,-0.0027554770804318358,0.0007209536457574654
-0.004268653321636143,0.0005966424091118152,-0.00032039844558377913,-0.004578338218490482,-0.0027554770804827248,0.0007209536457065765
-0.004268653321636143,0.000596642409162704,-0.00032039844558377913,-0.004578338218490482,-0.0027554770803809472,0.0007209536457065765
-0.004268653321636143,0.0005966424092644818,-0.00032039844558377913,-0.004578338218490482,-0.0027554770803809472,0.0007209536457574654
-0.004268653321636143,0.0005966424091118152,-0.00032039844553289026,-0.004578338218490482,-0.0027554770803809472,0.0007209536457065765
-0.004268653321636143,0.0005966424092644818,-0.00032039844553289026,-0.004578338218490482,-0.0027554770804318358,0.0007209536457065765
-0.004268653321636143,0.0005966424091118152,-0.00032039844558377913,-0.004578338218490482,-0.0027554770804318358,0.0007209536457574654
-0.004268653321636143,0.0005966424091118152,-0.00032039844558377913,-0.004578338218490482,-0.0027554770804318358,0.0007209536456047988
-0.004268653321636143,0.0005966424091118152,-0.00032039844553289026,-0.004578338218490482,-0.0027554770804827248,0.0007209536457065765
-0.004268653321636143,0.000596642409162704,-0.00032039844553289026,-0.004578338218541371,-0.0027554770803809472,0.0007209536457065765
-0.004268653321636143,0.000596642409162704,-0.00032039844553289026,-0.004578338218541371,-0.0027554770804318358,0.0007209536456556876
-0.004268653321636143,0.0005966424091118152,-0.00032039844553289026,-0.004578338218541371,-0.0027554770803809472,0.0007209536457065765
-0.004268653321636143,0.0005966424092644818,-0.00032039844558377913,-0.004578338218490482,-0.0027554770804318358,0.0007209536456556876
-0.004268653321636143,0.0005966424091118152,-0.00032039844558377913,-0.004578338218490482,-0.0027554770804318358,0.0007209536457065765
-0.004268653321636143,0.0005966424091118152,-0.00032039844558377913,-0.004578338218490482,-0.0027554770804318358,0.0007209536455539099
-0.004268653321636143,0.000596642409162704,-0.00032039844553289026,-0.004578338218490482,-0.0027554770803809472,0.0007209536457574654
-0.004268653321636143,0.0005966424091118152,-0.00032039844558377913,-0.004578338218541371,-0.0027554770803809472,0.0007209536456556876
-0.004268653321636143,0.0005966424092644818,-0.00032039844553289026,-0.004578338218490482,-0.0027554770804318358,0.0007209536457065765
-0.004268653321636143,0.0005966424092644818,-0.00032039844558377913,-0.004578338218490482,-0.0027554770803809472,0.0007209536457574654
-0.004268653321687032,0.0005966424092644818,-0.00032039844553289026,-0.004578338218490482,-0.0027554770804827248,0.0007209536457065765
-0.004268653321687032,0.0005966424091118152,-0.00032039844553289026,-0.004578338218490482,-0.0027554770803809472,0.0007209536456556876
-0.004268653321687032,0.0005966424091118152,-0.00032039844553289026,-0.004578338218490482,-0.0027554770803809472,0.0007209536457065765
-0.004268653321687032,0.000596642409162704,-0.00032039844553289026,-0.004578338218490482,-0.0027554770804318358,0.0007209536457065765
-0.004268653321687032,0.0005966424092135929,-0.00032039844553289026,-0.004578338218490482,-0.0027554770803809472,0.0007209536456556876
-0.004268653321687032,0.000596642409162704,-0.00032039844553289026,-0.004578338218490482,-0.0027554770804318358,0.0007209536457065765
-0.004268653321687032,0.0005966424092644818,-0.00032039844553289026,-0.004578338218541371,-0.0027554770804318358,0.0007209536457574654
-0.004268653321687032,0.000596642409162704,-0.00032039844553289026,-0.004578338218490482,-0.0027554770804318358,0.0007209536457065765
-0.004268653321687032,0.000596642409162704,-0.00032039844553289026,-0.004578338218490482,-0.0027554770803809472,0.0007209536456556876
-0.004268653321687032,0.000596642409162704,-0.00032039844558377913,-0.004578338218490482,-0.0027554770804318358,0.0007209536457574654
-0.004268653321687032,0.0005966424092135929,-0.00032039844553289026,-0.004578338218541371,-0.0027554770804827248,0.0007209536457065765
-0.004268653321687032,0.0005966424092135929,-0.00032039844558377913,-0.004578338218490482,-0.0027554770803809472,0.0007209536456556876
-0.004268653321687032,0.0005966424092135929,-0.00032039844558377913,-0.004578338218490482,-0.0027554770804318358,0.0007209536457065765
-0.004268653321687032,0.000596642409162704,-0.00032039844553289026,-0.004578338218541371,-0.0027554770803809472,0.0007209536456556876
-0.004268653321687032,0.000596642409162704,-0.00032039844553289026,-0.004578338218490482,-0.0027554770804827248,0.0007209536457065765
-0.004268653321687032,0.000596642409162704,-0.00032039844553289026,-0.004578338218490482,-0.0027554770803809472,0.0007209536457065765
-0.004268653321636143,0.0005966424091118152,-0.00032039844558377913,-0.004578338218490482,-0.0027554770803809472,0.0007209536456047988
-0.004268653321636143,0.000596642409162704,-0.00032039844558377913,-0.004578338218490482,-0.0027554770804318358,0.0007209536457065765
-0.004268653321636143,0.000596642409162704,-0.00032039844553289026,-0.004578338218490482,-0.0027554770804827248,0.0007209536456556876
-0.004268653321636143,0.0005966424092135929,-0.00032039844553289026,-0.004578338218541371,-0.0027554770803809472,0.0007209536455539099
-0.004268653321636143,0.0005966424092135929,-0.00032039844553289026,-0.004578338218490482,-0.0027554770804827248,0.0007209536456556876
-0.004268653321636143,0.000596642409162704,-0.00032039844553289026,-0.004578338218541371,-0.0027554770803809472,0.0007209536457065765
-0.004268653321636143,0.0005966424092644818,-0.00032039844553289026,-0.004578338218490482,-0.0027554770803809472,0.0007209536457065765
-0.004268653321636143,0.0005966424092135929,-0.00032039844558377913,-0.004578338218490482,-0.0027554770803809472,0.0007209536457065765
-0.004268653321636143,0.0005966424092644818,-0.00032039844553289026,-0.004578338218541371,-0.0027554770804827248,0.0007209536457065765
-0.004268653321636143,0.0005966424092644818,-0.00032039844553289026,-0.004578338218490482,-0.0027554770803809472,0.0007209536456556876
-0.004268653321636143,0.0005966424092135929,-0.00032039844558377913,-0.004578338218490482,-0.0027554770803809472,0.0007209536457065765
-0.004268653321636143,0.000596642409162704,-0.00032039844558377913,-0.004578338218490482,-0.0027554770803809472,0.0007209536457065765
-0.004268653321636143,0.0005966424092644818,-0.00032039844558377913,-0.004578338218490482,-0.0027554770803809472,0.0007209536457574654
-0.004268653321636143,0.0005966424091118152,-0.00032039844558377913,-0.004578338218541371,-0.0027554770804827248,0.0007209536457065765
-0.004268653321636143,0.000596642409162704,-0.00032039844553289026,-0.004578338218490482,-0.0027554770804827248,0.0007209536456556876
-0.004268653321636143,0.000596642409162704,-0.00032039844553289026,-0.004578338218490482,-0.0027554770803809472,0.0007209536456556876
-0.004268653321636143,0.0005966424091118152,-0.00032039844553289026,-0.004578338218490482,-0.0027554770803809472,0.0007209536457574654
-0.004268653321636143,0.0005966424092135929,-0.00032039844558377913,-0.004578338218490482,-0.0027554770804827248,0.0007209536457065765
-0.004268653321636143,0.0005966424091118152,-0.00032039844553289026,-0.004578338218490482,-0.0027554770803809472,0.0007209536457065765
-0.004268653321636143,0.000596642409162704,-0.00032039844553289026,-0.004578338218490482,-0.0027554770803809472,0.0007209536457065765
-0.004268653321636143,0.0005966424093153706,-0.00032039844558377913,-0.004578338218541371,-0.0027554770803809472,0.0007209536457065765
-0.004268653321636143,0.0005966424091118152,-0.00032039844553289026,-0.004578338218490482,-0.0027554770803809472,0.0007209536456556876
-0.004268653321636143,0.0005966424092644818,-0.00032039844558377913,-0.004578338218490482,-0.0027554770803809472,0.0007209536457574654
-0.004268653321636143,0.0005966424092135929,-0.00032039844553289026,-0.004578338218490482,-0.0027554770803809472,0.0007209536457065765
-0.004268653321636143,0.0005966424092135929,-0.00032039844558377913,-0.004578338218541371,-0.0027554770803809472,0.0007209536457065765
-0.004268653321636143,0.000596642409162704,-0.00032039844553289026,-0.004578338218490482,-0.0027554770803809472,0.0007209536457065765
-0.004268653321636143,0.000596642409162704,-0.00032039844558377913,-0.004578338218490482,-0.0027554770804318358,0.0007209536457065765
-0.004268653321687032,0.0005966424092135929,-0.00032039844558377913,-0.004578338218490482,-0.0027554770803809472,0.0007209536457065765
-0.004268653321687032,0.0005966424091118152,-0.00032039844553289026,-0.004578338218541371,-0.0027554770803809472,0.0007209536457065765
-0.004268653321687032,0.0005966424092135929,-0.00032039844553289026,-0.004578338218490482,-0.0027554770804318358,0.0007209536457065765
-0.004268653321687032,0.000596642409162704,-0.00032039844553289026,-0.004578338218490482,-0.0027554770803809472,0.0007209536457065765
-0.004268653321687032,0.0005966424092644818,-0.00032039844558377913,-0.004578338218541371,-0.0027554770804318358,0.0007209536457065765
-0.004268653321687032,0.0005966424091118152,-0.00032039844553289026,-0.004578338218541371,-0.0027554770804318358,0.0007209536457065765
-0.004268653321687032,0.000596642409162704,-0.00032039844558377913,-0.004578338218490482,-0.0027554770804318358,0.0007209536455539099
-0.004268653321687032,0.0005966424091118152,-0.00032039844553289026,-0.004578338218490482,-0.0027554770803809472,0.0007209536456556876
-0.004268653321687032,0.0005966424092135929,-0.00032039844558377913,-0.004578338218490482,-0.0027554770804827248,0.0007209536457574654
-0.004268653321687032,0.000596642409162704,-0.00032039844558377913,-0.004578338218490482,-0.0027554770803809472,0.0007209536457065765
-0.004268653321687032,0.0005966424091118152,-0.00032039844553289026,-0.004578338218541371,-0.0027554770803809472,0.0007209536457065765
-0.004268653321687032,0.0005966424091118152,-0.00032039844553289026,-0.004578338218490482,-0.0027554770803809472,0.0007209536456556876
-0.004268653321687032,0.0005966424092644818,-0.00032039844558377913,-0.004578338218490482,-0.0027554770803809472,0.0007209536456556876
-0.004268653321687032,0.000596642409162704,-0.00032039844558377913,-0.004578338218490482,-0.0027554770803809472,0.0007209536457574654
-0.004268653321687032,0.000596642409162704,-0.00032039844558377913,-0.004578338218490482,-0.0027554770804318358,0.0007209536456556876
-0.004268653321687032,0.0005966424092135929,-0.00032039844553289026,-0.004578338218490482,-0.0027554770803809472,0.0007209536457065765
-0.004268653321687032,0.000596642409162704,-0.00032039844558377913,-0.004578338218541371,-0.0027554770803809472,0.0007209536457574654
-0.004268653321636143,0.000596642409162704,-0.00032039844558377913,-0.004578338218490482,-0.0027554770804827248,0.0007209536457065765
-0.004268653321636143,0.0005966424092135929,-0.00032039844553289026,-0.004578338218490482,-0.0027554770803809472,0.0007209536457065765
-0.004268653321636143,0.000596642409162704,-0.00032039844553289026,-0.004578338218490482,-0.0027554770803809472,0.0007209536457065765
-0.004268653321636143,0.000596642409162704,-0.00032039844553289026,-0.004578338218541371,-0.0027554770804318358,0.0007209536456047988
-0.004268653321636143,0.000596642409162704,-0.00032039844553289026,-0.004578338218490482,-0.0027554770803809472,0.0007209536457065765
-0.004268653321636143,0.0005966424092135929,-0.00032039844553289026,-0.004578338218541371,-0.0027554770804318358,0.0007209536457065765
-0.004268653321636143,0.000596642409162704,-0.00032039844553289026,-0.004578338218490482,-0.0027554770804318358,0.0007209536456556876
-0.004268653321636143,0.0005966424092644818,-0.00032039844553289026,-0.004578338218490482,-0.0027554770804318358,0.0007209536457574654
-0.004268653321636143,0.000596642409162704,-0.00032039844558377913,-0.004578338218541371,-0.0027554770804827248,0.0007209536457065765
-0.004268653321636143,0.000596642409162704,-0.00032039844553289026,-0.004578338218490482,-0.0027554770804318358,0.0007209536456047988
-0.004268653321636143,0.000596642409162704,-0.00032039844558377913,-0.004578338218541371,-0.0027554770804318358,0.0007209536457574654
-0.004268653321636143,0.000596642409162704,-0.00032039844553289026,-0.004578338218490482,-0.0027554770804318358,0.0007209536457065765
-0.004268653321636143,0.000596642409162704,-0.00032039844553289026,-0.004578338218490482,-0.0027554770804318358,0.0007209536456556876
-0.004268653321636143,0.0005966424091118152,-0.00032039844553289026,-0.004578338218541371,-0.0027554770803809472,0.0007209536456556876
-0.004268653321636143,0.000596642409162704,-0.00032039844553289026,-0.004578338218490482,-0.0027554770803809472,0.0007209536457065765
-0.004268653321636143,0.000596642409162704,-0.00032039844553289026,-0.004578338218490482,-0.0027554770803809472,0.0007209536455539099
-0.004268653321636143,0.0005966424091118152,-0.00032039844553289026,-0.004578338218490482,-0.0027554770803809472,0.0007209536457065765
-0.004268653321636143,0.0005966424092644818,-0.00032039844558377913,-0.004578338218490482,-0.0027554770804318358,0.0007209536457065765
-0.004268653321636143,0.0005966424091118152,-0.00032039844558377913,-0.004578338218490482,-0.0027554770803809472,0.0007209536457065765
-0.004268653321636143,0.0005966424091118152,-0.00032039844553289026,-0.004578338218490482,-0.0027554770804827248,0.0007209536457065765
-0.14633054528918785,-0.17129163918384072,-0.08960838249927842,0.16730908027176547,-0.17464281322159797,-0.17116671026083038
-0.16039551153985562,-0.19980797275022055,-0.0984595063569585,0.9758433562637162,-0.2395786708829441,-0.4522011982628004
-0.17446083493282039,-0.21805113312935748,-0.10731100873000855,1.0641530425465033,-0.26137348848520386,-0.49313618887233224
-0.18852648936992616,-0.23632670404688413,-0.11616432456724933,1.1524627273453198,-0.28324564391964535,-0.5340939894195643
-0.20259246154149305,-0.25463476821208175,-0.12501943287895373,1.2407724130575917,-0.3051953023817343,-0.5750745743412844
-0.2166587377064562,-0.2729754077749629,-0.13387631206411743,1.3290820973507762,-0.32722262878144975,-0.6160779163378504
-0.23072530489563312,-0.2913487062367414,-0.1427349409607545,1.417391782684384,-0.34932778949895055,-0.6571039903114797
-0.2447921493156452,-0.3097547463806911,-0.15159529783865378,1.505701466362424,-0.3715109499163627,-0.6981527687483897
-0.2588592579590924,-0.3281936122808311,-0.16045736129782207,1.5940111505696573,-0.3937722771189612,-0.7392242263888696
-0.27292661783455396,-0.346665388347047,-0.16932110983918547,1.6823208375746084,-0.4161119386120578,-0.7803183379965157
-0.28699421488575916,-0.3651701579125177,-0.17818652119255102,1.7706305229560009,-0.4385301005865046,-0.8214350752034264
-0.30106203590536573,-0.3837080058247733,-0.18705357361345865,1.858940207680774,-0.4610269308218026,-0.8625744121248737
-0.3151300672786149,-0.4022790165868261,-0.19592224484336895,1.947249890050003,-0.4836025970567417,-0.9037363216256883
-0.32919829671472395,-0.4208832768783073,-0.20479251347399383,2.035559576757203,-0.5062572693733409,-0.9449207804593229
-0.3432667102064281,-0.43952087129667905,-0.2136643567441135,2.123869263606994,-0.5289911157325711,-0.986127760295636
-0.3573352940952553,-0.4581918854082258,-0.22253775222119945,2.2121789487462062,-0.5518043047282568,-1.0273572338653147
-0.3714040348882237,-0.476896405246392,-0.23141267737832436,2.3004886313026556,-0.5746970057500232,-1.0686091743437136
-0.38547291987502275,-0.4956345182008104,-0.24028911005664008,2.3887983153108623,-0.5976693898922726,-1.109883557183668
-0.3995419361616837,-0.5144063117586171,-0.2491670278776621,2.4771080036665567,-0.620721628362177,-1.1511803572918735
-0.4136110691197924,-0.5332118713894075,-0.2580464072196907,2.565417688361306,-0.6438538899870394,-1.1924995444597781
-0.4276803058917657,-0.5520512853011078,-0.26692722551671577,2.653727372551593,-0.6670663468337484,-1.2338410936797746
-0.44174963362047837,-0.5709246421602544,-0.27580946022613634,2.7420370595085557,-0.6903591712012461,-1.2752049799799792
-0.45581903786468564,-0.5898320285763539,-0.28469308738544974,2.830346742359092,-0.7137325336330117,-1.3165911736321294
-0.4698885064828107,-0.608773534899143,-0.2935780847303661,2.9186564289396806,-0.7371866083836469,-1.3579996517716497
-0.48395802552188755,-0.627749249177978,-0.3024644285027527,3.006966115571107,-0.7607215674734259,-1.3994303861301778
-0.4980275815767177,-0.6467592605551047,-0.31135209519205104,3.095275802049613,-0.7843375842368796,-1.440883350050492
-0.5120971610249092,-0.665803658349455,-0.32024106117966566,3.183585486941098,-0.8080348318646245,-1.4823585162769182
-0.5261667510823116,-0.6848825332535533,-0.3291313031378818,3.271895174013375,-0.8318134855762173,-1.5238558599841332
-0.540236337753263,-0.7039959746713158,-0.33802279686608794,3.3602048594663683,-0.8556737189717263,-1.5653753527775696
-0.5543059077238086,-0.7231440734916982,-0.3469155187185139,3.448514543990843,-0.8796157068878202,-1.6069169683514446
-0.5683754477401448,-0.7423269206652313,-0.35580944454981345,3.536824228382192,-0.9036396253266242,-1.648480680443028
-0.582444945001124,-0.7615446084226067,-0.3647045507246486,3.6251339165731085,-0.9277456510226566,-1.690066464244095
-0.5965143846852089,-0.7807972265127674,-0.37360081212788376,3.7134435997939628,-0.9519339578184206,-1.7316742889517112
-0.6105837549582424,-0.8000848691587041,-0.38249820545333035,3.8017532880967324,-0.9762047250799999,-1.7733041326150623
-0.6246530411615823,-0.8194076269709087,-0.3913967053725266,3.8900629737653416,-1.0005581279416609,-1.8149559648965419
-0.6387222299842256,-0.8387655928332822,-0.4002962873622763,3.978372657651263,-1.024994344212186,-1.8566297594776453
-0.6527913087818136,-0.8581588610269306,-0.40919692732552687,4.066682344937171,-1.0495135531486548,-1.898325492070232
-0.6668602637115036,-0.8775875243403893,-0.4180986000605298,4.154992033162946,-1.0741159327185208,-1.940043134769184
-0.680929080518304,-0.8970516755633134,-0.4270012802125139,4.243301717514195,-1.0988016602932276,-1.981782658537004
-0.6949977468764714,-0.9165514104447494,-0.435904943433646,4.331611405283905,-1.1235709172409287,-2.0235440400426694
-0.7090662480828357,-0.9360868217577624,-0.4448095636930962,4.419921088857469,-1.1484238813043528,-2.0653272488927996
-0.7231345717320633,-0.9556580059334117,-0.45371511640405726,4.508230775192316,-1.1733607345880153,-2.1071322615752077
-0.737202704185325,-0.9752650581091614,-0.4626215761112524,4.596540463606583,-1.1983816574632589,-2.1489590509479055
-0.7512706312000969,-0.9949080727670269,-0.4715289166500648,4.684850149544242,-1.223486830002301,-2.190807588015124
-0.765338339705317,-1.0145871467271637,-0.4804371128343689,4.773159836148189,-1.2486764343146446,-2.232677847421889
-0.7794058156586584,-1.0343023755362843,-0.4893461384086096,4.861469520293745,-1.273950651753584,-2.2745698008204505
-0.79347304642365,-1.0540538571714522,-0.4982559679634117,4.9497792078251415,-1.299309666578982,-2.316483424103324
-0.8075400176654048,-1.0738416877653139,-0.5071665750607834,5.038088894133423,-1.3247536602319674,-2.3584186881970837
-0.8216067164708197,-1.0936659657010261,-0.5160779338816436,5.126398583509084,-1.3502828174589003,-2.400375568232032
-0.8356731280238026,-1.1135267871527612,-0.524990017364764,5.214708268453086,-1.3758973199241085,-2.4423540337249183
-0.8497392395548587,-1.1334242515271524,-0.5339027995785991,5.303017954367845,-1.4015973535661765,-2.4843540603116763
-0.8638050374665318,-1.1533584574873472,-0.5428162539560519,5.391327641575384,-1.427383103323724,-2.5263756211963613
-0.8778705079835594,-1.173329503918266,-0.5517303537790892,5.47963732944509,-1.4532547541854441,-2.5684186891217724
-0.8919356369411251,-1.1933374894450934,-0.5606450718446556,5.567947014911111,-1.4792124910945361,-2.6104832356530387
-0.9060004114236325,-1.2133825148802169,-0.569560381613745,5.656256702862951,-1.505256501827284,-2.652569236126154
-0.9200648172142566,-1.2334646796469615,-0.5784762556681948,5.7445663901752715,-1.53138697216004,-2.694676662054239
-0.934128840539109,-1.2535840842985888,-0.5873926668258145,5.83287607669291,-1.5576040891019889,-2.7368054863481275
-0.9480999799059787,-1.2736081471481733,-0.5962509441120297,5.920604996078721,-1.5837347691933945,-2.7786784125627695
-0.9618861027465908,-1.293403825209178,-0.6049926314458585,6.007174630834171,-1.6096043332522736,-2.820018662808815
-0.9756718194714884,-1.313235580556277,-0.6137347566881246,6.093744269699763,-1.6355577023638384,-2.8613794015113987
-0.989457116395635,-1.333103508438381,-0.6224772932990585,6.180313908517673,-1.66159505336011,-2.9027606011859475
-1.0032419799383168,-1.3530077046121705,-0.6312202146601658,6.2668835438744255,-1.6877165637888107,-2.94416223468915
-1.017026398115611,-1.3729482673643159,-0.639963494875726,6.35345318236283,-1.7139224149738213,-2.9855842796422163
-1.030810357185129,-1.3929252930802807,-0.6487071070640984,6.440022819862716,-1.7402127850508335,-3.027026708542864
-1.0445938442116827,-1.4129388796099054,-0.6574510246335049,6.526592457366929,-1.766587854343762,-3.0684894963153977
-1.0583768460095062,-1.4329891248157538,-0.6661952206905999,6.6131620944034735,-1.7930478032414545,-3.1099726171700475
-1.0721593497222381,-1.4530761274830044,-0.67493966847669,6.699731732737328,-1.8195928132087538,-3.1514760463809264
-1.0859413419630508,-1.4731999859973581,-0.6836843407432253,6.786301370910577,-1.846223065256472,-3.192999757661997
-1.0997228092129585,-1.4933607990015048,-0.6924292100813559,6.872871006812299,-1.8729387405912412,-3.2345437244022457
-1.113503739320003,-1.5135586675472135,-0.7011742498267873,6.959440647060745,-1.899740023598315,-3.2761079241676168
-1.127284117649511,-1.5337936893409203,-0.7099194315039371,7.046010282719423,-1.9266270945243582,-3.317692327039014
-1.1410639325561232,-1.5540659671210557,-0.718664728644738,7.132579923977097,-1.953600139634357,-3.3592969122857355
-1.154843169117949,-1.5743755990877792,-0.7274101124341279,7.219149560471318,-1.9806593395376104,-3.400921649277868
-1.1686093659421535,-1.594704286612736,-0.7361476537989536,7.3056409805427345,-2.0077803148619395,-3.442528879062273
-1.182250994639262,-1.6148868861528465,-0.7448065389516326,7.391353491345349,-2.0347422540772095,-3.483781205987735
-1.1958920183571615,-1.6351064024858997,-0.7534654275561548,7.477066003866989,-2.061789193947832,-3.5250532154360066
-1.2095324239139031,-1.6553629344994625,-0.7621242920372638,7.562778516833856,-2.0889213143196703,-3.566344881854971
-1.223172198318931,-1.6756565816279543,-0.7707831046678001,7.6484910302335845,-2.1161387961813496,-3.6076561802744735
-1.2368113283557938,-1.695987443710462,-0.7794418377834006,7.7342035430801,-2.143441820124866,-3.648987085272469
-1.2504498011427363,-1.7163556212138382,-0.7881004635292764,7.819916056407514,-2.170830568353256,-3.690337572364182
-1.2640876033149655,-1.7367612144052473,-0.7967589537228632,7.905628568471868,-2.198305222492884,-3.7317076157205564
-1.27772472237107,-1.7572043252939833,-0.8054172806346096,7.991341083151248,-2.225865966416145,-3.773097192216467
-1.2913611441860788,-1.7776850538427935,-0.8140754153492024,8.07705359426184,-2.2535129813032087,-3.814506273853262
-1.3049968570221169,-1.7982035040011615,-0.8227333303254297,8.162766110781414,-2.2812464537437336,-3.855934839944409
-1.3186318458137365,-1.8187597752580587,-0.8313909958977238,8.248478621050968,-2.309066563956293,-3.897382859827937
-1.3322660989310995,-1.8393539725400352,-0.8400483842938884,8.33419113504808,-2.336973499949327,-3.9388503132709385
-1.3458996024788457,-1.8599861979858465,-0.8487054663686433,8.41990364886123,-2.364967445395542,-3.9803371733344703
-1.3595323434329853,-1.8806565552826948,-0.8573622132148686,8.50561616407087,-2.393048586580586,-4.02184341570505
-1.3731643079028915,-1.9013651473870177,-0.8660185953871417,8.591328677126896,-2.421217108375803,-4.063369013585207
-1.3867954825558313,-1.9221120785364318,-0.8746745836629332,8.67704118818029,-2.4494731973744126,-4.104913941955122
-1.4004258548763477,-1.9428974545265671,-0.8833301490936487,8.762753702603954,-2.4778170426088404,-4.146478178303792
-1.4140554110175776,-1.9637213797543218,-0.8919852619317893,8.848466217758737,-2.50624883068055,-4.188061696245339
-1.427684137083754,-1.9845839588992313,-0.9006398921832993,8.934178730827636,-2.5347687487894586,-4.229664469279583
-1.4413120202529672,-2.0054852986158282,-0.9092940103035739,9.019891245852094,-2.5633769871074947,-4.2712864742116805
-1.4549390461899734,-2.026425504021597,-0.9179475859733777,9.105603757851767,-2.592073732766589,-4.312927683494873
-1.4685652021298583,-2.047404682732361,-0.9266005893850099,9.191316271619625,-2.6208591773096153,-4.354588074266825
-1.4821904739429694,-2.068422940983838,-0.9352529899897265,9.277028783806518,-2.6497335096236614,-4.396267619733781
-1.4958148488858165,-2.0894803874514585,-0.9439047578391702,9.362741299865343,-2.6786969223458152,-4.437966297348964
-1.5094383124582256,-2.110577128633934,-0.9525558617992727,9.448453814484317,-2.707749604907165,-4.479684079321862
-1.523060850661074,-2.1317132722678975,-0.9612062709403357,9.53416632573333,-2.7368917483578805,-4.521420939498796
-1.5366824507814558,-2.1528889286040966,-0.9698559550526875,9.619878840047836,-2.766123547073312,-4.563176855789263
-1.5503030984227046,-2.174104205655695,-0.9785048826385573,9.705591353418251,-2.7954451925605084,-4.604951800991531
-1.5639227801631344,-2.1953592134062734,-0.9871530226771554,9.791303868190402,-2.824856879041136,-4.646745750988292
-1.5775414819831652,-2.216654061579371,-0.9958003438017501,9.877016383357654,-2.8543587998446767,-4.688558680034866
-1.591143266417782,-2.2379638886608446,-1.004436703958399,9.962628669009476,-2.8839164921583063,-4.730341634700919
-1.60462515420153,-2.259126873568672,-1.012996698056516,10.047492546898456,-2.9133050251519657,-4.771777967253788
-1.6181060396395257,-2.280329236733686,-1.0215557959048571,10.132356419191188,-2.9427825836814803,-4.813232827853919
-1.6315859104489252,-2.301571088476556,-1.0301139672900865,10.2172202940763,-2.9723493608092673,-4.854706195927854
-1.6450647530722198,-2.322852537558613,-1.0386711810128968,10.302084171962175,-3.0020055475290084,-4.896198047081705
-1.6585425530512692,-2.3441736918309912,-1.04722740521044,10.386948047873055,-3.031751333406751,-4.937708354281217
-1.6720192966766616,-2.365534660840543,-1.055782608409016,10.471811921835146,-3.061586910195948,-4.979237092933931
-1.6854949711796658,-2.3869355559865775,-1.0643367594790345,10.556675799950122,-3.0915124725517362,-5.020784241384548
-1.6989695612693456,-2.4083764853276515,-1.072889825726582,10.641539672854233,-3.1215282099119226,-5.062349770423563
-1.7124430544601659,-2.4298575616532565,-1.0814417759202906,10.726403548930401,-3.1516343188438443,-5.103933659488312
-1.7259154364719456,-2.451378895639673,-1.0899925777702022,10.811267425746493,-3.1818309922669203,-5.145535882739353
-1.7393866930833302,-2.4729405982715678,-1.0985421986587873,10.896131301272652,-3.212118424179822,-5.187156414482746
-1.7528568105657227,-2.494542781998087,-1.1070906063059096,10.98099517701855,-3.242496810109718,-5.228795230772116
-1.766325774776138,-2.516185559023807,-1.1156377679617788,11.065859052092765,-3.272966345404343,-5.270452306455435
-1.7797935717883266,-2.5378690424748993,-1.1241836509562972,11.150722927316187,-3.3035272264329754,-5.31212761722558
-1.7932601875701901,-2.559593345749181,-1.1327282223460426,11.235586803073685,-3.3341796500963765,-5.35382113852923
-1.8067256078755913,-2.5813585823450262,-1.1412714488805806,11.320450678638062,-3.3649238135029336,-5.3955328452510445
-1.8201898188308492,-2.6031648670582714,-1.1498132975596462,11.405314556085024,-3.395759915074987,-5.437262713663984
-1.8336528057436838,-2.625012313673591,-1.1583537345627477,11.490178432453494,-3.4266881522513954,-5.479010717521604
-1.8471145543438372,-2.6469010373051827,-1.1668927263126416,11.575042307859302,-3.457708723948528,-5.520776832095522
-1.8605750504541263,-2.668831153626206,-1.1754302390575875,11.65990618321071,-3.4888218301074505,-5.562561033014447
-1.8740342799109055,-2.6908027789450175,-1.1839662389970418,11.744770059888689,-3.5200276712684975,-5.60436329614321
-1.8874922277534558,-2.7128160286924445,-1.192500691595575,11.829633934471214,-3.551326446936617,-5.646183594945247
-1.9009488804987702,-2.7348710214366148,-1.2010335632885134,11.914497813338636,-3.5827183604921493,-5.688021907738386
-1.9144042221664186,-2.7569678719231874,-1.2095648185566439,11.999361687210907,-3.6142036105134583,-5.72987820505461
-1.9278582395583714,-2.779106700191385,-1.2180944236796238,12.084225564850636,-3.645782402522899,-5.771752466346163
-1.9413109170830918,-2.801287622679127,-1.2266223430985974,12.169089440069783,-3.6774549373950434,-5.8136446636356105
-1.9547622405185636,-2.823510758895984,-1.2351485422220556,12.253953315892216,-3.709221419580119,-5.855554773527865
-1.9682121955063894,-2.845776228480785,-1.243672986067561,12.338817194647733,-3.741082054153269,-5.897482772237768
-1.981659508353855,-2.868082060480332,-1.2521948414763469,12.423673131854843,-3.7730340498323267,-5.9394247071928215
-1.9949728408970757,-2.8902098732019095,-1.2606308645850086,12.507692312669104,-3.8047641194376403,-5.980970628055332
-2.0082854948478364,-2.912380709535001,-1.2690655103958892,12.591715954011569,-3.8365887689176277,-6.022536215793698
-2.0215967485840793,-2.934593512789625,-1.2774982959657797,12.67573959358875,-3.8685065161958923,-6.06411924013214
-2.034906587907758,-2.956848401408009,-1.285929186550555,12.759763233751864,-3.9005175630849886,-6.10571967796665
-2.0482149980093953,-2.979145493213572,-1.2943581467677407,12.843786873213984,-3.932622110786909,-6.147337504352722
-2.0615219644161447,-3.001484907270405,-1.3027851414180613,12.927810513278018,-3.964820361872248,-6.188972695637768
-2.0748274721779736,-3.0238667622658157,-1.3112101347570697,13.01183415247684,-3.997112518613904,-6.230625226756015
-2.0881315068758766,-3.0462911783978,-1.3196330912927776,13.095857793110016,-4.029498785209796,-6.272295074507173
-2.1014340534780427,-3.068758275342438,-1.3280539749658884,13.179881433927662,-4.0619793651463185,-6.313982213905212
-2.114735096954595,-3.0912681733175718,-1.3364727495634205,13.263905074039531,-4.094554462652026,-6.355686620121806
-2.128034622434482,-3.1138209934471712,-1.34488937889687,13.34792871399507,-4.127224282979968,-6.397408269043822
-2.1413326153966135,-3.1364168578437734,-1.3533038267108657,13.431952356773516,-4.159989033189346,-6.439147137710046
-2.154629059866056,-3.1590558870039906,-1.3617160559306734,13.515975996797502,-4.192848917148522,-6.4809031989575745
-2.167923941196686,-3.1817382039509647,-1.370126029920527,13.599999636998733,-4.225804143109837,-6.522676429762347
-2.1812172439410835,-3.204463930980739,-1.378533711459642,13.684023275684595,-4.2588549179875566,-6.564466804806589
-2.1945089534582647,-3.2272331924744755,-1.3869390637816206,13.768046916759536,-4.292001451344308,-6.6062743015581304
-2.207799054401977,-3.2500461120155024,-1.3953420493996307,13.852070559908608,-4.3252439519175025,-6.648098895339379
-2.2210875302468733,-3.2729028117759986,-1.4037426299559796,13.936094197785234,-4.358582626219996,-6.6899405579550475
-2.234374367192551,-3.295803419281652,-1.4121407687341405,14.020117840744744,-4.392017688273807,-6.731799270024312
-2.247659548234595,-3.3187480570647314,-1.4205364267975087,14.104141479223996,-4.425549344879109,-6.7736750022172165
-2.2609430588885044,-3.34173685265917,-1.4289295666921262,14.188165120059608,-4.459177809914006,-6.815567733362718
-2.2742248831924754,-3.3647699313805512,-1.437320149678176,14.272188760921274,-4.49290329458453,-6.857477437648858
-2.2875050058105346,-3.38784742057625,-1.4457081375373493,14.35621240415838,-4.52672601208718,-6.899404091656169
-2.3007834100284343,-3.410969445542004,-1.454093490816621,14.440236043591801,-4.560646173197264,-6.941347667626044
-2.314060080918839,-3.434136135438256,-1.4624761711686796,14.524259684903784,-4.594663993852765,-6.983308143740487
-2.3273350022671293,-3.457347617630801,-1.4708561391467592,14.608283325912975,-4.628779687695766,-7.025285494196396
-2.3406081578061153,-3.480604020192282,-1.4792333552622632,14.692306964703517,-4.6629934688349985,-7.067279693342165
-2.3538200833988223,-3.503800987215674,-1.4875702709848044,14.775954198282983,-4.697151624842429,-7.109102480989154
-2.3669582947799523,-3.5269160416894927,-1.4958590043123698,14.859145919398713,-4.731220610008354,-7.150714031423511
-2.380094729141265,-3.5500755122843595,-1.5041449242199376,14.942337645093932,-4.765386385742591,-7.192342029455864
-2.393229369596457,-3.5732795235648416,-1.5124279909338318,15.02552936807708,-4.799649160363026,-7.233986447347452
-2.4063622011784997,-3.5965282042912934,-1.520708165885425,15.108721093827821,-4.834009147794478,-7.275647263770849
-2.419493207428965,-3.6198216809961536,-1.5289854092636885,15.191912818640986,-4.868466559070872,-7.317324452734714
-2.4326223720101816,-3.643160080934485,-1.5372596811081336,15.275104539931009,-4.90302160643332,-7.3590179887619405
-2.4457496798769567,-3.666543534637472,-1.5455309423872987,15.358296264067047,-4.937674505985297,-7.400727850924273
-2.4588751146324364,-3.689972170518916,-1.5537991528152602,15.441487989008499,-4.972425471424351,-7.44245401398185
-2.4719986598422112,-3.7134461176303577,-1.5620642719878797,15.524679713007236,-5.007274717085063,-7.484196452835411
-2.4851202994864123,-3.736965506467564,-1.5703262596608105,15.607871437469367,-5.042222459159148,-7.525955143961473
-2.4982400172887926,-3.760530467569455,-1.5785850751815254,15.691063162525628,-5.0772689141066065,-7.567730063147922
-2.511357796432564,-3.784141131185394,-1.586840677432526,15.774254885391018,-5.112414297738712,-7.609521184703054
-2.52447362089511,-3.8077976297094045,-1.5950930256930438,15.85744660885868,-5.1476588287641425,-7.651328485731249
-2.5375874739385704,-3.8315000946758953,-1.6033420784795869,15.940638331473952,-5.183002725025654,-7.693151941129129
-2.5506993395589537,-3.85524865975447,-1.6115877947314494,16.023830057063986,-5.21844620703899,-7.73499152846564
-2.563809200473177,-3.879043456840951,-1.6198301323357462,16.107021781730285,-5.2539894928497475,-7.776847221368642
-2.5769170401771126,-3.9028846200179563,-1.6280690496049217,16.190213507117168,-5.289632803338035,-7.8187189962631995
-2.590022841591997,-3.9267722827101106,-1.6363045041298667,16.27340523147976,-5.325376358956903,-7.860606827774748
-2.6031265877999243,-3.950706579668102,-1.6445364537162235,16.356596954922487,-5.361220381099825,-7.902510691530619
-2.61622826190126,-3.974687646078022,-1.6527648558187553,16.43978867794024,-5.397165092362271,-7.944430563258092
-2.6293278475138564,-3.9987156186634194,-1.6609896679952243,16.522980404750637,-5.4332107177305735,-7.986366420514919
-2.6424253265474316,-4.0227906318950915,-1.6692108467199178,16.606172129419683,-5.469357478175931,-8.02831823577149
-2.655520682187233,-4.046912823104098,-1.6774283489888868,16.68936385449762,-5.505605599225727,-8.070285985706606
-2.6686138966182353,-4.071082328413496,-1.6856421309686935,16.772555576661865,-5.5419553045912195,-8.112269643995246
-2.6817049532358057,-4.095299287170461,-1.6938521496399697,16.855747301078708,-5.578406821956361,-8.154269188651432
-2.694760424352789,-4.11950183461402,-1.7020374171652515,16.938726657541732,-5.61486693480839,-8.19617731864687
-2.7077175574637984,-4.143573043041966,-1.7101585939434063,17.021094701868684,-5.651159065248069,-8.237792291308853
-2.720672523511865,-4.16769117533426,-1.718275951967973,17.10346274592944,-5.687551665913561,-8.279422763635758
-2.7336253049722345,-4.1918563665268715,-1.726389447739955,17.185830787622944,-5.724044957700343,-8.321068710504711
-2.7465758856400573,-4.2160687548636036,-1.7344990384681704,17.268198833830596,-5.7606391660698435,-8.362730111327652
-2.7595242470497956,-4.240328474860748,-1.7426046796513153,17.350566877427955,-5.797334511176192,-8.40440693835549
-2.7724703721542365,-4.264635664562012,-1.7507063276480066,17.43293492102068,-5.834131217903025,-8.44609916878456
-2.7854142436111133,-4.288990461909833,-1.7588039382895508,17.515302965672866,-5.871029511458549,-8.48780677893271
-2.7983558436191407,-4.313393004995856,-1.7668974671800357,17.59767101035772,-5.908029616364279,-8.5295297441199
-2.8112951543262983,-4.337843432119756,-1.7749868694492132,17.680039053936248,-5.945131758276648,-8.571268039469873
-2.824232158443447,-4.362341883656157,-1.7830721006279928,17.762407099684783,-5.982336165114715,-8.61302164240104
-2.837166837263938,-4.386888497690593,-1.7911531149719069,17.844775142146098,-6.01964306194888,-8.654790525784243
-2.850099174175251,-4.411483417257444,-1.7992298680591914,17.92714319000194,-6.057052680591097,-8.696574669704168
-2.8630291494562163,-4.436126780008877,-1.8073023132242898,18.00951123254493,-6.0945652449888525,-8.738374044325125
-2.875956746454722,-4.4608187301988735,-1.8153704055765485,18.09187927923425,-6.132180988891644,-8.780188630024112
-2.8888819456619586,-4.485559407269567,-1.8234340982105717,18.174247321839783,-6.169900138789264,-8.822018398142701
-2.9018047300488288,-4.510348956241934,-1.8314933456712965,18.25661536861917,-6.207722929263141,-8.863863328393636
-2.9147250801595996,-4.535187518202125,-1.8395481008022423,18.33898341294602,-6.245649588798114,-8.90572339289144
-2.9276429780107027,-4.560075237597905,-1.8475983170543366,18.421351458003485,-6.283680351339095,-8.94759856864203
-2.9405584048960995,-4.585012258345965,-1.855643947332878,18.50371950307901,-6.321815449593785,-8.989488830671737
-2.9534713420295016,-4.6099987249641945,-1.8636849443250034,18.58608754756937,-6.36005511700706,-9.031394154031835
-2.96638177060126,-4.6350347826344835,-1.8717212604995874,18.668455591305758,-6.398399587984273,-9.073314513947837
-2.9792896717854935,-4.660120577162415,-1.8797528480708066,18.750823634551015,-6.43684909796942,-9.115249885800162
-2.9921950273276003,-4.685256256239921,-1.887779659437563,18.833191681854203,-6.4754038851162266,-9.157200247120409
-3.0050978170530924,-4.710441964644119,-1.895801645666489,18.915559726197085,-6.514064182803821,-9.199165569531667
-3.0179645904294747,-4.735612378509328,-1.9037979858316099,18.997714286255018,-6.552729617841196,-9.24103700453724
-3.030734512453277,-4.76064785539303,-1.911730884909856,19.079266805970654,-6.591215988641727,-9.28261627275775
-3.0435018632909245,-4.785732810166386,-1.91965891131706,19.160819325863336,-6.6298064901617355,-9.324210135898879
-3.056266624122338,-4.810867387711956,-1.9275820172578813,19.242371846383573,-6.668501355254669,-9.365818569938382
-3.0690287757387487,-4.836051732866196,-1.9355001544939925,19.323924366101092,-6.707300816633826,-9.407441549847075
-3.0817882993690815,-4.861285992104285,-1.9434132748902682,19.405476887035775,-6.746205109341586,-9.449079052323809
-3.0945451750981285,-4.886570310191026,-1.9513213292853073,19.487029404356477,-6.7852144661225955,-9.490731050465108
-3.1072993846283876,-4.911904836204055,-1.9592242695650526,19.568581924519783,-6.824329125401919,-9.532397523200029
-3.120050908023277,-4.937289716271693,-1.9671220461075076,19.65013444374689,-6.8635493220193995,-9.574078444042234
-3.132799726114484,-4.962725099224664,-1.9750146098483163,19.731686964181023,-6.902875293869841,-9.615773789617192
-3.1455458194360473,-4.988211133881373,-1.9829019112212567,19.813239486550923,-6.94230727915338,-9.657483535723324
-3.1582891674272835,-5.013747967469139,-1.9907838996812588,19.894792005091585,-6.981845513872465,-9.69920765473764
-3.1710297510615044,-5.039335751428876,-1.9986605256767567,19.976344524838826,-7.021490239545394,-9.740946124632279
-3.183767550381416,-5.064974635784244,-2.006531738667159,20.057897045250876,-7.061241696161452,-9.782698920373122
-3.196502545404789,-5.090664771361829,-2.0143974879460274,20.139449566361478,-7.1011001246535095,-9.824466017194588
-3.209234715801518,-5.116406309220574,-2.022257722488257,20.221002086784416,-7.141065765833218,-9.866247389602266
-3.2219640414970616,-5.142199401540402,-2.030112391108342,20.302554607292244,-7.181138862556234,-9.908043013098151
-3.2346905019692596,-5.1680442004046485,-2.0379614421533114,20.384107126492374,-7.221319657359849,-9.949852862028704
-3.247414077298425,-5.1939408600796835,-2.045804824240261,20.465659647686333,-7.261608395670013,-9.99167691314753
-3.2601347461509236,-5.219889532616882,-2.0536424848209305,20.547212165688848,-7.302005319665865,-10.033515138757798
-3.2728524888452295,-5.245890374174256,-2.061474372116858,20.62876468655157,-7.342510677947803,-10.075367516851086
-3.2855672840356465,-5.271943538473761,-2.069300433210788,20.71031720649422,-7.383124714843899,-10.117234020369631
-3.2982791114876395,-5.298049182235322,-2.0771206156036706,20.791869729498753,-7.423847679440032,-10.159114626154363
-3.3109879489500478,-5.324207458923501,-2.084934865388616,20.873422247387328,-7.464679815452081,-10.201009304768302
-3.3236560367411574,-5.350340585879946,-2.0927199432772645,20.954732505615986,-7.505499591066221,-10.242793518768364
-3.3362330862871623,-5.376344146726181,-2.1004449661551075,21.03547757405416,-7.546143513445115,-10.28430108624235
-3.3488071439975884,-5.402399766558221,-2.1081640168585563,21.116222645891813,-7.586895190772416,-10.325822379304949
-3.3613781880294544,-5.428507596853724,-2.1158770419959705,21.196967714308965,-7.627754863389769,-10.367357369676046
-3.373946198368116,-5.454667793826269,-2.123583989173233,21.277712785060242,-7.668722778604789,-10.40890603553098
-3.3865111535691526,-5.480880511576632,-2.1312848049354995,21.358457855477074,-7.709799180193204,-10.450468350668293
-3.399073032366969,-5.507145905177564,-2.138979435597398,21.43920292458393,-7.750984313816169,-10.49204428962482
-3.411631813788428,-5.533464131310924,-2.1466678275476525,21.519947994171677,-7.792278427123989,-10.533633828360093
-3.4241874767954075,-5.559835347379159,-2.1543499269367743,21.600693066375882,-7.833681768711667,-10.575236942959704
-3.4367399991324716,-5.5862597089454855,-2.162025678887626,21.681438136154114,-7.875194584417862,-10.61685360570972
-3.44928935946675,-5.612737374374049,-2.169695028891403,21.76218320517262,-7.916817124273966,-10.658483792299306
-3.4618355362020217,-5.639268502327709,-2.177357922066744,21.842928274172202,-7.958549638630039,-10.700127477880136
-3.474378508061699,-5.6658532530825045,-2.1850143035608873,21.92367334678957,-8.000392380043088,-10.741784639063686
-3.4869182521401907,-5.69249178418001,-2.1926641172289005,22.00441841683176,-8.042345596936217,-10.78345524727875
-3.4994547464746724,-5.719184255965677,-2.200307307257188,22.085163484910456,-8.084409542103673,-10.825139277382513
-3.511987969649426,-5.745930831066101,-2.2079438180914344,22.165908556159778,-8.126584471230302,-10.86683670658688
-3.524517898709498,-5.772731669400384,-2.215573592842763,22.24665362633621,-8.168870636268245,-10.908547507091317
-3.5370445115031646,-5.799586933710641,-2.2231965750292546,22.327398697369617,-8.21126829293247,-10.950271654297406
-3.549567785373783,-5.82649678633401,-2.2308127075184276,22.408143768565456,-8.253777696619482,-10.992009122110154
-3.5620876971977538,-5.853461389584732,-2.2384219327305894,22.488888837113503,-8.296399102304122,-11.033759883306042
-3.5746042246800496,-5.880480908449423,-2.246024193367054,22.56963390636172,-8.339132769028472,-11.075523913776621
-3.587117345097262,-5.907555507812617,-2.2536194315941938,22.650378977652316,-8.381978955707496,-11.117301188276786
-3.599627034770237,-5.934685351558376,-2.2612075888665966,22.731124047133967,-8.424937919139277,-11.159091678859284
-3.612098153299509,-5.961794181377624,-2.268767326323685,22.811642353103892,-8.467888798874501,-11.20077794090696
-3.6244771499782638,-5.988764874839638,-2.276266213501633,22.891587969632493,-8.510645651187845,-11.24218065960509
-3.6368527148584655,-6.015790210339472,-2.283757986593489,22.971533582008814,-8.5535138202677,-11.283596256129185
-3.6492248262030333,-6.04287035295626,-2.2912425885140983,23.051479197616626,-8.596493564785776,-11.325024708743332
-3.6615934603703186,-6.07000546476537,-2.2987199609504083,23.131424812586143,-8.63958513789886,-11.36646598990342
-3.6739585941885307,-6.0971957093970275,-2.306190045441941,23.2113704266075,-8.682788795894727,-11.40792007370304
-3.686320204362269,-6.124441251325196,-2.313652783348987,23.291316039594026,-8.72610479575639,-11.449386934352836
-3.698678268380128,-6.151742257509658,-2.3211081161921894,23.37126165724839,-8.769533398606068,-11.49086654893576
-3.71103276120076,-6.179098890410601,-2.328555983837233,23.451207269912537,-8.813074857846338,-11.532358886551787
-3.7233836602298105,-6.206511318667143,-2.3359963273124618,23.531152884495448,-8.85672943687771,-11.573863924763806
-3.7357309413950097,-6.2339797084946635,-2.3434290864796417,23.611098499145687,-8.900497395256957,-11.61538163647929
-3.748074580516966,-6.261504227022609,-2.35085420103337,23.691044112385644,-8.944378993311615,-11.656911994802812
-3.7604145540773355,-6.289085043476845,-2.3582716106637647,23.770989727634696,-8.988374495231685,-11.698454975190257
-3.7727508377370893,-6.316722326448752,-2.365681254469006,23.85093534410243,-9.032484163469517,-11.740010550917996
-3.7850834062214527,-6.3444162433445115,-2.373083070733966,23.930880955804934,-9.076708258470912,-11.781578692466406
-3.797412236727325,-6.372166967722056,-2.3804769988037884,24.010826573384637,-9.121047051099337,-11.823159378751162
-3.8097373028570685,-6.399974666427178,-2.3878629758569203,24.09077218544036,-9.165500800397483,-11.864752577292085
-3.822058581420725,-6.427839514192425,-2.3952409405848876,24.17071780203216,-9.210069778519056,-11.906358266568366
-3.8343760464340795,-6.4557616805736275,-2.4026108298577,24.250663416156314,-9.254754248791794,-11.947976416157267
-3.846689673202134,-6.483741338946433,-2.4099725810445367,24.33060903004607,-9.299554480606746,-11.989607000332473
-3.8589994368292375,-6.511778663117011,-2.4173261310884326,24.410554645489157,-9.344470744106488,-12.03124999300153
-3.871305311582717,-6.5398738260327285,-2.4246714162302587,24.49050025983274,-9.389503307716906,-12.072905365698114
-3.8836005014656894,-6.56801148930864,-2.43200433630105,24.57040186706285,-9.43462755773955,-12.11455015186847
-3.8957767112906505,-6.595943056063572,-2.439260344141081,24.649555485921976,-9.479444463058952,-12.155817226153959
-3.9079491042798216,-6.623931996778145,-2.4465081038332372,24.728709561829003,-9.5243764320914,-12.197096595394466
-3.9201175845215657,-6.651978320516686,-2.4537475101721484,24.807863634740862,-9.569423470232438,-12.238387993078543
-3.932282127343023,-6.680082200526605,-2.460978500173621,24.88701770859238,-9.614585846081894,-12.279691394451449
-3.9444427071714654,-6.708243809006285,-2.4682010101028515,24.966171782449095,-9.659863826265921,-12.321006772144589
-3.9565992985810796,-6.736463319601393,-2.475414976134503,25.0453258573932,-9.705257679282468,-12.362334099793657
-3.968751875786881,-6.764740905890929,-2.4826203338591886,25.124479932941103,-9.75076767384525,-12.403673350028173
-3.980900412572651,-6.793076741377256,-2.4898170183378183,25.203634006712576,-9.796394078485292,-12.445024494367056
-3.9930448833123298,-6.821471002251907,-2.497004964896383,25.28278808141226,-9.842137165192234,-12.48638750700599
-4.0051852616908725,-6.849923863803749,-2.504184108036829,25.361942155984064,-9.887997204994525,-12.52776235995176
-4.017321521550839,-6.87843550272374,-2.511354382125586,25.44109623140668,-9.933974470920846,-12.569149026188382
-4.029453635634213,-6.907006094168943,-2.518515720638937,25.520250302509336,-9.980069233268784,-12.610547475388277
-4.0415815788829565,-6.935635819572448,-2.525668058131803,25.599404379537393,-10.026281772122868,-12.651957685207561
-4.053705322858382,-6.964324853230889,-2.532811326817862,25.678558451525213,-10.072612356262155,-12.693379622031843
-4.065824842044756,-6.993073377439005,-2.5399454603947618,25.75771252765472,-10.119061267087877,-12.734813262690912
-4.07794010850088,-7.021881569884973,-2.5470703909321144,25.836866602374457,-10.165628778137608,-12.776258576242853
-4.090051095103494,-7.050749610981963,-2.554186050579681,25.91602067629524,-10.212315167739495,-12.817715534747181
-4.10215777502673,-7.07967768315031,-2.561292371532412,25.99517475321246,-10.259120716728283,-12.859184111924478
-4.114260119705034,-7.108665965537579,-2.568389284600317,26.074328826453513,-10.306045700853982,-12.900664275816727
-4.126358101936674,-7.1377146416827415,-2.5754767211773566,26.1534828993753,-10.353090402593411,-12.942155999643662
-4.138451694567195,-7.166823896233842,-2.582554612359841,26.2326369766407,-10.400255106247858,-12.983659257146927
-4.15046855623104,-7.19581921481893,-2.589580629465928,26.311317499058074,-10.447256841693953,-13.024925612869238
-4.1624336809120495,-7.224760096547494,-2.596569437538462,26.38968786802054,-10.494191720646382,-13.066040569369482
-4.174394419551106,-7.253760901066983,-2.6035486831412387,26.46805823825371,-10.541245064009468,-13.10716674607522
-4.186350744936555,-7.2828218097861575,-2.610518297877065,26.54642861291055,-10.588417150399708,-13.148304116335792
-4.19830262755687,-7.311942999310687,-2.617478211623007,26.624798980906995,-10.635708250986502,-13.189452645806451
-4.210250040905713,-7.34112465490213,-2.6244283558763777,26.7031693521613,-10.68311865020467,-13.230612311155058
-4.222192956432341,-7.370366957714195,-2.631368660576225,26.781539724095072,-10.730648626059837,-13.27178308228369
-4.234131345658169,-7.399670090236016,-2.638299055483739,26.85991009575791,-10.778298458328441,-13.312964929862744
-4.246065180076164,-7.429034235833746,-2.6452194700047014,26.938280466994453,-10.82606842830862,-13.354157824794832
-4.257994430807349,-7.458459578172357,-2.6521298331241967,27.016650836407905,-10.873958817301043,-13.395361737257547
-4.269919069967724,-7.487946304271924,-2.6590300740323913,27.095021210083857,-10.921969912295962,-13.436576641149726
-4.281839067504101,-7.517494596975666,-2.6659201204292717,27.17339158103593,-10.970101993106773,-13.477802503398284
-4.293754394685485,-7.547104643560852,-2.6727999005355714,27.25176195213838,-11.018355346428265,-13.519039296008845
-4.305665022028237,-7.576776630460299,-2.679669341808945,27.330132322373075,-11.06673025758724,-13.560286988761357
-4.317570920672309,-7.606510746719765,-2.6865283717682655,27.408502695910965,-11.115227016073915,-13.60154555401481
-4.329472060023615,-7.636307178133719,-2.693376916617846,27.486873066619488,-11.163845905999557,-13.642814958534093
-4.341368410655052,-7.666166114773431,-2.700214903070276,27.56524343739157,-11.212587217733128,-13.684095173798685
-4.353259942607576,-7.696087746111008,-2.7070422570552717,27.64361380844593,-11.261451241321582,-13.725386169569504
-4.365146625756043,-7.7260722627007565,-2.71385890427874,27.721984180370697,-11.310438267645928,-13.766687915796611
-4.37702842933436,-7.756119854413343,-2.7206647697020836,27.800354550528496,-11.359548586687762,-13.808000380505161
-4.388905323571469,-7.786230714783028,-2.72745977855611,27.878724924024507,-11.408782494243157,-13.84932353564388
-4.400685930767463,-7.816172573234475,-2.734191687229106,27.956492166588667,-11.457759955275952,-13.89033920680602
-4.41243548037756,-7.8461103612428795,-2.740897833342722,28.03408659470099,-11.506750439256402,-13.93127416214483
-4.424180126475972,-7.876110734030094,-2.7475931142650207,28.11168102246061,-11.555862935281969,-13.972219504569548
-4.435919838491462,-7.9061738796710195,-2.754277455322125,28.189275448397687,-11.605097730083573,-14.01317520286311
-4.447654586811233,-7.936299989882061,-2.760950782112973,28.266869878593408,-11.654455116078564,-14.05414122965661
-4.459384339491984,-7.966489251432005,-2.7676130185662284,28.34446430481623,-11.70393537762522,-14.095117549818971
-4.4711090663580855,-7.996741856801102,-2.774264089344525,28.422058731735312,-11.75353880817027,-14.13610413489165
-4.482828736399283,-8.027057997342308,-2.7809039182691513,28.4996531595907,-11.8032656994348,-14.177100953849488
-4.494543317918374,-8.05743786402091,-2.787532428582228,28.577247585469973,-11.853116341825235,-14.218107973938464
-4.506252780289209,-8.087881651700284,-2.7941495438157413,28.654842014733767,-11.903091032041322,-14.259125166595728
-4.517957091188652,-8.118389551701224,-2.8007551860996354,28.732436442476132,-11.953190061426753,-14.300152497529554
-4.529656218977258,-8.148961758652712,-2.8073492778067997,28.810030869843697,-12.003413725827567,-14.341189935628114
-4.541350131432292,-8.17959846669784,-2.813931740616508,28.887625295235964,-12.053762320391398,-14.382237448097598
-4.553038797101021,-8.210299873072627,-2.82050249627999,28.965219723319688,-12.10423614541004,-14.42329500523239
-4.564722183513238,-8.241066173710841,-2.8270614657341526,29.04281415340172,-12.15483549852092,-14.464362574380301
-4.57640025713633,-8.271897562866211,-2.833608568982957,29.120408578935457,-12.205560674546902,-14.50544011958417
-4.588072986427589,-8.302794241122122,-2.8401437267799063,29.19800300776664,-12.256411978793855,-14.546527612269848
-4.599740337334422,-8.333756403902743,-2.8466668582655292,29.27559743255389,-12.307389707368163,-14.587625015744567
-4.611402278160539,-8.364784253841876,-2.8531778834698933,29.353191862708897,-12.358494168588935,-14.628732301890903
-4.623058774269751,-8.395877987086513,-2.859676720504402,29.430786289466052,-12.409725659706222,-14.669849432815317
-4.634644601530275,-8.42686323115093,-2.866127019459044,29.507946448987674,-12.460796695725808,-14.710746177383298
-4.646174864090605,-8.457779472550763,-2.8725372638454383,29.58477261348272,-12.51177206185341,-14.7514755044373
-4.657699691635229,-8.488760890147145,-2.878935320851518,29.66159878163673,-12.562872851790752,-14.792214387580865
-4.669219050088348,-8.51980767773458,-2.885321109441381,29.738424946883914,-12.614099359205921,-14.832962790248251
-4.680732906623837,-8.550920033993313,-2.8916945490910666,29.81525111253719,-12.66545188500087,-14.873720681055067
-4.692241228053805,-8.582098157489797,-2.8980555586075276,29.8920772805113,-12.716930730444862,-14.914488027525461
-4.7037439798430265,-8.613342244603288,-2.9044040558288433,29.968903445230566,-12.768536192537479,-14.955264793108089
-4.715241128897498,-8.644652496566309,-2.9107399589529797,30.04572961183531,-12.820268576681388,-14.9960509466154
-4.726732640763518,-8.67602911261206,-2.9170631852892295,30.122555778077725,-12.872128183885913,-15.03684645293015
-4.738218481405487,-8.707472293909559,-2.923373651873053,30.199381945486774,-12.92411531906416,-15.077651278544101
-4.7496986156700824,-8.73898223992467,-2.929671274842333,30.2762081095485,-12.976230283915301,-15.118465386575034
-4.761173009954364,-8.770559155642566,-2.9359559708582412,30.353034277487957,-13.02847338907501,-15.159288746166023
-4.772641628118222,-8.8022032406429,-2.9422276549808335,30.429860441155654,-13.080844935451744,-15.200121318207032
-4.784104436246612,-8.833914701446975,-2.9484862429741114,30.506686608313817,-13.133345236163734,-15.24096307163096
-4.795561398562875,-8.86569374097011,-2.9547316493476155,30.583512775839242,-13.185974597686581,-15.281813969472287
-4.807012479316051,-8.897540563359843,-2.960963788245096,30.660338942082422,-13.238733328574801,-15.322673975276457
-4.818457642810748,-8.929455374279392,-2.9671825735304145,30.73716510722681,-13.29162173956513,-15.363543053368945
-4.829896853510399,-8.961438381111607,-2.973387918801793,30.81399127391817,-13.344640144115624,-15.404421169145062
-4.841330074960657,-8.99348979000956,-2.9795797368259813,30.89081744008568,-13.397788853412985,-15.445308285270594
-4.852757271130622,-9.02560980940645,-2.9857579401713616,30.96764360776464,-13.45106818266432,-15.48620436626846
-4.864077721776777,-9.057514509144301,-2.99186814322198,31.043792332717963,-13.504006907663376,-15.526748641024936
-4.875379820142587,-9.089452046941542,-2.997958143150083,31.11985784470186,-13.557016513372494,-15.56725733062112
-4.886675904007437,-9.121457453331358,-3.004034537903284,31.19592335524046,-13.610155085734721,-15.607774698888875
-4.897965937810333,-9.153530934468039,-3.0100972410893707,31.27198886826839,-13.663422935658895,-15.6483007116634
-4.909249884862787,-9.18567269421883,-3.0161461652242614,31.34805438124741,-13.716820370827595,-15.688835330925967
-4.92052770823744,-9.217882937371252,-3.0221812224693814,31.424119891704084,-13.770347699674938,-15.729378518582239
-4.93179937154778,-9.25016187143487,-3.0282023248824443,31.50018540215439,-13.824005235232034,-15.769930238895752
-4.943064838047052,-9.282509704190689,-3.0342093839717172,31.57625091412475,-13.877793290849871,-15.810490455344532
-4.954324070112703,-9.314926642222302,-3.040202310427072,31.652316424688998,-13.931712177722883,-15.851059128778084
-4.965577030847552,-9.347412895577712,-3.0461810149910504,31.72838193733338,-13.985762212538537,-15.891636223231515
-4.976823682124787,-9.379968672146928,-3.052145407417016,31.804447448758207,-14.039943708122555,-15.932221698883971
-4.988063986140185,-9.412594181934397,-3.0580953972184433,31.880512959215235,-14.094256980938606,-15.972815517480049
-4.999297905106464,-9.445289636432753,-3.0640308935904446,31.95657847064383,-14.148702349591854,-16.01341764143709
-5.0105254006203355,-9.478055246806402,-3.0699518050784858,32.0326439824086,-14.203280131772493,-16.05402803157509
-5.021746433969513,-9.51089122449638,-3.075858039637976,32.10870949316185,-14.25799064580437,-16.094646647982007
-5.032960967088405,-9.543797784238876,-3.081749505209821,32.18477500749839,-14.312834215278142,-16.135273453656076
-5.044168959708492,-9.576775135961904,-3.0876261083096304,32.26084051683138,-14.367811155067505,-16.17590840439813
-5.055370374110127,-9.609823498044278,-3.093487756271257,32.336906031094124,-14.422921794771854,-16.216551465433756
-5.066565169586637,-9.642943081790655,-3.0993343546093266,32.41297154176498,-14.4781664513952,-16.257202591988385
-5.077670879391704,-9.675889238056389,-3.105122889371492,32.48847648027179,-14.533136838794299,-16.297562074545468
-5.088741693492085,-9.708821706798231,-3.110881705646826,32.56378886701852,-14.588099223151836,-16.33782647183728
-5.09980590280549,-9.74182462771238,-3.1166254917418166,32.639101252984716,-14.643193936814859,-16.378098657785024
-5.110863468882425,-9.774898214168966,-3.122354154945077,32.714413643017544,-14.698421301194857,-16.418378594671356
-5.12191435141091,-9.808042675689702,-3.128067601330654,32.789726031101175,-14.753781630463962,-16.458666238829288
-5.132958510990539,-9.841258225640951,-3.1337657369903047,32.86503841879673,-14.809275245529562,-16.498961550236295
-5.143995907821938,-9.874545077792122,-3.1394484675091867,32.940350806685046,-14.864902467417302,-16.539264488138894
-5.155026501581626,-9.907903445748756,-3.1451156978361947,33.01566319337631,-14.920663616676615,-16.57957501043625
-5.166050252309117,-9.941333545389401,-3.1507673326549392,33.09097558138254,-14.976559017918373,-16.61989307670927
-5.177067119508008,-9.974835592591583,-3.15640327606447,33.16628797132641,-15.0325889952073,-16.660218645308774
-5.188077061819182,-10.008409802051702,-3.1620234313530253,33.24160035957517,-15.088753870415946,-16.700551672006114
-5.1990800383077795,-10.042056390908108,-3.1676277015578584,33.31691274681797,-15.145053969829318,-16.74089211445233
-5.210076007808162,-10.075775577289448,-3.1732159893008687,33.39222513400983,-15.201489620746548,-16.781239930235213
-5.221065416898704,-10.109569082950985,-3.1787884438226888,33.467540867690126,-15.258063667921283,-16.821596869476245
-5.231288896484663,-10.141092513071685,-3.18396120624693,33.537650985325484,-15.310849888129068,-16.859170998168484
-5.240095128594023,-10.168312152730156,-3.1884080826019265,33.59807595372855,-15.356439027062398,-16.891559602321998
-5.246957343640545,-10.189565590710593,-3.191867606055899,33.64518376759634,-15.392041773174284,-16.91681325147105
-5.251218677512864,-10.202782532880292,-3.194013400681516,33.67444674106045,-15.414184878446212,-16.932502019282545
-5.253062728302011,-10.20850652816558,-3.1949413724692888,33.68711232367276,-15.423775261152342,-16.939292757878157
-5.257551412146137,-10.22245092011533,-3.1971986692581873,33.717948029923235,-15.447140295399278,-16.955826378580507
-5.2645879586815445,-10.244342904707855,-3.2007329036557848,33.76630344584705,-15.483826832107829,-16.98175620048164
-5.273510290320435,-10.27215916704221,-3.205206635586302,33.82764764958821,-15.530449362999475,-17.01465526951264
-5.283811573682864,-10.304354437159846,-3.210361045705875,33.89851406395257,-15.584422738438109,-17.05266696745544
-5.2946437291364,-10.33830182564176,-3.2157685781744227,33.9730807855599,-15.64134637968533,-17.09267017584379
-5.3054686528273916,-10.372322269618659,-3.2211595893169678,34.04764750761541,-15.69840573367404,-17.132680231833902
-5.316286301919722,-10.406415985984939,-3.2265339795204717,34.12221422748647,-15.755601124777456,-17.17269708924133
-5.327096634011814,-10.440583194032259,-3.231891648869158,34.1967809469179,-15.81293288200071,-17.212720703689495
-5.337899606820253,-10.47482411509822,-3.2372324971701083,34.27134767033586,-15.870401337280228,-17.252751031972522
-5.348695176162403,-10.509138964753998,-3.2425564230519717,34.34591438675069,-15.928006813749272,-17.292788023853014
-5.3594832988478585,-10.543527968842078,-3.2478633247001043,34.42048110972236,-15.985749647447028,-17.33283163672849
-5.370263931583772,-10.57799134484309,-3.2531531005703864,34.49504783018357,-16.043630166340794,-17.372881821481304
-5.381037030267405,-10.612529316063728,-3.2584256478540095,34.569614550700614,-16.10164870428856,-17.41293853198955
-5.391802550877029,-10.647142106036533,-3.263680863587665,34.64418127262987,-16.159805595632584,-17.453001721693013
-5.402560448671145,-10.681829936950267,-3.2689186438947933,34.71874799370974,-16.218101173257743,-17.493071341473243
-5.413310679325696,-10.71659303416703,-3.2741388847816384,34.79331471660131,-16.276535774685332,-17.53314734460453
-5.424053197229646,-10.751431620505993,-3.279341481246334,34.86788143691088,-16.33510973284125,-17.573229680223037
-5.434787957600834,-10.786345922868032,-3.284526328245439,34.942448157707396,-16.393823387578806,-17.613318301032137
-5.44551491486349,-10.821336167097265,-3.2896933199192033,35.0170148783657,-16.452677076892446,-17.65341315732851
-5.456234023349684,-10.856402580376074,-3.294842349978578,35.09158159952425,-16.511671140700926,-17.693514199732903
-5.4669452370942935,-10.891545390338344,-3.2999733115338232,35.16614832150562,-16.57080591977213,-17.733621378228776
-5.477648509352425,-10.926764823945703,-3.30508609698774,35.24071504131342,-16.630081753029014,-17.773734640740013
-5.488343794046954,-10.962061111626339,-3.3101805985631874,35.31528176224867,-16.689498985584567,-17.813853938039216
-5.499031044136557,-10.997434482358708,-3.315256707625242,35.38984848289944,-16.749057959742082,-17.853979217990425
-5.509710212843927,-11.032885167540536,-3.320314315235784,35.464415205557174,-16.80875902177309,-17.894110430019616
-5.5203812521329185,-11.068413396101732,-3.325353311450976,35.53898192573254,-16.86860251347352,-17.934247519507913
-5.531044115068263,-11.104019401967975,-3.3303735863512047,35.61354864834651,-16.928588785347934,-17.974390436358217
-5.5416987530424855,-11.139703415480733,-3.335375028886513,35.688115368860146,-16.9887181810827,-18.01453912509382
-5.552345118419069,-11.17546567161562,-3.340357527974426,35.762682091300576,-17.048991052400236,-18.054693534313902
-5.562983162267802,-11.21130640283098,-3.3453209715266494,35.83724881275474,-17.109407746332757,-18.094853608498862
-5.573612835838007,-11.247225843456748,-3.3502652470091028,35.911815533269895,-17.16996861352628,-18.135019293113828
-5.584234090267661,-11.283224229798368,-3.3551902415766217,35.98638225462925,-17.230674006601827,-18.17519053440774
-5.594846876069166,-11.319301796785552,-3.3600958413982744,36.06094897556144,-17.29152427731268,-18.215367276098874
-5.605451143791361,-11.355458781888489,-3.3649819324215073,36.13551569762291,-17.35251978022136,-18.255549463306483
-5.61604684318555,-11.391695421257511,-3.369848399693237,36.21008241860146,-17.413660868016684,-18.2957370385043
-5.626633924309545,-11.428011953720311,-3.3746951279395767,36.28464914045178,-17.47494789783372,-18.33592994591008
-5.637212336661432,-11.464408618087191,-3.3795220012309373,36.35921586340238,-17.53638122627076,-18.37612812841872
-5.647782029089392,-11.500885652424547,-3.3843289028254913,36.433782585030784,-17.59796120888909,-18.416331526900606
-5.658342950476414,-11.53744329677388,-3.389115715580102,36.508349305360404,-17.65968820416653,-18.456540083115456
-5.668895049859531,-11.574081793460785,-3.393882321968491,36.582916027630766,-17.72156257423982,-18.496753740066964
-5.679438275186751,-11.610801382523201,-3.398628603444311,36.65748274933601,-17.78358467764978,-18.53697243703829
-5.6899725744837895,-11.647602306336292,-3.4033544411153245,36.73204947090045,-17.845754876163493,-18.57719611452467
-5.700497895174553,-11.684484806565216,-3.408059715262857,36.80661619038236,-17.90807353079681,-18.617424711063535
-5.7110141851436405,-11.721449128668793,-3.4127443060114473,36.88118291157795,-17.97054100810291,-18.65765816795233
-5.721521391222713,-11.758495515785523,-3.4174080924430217,36.955749632717,-18.033157671235696,-18.697896422771677
-5.73201946047523,-11.795624213935128,-3.422050953339669,37.03031635608326,-18.095923887577122,-18.7381394148802
-5.742508338572939,-11.832835465830163,-3.4266727663496748,37.104883076164384,-18.15884001904713,-18.778387078806013
-5.752987972585916,-11.870129520955368,-3.4312734092646275,37.17944979963171,-18.221906438826768,-18.818639355110648
-5.763458307235559,-11.90750662240273,-3.4358527584000833,37.254016518803255,-18.28512350887283,-18.858896176119636
-5.7739192891429,-11.944967021494893,-3.4404106903345926,37.32858324152312,-18.348491605503355,-18.899157481814488
-5.784370863004302,-11.982510964917816,-3.444947080417942,37.40314996449962,-18.41201109635128,-18.93942320578074
-5.794812973417249,-12.020138700674975,-3.4494618034362237,37.47771668591444,-18.475682351365997,-18.979693281755846
-5.805245565174335,-12.05785047906971,-3.4539547337124907,37.552283407470576,-18.53950574463815,-19.01996764468417
-5.8156685822778496,-12.095646549644679,-3.4584257447931814,37.626850127721625,-18.603481648415265,-19.060246227328328
-5.826081968949972,-12.133527164669871,-3.462874709839353,37.70141684918057,-18.667610439292947,-19.100528964023766
-5.836485668751939,-12.171492575626711,-3.4673015011688837,37.77598357179754,-18.731892492821913,-19.140815786996065
-5.84687962437743,-12.209543032929687,-3.4717059902845153,37.850550291833116,-18.79632818221305,-19.181106625970337
-5.857263779303309,-12.247678791593428,-3.476088048484721,37.9251170134404,-18.86091788856488,-19.22140141424892
-5.867638076260964,-12.285900105842165,-3.480447546252174,37.99968373785405,-18.925661991440226,-19.261700082945687
-5.878002456648854,-12.324207226903079,-3.4847843530073956,38.07425045915107,-18.990560865146612,-19.30200255868051
-5.888356862601597,-12.362600410716166,-3.4890983379933043,38.148817179195554,-19.055614891669062,-19.34230877168509
-5.898701236128265,-12.401079914402661,-3.493389369820016,38.22338390119651,-19.120824455333686,-19.38261865213583
-5.909035518007593,-12.439645992698123,-3.4976573161269413,38.297950622143055,-19.186189935865844,-19.42293212630502
-5.919359649289906,-12.478298903299335,-3.501902044151773,38.37251734347121,-19.251711717845897,-19.463249122211472
-5.929673570761623,-12.517038904678326,-3.506123420459048,38.447084067073035,-19.31739018735114,-19.503569567358998
-5.939977222069252,-12.55586625330922,-3.510321310696894,38.52165078934233,-19.383225726396418,-19.54389338575106
-5.950270542950948,-12.59478120728207,-3.51449557988028,38.59621750937496,-19.449218720711375,-19.584220501849593
-5.960553473577527,-12.633784029260726,-3.5186460928713568,38.67078423263049,-19.515369562107967,-19.624550843294127
-5.970825952266026,-12.672874976188606,-3.5227727131078437,38.7453509532089,-19.58167863367043,-19.664884330565858
-5.981087918366521,-12.712054310840193,-3.52687530389978,38.819917675221205,-19.648146328360614,-19.70522088881616
-5.991339310146279,-12.751322294732088,-3.530953727759878,38.89448439812554,-19.714773035507623,-19.745560440343922
-6.0015800652438855,-12.790679187878347,-3.535007846185719,38.9690511186435,-19.78155914353627,-19.78590290473409
-6.0118101218429425,-12.830125255140818,-3.539037520509852,39.04361784060598,-19.848505047767915,-19.826248205026605
-6.022029417116251,-12.869660759183944,-3.543042611043078,39.11818456289844,-19.9156111402469,-19.86659626066937
-6.032237887797436,-12.909285963347582,-3.5470229774526585,39.1927512841008,-19.982877813482563,-19.90694699035162
-6.042435470699311,-12.949001133049475,-3.5509784788354413,39.2673180058576,-20.05030546382801,-19.94730031353342
-6.052622101983103,-12.988806532987905,-3.554908973428404,39.34188472758885,-20.117894486709737,-19.987656147572874
-6.062797717426749,-13.028702429082895,-3.5588143189081873,39.416451449076334,-20.185645278439114,-20.02801440955775
-6.07296225291627,-13.068689089252556,-3.5626943723243296,39.491018173288516,-20.25355823944817,-20.06837501725752
-6.08311564274222,-13.108766777422172,-3.566548989610629,39.56558489437404,-20.32163376292604,-20.10873788297652
-6.093257822235425,-13.148935763777876,-3.5703780265400753,39.640151616947854,-20.38987225249895,-20.149102923889796
-6.10338872518325,-13.189196314264827,-3.5741813377036626,39.714718336895245,-20.45827410483113,-20.189470051534254
-6.113508286124994,-13.229548699995338,-3.5779587774134627,39.78928505850334,-20.52683972517389,-20.22983918118059
-6.123616438672813,-13.269993190912805,-3.5817101991460545,39.863851782327345,-20.595569516057214,-20.27021022543306
-6.133713115253862,-13.310530053720024,-3.5854354552484864,39.93841850259625,-20.66446387538783,-20.31058309232784
-6.14379824951083,-13.351159562443604,-3.589134398004146,40.01298522559219,-20.7335232129247,-20.350957695712648
-6.153871773494601,-13.391881987098188,-3.5928068785805802,40.08755194887916,-20.802747931140082,-20.391333943959324
-6.163933618575829,-13.432697596664354,-3.596452747239615,40.16211866759188,-20.87213843132309,-20.431711743040697
-6.173983717664248,-13.473606668890229,-3.600071854288724,40.23668539143441,-20.94169512901376,-20.47209100609857
-6.184022000847755,-13.514609471838446,-3.6036640483633766,40.31125211185294,-21.01141842380741,-20.51247163530844
-6.194048399964061,-13.555706283371126,-3.607229178225755,40.385818836577265,-21.081308731129365,-20.5528535409691
-6.204062844109291,-13.596897371931561,-3.610767091006798,40.460385555669056,-21.15136645089738,-20.593236622714503
-6.2140652646473775,-13.638183017920907,-3.6142776341324483,40.534952279363445,-21.22159200258397,-20.633620790381478
-6.22405559021375,-13.679563491933738,-3.6177606533381197,40.60951900005264,-21.29198579011236,-20.67400594283912
-6.234033750719565,-13.721039072941744,-3.621215994364976,40.68408572328903,-21.362548230205846,-20.714391985537784
-6.243999674473188,-13.762610034964117,-3.6246435017073533,40.75865244534684,-21.43327973191225,-20.75477881769048
-6.253953289868324,-13.804276654957649,-3.628043019354668,40.83321916644894,-21.504180708645674,-20.795166339840996
-6.263894525192013,-13.846039211273705,-3.6314143905882177,40.90778588883692,-21.57525157675579,-20.83555445244882
-6.273823307817638,-13.887897980925052,-3.6347574578135027,40.982352611180865,-21.64649274988416,-20.87594305314797
-6.2837395647548275,-13.929853241760886,-3.6380720627272427,41.05691933262784,-21.717904642857967,-20.916332038872053
-6.293643223004915,-13.971905273650572,-3.6413580463786483,41.131486055268276,-21.789487674212253,-20.956721307025767
-6.303534208345918,-14.01405435379253,-3.6446152488392007,41.20605277532335,-21.861242257510828,-20.997110750910526
-6.313412447673931,-14.056300766246734,-3.6478435099032414,41.28061950050741,-21.933168818239746,-21.0375002689161
-6.32327786514504,-14.098644785781449,-3.65104266787137,41.355186221153296,-22.005267765833285,-21.077889749012773
-6.3331303864588415,-14.141086695939007,-3.654212560913301,41.42975294239204,-22.07753952480065,-21.118279086057665
-6.342969936469769,-14.183626779216784,-3.6573530263398455,41.504319666403475,-22.149984517454552,-21.158668172339127
-6.352796438396996,-14.226265313184483,-3.660463900292999,41.57888638612945,-22.22260315792673,-21.199056893966784
-6.362609817027016,-14.269002584691293,-3.6635450188125214,41.65345310980368,-22.295395875876743,-21.23944514429624
-6.372409994798214,-14.311838872456597,-3.666596216530383,41.72801983097083,-22.36836308747716,-21.27983280748202
-6.382196895035203,-14.35477446168842,-3.6696173277725084,41.80258655344022,-22.44150521949023,-21.32021977223473
-6.391970440002324,-14.3978096351223,-3.6726081858754402,41.87715327618278,-22.514822694722714,-21.360605923406542
-6.401730551536863,-14.440944676323667,-3.6755686234642946,41.95171999852693,-22.58831593684556,-21.40099114504359
-6.41147715112736,-14.484179869020283,-3.678498472330629,42.02628672008868,-22.661985370758178,-21.44137531986961
-6.421210159839115,-14.527515498386084,-3.6813975636362497,42.1008534413033,-22.73583142241103,-21.481758330296294
-6.430929498286094,-14.570951849122231,-3.6842657276473196,42.17542016202425,-22.809854518190715,-21.522140056823687
-6.4406350868006434,-14.61448920765411,-3.687102793985748,42.24998688380756,-22.884055086557836,-21.562520379921096
-6.450326845217417,-14.658127860283557,-3.6899085914428875,42.324553607672016,-22.958433556192436,-21.602899178400587
-6.46000240780132,-14.701857746589607,-3.6926822962452026,42.39910271555032,-23.032972718445208,-21.643266789583656
-6.469644480110044,-14.745600796967825,-3.6954188945462945,42.47350121645438,-23.107539424035572,-21.683551082091025
-6.479249608720316,-14.78934090635583,-3.6981174392717335,42.547722376606835,-23.182106127292478,-21.72373746785381
-6.488817922273871,-14.833078133021283,-3.700778015180504,42.621767043630626,-23.256672832560618,-21.76382629494432
-6.498349547473522,-14.876812529031842,-3.703400706162966,42.695636050996946,-23.33123953580063,-21.8038179038328
-6.507844611181674,-14.920544150814525,-3.7059855959588,42.769330234916005,-23.405806241131973,-21.84371263698346
-6.517303238518903,-14.964273050176747,-3.7085327676045017,42.84285041943848,-23.48037294585163,-21.883510830676403
-6.526725553967288,-15.0079992792564,-3.7110423037327145,42.91619742493969,-23.554939648963607,-21.923212819562316
-6.536111681663977,-15.051722891851572,-3.713514286645964,42.98937207039655,-23.6295063534677,-21.96281893787459
-6.545461744162919,-15.09544393777179,-3.7159487980095975,43.06237516382327,-23.704073056512197,-22.00232951430961
-6.554775864046355,-15.139162470072568,-3.718345919247698,43.13520751466155,-23.778639762072437,-22.04174487861452
-6.564054162104576,-15.182878536832192,-3.7207057311123606,43.2078699197692,-23.8532064664544,-22.081065354144698
-6.573296758771855,-15.22659218766904,-3.7230283140392024,43.280363174508885,-23.927773169637213,-22.12029126378198
-6.582503774097695,-15.270303473424669,-3.7253137481146408,43.352688072414665,-24.002339874993794,-22.159422929659847
-6.5916753264851895,-15.31401244046026,-3.727562112801553,43.42484539547693,-24.076906579100953,-22.198460668043666
-6.6008115339775975,-15.357719136670902,-3.729773487259364,43.496835924197455,-24.15147328205721,-22.237404794744187
-6.609912514297324,-15.401423611549893,-3.7319479503340256,43.56866043782277,-24.226039987763194,-22.276255625177427
-6.618978383492175,-15.445125909679547,-3.734085580238989,43.64031970366652,-24.30060669278544,-22.315013468588816
-6.628009256922037,-15.488826075144896,-3.7361864547731165,43.71181448468958,-24.375173394230803,-22.35367863203237
-6.63700525037681,-15.532524157929101,-3.73825065168209,43.78314554900574,-24.449740099286327,-22.39225142594803
-6.645966477721066,-15.57622020101056,-3.7402782479546706,43.85431365025743,-24.524306805252557,-22.43073215287173
-6.654893051982912,-15.619914246885456,-3.7422693202268573,43.92531953706266,-24.598873508819587,-22.469121113139494
-6.663785086278548,-15.663606341413107,-3.7442239449158783,43.99616395993433,-24.6734402135542,-22.507418608317515
-6.672642692270684,-15.707296526438324,-3.7461421978992346,44.06684765913426,-24.748006917030036,-22.545624934717818
-6.681465981278886,-15.750984844738388,-3.748024154717644,44.13737137319586,-24.822573619902325,-22.583740387787937
-6.690255064173575,-15.794671340588968,-3.7498698906579913,44.20773583879397,-24.897140325365978,-22.621765262528477
-6.699010050231232,-15.83835605256759,-3.7516794803716604,44.27794178061017,-24.97170702888832,-22.659699847342278
-6.707731048853981,-15.88203902366142,-3.7534529983940086,44.347989926118345,-25.046273733264783,-22.697544432740898
-6.7164181681817,-15.925720292865575,-3.7551905187174097,44.41788099350757,-25.120840436270203,-22.735299304149954
-6.725071516462402,-15.969399903055667,-3.756892115168288,44.48761570334852,-25.195407142690666,-22.77296474867135
-6.733691199987836,-16.013077889877014,-3.7585578609372114,44.55719476151484,-25.269973846276315,-22.810541045543843
-6.742277325540366,-16.0567542947674,-3.7601878291278807,44.626618879346815,-25.34454055100839,-22.848028477347054
-6.750829998469325,-16.10042915463929,-3.7617820923340908,44.69588875776292,-25.419107254229576,-22.885427321161025
-6.759349324103949,-16.14410250897175,-3.7633407229068445,44.765005098631576,-25.493673958830865,-22.922737854671993
-6.76783540648588,-16.18777439383665,-3.7648637927652517,44.83396859482502,-25.56824066235056,-22.959960351034653
-6.776288349521143,-16.231444847246554,-3.7663513735665473,44.90277993921696,-25.64280736679155,-22.997095083487356
-6.784708256029894,-16.275113904672335,-3.767803536574902,44.9714398172381,-25.71737407037059,-23.034142321522104
-6.793095228526349,-16.31878160290075,-3.769220352788081,45.03994891310626,-25.791940774310728,-23.071102334178
-6.801473642568157,-16.362575102519994,-3.770605863514332,45.10850670282741,-25.866724566734433,-23.10808261058908
-6.809878004579856,-16.406676828040144,-3.7719653800474595,45.177397171532256,-25.942036937309947,-23.145236141006382
-6.818249081494366,-16.45077727528356,-3.773289055443655,45.24613590352657,-26.017349309381395,-23.182301506085384
-6.826586976105636,-16.494876478510264,-3.774576961448498,45.314723585468215,-26.0926616820056,-23.219278973591834
-6.83489179043955,-16.538974471366146,-3.775829169508949,45.383160899351154,-26.167974053267297,-23.256168809182313
-6.84316362607651,-16.58307128797148,-3.7770457507799717,45.451448524770555,-26.243286422908596,-23.292971277354795
-6.851402420776777,-16.62716608594665,-3.7782267530021496,45.51958578599438,-26.318597295321236,-23.329685912235018
-6.859687503590036,-16.67168546420832,-3.7793831575904764,45.588230379108474,-26.394635242326835,-23.366666900487363
-6.867942260840277,-16.71621987434503,-3.780503861338428,45.656749236385345,-26.47070073705024,-23.403572979970267
-6.876163786921489,-16.760753220036193,-3.781588510696666,45.725118145049315,-26.54676623115484,-23.4403910009126
-6.884352183464966,-16.80528553473738,-3.782637177384154,45.79333778679497,-26.622831725782678,-23.477121226470715
-6.892507551231899,-16.84981685009352,-3.783649932776915,45.86140883740928,-26.698897219785295,-23.51376391673978
-6.900629990837382,-16.89434719962686,-3.784626847986554,45.92933197265038,-26.774962716319326,-23.55031933180903
-6.908772542562434,-16.939168619481144,-3.785574047584786,45.99755182703551,-26.851527025478347,-23.587026588360995
-6.916909610835545,-16.98414240154066,-3.7864881325997413,46.06585571532482,-26.92835317467772,-23.623771023160575
-6.925013394005157,-17.029115294013778,-3.787365873919337,46.13401076382396,-27.005179327573565,-23.660427213174756
-6.9330839919306095,-17.074087322503726,-3.788207343442328,46.20201764248429,-27.082005475128216,-23.696995412729592
-6.941121505580978,-17.1190585217906,-3.7890126129544934,46.269877032015636,-27.158831624686663,-23.733475882056993
-6.9491260344835535,-17.164028921446434,-3.789781753845852,46.337589602289704,-27.23565777563631,-23.769868875589236
-6.957118025995491,-17.20911357662477,-3.790516666181603,46.40532865951632,-27.312680439529903,-23.806267400088963
-6.965136020177467,-17.254532146380885,-3.791220459411896,46.47342268659865,-27.390274851517074,-23.842847722223386
-6.9731206689013305,-17.299949989106267,-3.7918876154422407,46.541368980136134,-27.467869264059132,-23.879339580926782
-6.981072072017313,-17.345367132202544,-3.792518206623387,46.609168213223896,-27.545463674249007,-23.91574322953226
-6.988990329554012,-17.39078360658878,-3.793112305051944,46.67682106160691,-27.623058086591485,-23.95205892263223
-6.996875540048218,-17.4361994382187,-3.7936699824965436,46.74432819009973,-27.700652497126693,-23.988286909269767
-7.004727801953364,-17.481614655015342,-3.7941913104573777,46.8116902639062,-27.7782469066427,-24.02442743852557
-7.0126113081747725,-17.527402330902145,-3.7946801944789597,46.87945949341762,-27.8564786980478,-24.060776549436742
-7.020475396492161,-17.57327053681746,-3.7951330426371266,46.94720226925178,-27.93484905651312,-24.097101410970605
-7.0283061726926075,-17.619138195187002,-3.795549029089354,47.01479909458685,-28.01321940911156,-24.1333378095669
-7.036103736765829,-17.6650053384678,-3.795928226403025,47.082250648214256,-28.091589766174078,-24.169485998423287
-7.043868186421416,-17.71087198941838,-3.796270706803906,47.149557591120306,-28.1699601214164,-24.20554622150087
-7.0515996197059465,-17.75673817511029,-3.796576542262707,47.21672058826035,-28.248330477482817,-24.241518724615663
-7.059298133613058,-17.802603919838194,-3.7968458044758995,47.283740297219474,-28.326700832447997,-24.277403749849046
-7.066963824981275,-17.848469249829705,-3.7970785648820486,47.35061737563056,-28.40507118857681,-24.3132015392592
-7.074596789369116,-17.894334186421922,-3.797274894627212,47.41735247131043,-28.483441540751855,-24.34891232956173
-7.082197123227642,-17.94019875946096,-3.7974348646387255,47.483946241472985,-28.561811898896575,-24.384536362573648
-7.089764920573793,-17.986062987088097,-3.797558545541238,47.55039932350584,-28.64018225364049,-24.420073869497205
-7.097300276122655,-18.031926894425442,-3.79764600772872,47.616712362281575,-28.718552608420538,-24.45552508546165
-7.104803283781913,-18.07779050464819,-3.7976973213364733,47.68288599707175,-28.79692296402804,-24.490890242586516
-7.112274036637954,-18.123653838919804,-3.7977125562523777,47.7489208614374,-28.875293318395787,-24.526169569955442
-7.119712627819302,-18.16951692155367,-3.797691782119385,47.81481759077889,-28.95366367554268,-24.561363297596838
-7.127119148781561,-18.21537976924795,-3.797635068336894,47.880576807032426,-29.032034027380227,-24.596471648230082
-7.13449369224711,-18.261242409565888,-3.79754248405744,47.946199144940955,-29.11040438487774,-24.631494851435964
-7.141836348499785,-18.30710485767655,-3.797414098211937,48.01168521896433,-29.188774738653855,-24.666433125863055
-7.149147208605125,-18.352967136718593,-3.7972499794886123,48.07703565214039,-29.26714509328897,-24.70128669480508
-7.156426362914599,-18.398829267721233,-3.797050196331984,48.142251062305824,-29.345515451027392,-24.736055778498404
-7.163673900524041,-18.444691267374292,-3.796814816996094,48.20733205797433,-29.42388580646635,-24.77074059246809
-7.170889910636865,-18.49055315491906,-3.7965439094793694,48.27227924950538,-29.50225616029203,-24.80534135275869
-7.178074482106523,-18.536414950767675,-3.796237541560194,48.33709324593502,-29.580626515174366,-24.839858274879898
-7.1852277029043075,-18.58227667244565,-3.795895780811615,48.40177464977382,-29.658996869567556,-24.87429157075845
-7.192349660961156,-18.62813834000972,-3.7955186945688753,48.46632406464145,-29.73736722687454,-24.90864145282501
-7.1994404429887595,-18.673999968308344,-3.795106349990125,48.53074208448812,-29.815737582394615,-24.942908128215407
-7.206500135530979,-18.7198615738806,-3.7946588140112825,48.59502930319978,-29.89410793489698,-24.977091803957506
-7.213528825517054,-18.765723178630907,-3.7941761533035416,48.65918631971319,-29.972478292828477,-25.01119268969794
-7.220526597977208,-18.811584794560577,-3.7936584344234445,48.723213716937614,-30.050848648659176,-25.04521098633561
-7.227493537989342,-18.85744643711887,-3.7931057237006196,48.78711207991324,-30.129219000845314,-25.079146895990906
-7.234429731129208,-18.90330812758548,-3.792518087183432,48.85088199962016,-30.207589358618648,-25.11300062373631
-7.2413352607840284,-18.94916987522808,-3.791895590863353,48.9145240482146,-30.285959711616872,-25.14677236441256
-7.248210211448825,-18.995031699506676,-3.7912383004055554,48.97803880960509,-30.364330067287067,-25.180462319045567
-7.255054666247116,-19.040893613613402,-3.7905462813659017,49.041426856612475,-30.442700422780174,-25.21407068271143
-7.261868707994386,-19.086755631546765,-3.7898195990999564,49.10468876076788,-30.521070776989554,-25.24759764975821
-7.268652419546173,-19.132617769458587,-3.7890583187238005,49.1678250949668,-30.599441133951306,-25.281043414775457
-7.275405882534897,-19.178480038464734,-3.7882625052551475,49.23083642251602,-30.677811489065597,-25.314408167365855
-7.282129178680001,-19.22434245313316,-3.787432223474771,49.29372330913147,-30.75618184391577,-25.34769209835734
-7.288822389143846,-19.270205026317075,-3.7865675379962758,49.35648631642344,-30.834552198391908,-25.38089539600791
-7.295485594904777,-19.31606777257558,-3.7856685132249788,49.41912600595596,-30.91292255547488,-25.414018248525444
-7.302118875709328,-19.361930700603338,-3.7847352134997854,49.48164292914908,-30.991292908719103,-25.447060838587767
-7.308722312108786,-19.407793826920418,-3.7837677028220567,49.544037646264414,-31.069663265960138,-25.480023353231037
-7.315295983082633,-19.453657160494853,-3.782766045180481,49.606310704622615,-31.14803362189923,-25.512905972785777
-7.321839967689891,-19.499520712721587,-3.7817303043348502,49.66846265332159,-31.22640397667816,-25.545708878051627
-7.328354344530362,-19.545384494796473,-3.780660543883688,49.73049403881206,-31.30477433017652,-25.57843224842966
-7.334839192187156,-19.591248520064305,-3.7795568271992153,49.79240540865774,-31.383144686850446,-25.611076263577722
-7.341294588111001,-19.637112796841645,-3.7784192176125355,49.85419730132777,-31.461515042649904,-25.643641098330594
-7.347720609686016,-19.682977335046946,-3.7772477782473795,49.9158702558026,-31.53988539731901,-25.676126927404077
-7.354117334029201,-19.72884214557836,-3.776042572045601,49.97742481017097,-31.618255752423735,-25.708533924978077
-7.360484837521806,-19.774707236779523,-3.7748036618571996,50.038861497004,-31.6966261055044,-25.740862262193403
-7.366823196904764,-19.82057262165062,-3.773531110240379,50.100180853515425,-31.77499646311051,-25.773112112220264
-7.3731324872455755,-19.866438303925865,-3.7722249798586804,50.16138340239023,-31.853366816122985,-25.80528364049804
-7.379412784633135,-19.91230429703494,-3.7708853329474183,50.22246967752206,-31.93173717274572,-25.837377018046983
-7.3856641635355755,-19.958170605652388,-3.7695122318465324,50.283440198846286,-32.01010752615767,-25.86939240855147
-7.3918866991891985,-20.004037241885495,-3.7681057385205046,50.34429549482737,-32.088477883469544,-25.90132997965797
-7.3980804654284675,-20.049904210622948,-3.766665915009439,50.40503608206084,-32.166848239324565,-25.933189892792566
-7.4042455359844945,-20.09577151801192,-3.7651928231708998,50.46566247729659,-32.245218591466944,-25.964972309053053
-7.4103819850721875,-20.141639176632953,-3.763686524512489,50.52617520372483,-32.32358894877128,-25.99667739280525
-7.41648988521364,-20.187507188578607,-3.7621470807381883,50.5865747691283,-32.40195930302738,-26.028305299952923
-7.4225693095692415,-20.233375563758457,-3.760574553160747,50.64686168939503,-32.48032965923995,-26.05985619063934
-7.428620330240946,-20.279244305779823,-3.758969003162021,50.70703647091709,-32.5587000129669,-26.091330219453003
-7.434643019101046,-20.32511342428299,-3.7573304909667535,50.76709962382296,-32.63707036882549,-26.122727542121243
-7.4406374486596745,-20.370982921812296,-3.755659079376651,50.82705165337245,-32.71544072317023,-26.154048313858592
-7.4466036899937285,-20.41685280659322,-3.753954828388425,50.886893064501486,-32.793811079461584,-26.18529268714984
-7.452541813831316,-20.46272308220182,-3.7522177988652206,50.9466243561883,-32.87218143430473,-26.21646081186884
-7.458451891044151,-20.50859375519279,-3.7504480514315146,51.006246029960415,-32.9505517904257,-26.24755283879627
-7.46433399178158,-20.554464829528847,-3.748645646686491,51.06575858189433,-33.02892214597712,-26.278568915821108
-7.470188185981356,-20.600336309081616,-3.7468106451074052,51.12516250688198,-33.107292500269146,-26.30950918958936
-7.476014543338744,-20.646208199543324,-3.74494310698302,51.18445829962386,-33.18566285482314,-26.340373806888365
-7.481813133277364,-20.692080505426492,-3.743043092520777,51.243646452665736,-33.26403321107877,-26.37116291249768
-7.4875840245510386,-20.737953229477583,-3.7411106618886794,51.30272745388102,-33.34240356673614,-26.40187664892692
-7.493327285793695,-20.783826375323663,-3.739145875100792,51.36170179105779,-33.42077392198508,-26.432515158122147
-7.499042985147521,-20.829699945163227,-3.737148792119883,51.42056994848435,-33.49914427488021,-26.46307857995383
-7.50473119095653,-20.875573945323293,-3.7351194726151937,51.47933241409194,-33.577514630834564,-26.49356705592124
-7.510391970595659,-20.92144837630796,-3.7330579763988108,51.53798966706054,-33.65588498613897,-26.523980722504668
-7.516025391444424,-20.96732324168373,-3.7309643630409455,51.59654218849719,-33.73425534205313,-26.554319717138473
-7.52163152030969,-21.01319854221006,-3.728838692131606,51.654990454739554,-33.81262569595881,-26.58458417426227
-7.527210424203607,-21.059074282590213,-3.7266810229732257,51.7133349457021,-33.89099605247915,-26.614774229802627
-7.532762169011337,-21.10495046107157,-3.7244914150680803,51.77157613128262,-33.96936640516156,-26.644890014353177
-7.53828682142077,-21.150827084579593,-3.722269927403144,51.829714491111766,-34.04773676307249,-26.674931663089215
-7.543784446628846,-21.196704150144317,-3.720016619340136,51.887750490719675,-34.126107118662084,-26.704899303602087
-7.549255110044514,-21.242581658772927,-3.717731549955036,51.9456845992846,-34.204477471640566,-26.73479306500042
-7.554698877222772,-21.288459615067204,-3.7154147780451545,52.00351728905955,-34.28284782823592,-26.764613077635826
-7.5601158126090855,-21.334338016733586,-3.7130663626576172,52.06124902209544,-34.36121818318034,-26.794359466288068
-7.565505980835584,-21.380216865100373,-3.710686362566225,52.118880263760666,-34.4395885380181,-26.824032356996884
-7.570869446134205,-21.42609616067788,-3.7082748364941436,52.17641147681883,-34.517958893026226,-26.8536318742016
-7.576206272456184,-21.471975903771646,-3.705831843084898,52.23384312245992,-34.59632924862101,-26.883158141122866
-7.581516523438211,-21.51785609413506,-3.70335744092395,52.29117565990957,-34.67469960480386,-26.912611279540705
-7.586800262328541,-21.563736731050692,-3.7008516885353373,52.34840954606078,-34.753069960573896,-26.94199140989662
-7.592057551968932,-21.60961781177126,-3.6983146444739874,52.40554523443494,-34.8314403125746,-26.9712986502244
-7.597288455601125,-21.655499339715366,-3.6957463668698045,52.4625831846482,-34.90981066798312,-27.000533121451028
-7.602493035568724,-21.701381312965324,-3.6931469140632194,52.51952384820489,-34.98818102502742,-27.02969494003773
-7.60767135376339,-21.74726372727903,-3.6905163444532874,52.57636767280217,-35.06655137888058,-27.05878421988347
-7.61282347233087,-21.79314658360526,-3.687854716064318,52.633115110843356,-35.14492173329311,-27.08780107716873
-7.6179494530227805,-21.839029881195543,-3.6851620869395503,52.68976661164857,-35.22329208993651,-27.116745625904485
-7.623049356957575,-21.884913616009193,-3.6824385152420183,52.746322619130474,-35.30166244509771,-27.145617976982116
-7.628123245345562,-21.930797787287773,-3.679684058868044,52.80278357986215,-35.38003280082429,-27.174418242327942
-7.633171178981646,-21.976682392521838,-3.67689877574698,52.859149937172816,-35.45840315676898,-27.203146531700664
-7.638193218396057,-22.022567429305674,-3.674082723731283,52.91542213312299,-35.536773512863086,-27.2318029538977
-7.64318942374377,-22.068452893608885,-3.671235960709491,52.971600606838514,-35.615143867002445,-27.260387615636525
-7.648159855208108,-22.114338784361678,-3.66835854431814,53.027685799574535,-35.69351422204945,-27.288900624471335
-7.653104572379431,-22.160225097339367,-3.665450532323686,53.083678147481095,-35.771884575759415,-27.317342084958216
-7.658023634889935,-22.206111830183048,-3.662511982317017,53.13957808826768,-35.85025493009632,-27.34571210172948
-7.662917102060427,-22.251998980787548,-3.659542951803733,53.195386058218425,-35.92862528694978,-27.374010778597043
-7.667785032704703,-22.297886543863473,-3.656543498438842,53.251102488985325,-36.00699564370473,-27.402238216334126
-7.67262748541642,-22.343774515064922,-3.653513679753744,53.3067278117175,-36.0853659989442,-27.430394515328945
-7.677444518756866,-22.389662890856034,-3.6504535531789264,53.36226245808712,-36.16373635394124,-27.458479775370723
-7.682236190860422,-22.43555166642658,-3.647363176170677,53.417706856750215,-36.24210670759328,-27.48649409448415
-7.687002559838368,-22.48144083930927,-3.6442426059687,53.473061437857645,-36.320477062817794,-27.51443757112379
-7.691743683357467,-22.527330404422642,-3.6410918999412965,53.52832662764484,-36.39884741887434,-27.542310301090836
-7.696459618760373,-22.573220355871122,-3.637911115463027,53.58350285020128,-36.47721777382405,-27.57011237868992
-7.701150423422204,-22.619110690605346,-3.6347003096581805,53.63859053175301,-36.55558813061991,-27.597843898956057
-7.705816154028639,-22.665001400726958,-3.631459539946353,53.69359009182797,-36.63395848448905,-27.625504952963386
-7.710456867599645,-22.710892483771097,-3.628188863318861,53.748501955429184,-36.71232884028698,-27.653095634049947
-7.715072620535361,-22.756783933318847,-3.6248883370011096,53.8033265417973,-36.79069919645934,-27.680616032155203
-7.719663468881182,-22.80267574226785,-3.621558018222117,53.85806426793765,-36.86906954997379,-27.708066235861075
-7.724229468871959,-22.84856790630314,-3.6181979639788984,53.91271555390166,-36.94743990399681,-27.735446334316716
-7.728770676345868,-22.89446042092105,-3.614808231224654,53.96728081757673,-37.025810260265054,-27.762756415666043
-7.733287146662218,-22.940353277546087,-3.611388877187538,54.021760471821274,-37.104180615098635,-27.789996564520962
-7.737778935198792,-22.986246470826682,-3.607939958813472,54.07615493183088,-37.182550969833194,-27.817166866481656
-7.742246097128239,-23.032139995119152,-3.6044615330361163,54.130464611689916,-37.26092132593452,-27.844267405941117
-7.746688687271465,-23.078033843327148,-3.60095365686475,54.18468992280358,-37.339291682688135,-27.871298265433715
-7.751106760081958,-23.123928007229882,-3.5974163873584226,54.23883127399738,-37.41766203729058,-27.898259525881365
