RAMEL-ESPOL/ARCHIE/matlab/data/joint_real_states_square_t35_h35_p12.txt
Joint0,Joint1,Joint2,Joint3,Joint4,Joint5 
<<<<<<< HEAD
0.0,9.4921875,14.23828125,-0.087890625,-23.818359374999996,-7.998046875
0.0,9.4921875,14.23828125,-0.087890625,-23.818359374999996,-7.998046875
0.0,9.4921875,14.23828125,-0.087890625,-23.818359374999996,-7.998046875
0.0,9.4921875,14.23828125,-0.087890625,-23.818359374999996,-7.998046875
0.0,9.4921875,14.23828125,-0.087890625,-23.818359374999996,-7.998046875
0.0,9.4921875,14.23828125,-0.087890625,-23.818359374999996,-7.998046875
0.0,9.4921875,14.23828125,-0.087890625,-23.818359374999996,-7.998046875
0.0,9.4921875,14.23828125,-0.087890625,-23.818359374999996,-7.998046875
0.0,9.4921875,14.23828125,-0.087890625,-23.818359374999996,-7.998046875
0.0,9.4921875,14.23828125,-0.087890625,-23.818359374999996,-7.998046875
0.0,9.4921875,14.23828125,-0.087890625,-23.818359374999996,-7.998046875
0.0,9.4921875,14.23828125,-0.087890625,-23.818359374999996,-7.998046875
0.0,9.4921875,14.23828125,-0.087890625,-23.818359374999996,-7.998046875
0.0,9.4921875,14.23828125,-0.087890625,-23.818359374999996,-7.998046875
0.0,9.4921875,14.23828125,-0.087890625,-23.818359374999996,-7.998046875
0.0,9.4921875,14.23828125,-0.087890625,-23.818359374999996,-7.998046875
0.0,9.4921875,14.23828125,-0.087890625,-23.818359374999996,-7.998046875
0.0,9.4921875,14.23828125,-0.087890625,-23.818359374999996,-7.998046875
0.0,9.4921875,14.150390624999998,-0.087890625,-23.818359374999996,-7.998046875
0.0,9.4921875,13.798828125,-0.087890625,-23.73046875,-7.998046875
0.0,9.4921875,13.710937499999998,-0.087890625,-23.642578125,-7.998046875
0.087890625,9.4921875,13.359374999999998,-0.087890625,-23.37890625,-7.998046875
0.087890625,9.4921875,13.271484375,-0.087890625,-22.587890625000004,-7.998046875
0.087890625,9.66796875,13.0078125,-0.087890625,-21.884765625,-7.998046875
0.087890625,9.755859375,12.744140625,-0.087890625,-21.357421875,-7.998046875
0.087890625,9.84375,12.568359375,-0.087890625,-20.7421875,-7.998046875
0.17578125,10.01953125,12.3046875,-0.087890625,-20.302734375,-7.998046875
0.17578125,10.01953125,12.216796874999998,-0.087890625,-19.51171875,-7.998046875
0.263671875,10.283203125,11.865234375,-0.087890625,-18.984375,-7.998046875
0.263671875,10.37109375,11.77734375,-0.087890625,-18.369140625,-7.998046875
0.3515625,10.458984375,11.601562500000002,-0.087890625,-17.841796875,-7.998046875
0.3515625,10.458984375,11.25,-0.087890625,-17.314453125,-7.998046875
0.439453125,10.546874999999998,11.07421875,-0.087890625,-16.611328125,-7.998046875
0.439453125,10.722656249999998,10.8984375,-0.087890625,-16.083984375,-7.998046875
0.615234375,10.810546875,10.634765625,-0.087890625,-15.468749999999998,-7.998046875
0.615234375,10.8984375,10.458984375,-0.087890625,-14.94140625,-7.998046875
0.703125,11.07421875,10.1953125,-0.087890625,-14.414062499999998,-7.998046875
0.703125,11.07421875,10.107421875000002,-0.087890625,-13.623046875,-7.998046875
0.7910156249999999,11.162109375000002,9.84375,-0.17578125,-13.095703125000002,-7.998046875
0.87890625,11.25,9.580078124999998,-0.087890625,-12.568359375,-7.998046875
0.87890625,11.25,9.4921875,-0.17578125,-11.953125000000002,-7.998046875
0.87890625,11.337890625,9.31640625,-0.17578125,-11.337890625,-7.998046875
1.0546875,11.425781249999998,9.052734375,-0.17578125,-10.810546875,-7.998046875
1.0546875,11.601562500000002,8.876953125,-0.17578125,-10.283203125,-7.998046875
1.1425781250000002,11.689453125,8.613281249999998,-0.17578125,-9.66796875,-7.998046875
1.1425781250000002,11.77734375,8.4375,-0.17578125,-9.140625000000002,-7.998046875
1.23046875,11.865234375,8.173828124999998,-0.17578125,-8.525390625,-7.998046875
1.23046875,11.865234375,7.998046875,-0.263671875,-7.998046875,-7.998046875
1.3183593749999998,11.953125000000002,7.822265625000001,-0.263671875,-7.294921875000001,-7.998046875
1.3183593749999998,12.041015625000002,7.55859375,-0.263671875,-6.855468749999999,-7.998046875
1.40625,12.12890625,7.382812500000001,-0.263671875,-6.240234375,-7.998046875
1.4941406250000002,12.12890625,7.119140625,-0.263671875,-5.625,-7.998046875
1.4941406250000002,12.216796874999998,7.03125,-0.263671875,-5.009765625,-7.998046875
1.5820312499999998,12.3046875,6.767578125,-0.263671875,-4.482421875,-7.998046875
1.5820312499999998,12.392578125,6.679687499999999,-0.263671875,-3.9550781250000004,-7.998046875
1.6699218749999998,12.48046875,6.240234375,-0.263671875,-3.4277343749999996,-7.998046875
1.7578125,12.48046875,6.240234375,-0.3515625,-2.8125,-7.998046875
1.7578125,12.568359375,5.976562500000001,-0.3515625,-2.2851562500000004,-7.998046875
1.7578125,12.568359375,5.888671875,-0.3515625,-1.7578125,-7.998046875
1.8457031250000002,12.656249999999998,5.537109375,-0.3515625,-1.23046875,-7.998046875
1.8457031250000002,12.744140625,5.44921875,-0.3515625,-0.615234375,-7.998046875
1.9335937499999998,12.83203125,5.273437499999999,-0.3515625,0.0,-7.998046875
1.9335937499999998,12.83203125,5.009765625,-0.3515625,0.52734375,-7.998046875
2.021484375,12.919921875,4.833984375,-0.3515625,1.0546875,-7.998046875
2.021484375,13.0078125,4.482421875,-0.3515625,1.6699218749999998,-7.998046875
2.109375,13.0078125,4.482421875,-0.439453125,2.197265625,-7.998046875
2.197265625,13.18359375,4.21875,-0.439453125,2.724609375,-7.998046875
2.197265625,13.18359375,4.130859375,-0.439453125,3.3398437499999996,-7.998046875
2.2851562500000004,13.18359375,3.9550781250000004,-0.439453125,3.9550781250000004,-7.998046875
2.2851562500000004,13.271484375,3.6914062500000004,-0.439453125,4.39453125,-7.998046875
2.373046875,13.271484375,3.4277343749999996,-0.52734375,4.921875,-7.998046875
2.373046875,13.359374999999998,3.3398437499999996,-0.52734375,5.537109375,-7.998046875
2.4609375,13.447265625,3.1640624999999996,-0.52734375,6.064453125,-7.998046875
2.4609375,13.447265625,2.9003906250000004,-0.615234375,6.591796875,-7.998046875
2.548828125,13.53515625,2.8125,-0.703125,7.207031249999999,-7.998046875
2.6367187499999996,13.623046875,2.548828125,-0.703125,7.646484374999999,-7.998046875
2.6367187499999996,13.710937499999998,2.373046875,-0.703125,8.349609375,-7.998046875
2.6367187499999996,13.710937499999998,2.197265625,-0.7910156249999999,8.7890625,-7.998046875
2.724609375,13.710937499999998,2.021484375,-0.7910156249999999,9.31640625,-7.998046875
2.724609375,13.710937499999998,1.7578125,-0.7910156249999999,9.931640625,-7.998046875
2.8125,13.798828125,1.6699218749999998,-0.87890625,10.546874999999998,-7.998046875
2.9003906250000004,13.798828125,1.4941406250000002,-0.87890625,11.07421875,-7.998046875
2.9003906250000004,13.886718750000002,1.3183593749999998,-0.9667968749999999,11.601562500000002,-7.998046875
2.9882812500000004,13.886718750000002,1.1425781250000002,-0.9667968749999999,12.12890625,-7.998046875
2.9882812500000004,13.974609375,0.9667968749999999,-1.0546875,12.656249999999998,-7.998046875
3.076171875,14.0625,0.7910156249999999,-1.0546875,13.18359375,-7.998046875
3.1640624999999996,14.0625,0.52734375,-1.0546875,13.710937499999998,-7.998046875
3.1640624999999996,14.0625,0.3515625,-1.23046875,14.23828125,-7.998046875
3.1640624999999996,14.150390624999998,0.17578125,-1.3183593749999998,14.94140625,-7.998046875
3.251953125,14.150390624999998,0.087890625,-1.3183593749999998,15.380859375,-7.998046875
3.251953125,14.150390624999998,-0.17578125,-1.40625,15.99609375,-7.998046875
3.3398437499999996,14.23828125,-0.3515625,-1.40625,16.611328125,-7.998046875
3.3398437499999996,14.23828125,-0.52734375,-1.4941406250000002,17.138671875,-7.998046875
3.4277343749999996,14.23828125,-0.703125,-1.4941406250000002,17.578125,-7.998046875
3.515625,14.326171875,-0.87890625,-1.5820312499999998,18.369140625,-7.998046875
3.515625,14.326171875,-1.0546875,-1.5820312499999998,18.896484375,-7.998046875
3.6035156249999996,14.414062499999998,-1.1425781250000002,-1.6699218749999998,19.423828125,-7.998046875
3.6914062500000004,14.414062499999998,-1.40625,-1.7578125,19.951171875,-7.998046875
3.779296875,14.414062499999998,-1.5820312499999998,-1.8457031250000002,20.478515625,-7.998046875
3.779296875,14.414062499999998,-1.6699218749999998,-1.8457031250000002,21.005859375,-7.998046875
3.779296875,14.501953124999998,-1.8457031250000002,-2.021484375,21.533203125,-7.998046875
3.779296875,14.589843750000002,-2.021484375,-2.021484375,22.1484375,-7.998046875
3.8671874999999996,14.589843750000002,-2.197265625,-2.021484375,22.412109375,-7.998046875
3.8671874999999996,14.589843750000002,-2.197265625,-2.109375,22.5,-7.998046875
3.8671874999999996,14.589843750000002,-2.197265625,-2.109375,22.67578125,-7.998046875
3.8671874999999996,14.501953124999998,-2.548828125,-2.109375,23.291015625,-7.998046875
3.9550781250000004,14.23828125,-2.9003906250000004,-2.109375,23.818359374999996,-7.998046875
3.9550781250000004,13.974609375,-3.1640624999999996,-2.109375,24.345703125,-7.998046875
3.8671874999999996,13.710937499999998,-3.4277343749999996,-2.197265625,24.78515625,-7.998046875
3.9550781250000004,13.623046875,-3.4277343749999996,-2.197265625,24.9609375,-7.998046875
3.8671874999999996,13.53515625,-3.4277343749999996,-2.197265625,25.13671875,-7.998046875
3.8671874999999996,13.271484375,-3.779296875,-2.197265625,25.576171874999996,-7.998046875
3.8671874999999996,12.919921875,-4.04296875,-2.197265625,26.015625,-7.998046875
3.779296875,12.656249999999998,-4.21875,-2.197265625,26.630859375,-7.998046875
3.779296875,12.392578125,-4.39453125,-2.197265625,27.158203125,-7.998046875
3.6914062500000004,12.3046875,-4.570312500000001,-2.197265625,27.333984375,-7.998046875
3.779296875,12.3046875,-4.570312500000001,-2.197265625,27.333984375,-7.998046875
3.6914062500000004,12.3046875,-4.921875,-2.2851562500000004,27.59765625,-7.998046875
3.6914062500000004,12.919921875,-5.537109375,-2.373046875,27.861328125,-7.998046875
3.779296875,13.359374999999998,-6.240234375,-2.4609375,28.037109375,-7.998046875
3.779296875,13.886718750000002,-6.855468749999999,-2.4609375,28.125,-7.998046875
3.779296875,14.414062499999998,-7.470703125,-2.4609375,28.125,-7.998046875
3.8671874999999996,14.853515625,-7.998046875,-2.548828125,28.212890625,-7.998046875
3.8671874999999996,15.468749999999998,-8.701171875,-2.548828125,28.388671875,-7.998046875
3.8671874999999996,15.908203125,-9.31640625,-2.548828125,28.4765625,-7.998046875
3.9550781250000004,16.435546875,-9.931640625,-2.548828125,28.564453124999996,-7.998046875
3.8671874999999996,16.962890625,-10.458984375,-2.6367187499999996,28.65234375,-7.998046875
4.04296875,17.490234375000004,-11.162109375000002,-2.6367187499999996,28.740234375,-7.998046875
3.9550781250000004,18.017578125,-11.77734375,-2.6367187499999996,28.828124999999996,-7.998046875
3.9550781250000004,18.544921875,-12.3046875,-2.6367187499999996,28.828124999999996,-7.998046875
4.04296875,18.80859375,-12.568359375,-2.724609375,28.828124999999996,-7.998046875
3.9550781250000004,18.80859375,-12.656249999999998,-2.724609375,28.828124999999996,-7.998046875
3.6914062500000004,18.80859375,-12.656249999999998,-2.548828125,28.828124999999996,-7.998046875
3.251953125,18.80859375,-12.744140625,-2.109375,28.828124999999996,-7.998046875
2.548828125,18.80859375,-12.744140625,-1.40625,28.828124999999996,-7.998046875
2.021484375,18.80859375,-12.744140625,-1.3183593749999998,28.828124999999996,-7.998046875
1.3183593749999998,18.80859375,-12.744140625,-1.0546875,28.828124999999996,-7.998046875
0.7910156249999999,18.80859375,-12.744140625,-0.615234375,28.916015625000004,-7.998046875
0.17578125,18.80859375,-12.744140625,-0.17578125,28.916015625000004,-7.998046875
-0.3515625,18.896484375,-12.744140625,0.17578125,28.916015625000004,-7.998046875
-0.9667968749999999,18.80859375,-12.744140625,0.52734375,28.916015625000004,-7.998046875
-1.5820312499999998,18.896484375,-12.744140625,0.9667968749999999,28.916015625000004,-7.998046875
-2.197265625,18.896484375,-12.744140625,1.3183593749999998,28.916015625000004,-7.998046875
-2.724609375,18.896484375,-12.744140625,1.6699218749999998,28.916015625000004,-7.998046875
-3.4277343749999996,18.80859375,-12.744140625,2.021484375,28.916015625000004,-7.998046875
-3.9550781250000004,18.80859375,-12.744140625,2.373046875,28.916015625000004,-7.998046875
-4.04296875,18.80859375,-12.744140625,2.6367187499999996,28.916015625000004,-7.998046875
-4.130859375,18.80859375,-12.744140625,2.6367187499999996,28.916015625000004,-7.998046875
-4.130859375,18.80859375,-12.568359375,2.6367187499999996,28.740234375,-7.998046875
-4.21875,18.80859375,-12.12890625,2.6367187499999996,28.300781249999996,-7.998046875
-4.21875,18.80859375,-11.513671875,2.548828125,27.158203125,-7.998046875
-4.306640624999999,18.720703125,-10.8984375,2.548828125,27.158203125,-7.998046875
-4.21875,18.720703125,-10.458984375,2.548828125,26.279296875,-7.998046875
-4.21875,18.720703125,-9.84375,2.548828125,26.103515625,-7.998046875
-4.21875,18.720703125,-9.228515625,2.548828125,25.13671875,-7.998046875
-4.306640624999999,18.720703125,-8.4375,2.548828125,25.048828125000004,-7.998046875
-4.21875,18.6328125,-7.998046875,2.548828125,24.082031250000004,-7.998046875
-4.306640624999999,18.6328125,-7.55859375,2.548828125,23.5546875,-7.998046875
-4.306640624999999,18.6328125,-7.470703125,2.548828125,23.5546875,-7.998046875
-4.306640624999999,18.720703125,-7.470703125,2.548828125,23.115234375,-7.998046875
-4.306640624999999,19.072265625,-7.470703125,2.548828125,23.203125000000004,-7.998046875
-4.39453125,19.86328125,-8.173828124999998,2.548828125,23.203125000000004,-7.998046875
-4.306640624999999,20.390625,-8.876953125,2.6367187499999996,23.203125000000004,-7.998046875
-4.39453125,21.005859375,-9.4921875,2.6367187499999996,23.203125000000004,-7.998046875
-4.39453125,21.357421875,-9.66796875,2.724609375,23.203125000000004,-7.998046875
-4.39453125,21.357421875,-9.84375,2.6367187499999996,23.203125000000004,-7.998046875
-4.21875,21.181640625000004,-9.84375,2.4609375,23.203125000000004,-7.998046875
-3.515625,20.7421875,-9.755859375,2.2851562500000004,23.203125000000004,-7.998046875
-3.1640624999999996,20.390625,-9.228515625,2.197265625,23.203125000000004,-7.998046875
-2.373046875,19.951171875,-8.701171875,1.8457031250000002,23.203125000000004,-7.998046875
-1.9335937499999998,19.599609375,-8.349609375,1.5820312499999998,23.203125000000004,-7.998046875
-1.3183593749999998,19.072265625,-7.646484374999999,1.1425781250000002,23.203125000000004,-7.998046875
-1.0546875,18.80859375,-7.470703125,0.9667968749999999,23.291015625,-7.998046875
-0.3515625,18.281250000000004,-6.767578125,0.52734375,23.203125000000004,-7.998046875
0.087890625,17.841796875,-6.240234375,0.3515625,23.203125000000004,-7.998046875
0.3515625,17.666015625,-6.064453125,0.087890625,23.203125000000004,-7.998046875
0.52734375,17.490234375000004,-5.712890624999999,-0.087890625,23.203125000000004,-7.998046875
1.23046875,16.962890625,-5.09765625,-0.3515625,23.115234375,-7.998046875
1.6699218749999998,16.5234375,-4.658203125,-0.615234375,23.115234375,-7.998046875
2.109375,16.083984375,-3.9550781250000004,-0.9667968749999999,23.02734375,-7.998046875
2.8125,15.644531250000002,-3.6035156249999996,-1.23046875,22.939453124999996,-7.998046875
3.076171875,15.205078124999998,-2.9003906250000004,-1.5820312499999998,22.763671875,-7.998046875
3.6035156249999996,14.765625000000002,-2.548828125,-1.9335937499999998,22.67578125,-7.998046875
3.779296875,14.589843750000002,-2.373046875,-2.021484375,22.412109375,-7.998046875
3.779296875,14.501953124999998,-2.2851562500000004,-2.109375,22.412109375,-7.998046875
3.779296875,14.150390624999998,-2.2851562500000004,-2.109375,22.5,-7.998046875
3.8671874999999996,14.0625,-2.2851562500000004,-2.109375,23.02734375,-7.998046875
3.8671874999999996,13.710937499999998,-2.373046875,-2.109375,23.642578125,-7.998046875
3.8671874999999996,13.447265625,-2.724609375,-2.109375,24.169921875,-7.998046875
3.8671874999999996,13.447265625,-2.724609375,-2.197265625,24.521484375,-7.998046875
3.779296875,13.271484375,-2.9882812500000004,-2.197265625,24.609375,-7.998046875
3.8671874999999996,13.18359375,-3.1640624999999996,-2.197265625,24.873046875,-7.998046875
3.8671874999999996,12.744140625,-3.515625,-2.197265625,25.48828125,-7.998046875
3.779296875,12.48046875,-3.779296875,-2.197265625,25.927734375000004,-7.998046875
3.6914062500000004,12.3046875,-4.21875,-2.2851562500000004,26.54296875,-7.998046875
3.6914062500000004,12.12890625,-4.21875,-2.373046875,26.982421875,-7.998046875
3.6914062500000004,12.041015625000002,-4.21875,-2.2851562500000004,27.158203125,-7.998046875
3.6035156249999996,12.041015625000002,-4.21875,-2.2851562500000004,27.158203125,-7.998046875
3.251953125,12.041015625000002,-4.21875,-2.197265625,27.158203125,-7.998046875
2.548828125,12.041015625000002,-4.39453125,-1.3183593749999998,27.158203125,-7.998046875
2.109375,12.041015625000002,-4.39453125,-1.1425781250000002,27.24609375,-7.998046875
1.4941406250000002,12.041015625000002,-4.39453125,-1.0546875,27.333984375,-7.998046875
0.7910156249999999,12.041015625000002,-4.39453125,-0.615234375,27.333984375,-7.998046875
0.3515625,12.041015625000002,-4.39453125,-0.263671875,27.333984375,-7.998046875
-0.263671875,12.041015625000002,-4.482421875,0.087890625,27.421874999999996,-7.998046875
-0.87890625,12.041015625000002,-4.482421875,0.439453125,27.421874999999996,-7.998046875
-1.40625,12.041015625000002,-4.482421875,0.7910156249999999,27.421874999999996,-7.998046875
-1.9335937499999998,12.12890625,-4.482421875,1.23046875,27.421874999999996,-7.998046875
-2.4609375,12.041015625000002,-4.482421875,1.4941406250000002,27.421874999999996,-7.998046875
-3.076171875,12.12890625,-4.482421875,1.8457031250000002,27.421874999999996,-7.998046875
-3.515625,12.12890625,-4.482421875,2.197265625,27.421874999999996,-7.998046875
-3.6914062500000004,12.041015625000002,-4.482421875,2.2851562500000004,27.421874999999996,-7.998046875
-3.6914062500000004,12.12890625,-4.482421875,2.2851562500000004,27.421874999999996,-7.998046875
-3.6914062500000004,12.12890625,-4.39453125,2.2851562500000004,27.24609375,-7.998046875
-3.6914062500000004,12.12890625,-4.130859375,2.2851562500000004,26.630859375,-7.998046875
-3.779296875,12.216796874999998,-3.6914062500000004,2.2851562500000004,25.751953125,-7.998046875
-3.779296875,12.216796874999998,-3.3398437499999996,2.2851562500000004,25.576171874999996,-7.998046875
-3.8671874999999996,12.392578125,-2.8125,2.2851562500000004,24.609375,-7.998046875
-3.8671874999999996,12.48046875,-2.373046875,2.2851562500000004,24.609375,-7.998046875
-3.8671874999999996,12.568359375,-1.9335937499999998,2.2851562500000004,23.466796875,-7.998046875
-3.9550781250000004,12.744140625,-1.3183593749999998,2.2851562500000004,23.291015625,-7.998046875
-3.9550781250000004,12.919921875,-0.87890625,2.2851562500000004,22.67578125,-7.998046875
-3.9550781250000004,13.0078125,-0.7910156249999999,2.2851562500000004,22.236328125,-7.998046875
-3.9550781250000004,13.0078125,-0.7910156249999999,2.2851562500000004,22.1484375,-7.998046875
-3.9550781250000004,13.447265625,-0.7910156249999999,2.2851562500000004,22.236328125,-7.998046875
-3.9550781250000004,14.23828125,-1.4941406250000002,2.373046875,22.236328125,-7.998046875
-4.04296875,14.501953124999998,-1.6699218749999998,2.373046875,22.236328125,-7.998046875
-4.04296875,14.501953124999998,-1.6699218749999998,2.373046875,22.236328125,-7.998046875
-4.04296875,14.501953124999998,-2.021484375,2.373046875,22.324218750000004,-7.998046875
-3.9550781250000004,14.414062499999998,-2.2851562500000004,2.2851562500000004,22.763671875,-7.998046875
-3.9550781250000004,14.0625,-2.548828125,2.373046875,23.37890625,-7.998046875
-3.9550781250000004,13.798828125,-2.9003906250000004,2.373046875,23.906250000000004,-7.998046875
-3.9550781250000004,13.710937499999998,-3.1640624999999996,2.373046875,24.345703125,-7.998046875
-3.8671874999999996,13.53515625,-3.1640624999999996,2.373046875,24.521484375,-7.998046875
-3.8671874999999996,13.53515625,-3.3398437499999996,2.373046875,24.78515625,-7.998046875
-3.779296875,13.095703125000002,-3.6035156249999996,2.373046875,25.224609375,-7.998046875
-3.8671874999999996,12.83203125,-3.779296875,2.2851562500000004,25.751953125,-7.998046875
-3.779296875,12.48046875,-4.130859375,2.2851562500000004,26.279296875,-7.998046875
-3.6914062500000004,12.3046875,-4.306640624999999,2.2851562500000004,26.89453125,-7.998046875
-3.779296875,12.216796874999998,-4.306640624999999,2.2851562500000004,26.982421875,-7.998046875
-3.779296875,12.216796874999998,-4.306640624999999,2.2851562500000004,26.982421875,-7.998046875
-3.6914062500000004,12.48046875,-5.009765625,2.2851562500000004,27.421874999999996,-7.998046875
-3.6914062500000004,12.919921875,-5.625,2.2851562500000004,27.59765625,-7.998046875
-3.779296875,13.447265625,-6.240234375,2.373046875,27.685546875000004,-7.998046875
-3.779296875,13.974609375,-6.855468749999999,2.373046875,27.861328125,-7.998046875
-3.779296875,14.501953124999998,-7.470703125,2.373046875,27.94921875,-7.998046875
-3.8671874999999996,15.029296875,-8.173828124999998,2.4609375,28.037109375,-7.998046875
-3.8671874999999996,15.468749999999998,-8.7890625,2.4609375,28.125,-7.998046875
-4.04296875,15.99609375,-9.404296875,2.4609375,28.212890625,-7.998046875
-3.9550781250000004,16.5234375,-10.01953125,2.4609375,28.300781249999996,-7.998046875
-3.9550781250000004,17.05078125,-10.634765625,2.548828125,28.388671875,-7.998046875
-4.130859375,17.578125,-11.25,2.548828125,28.564453124999996,-7.998046875
-4.04296875,18.017578125,-11.77734375,2.548828125,28.65234375,-7.998046875
-4.04296875,18.544921875,-12.392578125,2.6367187499999996,28.740234375,-7.998046875
-4.21875,18.80859375,-12.656249999999998,2.6367187499999996,28.740234375,-7.998046875
-4.130859375,18.80859375,-12.656249999999998,2.6367187499999996,28.740234375,-7.998046875
-4.130859375,18.80859375,-12.568359375,2.6367187499999996,28.65234375,-7.998046875
-4.130859375,18.80859375,-12.216796874999998,2.6367187499999996,28.300781249999996,-7.998046875
-4.130859375,18.80859375,-11.953125000000002,2.6367187499999996,27.94921875,-7.998046875
-4.130859375,18.80859375,-11.601562500000002,2.548828125,27.158203125,-7.998046875
-4.130859375,18.80859375,-11.425781249999998,2.548828125,27.24609375,-7.998046875
-4.130859375,18.80859375,-11.25,2.548828125,27.158203125,-7.998046875
-4.130859375,18.80859375,-11.162109375000002,2.548828125,26.806640625000004,-7.998046875
-4.130859375,18.80859375,-10.722656249999998,2.548828125,26.718749999999996,-7.998046875
-4.130859375,18.80859375,-10.107421875000002,2.548828125,26.191406250000004,-7.998046875
-4.130859375,18.80859375,-9.580078124999998,2.548828125,25.48828125,-7.998046875
-4.130859375,18.80859375,-8.96484375,2.548828125,25.400390625,-7.998046875
-4.21875,18.80859375,-8.4375,2.548828125,24.433593749999996,-7.998046875
-4.21875,18.720703125,-7.734374999999999,2.548828125,24.169921875,-7.998046875
-4.21875,18.720703125,-7.55859375,2.548828125,23.5546875,-7.998046875
-4.21875,18.720703125,-7.382812500000001,2.548828125,22.939453124999996,-7.998046875
-4.21875,18.720703125,-7.294921875000001,2.548828125,23.02734375,-7.998046875
-4.21875,19.160156249999996,-7.382812500000001,2.548828125,23.02734375,-7.998046875
-4.306640624999999,20.0390625,-8.4375,2.6367187499999996,23.02734375,-7.998046875
-4.306640624999999,20.478515625,-8.876953125,2.6367187499999996,23.02734375,-7.998046875
-4.39453125,21.005859375,-9.404296875,2.6367187499999996,23.115234375,-7.998046875
-4.39453125,21.357421875,-9.755859375,2.724609375,23.115234375,-7.998046875
-4.39453125,21.357421875,-9.755859375,2.6367187499999996,23.115234375,-7.998046875
-4.130859375,21.357421875,-9.84375,2.4609375,23.115234375,-7.998046875
-3.3398437499999996,21.093749999999996,-9.755859375,2.197265625,23.115234375,-7.998046875
-2.8125,20.830078124999996,-9.66796875,2.021484375,23.115234375,-7.998046875
-2.197265625,20.56640625,-9.31640625,1.6699218749999998,23.115234375,-7.998046875
-1.6699218749999998,20.214843750000004,-8.876953125,1.40625,23.115234375,-7.998046875
-0.9667968749999999,19.951171875,-8.613281249999998,0.9667968749999999,23.115234375,-7.998046875
-0.52734375,19.86328125,-8.4375,0.615234375,23.115234375,-7.998046875
0.087890625,19.3359375,-7.998046875,0.263671875,23.115234375,-7.998046875
0.615234375,19.160156249999996,-7.646484374999999,0.0,23.115234375,-7.998046875
1.3183593749999998,18.80859375,-7.382812500000001,-0.3515625,23.115234375,-7.998046875
1.6699218749999998,18.544921875,-7.119140625,-0.703125,23.115234375,-7.998046875
2.2851562500000004,18.281250000000004,-6.416015625,-1.0546875,23.115234375,-7.998046875
2.8125,17.841796875,-6.328124999999999,-1.40625,23.115234375,-7.998046875
3.3398437499999996,17.75390625,-6.064453125,-1.6699218749999998,23.115234375,-7.998046875
3.9550781250000004,17.314453125,-5.361328124999999,-2.109375,23.115234375,-7.998046875
4.04296875,17.138671875,-5.361328124999999,-2.197265625,23.115234375,-7.998046875
4.04296875,17.138671875,-5.361328124999999,-2.197265625,23.115234375,-7.998046875
4.04296875,16.787109375,-5.361328124999999,-2.197265625,23.37890625,-7.998046875
4.130859375,16.611328125,-5.537109375,-2.197265625,23.994140625,-7.998046875
4.130859375,16.347656249999996,-5.800781250000001,-2.197265625,24.609375,-7.998046875
4.04296875,16.171875,-6.064453125,-2.197265625,24.873046875,-7.998046875
3.9550781250000004,16.083984375,-6.064453125,-2.2851562500000004,24.9609375,-7.998046875
3.9550781250000004,15.99609375,-6.416015625,-2.2851562500000004,25.312499999999996,-7.998046875
3.9550781250000004,15.644531250000002,-6.591796875,-2.2851562500000004,25.83984375,-7.998046875
3.9550781250000004,15.468749999999998,-6.855468749999999,-2.2851562500000004,26.3671875,-7.998046875
3.9550781250000004,15.1171875,-7.207031249999999,-2.373046875,26.982421875,-7.998046875
3.8671874999999996,14.765625000000002,-7.382812500000001,-2.373046875,27.509765625,-7.998046875
3.8671874999999996,14.765625000000002,-7.470703125,-2.373046875,27.685546875000004,-7.998046875
3.8671874999999996,14.677734375,-7.646484374999999,-2.373046875,27.861328125,-7.998046875
3.6035156249999996,14.677734375,-7.646484374999999,-2.2851562500000004,27.861328125,-7.998046875
3.076171875,14.677734375,-7.646484374999999,-1.9335937499999998,27.861328125,-7.998046875
2.373046875,14.677734375,-7.646484374999999,-1.5820312499999998,27.94921875,-7.998046875
1.7578125,14.765625000000002,-7.646484374999999,-1.3183593749999998,28.037109375,-7.998046875
1.23046875,14.765625000000002,-7.646484374999999,-1.0546875,28.037109375,-7.998046875
0.703125,14.765625000000002,-7.822265625000001,-0.52734375,28.125,-7.998046875
0.17578125,14.765625000000002,-7.822265625000001,-0.17578125,28.125,-7.998046875
-0.439453125,14.765625000000002,-7.822265625000001,0.17578125,28.125,-7.998046875
-0.9667968749999999,14.765625000000002,-7.822265625000001,0.52734375,28.125,-7.998046875
-1.6699218749999998,14.765625000000002,-7.822265625000001,0.9667968749999999,28.125,-7.998046875
-2.197265625,14.765625000000002,-7.822265625000001,1.3183593749999998,28.125,-7.998046875
-2.724609375,14.765625000000002,-7.822265625000001,1.6699218749999998,28.125,-7.998046875
-3.251953125,14.677734375,-7.822265625000001,2.021484375,28.125,-7.998046875
-3.779296875,14.677734375,-7.822265625000001,2.2851562500000004,28.125,-7.998046875
-3.8671874999999996,14.677734375,-7.822265625000001,2.4609375,28.125,-7.998046875
-3.8671874999999996,14.677734375,-7.822265625000001,2.4609375,28.125,-7.998046875
-3.8671874999999996,14.677734375,-7.646484374999999,2.373046875,27.861328125,-7.998046875
-3.9550781250000004,14.589843750000002,-7.03125,2.373046875,27.24609375,-7.998046875
-3.9550781250000004,14.589843750000002,-6.416015625,2.373046875,26.191406250000004,-7.998046875
-3.9550781250000004,14.589843750000002,-5.888671875,2.373046875,26.191406250000004,-7.998046875
-3.9550781250000004,14.589843750000002,-5.273437499999999,2.373046875,25.400390625,-7.998046875
-3.9550781250000004,14.589843750000002,-4.74609375,2.373046875,25.312499999999996,-7.998046875
-3.9550781250000004,14.589843750000002,-4.21875,2.373046875,24.2578125,-7.998046875
-4.04296875,14.589843750000002,-3.515625,2.373046875,24.169921875,-7.998046875
-4.04296875,14.589843750000002,-2.9003906250000004,2.373046875,23.291015625,-7.998046875
-3.9550781250000004,14.589843750000002,-2.548828125,2.373046875,22.5,-7.998046875
-3.9550781250000004,14.589843750000002,-2.4609375,2.373046875,22.587890625000004,-7.998046875
-4.04296875,14.589843750000002,-2.4609375,2.373046875,22.587890625000004,-7.998046875
-4.04296875,15.029296875,-2.8125,2.373046875,22.587890625000004,-7.998046875
-4.04296875,15.820312500000002,-3.6035156249999996,2.4609375,22.587890625000004,-7.998046875
-4.04296875,16.347656249999996,-4.21875,2.4609375,22.587890625000004,-7.998046875
-4.130859375,16.875,-4.74609375,2.4609375,22.67578125,-7.998046875
-4.130859375,17.138671875,-5.09765625,2.4609375,22.67578125,-7.998046875
-4.130859375,17.138671875,-5.09765625,2.4609375,22.67578125,-7.998046875
-4.21875,17.138671875,-5.09765625,2.4609375,22.67578125,-7.998046875
-4.130859375,17.138671875,-5.09765625,2.4609375,22.67578125,-7.998046875
-4.130859375,17.138671875,-5.09765625,2.4609375,22.67578125,-7.998046875
-4.130859375,17.138671875,-5.09765625,2.4609375,22.67578125,-7.998046875
-4.130859375,17.138671875,-5.09765625,2.4609375,22.67578125,-7.998046875
-4.130859375,17.138671875,-5.09765625,2.4609375,22.67578125,-7.998046875
-4.130859375,17.138671875,-5.09765625,2.4609375,22.5,-7.998046875
-4.04296875,17.138671875,-5.009765625,2.373046875,21.445312499999996,-7.998046875
-4.04296875,16.875,-4.482421875,2.2851562500000004,20.126953125,-7.998046875
-3.9550781250000004,16.611328125,-3.8671874999999996,2.2851562500000004,19.072265625,-7.998046875
-3.779296875,16.347656249999996,-3.1640624999999996,2.197265625,17.226562499999996,-7.998046875
-3.6035156249999996,15.99609375,-2.2851562500000004,2.109375,15.468749999999998,-7.998046875
-3.4277343749999996,15.820312500000002,-1.5820312499999998,2.021484375,13.798828125,-7.998046875
-3.251953125,15.380859375,-0.703125,1.9335937499999998,11.953125000000002,-7.998046875
-3.1640624999999996,15.205078124999998,-0.17578125,1.9335937499999998,10.1953125,-7.998046875
-2.8125,14.853515625,0.703125,1.9335937499999998,8.4375,-7.998046875
-2.8125,14.589843750000002,1.23046875,1.8457031250000002,6.767578125,-7.998046875
-2.6367187499999996,14.150390624999998,2.373046875,1.7578125,5.009765625,-7.998046875
-2.4609375,13.974609375,2.9003906250000004,1.6699218749999998,3.1640624999999996,-7.998046875
-2.373046875,13.710937499999998,3.6035156249999996,1.5820312499999998,1.4941406250000002,-7.998046875
-2.197265625,13.447265625,4.39453125,1.5820312499999998,-0.263671875,-7.998046875
-1.9335937499999998,13.0078125,5.185546875,1.4941406250000002,-1.9335937499999998,-7.998046875
-1.8457031250000002,12.83203125,5.976562500000001,1.40625,-3.6914062500000004,-7.998046875
-1.6699218749999998,12.48046875,6.591796875,1.3183593749999998,-5.44921875,-7.998046875
-1.5820312499999998,12.216796874999998,7.382812500000001,1.1425781250000002,-7.207031249999999,-7.998046875
-1.40625,12.041015625000002,8.0859375,1.1425781250000002,-8.876953125,-7.998046875
-1.23046875,11.601562500000002,8.7890625,1.0546875,-10.458984375,-7.998046875
-1.1425781250000002,11.425781249999998,9.4921875,0.9667968749999999,-12.3046875,-7.998046875
-0.87890625,11.07421875,10.283203125,0.7910156249999999,-13.974609375,-7.998046875
-0.87890625,10.810546875,10.986328124999998,0.703125,-15.732421875,-7.998046875
-0.615234375,10.458984375,11.865234375,0.52734375,-17.578125,-7.998046875
-0.52734375,10.1953125,12.392578125,0.439453125,-19.248046875,-7.998046875
-0.3515625,10.01953125,13.095703125000002,0.3515625,-20.7421875,-7.998046875
-0.3515625,9.931640625,13.359374999999998,0.3515625,-21.708984374999996,-7.998046875
-0.263671875,9.755859375,13.886718750000002,0.3515625,-22.67578125,-7.998046875
-0.17578125,9.580078124999998,14.23828125,0.263671875,-23.73046875,-7.998046875
-0.17578125,9.580078124999998,14.326171875,0.17578125,-23.906250000000004,-7.998046875
-0.17578125,9.580078124999998,14.326171875,0.17578125,-23.994140625,-7.998046875
-0.17578125,9.580078124999998,14.326171875,0.17578125,-23.994140625,-7.998046875
-0.17578125,9.4921875,14.326171875,0.17578125,-23.994140625,-7.998046875
-0.17578125,9.4921875,14.326171875,0.17578125,-23.994140625,-7.998046875
-0.17578125,9.4921875,14.326171875,0.17578125,-23.994140625,-7.998046875
-0.17578125,9.4921875,14.326171875,0.17578125,-23.994140625,-7.998046875
-0.17578125,9.4921875,14.326171875,0.17578125,-23.994140625,-7.998046875
-0.17578125,9.4921875,14.326171875,0.17578125,-23.994140625,-7.998046875
-0.17578125,9.4921875,14.326171875,0.17578125,-23.994140625,-7.998046875
-0.087890625,9.4921875,14.326171875,0.17578125,-23.994140625,-7.998046875
0.0,9.4921875,14.23828125,0.17578125,-23.818359374999996,-8.7890625
0.0,9.4921875,14.326171875,0.17578125,-23.818359374999996,-8.7890625
0.0,9.4921875,14.326171875,0.17578125,-23.818359374999996,-8.7890625
0.0,9.4921875,14.326171875,0.263671875,-23.818359374999996,-8.7890625
0.0,9.4921875,14.23828125,0.17578125,-23.818359374999996,-8.7890625
0.0,9.4921875,14.23828125,0.17578125,-23.818359374999996,-8.7890625
0.0,9.4921875,14.23828125,0.17578125,-23.818359374999996,-8.7890625
0.0,9.4921875,14.326171875,0.17578125,-23.818359374999996,-8.7890625
0.0,9.4921875,14.326171875,0.17578125,-23.818359374999996,-8.7890625
0.0,9.4921875,14.326171875,0.17578125,-23.818359374999996,-8.7890625
0.0,9.4921875,14.326171875,0.17578125,-23.818359374999996,-8.7890625
0.0,9.4921875,14.23828125,0.17578125,-23.818359374999996,-8.7890625
0.0,9.4921875,14.23828125,0.17578125,-23.818359374999996,-8.7890625
0.0,9.404296875,14.23828125,0.17578125,-23.818359374999996,-8.7890625
0.0,9.4921875,14.23828125,0.17578125,-23.818359374999996,-8.7890625
0.0,9.4921875,14.326171875,0.17578125,-23.818359374999996,-8.7890625
0.0,9.404296875,14.326171875,0.17578125,-23.818359374999996,-8.7890625
0.0,9.4921875,14.326171875,0.17578125,-23.818359374999996,-8.7890625
0.0,9.4921875,14.150390624999998,0.17578125,-23.642578125,-8.7890625
0.0,9.4921875,14.0625,0.17578125,-23.115234375,-8.7890625
0.0,9.580078124999998,13.623046875,0.17578125,-22.412109375,-8.7890625
0.0,9.66796875,13.53515625,0.17578125,-21.796875,-8.7890625
0.0,9.84375,13.271484375,0.17578125,-21.26953125,-8.7890625
0.0,9.84375,13.095703125000002,0.17578125,-20.7421875,-8.7890625
0.087890625,10.01953125,12.83203125,0.17578125,-20.214843750000004,-8.7890625
0.087890625,10.107421875000002,12.568359375,0.17578125,-19.599609375,-8.7890625
0.087890625,10.1953125,12.392578125,0.17578125,-19.072265625,-8.7890625
0.263671875,10.37109375,12.12890625,0.17578125,-18.45703125,-8.7890625
0.3515625,10.458984375,11.953125000000002,0.17578125,-17.9296875,-8.7890625
0.3515625,10.546874999999998,11.689453125,0.17578125,-17.40234375,-8.7890625
0.439453125,10.634765625,11.425781249999998,0.17578125,-16.875,-8.7890625
0.52734375,10.634765625,11.25,0.17578125,-16.347656249999996,-8.7890625
0.52734375,10.722656249999998,11.07421875,0.17578125,-15.732421875,-8.7890625
0.615234375,10.810546875,10.810546875,0.087890625,-15.205078124999998,-8.7890625
0.703125,10.8984375,10.634765625,0.17578125,-14.589843750000002,-8.7890625
0.703125,11.07421875,10.37109375,0.17578125,-13.974609375,-8.7890625
0.703125,11.162109375000002,10.107421875000002,0.087890625,-13.447265625,-8.7890625
0.7910156249999999,11.25,10.01953125,0.087890625,-12.919921875,-8.7890625
0.87890625,11.337890625,9.755859375,0.087890625,-12.392578125,-8.7890625
0.87890625,11.337890625,9.580078124999998,0.087890625,-11.865234375,-8.7890625
0.87890625,11.425781249999998,9.404296875,0.087890625,-11.337890625,-8.7890625
0.9667968749999999,11.425781249999998,9.140625000000002,0.087890625,-10.722656249999998,-8.7890625
1.0546875,11.513671875,8.96484375,0.087890625,-10.1953125,-8.7890625
1.0546875,11.689453125,8.701171875,0.087890625,-9.580078124999998,-8.7890625
1.1425781250000002,11.77734375,8.525390625,0.087890625,-9.140625000000002,-8.7890625
1.23046875,11.865234375,8.26171875,0.087890625,-8.525390625,-8.7890625
1.23046875,11.953125000000002,8.173828124999998,0.0,-7.998046875,-8.7890625
1.3183593749999998,11.953125000000002,7.822265625000001,0.0,-7.382812500000001,-8.7890625
1.3183593749999998,11.953125000000002,7.822265625000001,0.0,-6.855468749999999,-8.7890625
1.40625,12.12890625,7.382812500000001,0.0,-6.328124999999999,-8.7890625
1.4941406250000002,12.216796874999998,7.294921875000001,0.0,-5.712890624999999,-8.7890625
1.4941406250000002,12.3046875,7.119140625,-0.087890625,-5.09765625,-8.7890625
1.5820312499999998,12.3046875,6.855468749999999,-0.087890625,-4.658203125,-8.7890625
1.5820312499999998,12.392578125,6.767578125,-0.087890625,-4.130859375,-8.7890625
1.5820312499999998,12.392578125,6.591796875,-0.087890625,-3.6035156249999996,-8.7890625
1.6699218749999998,12.48046875,6.328124999999999,-0.087890625,-2.9882812500000004,-8.7890625
1.7578125,12.48046875,6.15234375,-0.17578125,-2.4609375,-8.7890625
1.7578125,12.568359375,5.888671875,-0.17578125,-1.9335937499999998,-8.7890625
1.8457031250000002,12.744140625,5.712890624999999,-0.17578125,-1.3183593749999998,-8.7890625
1.8457031250000002,12.744140625,5.537109375,-0.263671875,-0.7910156249999999,-8.7890625
1.9335937499999998,12.744140625,5.361328124999999,-0.263671875,-0.263671875,-8.7890625
1.9335937499999998,12.919921875,5.009765625,-0.263671875,0.263671875,-8.7890625
2.021484375,13.0078125,4.921875,-0.263671875,0.7910156249999999,-8.7890625
2.109375,13.0078125,4.74609375,-0.3515625,1.40625,-8.7890625
2.109375,13.095703125000002,4.570312500000001,-0.3515625,1.9335937499999998,-8.7890625
2.197265625,13.18359375,4.39453125,-0.3515625,2.4609375,-8.7890625
2.197265625,13.18359375,4.21875,-0.3515625,3.076171875,-8.7890625
2.197265625,13.271484375,3.9550781250000004,-0.439453125,3.6914062500000004,-8.7890625
2.2851562500000004,13.271484375,3.779296875,-0.439453125,4.130859375,-8.7890625
2.373046875,13.359374999999998,3.6035156249999996,-0.439453125,4.74609375,-8.7890625
2.373046875,13.359374999999998,3.4277343749999996,-0.52734375,5.273437499999999,-8.7890625
2.4609375,13.447265625,3.251953125,-0.52734375,5.800781250000001,-8.7890625
2.4609375,13.53515625,3.076171875,-0.52734375,6.328124999999999,-8.7890625
2.4609375,13.53515625,2.9003906250000004,-0.615234375,6.855468749999999,-8.7890625
2.548828125,13.623046875,2.548828125,-0.703125,7.470703125,-8.7890625
2.6367187499999996,13.710937499999998,2.4609375,-0.7910156249999999,7.998046875,-8.7890625
2.724609375,13.710937499999998,2.197265625,-0.7910156249999999,8.525390625,-8.7890625
2.724609375,13.710937499999998,2.109375,-0.7910156249999999,9.052734375,-8.7890625
2.8125,13.798828125,1.9335937499999998,-0.87890625,9.580078124999998,-8.7890625
2.8125,13.798828125,1.7578125,-0.87890625,10.283203125,-8.7890625
2.9003906250000004,13.886718750000002,1.5820312499999998,-0.9667968749999999,10.722656249999998,-8.7890625
2.9003906250000004,13.886718750000002,1.4941406250000002,-0.9667968749999999,11.25,-8.7890625
2.9882812500000004,13.886718750000002,1.23046875,-0.9667968749999999,11.865234375,-8.7890625
2.9882812500000004,13.886718750000002,1.0546875,-0.9667968749999999,12.392578125,-8.7890625
3.076171875,14.0625,0.7910156249999999,-1.0546875,12.919921875,-8.7890625
3.076171875,14.0625,0.7910156249999999,-1.1425781250000002,13.447265625,-8.7890625
3.1640624999999996,14.150390624999998,0.52734375,-1.1425781250000002,13.974609375,-8.7890625
3.1640624999999996,14.150390624999998,0.3515625,-1.23046875,14.589843750000002,-8.7890625
3.1640624999999996,14.23828125,0.263671875,-1.3183593749999998,15.029296875,-8.7890625
3.251953125,14.23828125,0.0,-1.3183593749999998,15.644531250000002,-8.7890625
3.3398437499999996,14.23828125,-0.17578125,-1.40625,16.259765625,-8.7890625
3.4277343749999996,14.23828125,-0.3515625,-1.4941406250000002,16.875,-8.7890625
3.4277343749999996,14.326171875,-0.52734375,-1.4941406250000002,17.314453125,-8.7890625
3.4277343749999996,14.326171875,-0.7910156249999999,-1.5820312499999998,17.841796875,-8.7890625
3.515625,14.414062499999998,-0.87890625,-1.5820312499999998,18.45703125,-8.7890625
3.6035156249999996,14.414062499999998,-1.0546875,-1.5820312499999998,18.984375,-8.7890625
3.6035156249999996,14.501953124999998,-1.23046875,-1.6699218749999998,19.51171875,-8.7890625
3.6914062500000004,14.501953124999998,-1.40625,-1.7578125,20.126953125,-8.7890625
3.6914062500000004,14.501953124999998,-1.5820312499999998,-1.8457031250000002,20.654296875,-8.7890625
3.779296875,14.589843750000002,-1.7578125,-1.9335937499999998,21.26953125,-8.7890625
3.779296875,14.589843750000002,-1.9335937499999998,-2.021484375,21.708984374999996,-8.7890625
3.8671874999999996,14.677734375,-2.021484375,-2.021484375,22.1484375,-8.7890625
3.9550781250000004,14.677734375,-1.9335937499999998,-2.109375,22.236328125,-8.7890625
3.8671874999999996,14.677734375,-2.109375,-2.109375,22.412109375,-8.7890625
3.9550781250000004,14.677734375,-2.548828125,-2.109375,22.763671875,-8.7890625
3.9550781250000004,14.23828125,-2.724609375,-2.109375,23.37890625,-8.7890625
3.9550781250000004,14.0625,-3.076171875,-2.197265625,23.906250000000004,-8.7890625
3.9550781250000004,13.886718750000002,-3.251953125,-2.197265625,24.433593749999996,-8.7890625
3.8671874999999996,13.447265625,-3.6035156249999996,-2.197265625,24.9609375,-8.7890625
3.8671874999999996,13.18359375,-3.779296875,-2.197265625,25.48828125,-8.7890625
3.779296875,12.83203125,-4.04296875,-2.197265625,26.015625,-8.7890625
3.8671874999999996,12.656249999999998,-4.306640624999999,-2.197265625,26.455078125,-8.7890625
3.779296875,12.392578125,-4.39453125,-2.2851562500000004,26.982421875,-8.7890625
3.779296875,12.392578125,-4.482421875,-2.2851562500000004,27.24609375,-8.7890625
3.6914062500000004,12.3046875,-4.658203125,-2.2851562500000004,27.333984375,-8.7890625
3.6914062500000004,12.568359375,-5.273437499999999,-2.373046875,27.421874999999996,-8.7890625
3.6914062500000004,13.095703125000002,-5.888671875,-2.4609375,27.59765625,-8.7890625
3.779296875,13.447265625,-6.50390625,-2.4609375,27.685546875000004,-8.7890625
3.779296875,14.0625,-7.03125,-2.4609375,27.773437500000004,-8.7890625
3.6914062500000004,14.501953124999998,-7.734374999999999,-2.4609375,27.861328125,-8.7890625
3.779296875,14.94140625,-8.349609375,-2.548828125,28.037109375,-8.7890625
3.779296875,15.556640625000002,-8.96484375,-2.548828125,28.125,-8.7890625
3.779296875,16.083984375,-9.4921875,-2.548828125,28.212890625,-8.7890625
3.8671874999999996,16.611328125,-10.1953125,-2.6367187499999996,28.212890625,-8.7890625
3.8671874999999996,17.138671875,-10.810546875,-2.6367187499999996,28.300781249999996,-8.7890625
3.9550781250000004,17.578125,-11.425781249999998,-2.6367187499999996,28.388671875,-8.7890625
3.9550781250000004,18.10546875,-11.865234375,-2.6367187499999996,28.564453124999996,-8.7890625
3.9550781250000004,18.6328125,-12.392578125,-2.6367187499999996,28.564453124999996,-8.7890625
4.04296875,18.896484375,-12.568359375,-2.724609375,28.65234375,-8.7890625
4.04296875,18.896484375,-12.568359375,-2.6367187499999996,28.65234375,-8.7890625
3.4277343749999996,18.896484375,-12.568359375,-2.373046875,28.65234375,-8.7890625
2.9003906250000004,18.896484375,-12.656249999999998,-2.109375,28.65234375,-8.7890625
2.2851562500000004,18.984375,-12.656249999999998,-1.7578125,28.564453124999996,-8.7890625
1.6699218749999998,18.984375,-12.656249999999998,-1.40625,28.65234375,-8.7890625
1.0546875,18.984375,-12.656249999999998,-1.0546875,28.65234375,-8.7890625
0.439453125,18.984375,-12.656249999999998,-0.703125,28.65234375,-8.7890625
-0.087890625,18.984375,-12.656249999999998,-0.3515625,28.65234375,-8.7890625
-0.703125,18.984375,-12.656249999999998,0.087890625,28.564453124999996,-8.7890625
-1.23046875,18.984375,-12.656249999999998,0.439453125,28.564453124999996,-8.7890625
-1.8457031250000002,18.984375,-12.656249999999998,0.7910156249999999,28.65234375,-8.7890625
-2.373046875,18.984375,-12.656249999999998,1.1425781250000002,28.65234375,-8.7890625
-2.9882812500000004,18.984375,-12.656249999999998,1.4941406250000002,28.65234375,-8.7890625
-3.515625,18.984375,-12.656249999999998,1.8457031250000002,28.65234375,-8.7890625
-3.8671874999999996,18.896484375,-12.656249999999998,2.021484375,28.564453124999996,-8.7890625
-4.21875,18.896484375,-12.656249999999998,2.2851562500000004,28.65234375,-8.7890625
-4.21875,18.896484375,-12.656249999999998,2.373046875,28.564453124999996,-8.7890625
-4.21875,18.896484375,-12.3046875,2.373046875,28.212890625,-8.7890625
-4.21875,18.896484375,-11.865234375,2.373046875,27.158203125,-8.7890625
-4.21875,18.896484375,-11.162109375000002,2.373046875,26.982421875,-8.7890625
-4.21875,18.896484375,-10.722656249999998,2.373046875,26.015625,-8.7890625
-4.21875,18.896484375,-10.107421875000002,2.4609375,25.6640625,-8.7890625
-4.21875,18.896484375,-9.4921875,2.4609375,24.873046875,-8.7890625
-4.306640624999999,18.896484375,-8.876953125,2.4609375,24.697265624999996,-8.7890625
-4.21875,18.896484375,-8.349609375,2.4609375,24.169921875,-8.7890625
-4.21875,18.80859375,-7.822265625000001,2.4609375,23.203125000000004,-8.7890625
-4.21875,18.80859375,-7.470703125,2.4609375,23.203125000000004,-8.7890625
-4.21875,18.720703125,-7.382812500000001,2.548828125,23.02734375,-8.7890625
-4.306640624999999,18.984375,-7.294921875000001,2.4609375,22.939453124999996,-8.7890625
-4.306640624999999,19.423828125,-7.734374999999999,2.548828125,22.939453124999996,-8.7890625
-4.39453125,19.951171875,-8.4375,2.6367187499999996,23.02734375,-8.7890625
-4.482421875,20.478515625,-8.96484375,2.6367187499999996,23.02734375,-8.7890625
-4.482421875,21.093749999999996,-9.4921875,2.6367187499999996,23.02734375,-8.7890625
-4.482421875,21.445312499999996,-9.580078124999998,2.724609375,23.02734375,-8.7890625
-4.39453125,21.533203125,-9.755859375,2.6367187499999996,23.02734375,-8.7890625
-3.9550781250000004,21.26953125,-9.66796875,2.4609375,23.02734375,-8.7890625
-3.4277343749999996,20.654296875,-9.4921875,2.2851562500000004,23.02734375,-8.7890625
-2.8125,20.302734375,-8.96484375,2.109375,23.02734375,-8.7890625
-2.373046875,19.951171875,-8.4375,1.7578125,23.02734375,-8.7890625
-1.7578125,19.51171875,-8.173828124999998,1.4941406250000002,23.02734375,-8.7890625
-1.23046875,19.3359375,-7.470703125,1.1425781250000002,23.02734375,-8.7890625
-0.87890625,18.6328125,-7.119140625,0.7910156249999999,23.02734375,-8.7890625
-0.263671875,18.369140625,-6.591796875,0.52734375,22.939453124999996,-8.7890625
0.17578125,17.9296875,-6.064453125,0.17578125,22.851562499999996,-8.7890625
0.615234375,17.490234375000004,-5.712890624999999,0.0,22.763671875,-8.7890625
0.87890625,17.314453125,-5.273437499999999,-0.263671875,22.763671875,-8.7890625
1.40625,16.875,-5.009765625,-0.439453125,22.763671875,-8.7890625
1.9335937499999998,16.347656249999996,-4.39453125,-0.703125,22.763671875,-8.7890625
2.373046875,15.908203125,-3.8671874999999996,-1.0546875,22.412109375,-8.7890625
2.8125,15.380859375,-3.3398437499999996,-1.40625,22.412109375,-8.7890625
3.3398437499999996,15.1171875,-2.8125,-1.6699218749999998,22.412109375,-8.7890625
3.6914062500000004,14.677734375,-2.373046875,-1.8457031250000002,21.884765625,-8.7890625
3.9550781250000004,14.589843750000002,-2.109375,-2.021484375,21.972656249999996,-8.7890625
3.9550781250000004,14.501953124999998,-2.109375,-2.109375,22.1484375,-8.7890625
3.9550781250000004,14.150390624999998,-2.109375,-2.109375,22.587890625000004,-8.7890625
3.9550781250000004,13.886718750000002,-2.2851562500000004,-2.109375,23.203125000000004,-8.7890625
3.8671874999999996,13.710937499999998,-2.4609375,-2.109375,23.73046875,-8.7890625
3.8671874999999996,13.447265625,-2.8125,-2.197265625,24.345703125,-8.7890625
3.779296875,13.18359375,-3.076171875,-2.197265625,24.873046875,-8.7890625
3.779296875,12.744140625,-3.4277343749999996,-2.197265625,25.400390625,-8.7890625
3.779296875,12.656249999999998,-3.6914062500000004,-2.197265625,25.927734375000004,-8.7890625
3.779296875,12.3046875,-4.04296875,-2.197265625,26.455078125,-8.7890625
3.6914062500000004,12.216796874999998,-4.21875,-2.2851562500000004,26.982421875,-8.7890625
3.6914062500000004,12.12890625,-4.21875,-2.2851562500000004,27.0703125,-8.7890625
3.6035156249999996,12.12890625,-4.21875,-2.197265625,27.158203125,-8.7890625
2.8125,12.12890625,-4.21875,-2.109375,27.158203125,-8.7890625
2.373046875,12.12890625,-4.306640624999999,-1.9335937499999998,27.158203125,-8.7890625
1.9335937499999998,12.12890625,-4.39453125,-1.5820312499999998,27.158203125,-8.7890625
1.3183593749999998,12.12890625,-4.306640624999999,-1.3183593749999998,27.158203125,-8.7890625
0.7910156249999999,12.12890625,-4.39453125,-0.9667968749999999,27.158203125,-8.7890625
0.17578125,12.12890625,-4.306640624999999,-0.52734375,27.158203125,-8.7890625
-0.3515625,12.12890625,-4.306640624999999,-0.263671875,27.158203125,-8.7890625
-0.87890625,12.12890625,-4.39453125,0.087890625,27.158203125,-8.7890625
-1.40625,12.12890625,-4.306640624999999,0.439453125,27.158203125,-8.7890625
-2.021484375,12.12890625,-4.39453125,0.7910156249999999,27.158203125,-8.7890625
-2.6367187499999996,12.12890625,-4.39453125,1.1425781250000002,27.158203125,-8.7890625
-3.1640624999999996,12.12890625,-4.482421875,1.4941406250000002,27.158203125,-8.7890625
-3.515625,12.12890625,-4.482421875,1.7578125,27.158203125,-8.7890625
-3.6914062500000004,12.12890625,-4.482421875,1.8457031250000002,27.158203125,-8.7890625
-3.6914062500000004,12.12890625,-4.39453125,1.9335937499999998,27.0703125,-8.7890625
-3.6914062500000004,12.12890625,-4.39453125,1.9335937499999998,26.982421875,-8.7890625
-3.6914062500000004,12.12890625,-3.9550781250000004,1.9335937499999998,25.751953125,-8.7890625
-3.6914062500000004,12.3046875,-3.515625,1.9335937499999998,25.576171874999996,-8.7890625
-3.779296875,12.392578125,-3.076171875,1.9335937499999998,24.9609375,-8.7890625
-3.8671874999999996,12.568359375,-2.6367187499999996,1.9335937499999998,24.345703125,-8.7890625
-3.8671874999999996,12.744140625,-2.197265625,2.021484375,23.818359374999996,-8.7890625
-3.8671874999999996,12.919921875,-1.6699218749999998,2.021484375,23.203125000000004,-8.7890625
-4.04296875,13.0078125,-1.23046875,2.021484375,22.763671875,-8.7890625
-3.9550781250000004,13.095703125000002,-0.87890625,2.021484375,22.236328125,-8.7890625
-3.9550781250000004,13.271484375,-0.703125,2.021484375,21.972656249999996,-8.7890625
-3.9550781250000004,13.271484375,-0.615234375,2.021484375,21.884765625,-8.7890625
-4.04296875,13.710937499999998,-0.87890625,2.021484375,21.972656249999996,-8.7890625
-4.04296875,14.326171875,-1.40625,2.109375,21.972656249999996,-8.7890625
-4.04296875,14.589843750000002,-1.5820312499999998,2.197265625,21.972656249999996,-8.7890625
-4.04296875,14.677734375,-1.5820312499999998,2.197265625,21.972656249999996,-8.7890625
-4.04296875,14.677734375,-1.9335937499999998,2.197265625,22.1484375,-8.7890625
-4.04296875,14.414062499999998,-2.2851562500000004,2.2851562500000004,22.67578125,-8.7890625
-3.8671874999999996,14.0625,-2.6367187499999996,2.2851562500000004,23.291015625,-8.7890625
-3.8671874999999996,13.798828125,-2.9003906250000004,2.2851562500000004,23.906250000000004,-8.7890625
-3.8671874999999996,13.53515625,-3.1640624999999996,2.2851562500000004,24.521484375,-8.7890625
-3.779296875,13.271484375,-3.4277343749999996,2.2851562500000004,25.048828125000004,-8.7890625
-3.8671874999999996,13.0078125,-3.6914062500000004,2.2851562500000004,25.576171874999996,-8.7890625
-3.8671874999999996,12.656249999999998,-3.8671874999999996,2.2851562500000004,26.103515625,-8.7890625
-3.6914062500000004,12.48046875,-4.21875,2.2851562500000004,26.630859375,-8.7890625
-3.6914062500000004,12.3046875,-4.306640624999999,2.2851562500000004,26.89453125,-8.7890625
-3.6914062500000004,12.216796874999998,-4.306640624999999,2.2851562500000004,26.982421875,-8.7890625
-3.6914062500000004,12.3046875,-4.833984375,2.373046875,27.158203125,-8.7890625
-3.6914062500000004,12.656249999999998,-5.44921875,2.373046875,27.333984375,-8.7890625
-3.779296875,13.18359375,-6.15234375,2.373046875,27.421874999999996,-8.7890625
-3.779296875,13.798828125,-6.679687499999999,2.373046875,27.509765625,-8.7890625
-3.8671874999999996,14.23828125,-7.294921875000001,2.373046875,27.685546875000004,-8.7890625
-3.9550781250000004,14.765625000000002,-7.910156250000001,2.373046875,27.773437500000004,-8.7890625
-3.9550781250000004,15.205078124999998,-8.525390625,2.4609375,27.94921875,-8.7890625
-3.9550781250000004,15.820312500000002,-9.140625000000002,2.4609375,28.037109375,-8.7890625
-4.130859375,16.259765625,-9.755859375,2.4609375,28.125,-8.7890625
-3.9550781250000004,16.69921875,-10.37109375,2.4609375,28.212890625,-8.7890625
-3.9550781250000004,17.314453125,-10.986328124999998,2.548828125,28.300781249999996,-8.7890625
-4.21875,17.841796875,-11.513671875,2.548828125,28.388671875,-8.7890625
-4.130859375,18.281250000000004,-12.12890625,2.548828125,28.4765625,-8.7890625
-4.130859375,18.720703125,-12.392578125,2.6367187499999996,28.564453124999996,-8.7890625
-4.21875,18.896484375,-12.568359375,2.6367187499999996,28.564453124999996,-8.7890625
-4.130859375,18.984375,-12.568359375,2.6367187499999996,28.4765625,-8.7890625
-4.130859375,18.984375,-12.12890625,2.6367187499999996,28.037109375,-8.7890625
-4.130859375,18.896484375,-11.953125000000002,2.6367187499999996,27.59765625,-8.7890625
-4.130859375,18.984375,-11.689453125,2.6367187499999996,27.333984375,-8.7890625
-4.130859375,18.984375,-11.425781249999998,2.6367187499999996,27.158203125,-8.7890625
-4.130859375,18.984375,-11.337890625,2.6367187499999996,26.806640625000004,-8.7890625
-4.130859375,18.984375,-11.162109375000002,2.548828125,26.806640625000004,-8.7890625
-4.130859375,18.984375,-10.722656249999998,2.548828125,26.455078125,-8.7890625
-4.130859375,18.984375,-10.1953125,2.548828125,25.927734375000004,-8.7890625
-4.130859375,18.984375,-9.66796875,2.548828125,25.224609375,-8.7890625
-4.21875,18.984375,-9.052734375,2.548828125,25.048828125000004,-8.7890625
-4.130859375,18.896484375,-8.4375,2.548828125,24.082031250000004,-8.7890625
-4.306640624999999,18.80859375,-7.910156250000001,2.548828125,23.818359374999996,-8.7890625
-4.21875,18.80859375,-7.470703125,2.548828125,23.37890625,-8.7890625
-4.21875,18.80859375,-7.119140625,2.548828125,22.939453124999996,-8.7890625
-4.21875,18.80859375,-7.119140625,2.548828125,22.939453124999996,-8.7890625
-4.21875,19.248046875,-7.294921875000001,2.548828125,22.939453124999996,-8.7890625
-4.39453125,19.86328125,-8.0859375,2.6367187499999996,22.851562499999996,-8.7890625
-4.39453125,20.302734375,-8.525390625,2.6367187499999996,22.939453124999996,-8.7890625
-4.39453125,20.830078124999996,-9.140625000000002,2.6367187499999996,22.939453124999996,-8.7890625
-4.482421875,21.26953125,-9.4921875,2.6367187499999996,23.02734375,-8.7890625
-4.39453125,21.533203125,-9.66796875,2.6367187499999996,23.02734375,-8.7890625
-4.21875,21.445312499999996,-9.66796875,2.6367187499999996,23.02734375,-8.7890625
-3.6035156249999996,21.26953125,-9.66796875,2.373046875,23.02734375,-8.7890625
-3.1640624999999996,20.91796875,-9.580078124999998,2.197265625,23.02734375,-8.7890625
-2.373046875,20.7421875,-9.228515625,1.8457031250000002,23.02734375,-8.7890625
-1.7578125,20.390625,-8.96484375,1.4941406250000002,23.02734375,-8.7890625
-1.23046875,20.126953125,-8.701171875,1.1425781250000002,23.02734375,-8.7890625
-0.703125,19.86328125,-8.349609375,0.7910156249999999,23.02734375,-8.7890625
-0.087890625,19.599609375,-8.0859375,0.439453125,23.02734375,-8.7890625
0.52734375,19.248046875,-7.646484374999999,0.17578125,23.02734375,-8.7890625
0.9667968749999999,18.896484375,-7.470703125,-0.263671875,23.02734375,-8.7890625
1.6699218749999998,18.6328125,-7.119140625,-0.52734375,23.02734375,-8.7890625
2.197265625,18.369140625,-6.591796875,-0.9667968749999999,23.02734375,-8.7890625
2.8125,18.017578125,-6.328124999999999,-1.23046875,23.02734375,-8.7890625
3.251953125,17.75390625,-5.976562500000001,-1.5820312499999998,23.02734375,-8.7890625
3.779296875,17.490234375000004,-5.537109375,-1.9335937499999998,22.939453124999996,-8.7890625
4.04296875,17.314453125,-5.361328124999999,-2.109375,22.939453124999996,-8.7890625
4.130859375,17.314453125,-5.361328124999999,-2.109375,22.763671875,-8.7890625
4.130859375,17.05078125,-5.361328124999999,-2.197265625,23.115234375,-8.7890625
4.04296875,16.69921875,-5.44921875,-2.197265625,23.642578125,-8.7890625
4.04296875,16.5234375,-5.800781250000001,-2.197265625,24.169921875,-8.7890625
4.04296875,16.171875,-6.064453125,-2.197265625,24.697265624999996,-8.7890625
3.9550781250000004,16.171875,-6.064453125,-2.197265625,24.9609375,-8.7890625
3.9550781250000004,16.083984375,-6.240234375,-2.197265625,25.13671875,-8.7890625
4.04296875,15.820312500000002,-6.591796875,-2.197265625,25.576171874999996,-8.7890625
3.9550781250000004,15.468749999999998,-6.767578125,-2.197265625,26.015625,-8.7890625
3.8671874999999996,15.205078124999998,-6.943359375000001,-2.2851562500000004,26.630859375,-8.7890625
3.8671874999999996,14.94140625,-7.294921875000001,-2.2851562500000004,27.24609375,-8.7890625
3.779296875,14.853515625,-7.382812500000001,-2.2851562500000004,27.509765625,-8.7890625
3.8671874999999996,14.765625000000002,-7.55859375,-2.2851562500000004,27.685546875000004,-8.7890625
3.6914062500000004,14.765625000000002,-7.646484374999999,-2.2851562500000004,27.773437500000004,-8.7890625
3.1640624999999996,14.765625000000002,-7.646484374999999,-2.2851562500000004,27.773437500000004,-8.7890625
2.4609375,14.765625000000002,-7.646484374999999,-2.021484375,27.861328125,-8.7890625
1.9335937499999998,14.765625000000002,-7.646484374999999,-1.7578125,27.773437500000004,-8.7890625
1.40625,14.765625000000002,-7.646484374999999,-1.40625,27.861328125,-8.7890625
0.7910156249999999,14.765625000000002,-7.646484374999999,-1.0546875,27.861328125,-8.7890625
0.3515625,14.765625000000002,-7.646484374999999,-0.703125,27.861328125,-8.7890625
-0.263671875,14.765625000000002,-7.646484374999999,-0.263671875,27.861328125,-8.7890625
-0.87890625,14.765625000000002,-7.646484374999999,0.087890625,27.861328125,-8.7890625
-1.40625,14.765625000000002,-7.646484374999999,0.439453125,27.861328125,-8.7890625
-2.021484375,14.765625000000002,-7.646484374999999,0.7910156249999999,27.861328125,-8.7890625
-2.6367187499999996,14.765625000000002,-7.646484374999999,1.1425781250000002,27.861328125,-8.7890625
-3.1640624999999996,14.765625000000002,-7.646484374999999,1.4941406250000002,27.861328125,-8.7890625
-3.515625,14.765625000000002,-7.646484374999999,1.7578125,27.861328125,-8.7890625
-3.8671874999999996,14.765625000000002,-7.646484374999999,2.021484375,27.861328125,-8.7890625
-3.9550781250000004,14.765625000000002,-7.646484374999999,2.021484375,27.861328125,-8.7890625
-3.9550781250000004,14.765625000000002,-7.55859375,2.021484375,27.685546875000004,-8.7890625
-3.9550781250000004,14.765625000000002,-7.119140625,2.109375,26.630859375,-8.7890625
-3.9550781250000004,14.765625000000002,-6.50390625,2.109375,26.191406250000004,-8.7890625
-3.9550781250000004,14.765625000000002,-5.888671875,2.109375,25.576171874999996,-8.7890625
-3.9550781250000004,14.765625000000002,-5.361328124999999,2.109375,25.048828125000004,-8.7890625
-3.9550781250000004,14.765625000000002,-4.833984375,2.109375,24.433593749999996,-8.7890625
-3.9550781250000004,14.677734375,-4.21875,2.197265625,23.73046875,-8.7890625
-3.9550781250000004,14.765625000000002,-3.6035156249999996,2.197265625,23.73046875,-8.7890625
-4.04296875,14.677734375,-3.076171875,2.197265625,22.939453124999996,-8.7890625
-4.04296875,14.677734375,-2.548828125,2.197265625,22.5,-8.7890625
-4.04296875,14.677734375,-2.4609375,2.197265625,22.1484375,-8.7890625
-4.04296875,14.765625000000002,-2.373046875,2.197265625,22.1484375,-8.7890625
-3.9550781250000004,14.94140625,-2.6367187499999996,2.197265625,22.1484375,-8.7890625
-4.04296875,15.556640625000002,-3.3398437499999996,2.2851562500000004,22.236328125,-8.7890625
-4.130859375,16.171875,-3.8671874999999996,2.373046875,22.236328125,-8.7890625
-4.21875,16.69921875,-4.482421875,2.4609375,22.236328125,-8.7890625
-4.21875,17.05078125,-4.74609375,2.4609375,22.412109375,-8.7890625
-4.21875,17.314453125,-4.921875,2.4609375,22.412109375,-8.7890625
-4.21875,17.314453125,-4.921875,2.4609375,22.412109375,-8.7890625
-4.21875,17.314453125,-4.921875,2.4609375,22.412109375,-8.7890625
-4.21875,17.314453125,-4.921875,2.4609375,22.412109375,-8.7890625
-4.21875,17.314453125,-5.009765625,2.4609375,22.5,-8.7890625
-4.130859375,17.314453125,-5.009765625,2.4609375,22.5,-8.7890625
-4.130859375,17.314453125,-5.009765625,2.4609375,22.5,-8.7890625
-4.130859375,17.314453125,-5.09765625,2.4609375,22.412109375,-8.7890625
-4.04296875,17.226562499999996,-5.009765625,2.4609375,21.445312499999996,-8.7890625
-4.04296875,16.962890625,-4.570312500000001,2.373046875,20.478515625,-8.7890625
-3.9550781250000004,16.69921875,-4.04296875,2.2851562500000004,19.160156249999996,-8.7890625
-3.779296875,16.435546875,-3.251953125,2.2851562500000004,17.490234375000004,-8.7890625
-3.4277343749999996,16.171875,-2.4609375,2.197265625,15.732421875,-8.7890625
-3.3398437499999996,15.820312500000002,-1.7578125,2.109375,14.150390624999998,-8.7890625
-3.251953125,15.556640625000002,-1.1425781250000002,2.021484375,12.216796874999998,-8.7890625
-3.076171875,15.292968749999998,-0.3515625,2.021484375,10.634765625,-8.7890625
-2.8125,14.94140625,0.263671875,1.9335937499999998,8.7890625,-8.7890625
-2.8125,14.589843750000002,1.0546875,1.8457031250000002,7.119140625,-8.7890625
-2.6367187499999996,14.414062499999998,1.9335937499999998,1.8457031250000002,5.361328124999999,-8.7890625
-2.4609375,14.0625,2.724609375,1.7578125,3.515625,-8.7890625
-2.2851562500000004,13.710937499999998,3.4277343749999996,1.7578125,1.8457031250000002,-8.7890625
-2.197265625,13.447265625,4.04296875,1.6699218749999998,0.087890625,-8.7890625
-2.021484375,13.18359375,4.921875,1.5820312499999998,-1.6699218749999998,-8.7890625
-1.8457031250000002,12.83203125,5.625,1.4941406250000002,-3.4277343749999996,-8.7890625
-1.6699218749999998,12.568359375,6.416015625,1.40625,-5.09765625,-8.7890625
-1.4941406250000002,12.3046875,7.207031249999999,1.23046875,-6.679687499999999,-8.7890625
-1.40625,12.041015625000002,7.822265625000001,1.1425781250000002,-8.525390625,-8.7890625
-1.3183593749999998,11.689453125,8.525390625,1.0546875,-10.283203125,-8.7890625
-1.1425781250000002,11.425781249999998,9.228515625,0.9667968749999999,-11.953125000000002,-8.7890625
-0.87890625,11.07421875,10.107421875000002,0.87890625,-13.53515625,-8.7890625
-0.7910156249999999,10.8984375,10.810546875,0.703125,-15.380859375,-8.7890625
-0.615234375,10.546874999999998,11.601562500000002,0.52734375,-17.138671875,-8.7890625
-0.52734375,10.283203125,12.216796874999998,0.439453125,-18.984375,-8.7890625
-0.3515625,10.01953125,12.919921875,0.439453125,-20.478515625,-8.7890625
-0.3515625,9.931640625,13.359374999999998,0.3515625,-21.62109375,-8.7890625
-0.263671875,9.755859375,13.710937499999998,0.3515625,-22.587890625000004,-8.7890625
-0.17578125,9.580078124999998,14.23828125,0.263671875,-23.5546875,-8.7890625
-0.17578125,9.580078124999998,14.326171875,0.17578125,-24.169921875,-8.7890625
-0.087890625,9.580078124999998,14.23828125,0.17578125,-24.169921875,-8.7890625
-0.087890625,9.580078124999998,14.23828125,0.17578125,-24.169921875,-8.7890625
-0.087890625,9.580078124999998,14.23828125,0.17578125,-24.169921875,-8.7890625
-0.087890625,9.580078124999998,14.326171875,0.17578125,-24.169921875,-8.7890625
-0.087890625,9.580078124999998,14.23828125,0.17578125,-24.169921875,-8.7890625
-0.087890625,9.4921875,14.23828125,0.17578125,-24.169921875,-8.7890625
-0.087890625,9.4921875,14.23828125,0.17578125,-24.169921875,-8.7890625
-0.087890625,9.4921875,14.23828125,0.17578125,-24.169921875,-8.7890625
-0.087890625,9.4921875,14.23828125,0.17578125,-24.169921875,-8.7890625
-0.087890625,9.4921875,14.326171875,0.17578125,-24.169921875,-8.7890625
-0.087890625,9.4921875,14.23828125,0.17578125,-24.169921875,-8.7890625
-0.087890625,9.4921875,14.326171875,0.17578125,-23.818359374999996,-8.7890625
-0.087890625,9.4921875,14.23828125,0.17578125,-23.906250000000004,-8.7890625
-0.087890625,9.4921875,14.23828125,0.17578125,-23.818359374999996,-8.7890625
-0.087890625,9.4921875,14.23828125,0.17578125,-23.818359374999996,-8.7890625
-0.087890625,9.4921875,14.23828125,0.17578125,-23.906250000000004,-8.7890625
-0.087890625,9.4921875,14.326171875,0.17578125,-23.906250000000004,-8.7890625
-0.087890625,9.4921875,14.326171875,0.17578125,-23.906250000000004,-8.7890625
-0.087890625,9.4921875,14.23828125,0.17578125,-23.818359374999996,-8.7890625
-0.087890625,9.4921875,14.23828125,0.17578125,-23.906250000000004,-8.7890625
0.0,9.4921875,14.23828125,0.17578125,-23.906250000000004,-8.7890625
0.0,9.4921875,14.23828125,0.17578125,-23.818359374999996,-8.7890625
0.087890625,9.4921875,14.23828125,0.17578125,-23.906250000000004,-8.7890625
0.087890625,9.4921875,14.326171875,0.17578125,-23.906250000000004,-8.7890625
0.087890625,9.4921875,14.23828125,0.17578125,-23.818359374999996,-8.7890625
0.087890625,9.4921875,14.23828125,0.17578125,-23.818359374999996,-8.7890625
0.087890625,9.4921875,14.23828125,0.17578125,-23.906250000000004,-8.7890625
0.087890625,9.4921875,14.23828125,0.087890625,-23.818359374999996,-8.7890625
0.087890625,9.4921875,14.326171875,0.087890625,-23.818359374999996,-8.7890625
0.087890625,9.4921875,14.0625,0.087890625,-23.73046875,-8.7890625
0.087890625,9.4921875,13.974609375,0.087890625,-23.291015625,-8.7890625
0.087890625,9.4921875,13.710937499999998,0.087890625,-22.67578125,-8.7890625
0.17578125,9.580078124999998,13.447265625,0.087890625,-21.972656249999996,-8.7890625
0.263671875,9.66796875,13.18359375,0.087890625,-21.357421875,-8.7890625
0.263671875,9.755859375,13.0078125,0.087890625,-20.830078124999996,-8.7890625
0.263671875,9.84375,12.83203125,0.087890625,-20.302734375,-8.7890625
0.263671875,9.931640625,12.568359375,0.087890625,-19.775390625,-8.7890625
0.3515625,10.107421875000002,12.3046875,0.087890625,-19.160156249999996,-8.7890625
0.439453125,10.1953125,12.041015625000002,0.0,-18.544921875,-8.7890625
0.439453125,10.283203125,11.953125000000002,0.0,-18.017578125,-8.7890625
0.52734375,10.37109375,11.689453125,0.0,-17.490234375000004,-8.7890625
0.52734375,10.37109375,11.425781249999998,0.087890625,-16.962890625,-8.7890625
0.52734375,10.546874999999998,11.25,0.0,-16.347656249999996,-8.7890625
0.615234375,10.634765625,10.986328124999998,0.0,-15.732421875,-8.7890625
0.703125,10.722656249999998,10.8984375,0.0,-15.205078124999998,-8.7890625
0.703125,10.810546875,10.634765625,0.0,-14.589843750000002,-8.7890625
0.7910156249999999,10.986328124999998,10.283203125,0.0,-13.886718750000002,-8.7890625
0.87890625,11.07421875,10.283203125,0.0,-13.447265625,-8.7890625
0.87890625,11.25,9.755859375,-0.087890625,-12.919921875,-8.7890625
0.9667968749999999,11.25,9.755859375,-0.087890625,-12.392578125,-8.7890625
0.9667968749999999,11.337890625,9.580078124999998,-0.087890625,-11.865234375,-8.7890625
0.9667968749999999,11.337890625,9.228515625,-0.087890625,-11.25,-8.7890625
1.0546875,11.425781249999998,9.140625000000002,-0.087890625,-10.722656249999998,-8.7890625
1.0546875,11.513671875,8.96484375,-0.087890625,-10.1953125,-8.7890625
1.0546875,11.601562500000002,8.701171875,-0.087890625,-9.580078124999998,-8.7890625
1.1425781250000002,11.689453125,8.525390625,-0.087890625,-9.052734375,-8.7890625
1.23046875,11.77734375,8.26171875,-0.17578125,-8.525390625,-8.7890625
1.3183593749999998,11.77734375,7.910156250000001,-0.17578125,-7.910156250000001,-8.7890625
1.3183593749999998,11.865234375,7.822265625000001,-0.17578125,-7.294921875000001,-8.7890625
1.3183593749999998,11.953125000000002,7.646484374999999,-0.17578125,-6.767578125,-8.7890625
1.3183593749999998,12.041015625000002,7.470703125,-0.17578125,-6.328124999999999,-8.7890625
1.40625,12.041015625000002,7.207031249999999,-0.17578125,-5.625,-8.7890625
1.4941406250000002,12.12890625,7.119140625,-0.17578125,-5.009765625,-8.7890625
1.4941406250000002,12.3046875,6.855468749999999,-0.17578125,-4.570312500000001,-8.7890625
1.5820312499999998,12.3046875,6.767578125,-0.17578125,-4.04296875,-8.7890625
1.6699218749999998,12.392578125,6.328124999999999,-0.17578125,-3.515625,-8.7890625
1.6699218749999998,12.48046875,6.328124999999999,-0.263671875,-2.9882812500000004,-8.7890625
1.7578125,12.568359375,6.064453125,-0.263671875,-2.373046875,-8.7890625
1.7578125,12.568359375,5.888671875,-0.263671875,-1.8457031250000002,-8.7890625
1.8457031250000002,12.656249999999998,5.537109375,-0.263671875,-1.23046875,-8.7890625
1.8457031250000002,12.656249999999998,5.44921875,-0.263671875,-0.703125,-8.7890625
1.9335937499999998,12.83203125,5.273437499999999,-0.263671875,-0.17578125,-8.7890625
1.9335937499999998,12.83203125,5.09765625,-0.263671875,0.3515625,-8.7890625
2.021484375,12.919921875,4.833984375,-0.263671875,0.87890625,-8.7890625
2.021484375,12.919921875,4.570312500000001,-0.3515625,1.40625,-8.7890625
2.109375,13.0078125,4.482421875,-0.3515625,2.021484375,-8.7890625
2.109375,13.095703125000002,4.306640624999999,-0.3515625,2.548828125,-8.7890625
2.109375,13.095703125000002,4.130859375,-0.3515625,3.1640624999999996,-8.7890625
2.197265625,13.18359375,3.9550781250000004,-0.3515625,3.779296875,-8.7890625
2.2851562500000004,13.18359375,3.6914062500000004,-0.439453125,4.306640624999999,-8.7890625
2.373046875,13.271484375,3.515625,-0.439453125,4.833984375,-8.7890625
2.373046875,13.359374999999998,3.3398437499999996,-0.52734375,5.273437499999999,-8.7890625
2.373046875,13.447265625,3.251953125,-0.52734375,5.888671875,-8.7890625
2.4609375,13.447265625,2.9003906250000004,-0.615234375,6.416015625,-8.7890625
2.548828125,13.447265625,2.8125,-0.615234375,6.855468749999999,-8.7890625
2.6367187499999996,13.53515625,2.548828125,-0.703125,7.55859375,-8.7890625
2.6367187499999996,13.623046875,2.4609375,-0.7910156249999999,8.0859375,-8.7890625
2.724609375,13.710937499999998,2.109375,-0.7910156249999999,8.701171875,-8.7890625
2.724609375,13.710937499999998,2.021484375,-0.7910156249999999,9.140625000000002,-8.7890625
2.8125,13.710937499999998,1.8457031250000002,-0.87890625,9.66796875,-8.7890625
2.8125,13.710937499999998,1.6699218749999998,-0.87890625,10.283203125,-8.7890625
2.8125,13.798828125,1.4941406250000002,-0.87890625,10.8984375,-8.7890625
2.9003906250000004,13.798828125,1.3183593749999998,-0.87890625,11.425781249999998,-8.7890625
2.9882812500000004,13.886718750000002,1.1425781250000002,-0.9667968749999999,11.865234375,-8.7890625
2.9882812500000004,13.886718750000002,0.9667968749999999,-0.9667968749999999,12.392578125,-8.7890625
2.9882812500000004,13.886718750000002,0.7910156249999999,-1.0546875,13.0078125,-8.7890625
3.076171875,13.974609375,0.615234375,-1.0546875,13.53515625,-8.7890625
3.1640624999999996,14.0625,0.439453125,-1.1425781250000002,14.150390624999998,-8.7890625
3.1640624999999996,14.0625,0.263671875,-1.23046875,14.677734375,-8.7890625
3.1640624999999996,14.0625,0.087890625,-1.3183593749999998,15.1171875,-8.7890625
3.251953125,14.150390624999998,-0.087890625,-1.40625,15.732421875,-8.7890625
3.3398437499999996,14.150390624999998,-0.263671875,-1.40625,16.347656249999996,-8.7890625
3.3398437499999996,14.23828125,-0.439453125,-1.40625,16.875,-8.7890625
3.3398437499999996,14.23828125,-0.615234375,-1.4941406250000002,17.40234375,-8.7890625
3.4277343749999996,14.23828125,-0.7910156249999999,-1.5820312499999998,18.017578125,-8.7890625
3.4277343749999996,14.23828125,-0.9667968749999999,-1.5820312499999998,18.6328125,-8.7890625
3.6035156249999996,14.326171875,-1.1425781250000002,-1.5820312499999998,19.072265625,-8.7890625
3.6035156249999996,14.326171875,-1.3183593749999998,-1.6699218749999998,19.6875,-8.7890625
3.6914062500000004,14.326171875,-1.4941406250000002,-1.7578125,20.214843750000004,-8.7890625
3.779296875,14.414062499999998,-1.5820312499999998,-1.8457031250000002,20.7421875,-8.7890625
3.779296875,14.414062499999998,-1.8457031250000002,-1.9335937499999998,21.357421875,-8.7890625
3.779296875,14.501953124999998,-2.021484375,-1.9335937499999998,21.884765625,-8.7890625
3.779296875,14.501953124999998,-2.109375,-2.021484375,22.236328125,-8.7890625
3.8671874999999996,14.501953124999998,-2.109375,-2.021484375,22.412109375,-8.7890625
3.8671874999999996,14.501953124999998,-2.2851562500000004,-2.109375,22.587890625000004,-8.7890625
3.8671874999999996,14.501953124999998,-2.6367187499999996,-2.109375,22.939453124999996,-8.7890625
3.9550781250000004,14.23828125,-2.8125,-2.109375,23.5546875,-8.7890625
3.9550781250000004,14.0625,-3.076171875,-2.109375,24.082031250000004,-8.7890625
3.9550781250000004,13.710937499999998,-3.3398437499999996,-2.109375,24.521484375,-8.7890625
3.8671874999999996,13.623046875,-3.4277343749999996,-2.109375,24.873046875,-8.7890625
3.779296875,13.53515625,-3.4277343749999996,-2.109375,24.9609375,-8.7890625
3.779296875,13.359374999999998,-3.779296875,-2.109375,25.312499999999996,-8.7890625
3.779296875,12.919921875,-4.04296875,-2.109375,25.751953125,-8.7890625
3.779296875,12.656249999999998,-4.21875,-2.109375,26.279296875,-8.7890625
3.779296875,12.392578125,-4.39453125,-2.197265625,26.89453125,-8.7890625
3.6914062500000004,12.216796874999998,-4.570312500000001,-2.197265625,27.333984375,-8.7890625
3.6914062500000004,12.12890625,-4.570312500000001,-2.197265625,27.421874999999996,-8.7890625
3.6914062500000004,12.216796874999998,-4.833984375,-2.197265625,27.421874999999996,-8.7890625
3.6914062500000004,12.48046875,-5.537109375,-2.197265625,27.685546875000004,-8.7890625
3.6914062500000004,13.0078125,-6.15234375,-2.2851562500000004,27.94921875,-8.7890625
3.6914062500000004,13.447265625,-6.679687499999999,-2.373046875,28.037109375,-8.7890625
3.6914062500000004,14.0625,-7.382812500000001,-2.4609375,28.125,-8.7890625
3.779296875,14.501953124999998,-7.998046875,-2.4609375,28.300781249999996,-8.7890625
3.779296875,14.94140625,-8.613281249999998,-2.548828125,28.388671875,-8.7890625
3.779296875,15.468749999999998,-9.228515625,-2.548828125,28.564453124999996,-8.7890625
3.8671874999999996,15.99609375,-9.84375,-2.548828125,28.65234375,-8.7890625
3.8671874999999996,16.611328125,-10.37109375,-2.6367187499999996,28.740234375,-8.7890625
3.9550781250000004,17.05078125,-11.07421875,-2.6367187499999996,28.828124999999996,-8.7890625
3.9550781250000004,17.578125,-11.689453125,-2.6367187499999996,28.916015625000004,-8.7890625
4.04296875,18.10546875,-12.216796874999998,-2.6367187499999996,29.003906249999996,-8.7890625
4.04296875,18.45703125,-12.568359375,-2.6367187499999996,29.003906249999996,-8.7890625
4.04296875,18.6328125,-12.656249999999998,-2.724609375,29.003906249999996,-8.7890625
3.8671874999999996,18.720703125,-12.744140625,-2.6367187499999996,29.003906249999996,-8.7890625
3.251953125,18.720703125,-12.744140625,-2.2851562500000004,29.003906249999996,-8.7890625
2.8125,18.720703125,-12.744140625,-2.021484375,29.003906249999996,-8.7890625
2.109375,18.80859375,-12.744140625,-1.7578125,29.003906249999996,-8.7890625
1.5820312499999998,18.80859375,-12.744140625,-1.40625,29.003906249999996,-8.7890625
0.9667968749999999,18.80859375,-12.744140625,-1.0546875,29.003906249999996,-8.7890625
0.3515625,18.80859375,-12.744140625,-0.703125,29.003906249999996,-8.7890625
-0.263671875,18.80859375,-12.744140625,-0.263671875,29.003906249999996,-8.7890625
-0.87890625,18.80859375,-12.744140625,0.087890625,29.003906249999996,-8.7890625
-1.40625,18.80859375,-12.744140625,0.3515625,29.003906249999996,-8.7890625
-2.021484375,18.80859375,-12.744140625,0.87890625,28.916015625000004,-8.7890625
-2.548828125,18.80859375,-12.744140625,1.1425781250000002,28.916015625000004,-8.7890625
-3.1640624999999996,18.80859375,-12.744140625,1.5820312499999998,28.916015625000004,-8.7890625
-3.6035156249999996,18.80859375,-12.744140625,1.8457031250000002,28.916015625000004,-8.7890625
-3.9550781250000004,18.80859375,-12.744140625,2.109375,28.916015625000004,-8.7890625
-4.21875,18.80859375,-12.744140625,2.197265625,28.916015625000004,-8.7890625
-4.21875,18.80859375,-12.744140625,2.197265625,28.564453124999996,-8.7890625
-4.21875,18.80859375,-12.392578125,2.197265625,28.037109375,-8.7890625
-4.21875,18.80859375,-11.77734375,2.2851562500000004,26.982421875,-8.7890625
-4.21875,18.80859375,-11.162109375000002,2.2851562500000004,26.806640625000004,-8.7890625
-4.130859375,18.80859375,-10.634765625,2.2851562500000004,26.279296875,-8.7890625
-4.21875,18.80859375,-10.01953125,2.2851562500000004,25.224609375,-8.7890625
-4.130859375,18.80859375,-9.404296875,2.373046875,25.224609375,-8.7890625
-4.21875,18.80859375,-8.7890625,2.373046875,24.345703125,-8.7890625
-4.21875,18.720703125,-8.26171875,2.373046875,24.169921875,-8.7890625
-4.21875,18.720703125,-7.734374999999999,2.373046875,23.5546875,-8.7890625
-4.21875,18.720703125,-7.55859375,2.4609375,23.203125000000004,-8.7890625
-4.21875,18.720703125,-7.470703125,2.4609375,23.02734375,-8.7890625
-4.306640624999999,19.072265625,-7.470703125,2.4609375,23.02734375,-8.7890625
-4.306640624999999,19.599609375,-8.173828124999998,2.4609375,23.203125000000004,-8.7890625
-4.39453125,20.126953125,-8.701171875,2.548828125,23.203125000000004,-8.7890625
-4.39453125,20.654296875,-9.31640625,2.6367187499999996,23.203125000000004,-8.7890625
-4.482421875,21.093749999999996,-9.755859375,2.6367187499999996,23.203125000000004,-8.7890625
-4.482421875,21.357421875,-9.84375,2.6367187499999996,23.203125000000004,-8.7890625
-4.306640624999999,21.26953125,-9.84375,2.6367187499999996,23.203125000000004,-8.7890625
-3.779296875,21.005859375,-9.84375,2.4609375,23.203125000000004,-8.7890625
-3.251953125,20.390625,-9.4921875,2.2851562500000004,23.203125000000004,-8.7890625
-2.6367187499999996,20.126953125,-8.96484375,2.021484375,23.203125000000004,-8.7890625
-2.373046875,19.775390625,-8.525390625,1.6699218749999998,23.203125000000004,-8.7890625
-1.6699218749999998,19.423828125,-8.0859375,1.40625,23.203125000000004,-8.7890625
-1.23046875,18.896484375,-7.646484374999999,1.0546875,23.203125000000004,-8.7890625
-0.615234375,18.544921875,-7.119140625,0.7910156249999999,23.203125000000004,-8.7890625
-0.17578125,18.017578125,-6.591796875,0.439453125,23.203125000000004,-8.7890625
0.263671875,17.666015625,-6.240234375,0.17578125,23.203125000000004,-8.7890625
0.615234375,17.490234375000004,-5.800781250000001,-0.087890625,23.203125000000004,-8.7890625
1.0546875,17.05078125,-5.44921875,-0.263671875,23.115234375,-8.7890625
1.5820312499999998,16.611328125,-4.921875,-0.439453125,22.763671875,-8.7890625
2.021484375,16.171875,-4.39453125,-0.7910156249999999,22.851562499999996,-8.7890625
2.548828125,15.732421875,-3.8671874999999996,-1.0546875,22.763671875,-8.7890625
2.9882812500000004,15.292968749999998,-3.3398437499999996,-1.40625,22.67578125,-8.7890625
3.515625,14.853515625,-2.724609375,-1.6699218749999998,22.587890625000004,-8.7890625
3.8671874999999996,14.501953124999998,-2.4609375,-1.9335937499999998,22.5,-8.7890625
3.9550781250000004,14.501953124999998,-2.2851562500000004,-2.109375,22.587890625000004,-8.7890625
3.8671874999999996,14.326171875,-2.2851562500000004,-2.109375,22.587890625000004,-8.7890625
3.8671874999999996,13.974609375,-2.2851562500000004,-2.109375,22.763671875,-8.7890625
3.8671874999999996,13.798828125,-2.373046875,-2.109375,23.466796875,-8.7890625
3.8671874999999996,13.53515625,-2.6367187499999996,-2.109375,24.082031250000004,-8.7890625
3.779296875,13.359374999999998,-2.9003906250000004,-2.197265625,24.433593749999996,-8.7890625
3.779296875,13.359374999999998,-2.9003906250000004,-2.197265625,24.697265624999996,-8.7890625
3.779296875,13.095703125000002,-3.1640624999999996,-2.197265625,24.9609375,-8.7890625
3.6914062500000004,12.744140625,-3.515625,-2.197265625,25.312499999999996,-8.7890625
3.6914062500000004,12.656249999999998,-3.779296875,-2.197265625,25.927734375000004,-8.7890625
3.6914062500000004,12.3046875,-4.21875,-2.197265625,26.54296875,-8.7890625
3.6035156249999996,12.041015625000002,-4.21875,-2.197265625,26.982421875,-8.7890625
3.6914062500000004,12.041015625000002,-4.21875,-2.197265625,27.24609375,-8.7890625
3.6035156249999996,12.041015625000002,-4.21875,-2.197265625,27.333984375,-8.7890625
3.251953125,12.041015625000002,-4.39453125,-2.197265625,27.421874999999996,-8.7890625
2.6367187499999996,12.12890625,-4.482421875,-2.021484375,27.421874999999996,-8.7890625
2.021484375,12.041015625000002,-4.482421875,-1.7578125,27.421874999999996,-8.7890625
1.4941406250000002,12.041015625000002,-4.482421875,-1.4941406250000002,27.421874999999996,-8.7890625
0.9667968749999999,12.041015625000002,-4.482421875,-1.1425781250000002,27.421874999999996,-8.7890625
0.3515625,12.041015625000002,-4.482421875,-0.703125,27.421874999999996,-8.7890625
-0.17578125,12.041015625000002,-4.482421875,-0.439453125,27.421874999999996,-8.7890625
-0.7910156249999999,12.041015625000002,-4.482421875,-0.087890625,27.421874999999996,-8.7890625
-1.3183593749999998,12.041015625000002,-4.482421875,0.263671875,27.421874999999996,-8.7890625
-1.8457031250000002,12.041015625000002,-4.482421875,0.615234375,27.421874999999996,-8.7890625
-2.373046875,12.041015625000002,-4.482421875,0.9667968749999999,27.421874999999996,-8.7890625
-2.9003906250000004,12.041015625000002,-4.482421875,1.3183593749999998,27.421874999999996,-8.7890625
-3.4277343749999996,12.041015625000002,-4.482421875,1.6699218749999998,27.421874999999996,-8.7890625
-3.6035156249999996,12.041015625000002,-4.482421875,1.8457031250000002,27.421874999999996,-8.7890625
-3.6914062500000004,12.041015625000002,-4.482421875,1.8457031250000002,27.421874999999996,-8.7890625
-3.6914062500000004,12.041015625000002,-4.482421875,1.8457031250000002,27.333984375,-8.7890625
-3.6914062500000004,12.041015625000002,-4.21875,1.8457031250000002,26.718749999999996,-8.7890625
-3.6914062500000004,12.12890625,-3.8671874999999996,1.9335937499999998,25.927734375000004,-8.7890625
-3.779296875,12.216796874999998,-3.3398437499999996,1.9335937499999998,25.048828125000004,-8.7890625
-3.8671874999999996,12.392578125,-2.9003906250000004,1.9335937499999998,24.9609375,-8.7890625
-3.9550781250000004,12.48046875,-2.4609375,2.021484375,24.345703125,-8.7890625
-3.8671874999999996,12.656249999999998,-2.109375,2.021484375,23.5546875,-8.7890625
-3.8671874999999996,12.83203125,-1.5820312499999998,2.021484375,23.115234375,-8.7890625
-3.8671874999999996,12.919921875,-1.1425781250000002,2.109375,22.763671875,-8.7890625
-3.9550781250000004,12.919921875,-0.87890625,2.109375,22.236328125,-8.7890625
-3.9550781250000004,13.0078125,-0.7910156249999999,2.109375,22.236328125,-8.7890625
-3.9550781250000004,13.359374999999998,-0.87890625,2.021484375,22.1484375,-8.7890625
-3.9550781250000004,14.0625,-1.40625,2.109375,22.236328125,-8.7890625
-4.04296875,14.326171875,-1.5820312499999998,2.109375,22.236328125,-8.7890625
-4.04296875,14.501953124999998,-1.7578125,2.197265625,22.236328125,-8.7890625
-4.04296875,14.501953124999998,-1.8457031250000002,2.197265625,22.236328125,-8.7890625
-3.9550781250000004,14.501953124999998,-2.2851562500000004,2.197265625,22.67578125,-8.7890625
-3.9550781250000004,14.0625,-2.6367187499999996,2.197265625,23.291015625,-8.7890625
-3.8671874999999996,13.798828125,-2.9003906250000004,2.2851562500000004,23.818359374999996,-8.7890625
-3.9550781250000004,13.53515625,-3.076171875,2.2851562500000004,24.345703125,-8.7890625
-3.8671874999999996,13.447265625,-3.1640624999999996,2.2851562500000004,24.609375,-8.7890625
-3.779296875,13.447265625,-3.3398437499999996,2.2851562500000004,24.78515625,-8.7890625
-3.779296875,13.18359375,-3.6035156249999996,2.2851562500000004,25.13671875,-8.7890625
-3.779296875,12.83203125,-3.8671874999999996,2.2851562500000004,25.751953125,-8.7890625
-3.779296875,12.568359375,-4.04296875,2.2851562500000004,26.279296875,-8.7890625
-3.6914062500000004,12.216796874999998,-4.306640624999999,2.2851562500000004,26.806640625000004,-8.7890625
-3.6914062500000004,12.12890625,-4.39453125,2.2851562500000004,27.158203125,-8.7890625
-3.6914062500000004,12.12890625,-4.482421875,2.2851562500000004,27.333984375,-8.7890625
-3.6914062500000004,12.12890625,-4.921875,2.2851562500000004,27.421874999999996,-8.7890625
-3.6914062500000004,12.568359375,-5.625,2.373046875,27.59765625,-8.7890625
-3.779296875,13.0078125,-6.15234375,2.373046875,27.773437500000004,-8.7890625
-3.779296875,13.53515625,-6.855468749999999,2.373046875,27.94921875,-8.7890625
-3.779296875,14.0625,-7.382812500000001,2.373046875,28.037109375,-8.7890625
-3.8671874999999996,14.589843750000002,-8.0859375,2.373046875,28.212890625,-8.7890625
-3.8671874999999996,15.1171875,-8.7890625,2.4609375,28.300781249999996,-8.7890625
-3.8671874999999996,15.644531250000002,-9.31640625,2.4609375,28.388671875,-8.7890625
-3.9550781250000004,16.083984375,-9.931640625,2.4609375,28.65234375,-8.7890625
-3.9550781250000004,16.611328125,-10.546874999999998,2.4609375,28.65234375,-8.7890625
-4.04296875,17.138671875,-11.07421875,2.548828125,28.740234375,-8.7890625
-4.04296875,17.666015625,-11.689453125,2.548828125,28.828124999999996,-8.7890625
-4.04296875,18.281250000000004,-12.3046875,2.548828125,28.828124999999996,-8.7890625
-4.04296875,18.6328125,-12.656249999999998,2.6367187499999996,28.916015625000004,-8.7890625
-4.130859375,18.720703125,-12.656249999999998,2.6367187499999996,28.916015625000004,-8.7890625
-4.130859375,18.720703125,-12.656249999999998,2.6367187499999996,28.828124999999996,-8.7890625
-4.130859375,18.720703125,-12.392578125,2.6367187499999996,28.212890625,-8.7890625
-4.130859375,18.720703125,-11.953125000000002,2.6367187499999996,27.509765625,-8.7890625
-4.130859375,18.720703125,-11.601562500000002,2.6367187499999996,27.333984375,-8.7890625
-4.130859375,18.720703125,-11.425781249999998,2.548828125,27.158203125,-8.7890625
-4.130859375,18.720703125,-11.25,2.548828125,26.89453125,-8.7890625
-4.130859375,18.720703125,-11.162109375000002,2.548828125,26.718749999999996,-8.7890625
-4.130859375,18.720703125,-10.810546875,2.548828125,26.630859375,-8.7890625
-4.130859375,18.720703125,-10.37109375,2.548828125,26.191406250000004,-8.7890625
-4.130859375,18.80859375,-9.84375,2.548828125,25.576171874999996,-8.7890625
-4.130859375,18.720703125,-9.228515625,2.548828125,24.9609375,-8.7890625
-4.04296875,18.80859375,-8.525390625,2.548828125,24.521484375,-8.7890625
-4.21875,18.720703125,-8.0859375,2.548828125,23.994140625,-8.7890625
-4.21875,18.80859375,-7.55859375,2.548828125,23.466796875,-8.7890625
-4.130859375,18.80859375,-7.382812500000001,2.548828125,23.37890625,-8.7890625
-4.21875,18.80859375,-7.382812500000001,2.548828125,23.115234375,-8.7890625
-4.21875,19.072265625,-7.470703125,2.548828125,23.203125000000004,-8.7890625
-4.21875,19.86328125,-8.26171875,2.548828125,23.203125000000004,-8.7890625
-4.39453125,20.302734375,-8.701171875,2.6367187499999996,23.203125000000004,-8.7890625
-4.39453125,20.830078124999996,-9.228515625,2.6367187499999996,23.203125000000004,-8.7890625
-4.482421875,21.26953125,-9.580078124999998,2.6367187499999996,23.203125000000004,-8.7890625
-4.482421875,21.533203125,-9.755859375,2.6367187499999996,23.291015625,-8.7890625
-4.21875,21.357421875,-9.755859375,2.6367187499999996,23.291015625,-8.7890625
-3.6914062500000004,21.181640625000004,-9.755859375,2.373046875,23.203125000000004,-8.7890625
-2.9882812500000004,20.91796875,-9.755859375,2.197265625,23.291015625,-8.7890625
-2.4609375,20.56640625,-9.4921875,1.9335937499999998,23.291015625,-8.7890625
-1.8457031250000002,20.390625,-9.140625000000002,1.4941406250000002,23.291015625,-8.7890625
-1.23046875,20.0390625,-8.7890625,1.1425781250000002,23.291015625,-8.7890625
-0.615234375,19.951171875,-8.4375,0.7910156249999999,23.291015625,-8.7890625
-0.17578125,19.599609375,-8.173828124999998,0.439453125,23.291015625,-8.7890625
0.3515625,19.248046875,-7.910156250000001,0.087890625,23.291015625,-8.7890625
1.0546875,18.896484375,-7.470703125,-0.263671875,23.291015625,-8.7890625
1.4941406250000002,18.6328125,-7.294921875000001,-0.52734375,23.291015625,-8.7890625
2.109375,18.369140625,-6.855468749999999,-0.87890625,23.291015625,-8.7890625
2.6367187499999996,17.9296875,-6.416015625,-1.1425781250000002,23.291015625,-8.7890625
3.251953125,17.666015625,-6.15234375,-1.5820312499999998,23.203125000000004,-8.7890625
3.779296875,17.40234375,-5.625,-1.9335937499999998,23.02734375,-8.7890625
3.9550781250000004,17.226562499999996,-5.537109375,-2.109375,22.939453124999996,-8.7890625
4.04296875,17.226562499999996,-5.537109375,-2.197265625,23.02734375,-8.7890625
4.04296875,16.962890625,-5.537109375,-2.197265625,23.203125000000004,-8.7890625
4.04296875,16.611328125,-5.537109375,-2.197265625,23.818359374999996,-8.7890625
4.04296875,16.435546875,-5.888671875,-2.197265625,24.345703125,-8.7890625
4.04296875,16.171875,-5.976562500000001,-2.197265625,24.78515625,-8.7890625
3.9550781250000004,16.171875,-6.064453125,-2.197265625,25.048828125000004,-8.7890625
3.9550781250000004,16.083984375,-6.240234375,-2.197265625,25.224609375,-8.7890625
3.9550781250000004,15.644531250000002,-6.591796875,-2.197265625,25.751953125,-8.7890625
3.9550781250000004,15.380859375,-6.855468749999999,-2.2851562500000004,26.279296875,-8.7890625
3.9550781250000004,15.1171875,-7.119140625,-2.2851562500000004,26.89453125,-8.7890625
3.8671874999999996,14.853515625,-7.382812500000001,-2.2851562500000004,27.421874999999996,-8.7890625
3.779296875,14.677734375,-7.470703125,-2.2851562500000004,27.861328125,-8.7890625
3.8671874999999996,14.677734375,-7.55859375,-2.2851562500000004,27.94921875,-8.7890625
3.6914062500000004,14.589843750000002,-7.646484374999999,-2.2851562500000004,27.94921875,-8.7890625
3.1640624999999996,14.677734375,-7.646484374999999,-2.2851562500000004,28.037109375,-8.7890625
2.548828125,14.589843750000002,-7.646484374999999,-2.021484375,28.037109375,-8.7890625
2.021484375,14.589843750000002,-7.822265625000001,-1.6699218749999998,28.037109375,-8.7890625
1.4941406250000002,14.589843750000002,-7.822265625000001,-1.3183593749999998,28.037109375,-8.7890625
0.87890625,14.677734375,-7.822265625000001,-0.9667968749999999,28.037109375,-8.7890625
0.3515625,14.677734375,-7.822265625000001,-0.615234375,28.037109375,-8.7890625
-0.263671875,14.677734375,-7.910156250000001,-0.263671875,28.037109375,-8.7890625
-0.87890625,14.677734375,-7.910156250000001,0.0,28.037109375,-8.7890625
-1.40625,14.677734375,-7.822265625000001,0.3515625,28.037109375,-8.7890625
-2.021484375,14.677734375,-7.822265625000001,0.7910156249999999,28.037109375,-8.7890625
-2.548828125,14.677734375,-7.910156250000001,1.1425781250000002,28.037109375,-8.7890625
-3.076171875,14.677734375,-7.910156250000001,1.4941406250000002,28.037109375,-8.7890625
-3.6035156249999996,14.677734375,-7.910156250000001,1.7578125,28.037109375,-8.7890625
-3.8671874999999996,14.677734375,-7.910156250000001,1.9335937499999998,28.037109375,-8.7890625
-3.9550781250000004,14.677734375,-7.910156250000001,2.021484375,28.037109375,-8.7890625
-3.9550781250000004,14.677734375,-7.734374999999999,2.021484375,27.94921875,-8.7890625
-3.9550781250000004,14.589843750000002,-7.294921875000001,2.021484375,27.24609375,-8.7890625
-3.9550781250000004,14.677734375,-6.679687499999999,2.109375,26.54296875,-8.7890625
-3.9550781250000004,14.677734375,-6.064453125,2.109375,26.191406250000004,-8.7890625
-3.9550781250000004,14.677734375,-5.537109375,2.109375,25.312499999999996,-8.7890625
-3.9550781250000004,14.677734375,-4.921875,2.197265625,25.048828125000004,-8.7890625
-3.9550781250000004,14.677734375,-4.306640624999999,2.197265625,24.521484375,-8.7890625
-3.8671874999999996,14.677734375,-3.779296875,2.197265625,23.818359374999996,-8.7890625
-3.8671874999999996,14.589843750000002,-3.1640624999999996,2.197265625,23.02734375,-8.7890625
-4.04296875,14.589843750000002,-2.6367187499999996,2.2851562500000004,22.851562499999996,-8.7890625
-3.9550781250000004,14.589843750000002,-2.4609375,2.2851562500000004,22.763671875,-8.7890625
-4.04296875,14.589843750000002,-2.4609375,2.2851562500000004,22.324218750000004,-8.7890625
-4.04296875,14.94140625,-2.724609375,2.2851562500000004,22.412109375,-8.7890625
-4.04296875,15.468749999999998,-3.515625,2.2851562500000004,22.5,-8.7890625
-4.130859375,16.083984375,-4.130859375,2.373046875,22.5,-8.7890625
-4.21875,16.611328125,-4.658203125,2.4609375,22.587890625000004,-8.7890625
-4.130859375,16.875,-4.921875,2.4609375,22.67578125,-8.7890625
-4.21875,17.138671875,-5.09765625,2.4609375,22.67578125,-8.7890625
-4.130859375,17.138671875,-5.09765625,2.4609375,22.67578125,-8.7890625
-4.21875,17.138671875,-5.09765625,2.4609375,22.67578125,-8.7890625
-4.21875,17.138671875,-5.09765625,2.4609375,22.67578125,-8.7890625
-4.130859375,17.138671875,-5.09765625,2.4609375,22.763671875,-8.7890625
-4.130859375,17.138671875,-5.09765625,2.4609375,22.763671875,-8.7890625
-4.130859375,17.138671875,-5.09765625,2.4609375,22.763671875,-8.7890625
-4.130859375,17.138671875,-5.09765625,2.4609375,22.67578125,-8.7890625
-4.130859375,17.138671875,-5.009765625,2.4609375,21.62109375,-8.7890625
-4.04296875,16.875,-4.658203125,2.373046875,20.654296875,-8.7890625
-3.8671874999999996,16.69921875,-4.21875,2.2851562500000004,19.51171875,-8.7890625
-3.6914062500000004,16.347656249999996,-3.3398437499999996,2.2851562500000004,17.75390625,-8.7890625
-3.515625,16.083984375,-2.724609375,2.197265625,16.171875,-8.7890625
-3.3398437499999996,15.732421875,-2.021484375,2.109375,14.326171875,-8.7890625
-3.1640624999999996,15.468749999999998,-1.3183593749999998,1.9335937499999998,12.568359375,-8.7890625
-2.9003906250000004,15.205078124999998,-0.439453125,1.9335937499999998,10.8984375,-8.7890625
-2.8125,14.94140625,0.263671875,1.8457031250000002,9.052734375,-8.7890625
-2.724609375,14.589843750000002,0.9667968749999999,1.8457031250000002,7.382812500000001,-8.7890625
-2.6367187499999996,14.23828125,1.7578125,1.7578125,5.625,-8.7890625
-2.4609375,14.0625,2.6367187499999996,1.6699218749999998,3.8671874999999996,-8.7890625
-2.2851562500000004,13.710937499999998,3.251953125,1.6699218749999998,2.109375,-8.7890625
-2.197265625,13.447265625,3.9550781250000004,1.5820312499999998,0.3515625,-8.7890625
-2.021484375,13.095703125000002,4.833984375,1.5820312499999998,-1.3183593749999998,-8.7890625
-1.8457031250000002,12.83203125,5.44921875,1.4941406250000002,-3.076171875,-8.7890625
-1.6699218749999998,12.568359375,6.240234375,1.40625,-4.74609375,-8.7890625
-1.4941406250000002,12.3046875,7.03125,1.23046875,-6.416015625,-8.7890625
-1.3183593749999998,12.041015625000002,7.734374999999999,1.1425781250000002,-8.349609375,-8.7890625
-1.3183593749999998,11.601562500000002,8.4375,1.0546875,-10.01953125,-8.7890625
-1.1425781250000002,11.425781249999998,9.052734375,0.9667968749999999,-11.77734375,-8.7890625
-0.9667968749999999,11.162109375000002,9.931640625,0.9667968749999999,-13.447265625,-8.7890625
-0.7910156249999999,10.810546875,10.722656249999998,0.7910156249999999,-15.205078124999998,-8.7890625
-0.615234375,10.546874999999998,11.513671875,0.615234375,-16.962890625,-8.7890625
-0.52734375,10.283203125,12.216796874999998,0.52734375,-18.6328125,-8.7890625
-0.439453125,10.107421875000002,12.83203125,0.439453125,-20.302734375,-8.7890625
-0.263671875,9.931640625,13.359374999999998,0.3515625,-21.445312499999996,-8.7890625
-0.263671875,9.755859375,13.710937499999998,0.3515625,-22.412109375,-8.7890625
-0.17578125,9.580078124999998,14.150390624999998,0.263671875,-23.37890625,-8.7890625
-0.17578125,9.580078124999998,14.23828125,0.263671875,-24.082031250000004,-8.7890625
-0.087890625,9.580078124999998,14.23828125,0.17578125,-24.082031250000004,-8.7890625
-0.087890625,9.4921875,14.23828125,0.17578125,-24.082031250000004,-8.7890625
-0.087890625,9.580078124999998,14.23828125,0.17578125,-24.082031250000004,-8.7890625
-0.087890625,9.4921875,14.23828125,0.17578125,-24.082031250000004,-8.7890625
-0.087890625,9.580078124999998,14.23828125,0.17578125,-24.082031250000004,-8.7890625
0.087890625,9.580078124999998,14.150390624999998,0.17578125,-24.082031250000004,-8.7890625
0.087890625,9.580078124999998,14.150390624999998,0.17578125,-24.082031250000004,-8.7890625
0.087890625,9.4921875,14.150390624999998,0.17578125,-23.642578125,-8.7890625
0.17578125,9.580078124999998,14.150390624999998,0.17578125,-23.466796875,-8.7890625
0.263671875,9.66796875,14.150390624999998,0.17578125,-23.466796875,-8.7890625
0.263671875,9.580078124999998,14.0625,0.17578125,-23.466796875,-8.7890625
-0.087890625,9.4921875,14.23828125,0.0,-23.818359374999996,-8.7890625
0.0,9.4921875,14.23828125,0.0,-23.818359374999996,-8.7890625
0.0,9.4921875,14.23828125,0.0,-23.818359374999996,-8.7890625
0.0,9.4921875,14.23828125,0.0,-23.818359374999996,-8.7890625
0.0,9.4921875,14.23828125,0.0,-23.818359374999996,-8.7890625
0.0,9.4921875,14.23828125,0.0,-23.818359374999996,-8.7890625
0.0,9.4921875,14.23828125,0.0,-23.818359374999996,-8.7890625
0.0,9.4921875,14.23828125,0.0,-23.818359374999996,-8.7890625
0.0,9.4921875,14.23828125,0.0,-23.818359374999996,-8.7890625
0.0,9.4921875,14.23828125,0.0,-23.818359374999996,-8.7890625
0.0,9.4921875,14.23828125,0.0,-23.818359374999996,-8.7890625
0.0,9.4921875,14.23828125,0.0,-23.906250000000004,-8.7890625
-0.087890625,9.4921875,14.23828125,0.0,-23.818359374999996,-8.7890625
-0.087890625,9.4921875,14.23828125,0.0,-23.818359374999996,-8.7890625
0.0,9.4921875,14.23828125,0.0,-23.818359374999996,-8.7890625
0.0,9.4921875,14.23828125,0.0,-23.818359374999996,-8.7890625
0.0,9.4921875,14.150390624999998,0.0,-23.818359374999996,-8.7890625
0.0,9.580078124999998,13.710937499999998,0.0,-23.642578125,-8.7890625
0.0,9.755859375,13.710937499999998,0.0,-23.203125000000004,-8.7890625
0.0,9.931640625,13.447265625,0.0,-22.587890625000004,-8.7890625
0.0,9.931640625,13.18359375,0.0,-21.884765625,-8.7890625
0.087890625,10.01953125,12.919921875,0.0,-21.357421875,-8.7890625
0.087890625,10.107421875000002,12.919921875,0.0,-20.7421875,-8.7890625
0.087890625,10.283203125,12.48046875,0.0,-20.214843750000004,-8.7890625
0.17578125,10.37109375,12.392578125,-0.087890625,-19.51171875,-8.7890625
0.263671875,10.37109375,12.041015625000002,-0.087890625,-19.072265625,-8.7890625
0.3515625,10.458984375,11.953125000000002,-0.087890625,-18.544921875,-8.7890625
0.3515625,10.546874999999998,11.601562500000002,-0.087890625,-17.9296875,-8.7890625
0.3515625,10.546874999999998,11.513671875,0.0,-17.314453125,-8.7890625
0.52734375,10.722656249999998,11.337890625,-0.087890625,-16.787109375,-8.7890625
0.52734375,10.722656249999998,11.07421875,-0.087890625,-16.259765625,-8.7890625
0.52734375,10.810546875,10.8984375,0.0,-15.644531250000002,-8.7890625
0.615234375,10.986328124999998,10.546874999999998,-0.087890625,-15.1171875,-8.7890625
0.703125,11.07421875,10.458984375,-0.087890625,-14.589843750000002,-8.7890625
0.703125,11.07421875,10.1953125,-0.087890625,-13.974609375,-8.7890625
0.703125,11.07421875,9.931640625,-0.087890625,-13.359374999999998,-8.7890625
0.7910156249999999,11.162109375000002,9.84375,-0.087890625,-12.83203125,-8.7890625
0.7910156249999999,11.25,9.580078124999998,-0.087890625,-12.3046875,-8.7890625
0.9667968749999999,11.337890625,9.404296875,-0.087890625,-11.77734375,-8.7890625
0.9667968749999999,11.425781249999998,9.228515625,-0.087890625,-11.162109375000002,-8.7890625
1.0546875,11.513671875,8.876953125,-0.17578125,-10.634765625,-8.7890625
1.1425781250000002,11.601562500000002,8.7890625,-0.17578125,-10.107421875000002,-8.7890625
1.1425781250000002,11.601562500000002,8.525390625,-0.17578125,-9.4921875,-8.7890625
1.1425781250000002,11.689453125,8.349609375,-0.17578125,-8.96484375,-8.7890625
1.23046875,11.77734375,8.173828124999998,-0.17578125,-8.349609375,-8.7890625
1.23046875,11.865234375,7.910156250000001,-0.17578125,-7.822265625000001,-8.7890625
1.3183593749999998,11.865234375,7.734374999999999,-0.17578125,-7.294921875000001,-8.7890625
1.3183593749999998,11.953125000000002,7.55859375,-0.17578125,-6.679687499999999,-8.7890625
1.3183593749999998,12.041015625000002,7.294921875000001,-0.17578125,-6.15234375,-8.7890625
1.40625,12.041015625000002,7.119140625,-0.17578125,-5.625,-8.7890625
1.40625,12.12890625,6.943359375000001,-0.17578125,-5.009765625,-8.7890625
1.4941406250000002,12.216796874999998,6.767578125,-0.17578125,-4.482421875,-8.7890625
