RAMEL-ESPOL/ARCHIE/matlab/data/joint_goals_espol_t5_h20_p21.txt
Joint0,Joint1,Joint2,Joint3,Joint4,Joint5 
0.005080880708205844,-0.0017891287368084305,-0.0009550522088648164,-0.005209859820701526,-0.002105961330151535,-0.0015040877472089543
0.005080880708205844,-0.0017891287368084305,-0.0009550522088648164,-0.005209859820701526,-0.002105961330151535,-0.0015040877472089543
0.005080880708205844,-0.0017891287368084305,-0.0009550522088648164,-0.005209859820701526,-0.002105961330151535,-0.0015040877472089543
0.005080880708205844,-0.0017891287368084305,-0.0009550522088648164,-0.005209859820701526,-0.002105961330151535,-0.0015040877472089543
0.005080880708205844,-0.0017891287368084305,-0.0009550522088648164,-0.005209859820701526,-0.002105961330151535,-0.0015040877472089543
0.005080880708205844,-0.0017891287368084305,-0.0009550522088648164,-0.005209859820701526,-0.002105961330151535,-0.0015040877472089543
0.005080880708205844,-0.0017891287368084305,-0.0009550522088648164,-0.005209859820701526,-0.002105961330151535,-0.0015040877472089543
0.005080880708205844,-0.0017891287368084305,-0.0009550522088648164,-0.005209859820701526,-0.002105961330151535,-0.0015040877472089543
0.005080880708205844,-0.0017891287368084305,-0.0009550522088648164,-0.005209859820701526,-0.002105961330151535,-0.0015040877472089543
0.005080880708205844,-0.0017891287368084305,-0.0009550522088648164,-0.005209859820701526,-0.002105961330151535,-0.0015040877472089543
0.005080880708205844,-0.0017891287368084305,-0.0009550522088648164,-0.005209859820701526,-0.002105961330151535,-0.0015040877472089543
0.005080880708205844,-0.0017891287368084305,-0.0009550522088648164,-0.005209859820701526,-0.002105961330151535,-0.0015040877472089543
0.005080880708205844,-0.0017891287368084305,-0.0009550522088648164,-0.005209859820701526,-0.002105961330151535,-0.0015040877472089543
0.005080880708205844,-0.0017891287368084305,-0.0009550522088648164,-0.005209859820701526,-0.002105961330151535,-0.0015040877472089543
0.005080880708205844,-0.0017891287368084305,-0.0009550522088648164,-0.005209859820701526,-0.002105961330151535,-0.0015040877472089543
0.005080880708205844,-0.0017891287368084305,-0.0009550522088648164,-0.005209859820701526,-0.002105961330151535,-0.0015040877472089543
0.005080880708205844,-0.0017891287368084305,-0.0009550522088648164,-0.005209859820701526,-0.002105961330151535,-0.0015040877472089543
0.005080880708205844,-0.0017891287368084305,-0.0009550522088648164,-0.005209859820701526,-0.002105961330151535,-0.0015040877472089543
0.005080880708205844,-0.0017891287368084305,-0.0009550522088648164,-0.005209859820701526,-0.002105961330151535,-0.0015040877472089543
0.005080880708205844,-0.0017891287368084305,-0.0009550522088648164,-0.005209859820701526,-0.002105961330151535,-0.0015040877472089543
0.005080880708205844,-0.0017891287368084305,-0.0009550522088648164,-0.005209859820701526,-0.002105961330151535,-0.0015040877472089543
0.005080880708205844,-0.0017891287368084305,-0.0009550522088648164,-0.005209859820701526,-0.002105961330151535,-0.0015040877472089543
0.005080880708205844,-0.0017891287368084305,-0.0009550522088648164,-0.005209859820701526,-0.002105961330151535,-0.0015040877472089543
0.005080880708205844,-0.0017891287368084305,-0.0009550522088648164,-0.005209859820701526,-0.002105961330151535,-0.0015040877472089543
0.005080880708205844,-0.0017891287368084305,-0.0009550522088648164,-0.005209859820701526,-0.002105961330151535,-0.0015040877472089543
0.005080880708205844,-0.0017891287368084305,-0.0009550522088648164,-0.005209859820701526,-0.002105961330151535,-0.0015040877472089543
0.005080880708205844,-0.0017891287368084305,-0.0009550522088648164,-0.005209859820701526,-0.002105961330151535,-0.0015040877472089543
0.005080880708205844,-0.0017891287368084305,-0.0009550522088648164,-0.005209859820701526,-0.002105961330151535,-0.0015040877472089543
0.005083846550595474,-0.0017834309022793,-0.000961694258180675,-0.005209857843647735,-0.0021037007957489225,-0.0015011125957530211
0.11914734196722312,0.2165749755479367,-0.2551809149484185,-0.005234526330091323,0.08422818348004571,0.11291930994750857
0.36487677986761696,0.681782887897191,-0.7946218394966572,-0.005966788034562726,0.2661555195973678,0.35941256824166606
0.6292002457809274,1.1744363492937269,-1.3626727538933046,-0.007772703758267446,0.4558405595120059,0.6245556279926244
0.8986278644500799,1.6685607075200244,-1.9290991565290618,-0.010677558291605257,0.6430091861928585,0.8948235231045298
1.1738746474271413,2.1652096377872487,-2.4950700523197265,-0.014731547528463805,0.8280142929481068,1.1709405868816802
1.455151653856722,2.664473241393662,-3.060638589533691,-0.019984957927157015,1.0108329097674364,1.4531257558244033
1.7430478231278557,3.1670789936429022,-3.6265716415247837,-0.02649994204914871,1.1916672568387177,1.74197723556747
2.0371243770325647,3.6719439716313085,-4.191596671744699,-0.034317906245724006,1.370066854455757,2.037062220845514
2.3390385165500764,4.181551953174953,-4.758426455152197,-0.0435406530712501,1.5468349510592552,2.340051277209553
2.648771631978065,4.695448911647759,-5.3264688587497115,-0.054234181631822864,1.7217199164072388,2.650933777332798
2.964209059127139,5.209802961746216,-5.8914457215068365,-0.06637864705695269,1.893365163046163,2.967594754246568
3.2880381978780084,5.728659803487059,-6.457757975133525,-0.08013277119665334,2.0630671862837744,3.29273960795895
3.6199721848865307,6.251128630752053,-7.024357708823042,-0.09555317661704958,2.23044912749803,3.626088428314365
3.959655984996063,6.776257622635366,-7.5901578348466785,-0.11268709465832351,2.3951395631535237,3.9672924421254367
4.3076230068801244,7.304480421748356,-8.155577197131867,-0.13162510249456244,2.5572133799314867,4.316895060487805
4.664875069842194,7.836872811183463,-8.721704298673478,-0.15249333560437733,2.7169244220842046,4.675910685460718
5.032470895555326,8.374493296940937,-9.289580642963276,-0.1754361828625128,2.874492365798978,5.045411583944819
5.408852685964472,8.914575834205353,-9.856219908571306,-0.20043464336733136,3.029026315327294,5.423839679335895
5.793928428602199,9.45658073141526,-10.421028391165184,-0.22754933281594553,3.1803267273364075,5.811109183590859
6.1911776140202175,10.00487031843684,-10.988485645296965,-0.2571106710295192,3.32952659444026,6.210726963032859
6.597888508659649,10.555147124850677,-11.554079038348357,-0.2890052112079385,3.4753714788925447,6.619972424204397
7.016776467352682,11.110544041633364,-12.120978714356454,-0.32353228100845516,3.6186196349469264,7.041584527713069
7.445838798083227,11.66784836304618,-12.685858845376353,-0.3606155418446293,3.7583718348786257,7.4735538326969735
7.888464678911252,12.230863186307491,-13.25252432801903,-0.4006427478290818,3.8955054869928767,7.919298536723205
8.346521962239288,12.801167448856244,-13.822460160448871,-0.44390697758680897,4.030271067679707,8.380706977328709
8.808664166173982,13.364231916566917,-14.381183475188182,-0.48940146477881663,4.159242623020573,8.846352260193
9.27758172536553,13.923288318264197,-14.93205958195923,-0.537402094524236,4.283291297176804,9.318943542282904
9.749895995475498,14.474288472200634,-15.471265128480484,-0.5875692912171422,4.401657307319588,9.79507315267398
10.227233524486945,15.01917646119775,-16.00088799994211,-0.6400712730167617,4.514917613494207,10.276377008569497
10.706131471001598,15.554111102941839,-16.517396185951277,-0.6945119811661566,4.6224509360820445,10.759358662929518
11.192767416331723,16.086002613319476,-17.02763161820326,-0.7515930508423276,4.725790035208219,11.250243995643823
11.68301980789949,16.61028080788613,-17.52735627332674,-0.8108409524365203,4.824165506269671,11.744871318618525
12.18245430285271,17.132786521348184,-18.022272260583424,-0.8729443470913189,4.918778915853433,12.248851707269909
12.69224075375175,17.654401305594902,-18.513289598426997,-0.9380987588907126,5.009828370691326,12.763362670091379
13.211913705777311,18.1742937016853,-18.999703450068502,-1.0062957978336422,5.097207849836859,13.287930918766095
13.729360106988764,18.68042014138347,-19.47043338602847,-1.07593154613428,5.179055689050578,13.8103225734858
14.247189016779165,19.175714866704887,-19.928466117569766,-1.1472959936477645,5.256091171333818,14.33316302750929
14.76499224990537,19.66008315568002,-20.373941157392988,-1.2202842313167421,5.328512300577467,14.85603229992509
15.28409317604188,20.135015316774545,-20.808438395907693,-1.295040137817332,5.396736447345948,15.380259317740503
15.675579103063146,20.486307591797093,-21.128391724287177,-1.3524390690775066,5.44543225427285,15.775638099326247
15.713170471494378,20.5074244954344,-21.278058096876673,-1.3585574488396772,5.582464398433129,15.816770419193361
15.698210984207215,20.44546795270887,-21.70213969463219,-1.3584711081715755,6.068720513417055,15.813324594691883
15.681492026795198,20.369614088213268,-22.173337197941528,-1.358500815313293,6.616014329136511,15.809564634871407
15.664739825372596,20.286474916765457,-22.642493093692426,-1.3586674229370845,7.16855104360643,15.805898284857419
15.648639465307808,20.199707757607637,-23.090531005721548,-1.3589598903425848,7.703587099233635,15.802474508478495
15.640567876180688,20.153635817882382,-23.314072998249383,-1.359156372630754,7.9733163502947475,15.800796354425119
15.637303756878532,20.134511225220095,-23.404266900700737,-1.359245421896405,8.08268138671068,15.800125162373366
15.699739405290915,20.10898526042322,-23.42264525936954,-1.3646828221135314,8.125091821057008,15.86412291203139
16.1474978745492,19.972075072080496,-23.338553530847204,-1.402749846763734,8.167101337415144,16.31683359453812
16.72966541679507,19.78768764415065,-23.224911933048624,-1.4521354673119786,8.22334906818206,16.905569215002437
17.31135133145807,19.59617641025978,-23.106406570182063,-1.5013539018912951,8.281368124854259,17.493967377666223
17.89592268008794,19.39630309342707,-22.982211638909945,-1.5506850161040795,8.341482404871147,18.08543872680794
18.476750620312195,19.190263908009065,-22.853633653186073,-1.5995655133435587,8.402981194781429,18.67327940515508
19.057031934430505,18.976913739540702,-22.719898697136962,-1.6482558668449256,8.46612713345816,19.260731473048438
19.628195532166732,18.759505131834086,-22.583002700703904,-1.6960476941341573,8.529975423297303,19.839106948291427
20.034389652796975,18.600363306728593,-22.4823979640669,-1.7299496896219444,8.576371706802389,20.25052737703681
20.286345039799848,18.49974218136561,-22.418614615314123,-1.7509418564458992,8.605558058263014,20.50576572787317
20.821700240889914,18.281047109330206,-22.279519942304496,-1.7954510492904798,8.668594573144096,21.048202351844978
21.391055119377512,18.0410797529607,-22.126161945210296,-1.8426421792025423,8.737132422758313,21.625247987797064
21.96129477815691,17.793008900595563,-21.96681644980252,-1.8897532221505486,8.807288951896817,22.203357268204904
22.515762695821074,17.54427380121345,-21.806213886235053,-1.9354030859435585,8.876890016784033,22.76564475456513
22.834947424052558,17.397684166981346,-21.71117742779537,-1.9616169160444725,8.917591141554674,23.08940054070278
22.818799981858255,17.355680940061568,-21.496944071597845,-1.9593903041036596,8.746013011943408,23.06714947182943
22.766300689117116,17.254466400356552,-20.96780412666942,-1.9529382154282644,8.320125440386034,22.999444751391422
22.710646234163093,17.142134527615166,-20.401421917749726,-1.9462276962537848,7.868228434632952,22.927761799617603
22.655439699109145,17.02558387056254,-19.83399257760529,-1.9397012426622802,7.419478739427412,22.856743733447896
22.60087652234331,16.90537300750435,-19.267616211208907,-1.9333767804520035,6.97541063075371,22.786635111241466
22.54641677427486,16.780407683078646,-18.696726010844763,-1.9271879453562424,6.531572526334226,22.716736343301122
22.492485129307045,16.651739355986905,-18.125793373274988,-1.9211797869154914,6.091368280471345,22.647587129646524
22.438825028293675,16.518853884391294,-17.55214750310201,-1.9153200966088746,5.652651254646051,22.57885298418573
22.385841536350533,16.382870151608255,-16.980187253126964,-1.9096491611825415,5.218686228958094,22.511047184398254
22.33296571888376,16.242418497804657,-16.403812316264695,-1.904102842554374,4.784764356831906,22.443436535657508
22.291677762384744,16.129441759826058,-15.949824585540442,-1.8998501530223864,4.445312041532335,22.39068035876937
22.278254471455607,16.09208551140538,-15.801477540652167,-1.8984822547016793,4.334827220558355,22.373535330125296
22.266884589041233,16.060023927480795,-15.665719967839145,-1.8973055872809348,4.231564799187233,22.358695618967577
22.35750548956896,16.299108640403116,-15.841154590302427,-1.9044738320878756,4.164943485991602,22.447390990298917
22.56669380690916,16.844684248959506,-16.238458508801305,-1.9210048117170233,4.009771692607541,22.65202569178333
22.79121991937787,17.420648257439737,-16.653342368831492,-1.9387236803363763,3.8412213771462054,22.871499124605357
22.977737812798782,17.891725342650258,-16.98921216789279,-1.9534248011018316,3.699758066727455,23.053692905313497
23.05181840254335,18.07700094432388,-17.120459714953675,-1.959259292195178,3.643232583035164,23.126024771548632
23.058789766873986,18.098060611926247,-17.25743213074897,-1.960075381048956,3.7588391235095937,23.136978315914565
23.03790154172957,18.05676749977667,-17.694314500419825,-1.9595384329422105,4.237449177595044,23.132447082021635
23.014356858010203,18.003985284173524,-18.18389866772045,-1.9591058413767124,4.780303422610354,23.127446200826267
22.99086504124229,17.944615911248153,-18.66931925203737,-1.9588602925986047,5.325577964158578,23.122575010410472
22.967347703904853,17.878348551118524,-19.15215296440127,-1.95880472142078,5.87516186325186,23.117823311147493
22.943971055977315,17.805575700353483,-19.628960349508702,-1.9589423930572374,6.425219669885224,23.113230158774236
22.9207765079804,17.72644240865219,-20.09891070546676,-1.9592735043711569,6.974774731820586,23.108807470588403
22.897821910346646,17.641209565880548,-20.5608663321512,-1.9597964611066245,7.522427246065453,23.104569094136863
22.874830141648022,17.548812528652157,-21.020392806879375,-1.9605197436530515,8.074812962483115,23.100468678920908
22.854726735649862,17.46216020005217,-21.419542771141924,-1.961319642244943,8.56101718422506,23.09700750906038
22.847320856052818,17.428840944006964,-21.565954595027478,-1.9616544408540637,8.740895794723036,23.095762638286804
22.84319668612054,17.409957654884252,-21.64733985859416,-1.9618503475643512,8.841246376667153,23.095076582845067
22.84927378679138,17.41946723732895,-21.72686745519796,-1.9627449128802132,8.91100714192822,23.10364245389388
22.99420600116943,17.796393483431938,-21.994681193912342,-1.9739161612680864,8.79699413707743,23.2460399175773
23.22161551703421,18.38017871656014,-22.405543767100617,-1.9914119567995534,8.616326628974125,23.469319403714355
23.454241349731305,18.967907990379302,-22.814380594163996,-2.009269218143699,8.429441522491068,23.69753180108307
23.692171924107683,19.559400796029838,-23.220997065085463,-2.027493759804775,8.236317004382302,23.930756185250612
23.933135856064936,20.148745182404685,-23.621335011437836,-2.045911251505425,8.0388818574755,24.166761292010804
24.17780693676655,20.737426141276007,-24.016463588532705,-2.064573289345224,7.836693639797516,24.406204372771395
24.429393464309822,21.332775805423235,-24.4112585348646,-2.0837238225317956,7.627177780428994,24.65221816676389
24.684657511863996,21.926752185688354,-24.80034975442046,-2.1031156910543394,7.41311648593453,24.90162972825411
24.94542767972273,22.52332349049379,-25.186350134228533,-2.1228875134660585,7.193084307797073,25.156220956798986
25.209922972330173,23.118132747752387,-25.56645922048753,-2.1429039898138336,6.968697910752694,25.41424848542993
25.47986932971845,23.71478824955258,-25.943010245859185,-2.1632955245534844,6.738614505963828,25.67739179482899
25.753169268164747,24.308409724037894,-26.31296626478407,-2.183903568755114,6.504750580889012,25.94360268923407
25.990203728277336,24.81495383514555,-26.62498485999088,-2.2017483199968186,6.301302186913798,26.174329518408246
26.093948334408882,25.034273586363383,-26.75903680988138,-2.209550447085447,6.2121063702288355,26.275267951475776
26.083139286796207,25.127157374712908,-26.81426778471136,-2.2085431794572052,6.174898577326055,26.26294843547283
25.67106627797529,25.331827278541937,-26.926143768658548,-2.17570441010616,6.097934731689206,25.845402193423958
25.078811414216194,25.61867648221521,-27.082062824711333,-2.128342295370338,5.989338519192284,25.24552252997924
24.48683238920517,25.896903405942926,-27.232319262135096,-2.080811737794055,5.883197215856522,24.64620344745577
23.887227850231806,26.170207204022542,-27.37898395763877,-2.032478453419495,5.778162683657504,24.03944653077431
23.285957413940746,26.435810196873256,-27.520629594387394,-1.9838126537089276,5.67533037403203,23.431285827250925
22.68264782350027,26.693945150775534,-27.65746327874997,-1.9348056373746434,5.574733878552661,22.821338542275505
22.07719602515587,26.944698730975265,-27.789600810840184,-1.8854412609590772,5.476372262198704,22.209499489998365
21.470206796128764,27.18787480173216,-27.91700982275101,-1.8357712363533405,5.380382455230192,21.59637676733063
20.85794827209683,27.424953689905003,-28.040525861130448,-1.7854826983590142,5.286203665963975,20.978200877995057
20.241891351530263,27.655313888223567,-28.15988833042585,-1.7347143907517368,5.194189998024461,20.356453996208835
19.62710253061726,27.87712815615326,-28.27421306585376,-1.683878251795938,5.10509657675485,19.736245969354915
19.007012773409127,28.092803848960763,-28.384801743474032,-1.6324339501114147,5.0180071384498595,19.11094574312281
18.41245739589495,28.292106242288966,-28.486491431604136,-1.5829444923190588,4.937096731848681,18.511630182025527
18.07724341283095,28.401281172393663,-28.54199380523963,-1.5549808507191096,4.89262830024902,18.173830595395565
18.02695512029478,28.32050609151735,-28.37401384926504,-1.5505997356164372,4.80681885212486,18.121008009636892
17.940908250841293,28.05204542655962,-27.849851589216364,-1.5428798055049124,4.553533884326073,18.027777980900783
17.84526626748371,27.749665019028768,-27.259873822731596,-1.5343299186899442,4.268609142663006,17.92414119507239
17.751052287150383,27.447612166619024,-26.670953415390848,-1.525940199645735,3.9843604202420213,17.82203983457731
17.65826154842632,27.145970347143063,-26.083234584513335,-1.5177095018558753,3.7008492163789968,17.72146825470343
17.566065276861607,26.842090658849052,-25.491543449315984,-1.5095640095985063,3.4155739113803123,17.621527561986355
17.475357036728504,26.538969120298756,-24.901700931235858,-1.5015823279777347,3.131335277269021,17.52318579560464
17.386175295519948,26.236850398484624,-24.314165261053564,-1.4937669955403872,2.8483464644336896,17.426484324812513
17.297008295990018,25.930629494399597,-23.718999913895207,-1.4859854691100278,2.561817434474204,17.329783247563725
17.20921746108725,25.624988047481306,-23.125296510942444,-1.4783565811316184,2.276121580499252,17.2345583159767
17.122152314187108,25.317718883448503,-22.52875632192427,-1.4708234316572537,1.9891853129833237,17.14010347309248
17.037898057946414,25.01634366396658,-21.94396334121908,-1.4635652383004654,1.7080157620266363,17.048680880461465
16.985425086123648,24.826609262264757,-21.575949491690288,-1.4590610083732194,1.5311309345901902,16.991734491917324
16.96124601879875,24.738646873310113,-21.4053736203167,-1.456989731953081,1.4491586470625852,16.965491692739516
16.953752941956694,24.68844400634555,-21.310402341443606,-1.4563363811543288,1.4045949687701693,16.956872869380174
17.275293374438057,24.592443830526012,-21.25719033096073,-1.4831594848780199,1.4391366085801867,17.278951969333985
17.86060507906525,24.41241524534782,-21.157083218939626,-1.5318715499132503,1.5036584824223609,17.865388202242332
18.465340165205568,24.219180280631655,-21.04916916337643,-1.5820400667619403,1.5725436668339425,18.47148513899838
19.071136602515892,24.018134082657028,-20.93638278220216,-1.6321285950400275,1.643805269714193,19.078855358789653
19.526435744124367,23.86204240183896,-20.848453355850726,-1.6696552229035033,1.6988133380705566,19.535492644417324
19.59309704336843,23.834309758168835,-20.91483478513329,-1.6752167065655024,1.7909445337938994,19.60481532513314
19.57393955857459,23.813399194625504,-21.35252397077322,-1.674114191803804,2.2499076411641203,19.599087661487747
19.55120335612151,23.782198684488176,-21.869490807218043,-1.6729496173012477,2.798504671969422,19.592382319257535
19.528620858578527,23.74420443520782,-22.380243065129417,-1.6719508278587856,3.347676217312541,19.585826889242608
19.506133263488866,23.699277182625835,-22.886101535902764,-1.6711162672036073,3.898883388168605,19.579408420373607
19.483903657331147,23.64775294009072,-23.38340708625282,-1.6704520109022025,4.4481279432862575,19.57317678362957
19.4618300281887,23.58943763010867,-23.874462872483967,-1.6699544243509765,4.997908990443869,19.5671061652889
19.43992368940381,23.524361137453592,-24.359020960820438,-1.6696242523417213,5.547948460857376,19.561203118862498
19.418834106652056,23.454783336797483,-24.82284558811849,-1.6694643500089184,6.081738764677519,19.555640325367108
19.407899939557126,23.415986220348238,-25.062273518021986,-1.6694437681718952,6.360164144074156,19.552804522855837
19.395600769728848,23.370090186977254,-25.3307236795751,-1.6694723974594645,6.674735038364372,19.549655423602182
19.390382462462302,23.34988854354596,-25.444341776296664,-1.6695013138567971,6.808649904769268,19.548332627106753
19.385977359430033,23.33249507324781,-25.540123259268437,-1.6695335612787037,6.921905061776853,19.54722223257523
19.477104791537762,23.29333635171164,-25.549211325570113,-1.6772443467271667,6.967472305387711,19.640333762398154
19.96033311596437,23.112937337647658,-25.445887928506153,-1.717435522242284,7.030213094819797,20.12888565509437
20.55555245796137,22.883624582054622,-25.313950982520335,-1.7667995019461478,7.10946497661637,20.730852475636215
21.149967573699698,22.646692006103166,-25.17692498708681,-1.815936725106932,7.190759265527748,21.332219515941592
21.739277025270635,22.403860280466805,-25.035742139266688,-1.8644899060110507,7.273451431808165,21.928635953747225
22.287069300864843,22.17095041380089,-24.89961747004947,-1.9094743152271443,7.352166597373779,22.483229669515183
22.550762277346116,22.056333583126335,-24.832370291649585,-1.931074760041265,7.39065458944672,22.75027241197963
22.95157403181232,21.8789800558657,-24.727986535958166,-1.963844525608254,7.449978156541877,23.156249332210827
23.527156990665517,21.617594443475415,-24.57340536008948,-2.0107626107888286,7.536784236817312,23.739431805347746
24.08444630485637,21.35688909347307,-24.418347084170453,-2.0560283047644967,7.6226186026473055,24.30428606479302
24.379558917446495,21.21564917383752,-24.33376930065827,-2.0799325816340404,7.668610319871394,24.60348197853737
24.340524303799317,21.13516025212999,-24.092674621971184,-2.0760343499251035,7.509523991691597,24.5583075097556
24.25259551998141,20.950858620084475,-23.545412340910463,-2.0673132917018853,7.149976374145818,24.45658464215452
24.16104562392436,20.754531369582654,-22.969380906229894,-2.058321285837245,6.7738116711662935,24.35072399381557
24.07007495196899,20.554921682467125,-22.390582747665643,-2.049475139090545,6.398126083175967,24.245582157741893
23.979914361899873,20.352595095557515,-21.81051606126215,-2.040795174785301,6.023843754529797,24.14142194552278
23.890102243178575,20.146556417781724,-21.226215817606345,-2.032235243119399,5.649012867505275,24.037706336359417
23.80149031670894,19.93882817991088,-20.64327027182352,-2.02387434146245,5.2771670120393726,23.93541502766545
23.713994651865498,19.729339492569093,-20.061260201362575,-2.015701352867724,4.907961615963886,23.834446914256215
23.627012848334505,19.51672157617161,-19.476237546065132,-2.0076578688421787,4.538840635797626,23.73410319247831
23.54053065175164,19.300965129251125,-18.888096431909805,-1.9997413855164317,4.169708301414036,23.63436421393124
23.45587118871532,19.085495697703607,-18.30597468326756,-1.9920700614288498,3.806227677219168,23.536752214724252
23.400787307245608,18.943012185376336,-17.923770392453587,-1.9871204568830017,3.5685641628891385,23.4732527182655
23.379526261117896,18.88753076420946,-17.77551335409944,-1.9852188624808964,3.4765812520279673,23.448745791162843
23.365428256357802,18.850093584763947,-17.662947005230816,-1.983932710407702,3.401985432557796,23.432026741301314
23.481501463977988,19.131704600556663,-17.85849234839144,-1.9930537782561348,3.311944470500987,23.545211409247894
23.714301829490303,19.68932035057258,-18.24245024636055,-2.0113305582765584,3.130260527972627,23.77209586624291
23.960120597411354,20.26792646731956,-18.636327668580922,-2.0306060283321856,2.9369800884551576,24.011494640222924
24.212654983866738,20.851723613909964,-19.029080195614657,-2.0503842074901404,2.7370680716696394,24.257253768431536
24.456493301151387,21.405474118519,-19.397313626959964,-2.069459355069337,2.542910208839186,24.49438228391982
24.57754672516919,21.67683322360533,-19.576238008817114,-2.078921474773149,2.4461570816036424,24.61204490331285
24.621718647484233,21.804417063228637,-19.659692597462936,-2.0823571729837136,2.400454311684631,24.654593444083364
24.278704868160535,21.87607739363951,-19.69743861957505,-2.055069904047617,2.37894095465927,24.31052329306471
23.690931670433503,21.993696633027746,-19.75894553141882,-2.008146851137683,2.343695192854049,23.721064738257493
23.091729530832364,22.106925211496247,-19.81757752958987,-1.9601011683603031,2.3098709855349626,23.120302273030447
22.491371676065008,22.213669142633915,-19.87226268529352,-1.9117548159232816,2.2781165606776574,22.51853545772916
21.890876108012307,22.313776794913856,-19.922947935566903,-1.863186148731209,2.2484655852043187,21.916784179085358
21.287174549334452,22.407761518303275,-19.969922570616397,-1.8141663433941646,2.220842634820587,21.311960279496464
20.679168753809382,22.495715532277735,-20.013243855543596,-1.764599471247244,2.1952096687664415,20.70296480813582
20.072667304024794,22.576798609834217,-20.052518133655326,-1.714962906302068,2.171826310852454,20.09561079196875
19.46917316412099,22.65092565350136,-20.08773494960215,-1.6653869605580887,2.1507256121573644,19.491395818010798
18.856699349854395,22.719508407477843,-20.119571992264714,-1.6148829266199798,2.131490397038806,18.878318103020167
18.242516600446738,22.781600585105434,-20.14759524333099,-1.5640643051606116,2.114463422086581,18.263644837030142
17.62916821528755,22.836961798229737,-20.17170918195141,-1.513139796196675,2.0996889073425824,17.64991894493299
17.017674788615025,22.885573938436895,-20.19192875973596,-1.4622007929726348,2.0871744677420483,17.038154413490137
16.403093891036686,22.927834056492546,-20.208427067680987,-1.4108351317903522,2.07679362916401,16.42340343337978
15.790405918677294,22.963410081078706,-20.221091153609194,-1.3594754259363782,2.0686926561999566,15.810635309537203
15.179022951246433,22.992404969639374,-20.229976757029508,-1.3080734134708092,2.0628138351946257,15.199257747409158
14.566697830927435,23.0149483162693,-20.235135055629613,-1.2564459069463982,2.059130123393799,14.587016845687518
13.953047078562117,23.031028945213283,-20.236555213646746,-1.2045610057123655,2.057618062115363,13.973525183594882
13.338434268042578,23.0406177048525,-20.23423329215309,-1.1524634701388519,2.058346400193854,13.359135190395111
12.726047459679553,23.043689738421218,-20.22819285288171,-1.100424953178849,2.0612705819875803,12.747029048596694
12.111641496473908,23.040274341426013,-20.218395296085465,-1.0480905231323931,2.0664052252536758,12.13295663701388
11.499218324284861,23.030391553289622,-20.204897085819756,-0.9958035329437334,2.0736824886155696,11.52091239195057
10.884073918480814,23.01395737218534,-20.187591527481594,-0.9431747426228999,2.0832174210472685,10.906185286862542
10.273625062557466,22.99119322734694,-20.166691370198663,-0.890841422138926,2.0948495192271133,10.296181533463347
9.658509596101284,22.961742391714026,-20.141863777763085,-0.8380067623333435,2.108751521985632,9.68153884511007
9.044979433494303,22.92584064880818,-20.11331163272919,-0.785210725108361,2.1247628188917704,9.068498302423489
8.434747936384367,22.883657147632377,-20.08114976312347,-0.7326120675611862,2.142866974949857,8.458763336876862
7.821218699833579,22.834715249072715,-20.04500254455873,-0.6796456249641052,2.163223370956762,7.845736714841107
7.207314097676513,22.779168124624913,-20.0049809289029,-0.6265687417368109,2.185747878534622,7.232331499309972
6.594219266002551,22.717105496458167,-19.961135660181817,-0.5734897719584126,2.2103878485437645,6.619724925900306
6.119431342474073,22.66449849881892,-19.924492904029844,-0.5323383303268874,2.230907709263731,6.145303488929534
6.036423568982367,22.65137275833584,-19.986155192320968,-0.525166102373989,2.3064591569178914,6.063017642375722
6.030781918279133,22.62658685836329,-20.402400049030636,-0.524854707119935,2.7475230425840294,6.061422659261349
6.023870833146093,22.59007123704396,-20.909869480375992,-0.52451729717168,3.291548532151712,6.059496716074068
6.017028993194175,22.547113225386816,-21.409565505520288,-0.5242320417416235,3.834242434920823,6.0576219710473485
6.010224758379366,22.497526874220107,-21.903809351690207,-0.5239975925287192,4.378112108044305,6.055790752492467
6.003445351249788,22.441167026260583,-22.393513156356693,-0.5238139802518443,4.924214915199692,6.054000933014342
5.996680626837302,22.377860759588664,-22.87937858315033,-0.5236817017968436,5.473425494336904,6.052251345612145
5.989975105836746,22.307990168775657,-23.35819728926512,-0.5236020484562646,6.022153147333263,6.050554751937724
5.983296779902518,22.231207700172593,-23.832251400658986,-0.5235749514031524,6.57302773257094,6.048904202859428
5.976814974485855,22.149671488503206,-24.289605586758938,-0.5235998010692707,7.111954823098784,6.047341431270517
5.973296250760356,22.10246440277968,-24.5367312799507,-0.5236348589153521,7.40630743827961,6.046509886993479
5.972268465064228,22.08828005427694,-24.60875922935807,-0.5236480062243696,7.49252551892602,6.046269293973567
6.258951092143292,22.055631413208744,-24.59187595754345,-0.5487236616690664,7.50561065211713,6.335279760871836
6.836742213019944,21.985991430208486,-24.55089440066815,-0.5992199292460185,7.528486637038503,6.917762503429482
7.438810269693071,21.906760364798938,-24.50419273376101,-0.6517825193084308,7.55444942936231,7.524789708267261
8.038560621074243,21.8210368780311,-24.453573055138055,-0.7040817556847694,7.582463287733186,8.129557531228878
8.640362520460785,21.728163585216443,-24.398624433375637,-0.7564937963260217,7.612724027144003,8.736477741641375
9.242077908617185,21.62839374364051,-24.339468269992828,-0.8088246487191656,7.645097111478501,9.343402391910935
9.845203530738875,21.521417452371484,-24.275899667567586,-0.8612042271400883,7.679721900817673,9.951843493720713
10.447230070825892,21.407624383096838,-24.20811785168882,-0.9134073927454309,7.716416896539609,10.559277498112818
11.047375919059014,21.287164133980035,-24.136181981981565,-0.9653621498620103,7.755108666374364,11.16492073198631
11.649524439051874,21.159198844172657,-24.059555106982128,-1.0173962049620002,7.7960072168770855,11.77270047106236
12.250449363536422,21.024348871376702,-23.97857893648145,-1.0692327449455505,7.8389456095302155,12.37936064891947
12.848312305899501,20.883040794519065,-23.893471177297076,-1.1207061451359273,7.883727184422984,12.983052154562952
13.262434684027658,20.780949658745627,-23.83182154341967,-1.156299918269129,7.915944574333624,13.401286219260056
13.518664752440746,20.716045917144154,-23.792557635755383,-1.1782973338786928,7.936367118451007,13.66009167995245
13.81855976081972,20.638280034311034,-23.744710850296332,-1.2040160027215587,7.960055098941801,13.963017462291685
13.80858683758999,20.607952066054263,-23.505309890343582,-1.2025580982214286,7.751237483057658,13.948532996326099
13.786620873368374,20.537407416222482,-22.974704385889158,-1.199409335994307,7.291737871871136,13.916676679115808
13.763848942078251,20.458862241174177,-22.41978919636981,-1.1962344821875162,6.815947926972879,13.883716539090269
13.741139378046924,20.375073304578926,-21.861439147602336,-1.193157684052342,6.341963540953082,13.850909388533632
13.718536383733367,20.286290386364634,-21.300747024931937,-1.190182705963438,5.870626652034008,13.818315213685343
13.696190252661896,20.19325625647222,-20.741509927215372,-1.1873261190813365,5.404987858831941,13.78614627732388
13.673934339010879,20.0954195223431,-20.179619627495974,-1.1845636507225097,4.941494605258123,13.75415845622232
13.651716868180843,19.992615416432084,-19.613757834235123,-1.1818872422136624,4.47899471664008,13.72227400527535
13.629704746850122,19.885716284477194,-19.04820183175018,-1.179314839419975,4.02088899758783,13.690728860916328
13.60819878239601,19.77643768712065,-18.490861803961273,-1.176877082134973,3.573364640209835,13.659949326869041
13.595550769798976,19.709940587038783,-18.160848243954376,-1.1754779866664047,3.3101634046395465,13.641864918605991
13.591119058904733,19.68625075771245,-18.04482147705632,-1.174993792971495,3.2179368075788704,13.635531310671748
13.642836606000103,19.907662336022923,-18.190929798590314,-1.1792950858858158,3.14158717713018,13.685746056341157
13.773573309675868,20.461639863698213,-18.564676013210423,-1.1901815005139282,2.958691964662834,13.812843475823364
13.903158019606662,21.00205682575892,-18.925189563841926,-1.2009730288522564,2.776124892472531,13.93872605132699
13.959921563448827,21.236113604067558,-19.080081741063363,-1.2057006593771495,2.6957862136621777,13.993838715319393
13.959184295780343,21.243206161254502,-19.260604555237393,-1.2058152969535603,2.8691935487896907,13.996755718078136
13.944840912642544,21.20860148808528,-19.729337707930984,-1.2051768689640938,3.372721580537039,13.993007812694774
13.92949550694619,21.165096105211244,-20.228125188985796,-1.2046016217040159,3.9152171318641766,13.989066488788387
13.914158725634607,21.114784235743084,-20.723803837123995,-1.2041404208581465,4.461409352553805,13.985201858297089
13.898988112766544,21.058160173901314,-21.211278811387473,-1.2037986224411448,5.005707011327357,13.981456308000201
13.8837885747632,20.99444788442104,-21.696804681632802,-1.2035729576419554,5.555143239886013,13.97778467923671
13.86868885274744,20.924093059662397,-22.17623482574653,-1.20346732297883,6.105124012050044,13.974221643238101
13.85367087574923,20.84699501817732,-22.650139920845046,-1.2034823683695994,6.656320896901085,13.97076562703409
13.83875795703764,20.763262295613867,-23.117782528069803,-1.2036188436480442,7.207887596047076,13.967424631078318
13.826214724952822,20.687191985073756,-23.508799209437722,-1.2038297240267115,7.675134727321751,13.964687836660483
13.821968806684568,20.66025737455173,-23.64067321580699,-1.2039213655005598,7.833997376944075,13.963777106005885
13.819134471857247,20.641940955856207,-23.728566788424928,-1.2039883089496246,7.940243387348124,13.963173658300088
13.845177237137435,20.753743119231068,-23.8221796525083,-1.2061591073349238,7.921511063259333,13.989038073617888
13.961970799067766,21.256398137134457,-24.15414611927526,-1.2156319075121678,7.748395252424955,14.10310526795332
14.106535661852673,21.869530881597516,-24.55440345574118,-1.2273502072210645,7.532489418469165,14.244180572727283
14.253026233213618,22.480861438143503,-24.94839975575464,-1.2392179616554844,7.312055037004692,14.38700847698127
14.40221764669714,23.093405208651458,-25.33811625771189,-1.2512989408124344,7.086040170619218,14.532342031973895
14.553986637536918,23.706374896889738,-25.72306151811711,-1.2635841587723962,6.8547417087452995,14.680057714798542
14.705959995830748,24.310158058568312,-26.097335768219537,-1.2758826491890156,6.621922684506163,14.827845507490485
14.800583899754512,24.681142453857706,-26.324902296397692,-1.283539000081097,6.476427830911402,14.919800698086291
14.788930649663023,24.786025684063183,-26.38835449876167,-1.2824462549740403,6.435268489984607,14.907147107318574
14.38372853603476,24.893919517837226,-26.447922984467926,-1.2479480701799472,6.395905394553582,14.498570671318673
13.774818294624442,25.049953156224753,-26.53381213227614,-1.1960061797284527,6.33876843320356,13.884728758558541
13.161491957768117,25.199777259855473,-26.615997145790665,-1.1435701035592352,6.283671324841994,13.266598011928725
12.547524207578645,25.342447878661385,-26.693994878615104,-1.090965826385293,6.230961125919274,12.647981445977578
11.92661348252772,25.479367937857035,-26.768613557817858,-1.0376572529251775,6.18021152825804,12.022519100399517
11.303804811686874,25.609331830606287,-26.83922569737431,-0.9840798633982716,6.1318649641903935,11.395292495441037
10.68326548567597,25.731539089046528,-26.905432212862035,-0.9305975094863289,6.086248641445371,10.770491180044953
10.0609772821569,25.84684704547831,-26.967728046386583,-0.8768700780704016,6.043038669553525,10.144064794606951
9.44029973013931,25.954691863213377,-27.02584584950114,-0.8231917306576058,6.002534399889892,9.519382111645418
8.820219214843775,26.055337189841143,-27.079954076571,-0.7694810766358648,5.964629454900705,8.895417808556799
8.195510676162979,26.149606690790588,-27.130517890350376,-0.7152916270729263,5.929002966803254,8.266910114222963
7.568131879737323,26.237132101180766,-27.177369115298795,-0.6607947007124576,5.895875633192695,7.6358181909915075
6.940612067917377,26.317552201674776,-27.22033371111642,-0.6062162783527294,5.865370950484646,7.004681501577415
6.483178170429181,26.371706958136,-27.24922111778638,-0.5663906373255935,5.844793348680365,6.544667735435816
6.42109101874907,26.361104433857236,-27.156932654916567,-0.5609045642522101,5.763723200169089,6.481462184933549
6.411358742670709,26.274975987160538,-26.69323410003785,-0.5596968439451725,5.386266426665973,6.46797331172113
6.399697365412601,26.166974427925805,-26.133266374079046,-0.5582840345821428,4.934435675694909,6.451835865982579
6.388139953076527,26.054800234908647,-25.5735594959766,-0.556920254538726,4.48703679341432,6.4358680177204395
6.376534525271287,25.937042593837596,-25.006736297492306,-0.5555868592880707,4.038105195635309,6.41985822544016
6.365004088132068,25.814992450253516,-24.438768894205545,-0.5542974460524918,3.592320641102577,6.403974746902486
6.353628998775866,25.689672227597505,-23.873705003664924,-0.5530595882383834,3.152707517446626,6.38832630793418
6.342301195359988,25.56004113400865,-23.306248488053974,-0.5518602953794244,2.715011735345912,6.372762443332901
6.3310508837792865,25.426540496798832,-22.737934719520336,-0.5507019335662647,2.280327006205334,6.357323125142146
6.319785764090882,25.2881284780581,-22.16408273267793,-0.5495744772513774,1.8450152650929983,6.341880344012394
6.310086590067525,25.165169423573246,-21.66611499757605,-0.5486295765190482,1.4701167155694828,6.328596851243446
6.306253783057621,25.115614991075326,-21.46833306823629,-0.5482627427391195,1.3219326707442358,6.3233506767286185
6.317686927566527,25.214547560824766,-21.51048852769366,-0.5492411360643159,1.2650488250200471,6.3342186410890635
6.373912945456181,25.704990110063893,-21.805614201016397,-0.5540742950021301,1.0692005146092463,6.388448741835419
6.444657332333896,26.31177554578381,-22.166328615654223,-0.5601629861492363,0.8224545321961294,6.456631783737291
6.492043833805319,26.71194456955752,-22.40155173588189,-0.564246234599668,0.6570525951460026,6.50227213201141
6.497285330455528,26.765203788795034,-22.516160140645304,-0.5647073571717866,0.7183472715202764,6.508103874461831
6.490482628185245,26.755321218341845,-22.959437546810992,-0.5641914277486514,1.1715521089546317,6.5057839268358775
6.482242794674337,26.73684236045805,-23.49409913863756,-0.5636148152535152,1.7247467105924958,6.503005163921432
6.474085945135145,26.711361054136944,-24.020881657020254,-0.563097286064797,2.2770639320765182,6.500290089804106
6.4660389799342255,26.67904079394337,-24.538078759308153,-0.5626399107336016,2.8266337580587613,6.4976484507703764
6.458054675829552,26.639746493762047,-25.048746979844946,-0.5622395957821511,3.3766481142219122,6.495065635603123
6.450146817393383,26.593559418485412,-25.55201094101138,-0.5618969693839441,3.926150264749876,6.492547190173625
6.442328210335866,26.54060731293343,-26.04707479511284,-0.5616122715897259,4.474216531837589,6.490098047066531
6.43469039537006,26.481714463114717,-26.528212985678184,-0.5613874348504347,5.014296486439163,6.487746837967653
6.4302016872231125,26.443731249210796,-26.809809092723604,-0.56128043428989,5.333904444224968,6.48638492289707
6.425999972721732,26.405876088635562,-27.072604750735373,-0.5611974628837489,5.634581992887913,6.485123892461956
6.423578272214201,26.383035842615207,-27.223715879589744,-0.561157291697713,5.80854873995923,6.484403294031517
6.428734782786329,26.429077899566334,-27.282535243272356,-0.561618888592856,5.821274882174462,6.4897115925104325
6.477044118879466,26.860330474337992,-27.534373405208697,-0.5656461834735864,5.6413936862083,6.536482948892341
6.5483678377987085,27.4878600695135,-27.896531004335564,-0.5715965311059666,5.375326547149905,6.605484670498494
6.6213368961495975,28.118806219349832,-28.25555110579615,-0.5776902116094524,5.102681935795913,6.676016324311031
6.696054436614268,28.753573247394037,-28.611609349889452,-0.5839368955395619,4.823229634754773,6.748174967596233
6.772517216801177,29.391634113639494,-28.964357937199697,-0.5903374411498387,4.5371483710182865,6.821954779985306
6.850536889609979,30.030972140154045,-29.31266140671274,-0.5968772354542363,4.2453207289741135,6.897171656051576
6.921432530935283,30.6019272914611,-29.619380705301452,-0.6028282035138897,3.980356816240607,6.965464847205003
6.960005272774715,30.81043615217613,-29.730453646019978,-0.6061024892705947,3.882519327495751,7.003089700937185
7.303529871502527,30.769242752934932,-29.71071165594225,-0.6358950431265855,3.9002482563306398,7.347560589924355
7.919599678957323,30.690277094538242,-29.67281136320973,-0.6892719961365728,3.9341900739110076,7.965405687034781
8.569989035380477,30.599785994940163,-29.629288958187708,-0.745544268354161,3.973015295887121,8.617786004408506
9.219990498031066,30.5019841968496,-29.582138654348178,-0.8016951647390206,4.014861327033449,9.269908407741747
9.868030796374928,30.397101643483527,-29.531452582235072,-0.8575851783397437,4.059672301249848,9.920199674768826
10.515031518326321,30.284980164413668,-29.477124389565827,-0.9132871894970499,4.107463751408183,10.569594971053675
11.164060584513907,30.165008285934036,-29.418824435578028,-0.9690567085090268,4.158441503959356,11.221185759641553
11.812938825933115,30.037495976184744,-29.356676636529237,-1.0247038299546145,4.212509959622634,11.87278950873417
12.45944801755979,29.902851435682607,-29.290843327415576,-1.0800310181941655,4.269438461246553,12.522189436320057
13.1070931966889,29.76028997097935,-29.22090126495189,-1.1353295205635539,4.329498897288089,13.172917958651158
13.757471503436284,29.609317761797612,-29.146572526564917,-1.190734209944239,4.392928073769222,13.826584689899283
14.39069620905733,29.4547271178247,-29.070180930169826,-1.244546872402051,4.45765553033597,14.46320764720717
14.929592099199873,29.317196769892085,-29.00198004674291,-1.2902375217062942,4.5150503248353075,15.005154675690832
15.173601057498367,29.25310073663108,-28.97011469534936,-1.310889180192262,4.5417071309336405,15.25059829563656
15.667487974078988,29.1198740215759,-28.903730304341842,-1.3526322445396286,4.597054226961295,15.747479015643675
15.983337662344631,29.032201205042437,-28.85992862997405,-1.3792814611668465,4.633384550400539,16.065312918658474
15.952685281139555,28.91182307162836,-28.631360135234267,-1.376496905216401,4.525962908898225,16.031960856690137
15.87235442315907,28.625322551025384,-28.084455763470558,-1.3692654726374207,4.267559183186152,15.94515898466602
15.786697503074443,28.315803126196748,-27.49369540388147,-1.361581734289336,3.9884398960916614,15.852588850438165
15.702299249322934,28.006679691213577,-26.903773905981573,-1.3540389835030209,3.709721114053909,15.761364857245304
15.619220636393932,27.698271834371553,-26.315295798629077,-1.3466420850189291,3.4316867864013125,15.671552705494813
15.537031289307384,27.389053194918276,-25.725344008848996,-1.3393523062930541,3.152957180917762,15.582686860917475
15.455983117958814,27.080031181713025,-25.13583642112368,-1.3321916568740975,2.874437024974025,15.4950393907084
15.375730122445802,26.769940724642595,-24.544355898613517,-1.3251292734103175,2.5949830129244735,15.40823580377827
15.295840278814373,26.457108043416014,-23.94770707130229,-1.318127246858938,2.313084198799433,15.321808266065638
15.217114471900938,26.144693711218007,-23.35191492098489,-1.311255686340232,2.0315860567861437,15.236622772503411
15.139495081940398,25.832554414068504,-22.75670245849717,-1.3045090613441528,1.7503567096689803,15.152616806530439
15.063927335154723,25.52464925322703,-22.16961485464046,-1.2979685274584543,1.4729603464036074,15.070813538910368
15.016883817510719,25.33092645111576,-21.80026510579845,-1.2939109702701308,1.2984408117474204,15.019878946837085
14.995060386276704,25.240519121946033,-21.627901740785504,-1.2920324222276611,1.216997335135839,14.996247963141752
14.82212432378241,25.20921054979728,-21.593403915614086,-1.2774611997136653,1.217681529929442,14.823589006403529
14.282749685782287,25.138917706850464,-21.543509441476562,-1.2319548920269414,1.2498716945882342,14.285734062358278
13.66354797270553,25.05202519156285,-21.482710545461117,-1.1795801799997956,1.2889747449686015,13.668277865309193
13.044206907616857,24.95844989584442,-21.418088470970375,-1.1270566387997483,1.3303748873111152,13.050676390867888
12.423758089392702,24.85797947266199,-21.34947433303747,-1.0743029816646732,1.3741044513246967,12.431955865051886
11.806540441234931,24.751309974225205,-21.277321497257013,-1.0217044525758296,1.4198940472696349,11.816436491444941
11.186402729156443,24.637331036721257,-21.200849898116523,-0.9687378943694762,1.4681580779594816,11.197975942234981
10.566575701757603,24.516539200021775,-21.120368607130004,-0.9156844590213205,1.5186481895493282,10.579788449233707
9.945684104764538,24.38859286044743,-21.03561815923791,-0.862428658862967,1.5714389753768279,9.960493539816474
9.326825336311446,24.254090828561395,-20.946967588011933,-0.8092497690181626,1.6263086531941249,9.34317556441559
8.709138364334013,24.11283237607065,-20.854244390817268,-0.7560766469915599,1.683273549031506,8.72696737643946
8.090267191531172,23.964208382008284,-20.757012272922402,-0.7027123717479318,1.7425375434600492,8.109511158688637
7.479483036303735,23.810493042538024,-20.656715786309523,-0.6499636462617119,1.8031617726158964,7.500050811518509
6.872924895813906,23.650848444407828,-20.552758117996014,-0.5975030387475989,1.8654207164799015,6.894726942875781
6.274246770685419,23.486375592255037,-20.445815339749956,-0.5456586183186309,1.9289218457277526,6.297185502497276
5.673263586321723,23.31429052897265,-20.33402945972209,-0.49355233178538044,1.9946713484280756,5.6972533448097264
5.069528770806288,23.134294076251724,-20.217161680224006,-0.44115006650589866,2.0627261125461382,5.09447689373544
4.480908528986508,22.951842944041722,-20.098703858339146,-0.39000859594765613,2.1309634217704265,4.506688079201681
4.106217093590665,22.832086070786662,-20.020934027531705,-0.3574312432207368,2.175396832692198,4.132473095647914
4.086098033707031,22.817885328286476,-20.170876179845624,-0.3557210865649987,2.3396619570041546,4.113384629235269
4.081762969318217,22.78911519885816,-20.641196686324033,-0.35548371394883627,2.8387698595287576,4.112151604655111
4.077073133171476,22.751463727517415,-21.147441041709154,-0.3552585387716405,3.3826842939960016,4.110837899831087
4.072423903041463,22.70730078232922,-21.646619642665453,-0.35506846335624476,3.9260442096534223,4.109557460398782
4.067792945057556,22.6563959777764,-22.141128285287845,-0.354912708899577,4.471475874352485,4.10830491332352
4.063191677573358,22.598834112478258,-22.629735889146865,-0.3547919272561458,5.017663361865824,4.107084200224321
4.058593666351993,22.534208231916264,-23.11522302163173,-0.35470589131376146,5.567794294912214,4.105889294234793
4.054036349656151,22.462994717968296,-23.59361975083903,-0.35465566559658246,6.117422211398249,4.104730826211531
4.0495150181135555,22.385147092246683,-24.065432665980932,-0.3546412115795479,6.667100195722262,4.103608227283699
4.045382123508985,22.307586718664687,-24.494215813163176,-0.35465961041692357,7.173459579464578,4.10260646520224
4.043750500352478,22.27525618107311,-24.662828058919285,-0.3546753559850286,7.374408603146366,4.102217628536822
4.044554993280749,22.28454281219515,-24.727250297798015,-0.35479021759606744,7.429538168808589,4.103372581885801
4.069668677242821,22.656256383741475,-24.964842421836526,-0.3568839046303127,7.295263313743762,4.127832599126353
4.1113975917467425,23.266102298254967,-25.350603075952183,-0.3603632376840261,7.0709211834188315,4.1684457059057145
4.154840684783173,23.890882804799848,-25.74063072034357,-0.3639864603426308,6.835898290116643,4.210688616908256
4.199060768123917,24.516497627976886,-26.125957035528064,-0.3676759076409537,6.595332188375069,4.253647654992765
4.244126694183252,25.143614375468353,-26.506997005759597,-0.3714378238494261,6.3489696721127125,4.297388539521477
4.290183472651185,25.773875225901044,-26.884722673388353,-0.3752848576205938,6.096139511176227,4.342050592426193
4.337047766853214,26.404418502331026,-27.25740970945765,-0.3792022662689598,5.83798005411277,4.387454701417209
4.384794929770308,27.035950719184232,-27.625493533391992,-0.3831969385646877,5.574219552101117,4.433672726847063
4.433546906057361,27.669718025318424,-27.989694431025292,-0.38727971676065565,5.304331155590327,4.4808213467297
4.483452302359378,28.307202884130156,-28.350825362517103,-0.3914637539837884,5.027644158629084,4.529042615130037
4.534241273905841,28.94456020903742,-28.706698883840012,-0.395727150885183,4.7458177919339395,4.5780743335790435
4.585981331876088,29.58231479718264,-29.057638628647744,-0.4000762978642616,4.458650240692493,4.627980514914647
4.638669152466728,30.220094937627525,-29.40347059900755,-0.4045116719091058,4.166339035413964,4.678756768667031
4.6872928406750205,30.798502670262828,-29.712707698269273,-0.4086111476920143,3.8968299088492118,4.725577906325879
4.706931775051741,31.0293322551411,-29.83325306693086,-0.4102678874064704,3.786408077789218,4.744466585316071
4.694666595025311,30.877138638219517,-29.56302137815376,-0.40914519299213775,3.6684608122230373,4.73133229166041
4.6694923040690695,30.56206665817111,-29.002918533342342,-0.4068459757782028,3.423615580524852,4.704369004757248
4.643443809661768,30.232160800831686,-28.415502211910727,-0.40447433977594366,3.166296138409592,4.676461987473199
4.61765681195793,29.90156717484428,-27.825919525730725,-0.40213417853251254,2.9074951234292783,4.648827527448338
4.592140123884822,29.57042018717085,-27.234430852645247,-0.39982628922201463,2.6473384749907187,4.621475111771156
4.566741467009219,29.236732089488562,-26.637498387569504,-0.39753695955766916,2.384277264431159,4.5942414803011875
4.541736477922776,28.904143674407575,-26.041654053846436,-0.3952910346666189,2.1212006657979336,4.567422209589608
4.51719456233704,28.57368388048119,-25.44877768258247,-0.39309458001635167,1.8589591249447364,4.541091925682359
4.4927773836021405,28.240839652937144,-24.85079468995353,-0.39091726893063733,1.593993560683198,4.51488769611324
4.468849544663469,27.910632440993723,-24.25674962788266,-0.38879154936233506,1.3303245250909934,4.489200878877862
4.445226331619165,27.58061311942599,-23.66226825949747,-0.38670085074258653,1.0660282553320317,4.463833340513721
4.421786427734453,27.24911001493305,-23.064355488348095,-0.38463442697416733,0.7997822071863961,4.438654813103453
4.403908929066405,26.99350307061239,-22.602825967472004,-0.3830639154940006,0.5939838379731156,4.419445880939826
4.391645806155321,26.83618450291669,-22.463429272972544,-0.3819994164906395,0.6119870423952084,4.407337987398059
4.351358319734197,26.33221691415142,-22.167755466516184,-0.3785152377948065,0.8205431802214271,4.368543622862973
4.302742483164691,25.71345351732319,-21.80013835296585,-0.3743167151104687,1.0720030116690888,4.321694479624794
4.254822537039415,25.09188372173207,-21.42573185846458,-0.3701843608878899,1.3194721156342881,4.275477392779897
4.208166011603995,24.475262061933563,-21.049208036715303,-0.36616646903089833,1.5598645862669798,4.230441044487472
4.162055844543685,23.85445807199179,-20.66497496506233,-0.36220068814639317,1.7967236731712255,4.185894442489239
4.117575894478006,23.244562513166837,-20.282432041569244,-0.3583796065271797,2.024351449530147,4.142886367012477
4.089435173850844,22.85296914418391,-20.034158013262985,-0.3559643071910012,2.167843420541954,4.115657940679754
4.086249001769383,22.81878632367762,-20.154391328511363,-0.3557246445789901,2.3222763577294505,4.113433384831853
4.081994610880192,22.79080120463629,-20.616051344034688,-0.3554904788234003,2.8119384403195897,4.112222460886374
4.077304032607169,22.75348334433171,-21.1225022249371,-0.3552636205932066,3.355725796010057,4.110907386174098
4.072657583121963,22.70969184675293,-21.621510620780523,-0.35507198280807134,3.8985440519090893,4.109626497582847
4.068024190919941,22.659112684914096,-22.116410210896895,-0.3549144313001159,4.444041035090992,4.108372016564545
4.063406281735153,22.60168686326449,-22.606912643114754,-0.3547915328351437,4.991987376603758,4.107145604928241
4.058803380181094,22.53732630465872,-23.093039678575817,-0.35470376938467946,5.542492913816009,4.105948145271758
4.054262428257143,22.466713925874043,-23.569846512393788,-0.3546520256012131,6.089929740600523,4.104792479435374
4.049712494140281,22.388718404851794,-24.044771746150126,-0.35463577787606526,6.642868053579292,4.103661389330958
4.045521774083342,22.310331169525977,-24.47964866731172,-0.3546531505051782,7.156148298349914,4.102644528281275
4.043710478923405,22.27447438123089,-24.666838778908122,-0.3546704591338475,7.379202126206363,4.102212702969484
4.023723671437385,22.266529369419636,-24.715606383374585,-0.35296378193974104,7.436037278926801,4.082429404713514
3.6342427372862445,22.29382742704989,-24.73158037616291,-0.3187998646417786,7.427001289926519,3.689945666323238
3.0309970737117315,22.33060146353086,-24.75308440286021,-0.26586070350382507,7.414816979489816,3.0820804003922504
2.4228177023713977,22.360916107287153,-24.770798321407646,-0.2124628734570882,7.40476327814824,2.469276399545658
1.814279998667902,22.38446825333461,-24.784552708779525,-0.1590128930947263,7.396947098509051,1.856137700088732
1.207092791697168,22.401216111770946,-24.79432618411064,-0.10566828570710213,7.391356559068179,1.2443782633937746
0.5992031983209879,22.411239730785788,-24.800176081064077,-0.052249678563357584,7.388030382104789,0.6319254757930368
-0.009899801366930507,22.414517356291874,-24.802089178854345,0.00128077522677015,7.386947095733002,0.018256728278651387
-0.6188691925295464,22.411025250141584,-24.80005247528236,0.054799529432559474,7.388115279976901,-0.5952774885243886
-1.2280335534289877,22.400756265994104,-24.794057753014435,0.10832692679012719,7.391505563373451,-1.2090167037834623
-1.8364758616104828,22.383735489181184,-24.784123257858745,0.1617836131947568,7.397169409844288,-1.8220399045325126
-2.4434333362719407,22.36001095045975,-24.770269482563037,0.21509443977275822,7.405056165557799,-2.4335869609018546
-3.0542896868112672,22.32932097141414,-24.752337355989354,0.26872699306830605,7.415247611026356,-3.0490890431791517
-3.6507484234939507,22.29274391273906,-24.730946337429817,0.32106595769533885,7.4273486094828,-3.6501187589566486
-4.025483775828199,22.266418973401283,-24.715542526471776,0.35393656409646657,7.4360706488873785,-4.0277433180781586
-4.041438809238814,22.240734306745797,-24.547582910063866,0.3552213817731367,7.293700087572056,-4.042929595176509
-4.035143961826546,22.16456832265697,-24.042761812631223,0.3543402479110753,6.86509206911726,-4.033917540936008
-4.028182343288064,22.075071775154218,-23.4797107578415,0.3533910245729533,6.3915894886704026,-4.023969296961147
-4.021310723084092,21.98133876798566,-22.918990387271773,0.3524797123963746,5.9246532227164135,-4.014167689339086
-4.014510579556115,21.88333069935433,-22.359212356617807,0.3516026203590053,5.462933675059375,-4.004484757415804
-4.00774308719786,21.78063085865702,-21.797241331793845,0.3507538680056767,5.003712516462382,-3.994863954753753
-4.001002904059462,21.673246124546115,-21.2326450304034,0.3499321902073553,4.5465506301321135,-3.9852966270903747
-3.9943023358664917,21.561465779041697,-20.666472456905005,0.3491384853108161,4.092207652667617,-3.975799193111585
-3.9876284509474726,21.44516287401688,-20.097646559793198,0.3483706568801802,3.6397335804362503,-3.9663523116759696
-3.9810392830987027,21.32548521520645,-19.53117917232843,0.3476346168326535,3.192992021483552,-3.957037030764557
-3.975927466945386,21.229326566360943,-19.088353676682278,0.34707857807494424,2.846362457468417,-3.949817829704255
-3.97498240522175,21.209054607709433,-18.96908185475117,0.34696698809326554,2.7473701166308917,-3.948272368873253
-3.996195134589768,21.519031523122628,-19.172745599167275,0.34878299594294715,2.640930376786792,-3.96884549934417
-4.036634542004271,22.102413140193153,-19.552466550146416,0.35224708060263377,2.43702666472885,-4.008040808604922
-4.074810964915011,22.644252763357958,-19.90097941719682,0.3555200201700088,2.2434683474139048,-4.045013515701731
-4.087605824419465,22.82520507129901,-20.03316931467831,0.35662142011336484,2.1946275559656923,-4.05749979590106
-4.084557157690514,22.806722522356882,-20.364949068372464,0.35644610977789015,2.544902029766736,-4.056631927296201
-4.079868745045387,22.772748402965576,-20.872994492489035,0.35620342993486404,3.0869402304120115,-4.055314240624754
-4.075199884072722,22.73210258015346,-21.376245527217947,0.3559948193091549,3.630855591586964,-4.054023518090182
-4.070570127608497,22.684937291121507,-21.872592962834297,0.3558212717309264,4.1743865868830135,-4.052765939873109
-4.065967112752912,22.631125147652185,-22.363366207577503,0.3556823876716705,4.718990059748758,-4.051538868540202
-4.061345081518944,22.569998052535247,-22.853395668176788,0.35557751703165746,5.27016469054577,-4.050331281869217
-4.0567801588744885,22.502498650303046,-23.334588425036245,0.35550880730019907,5.818874614888268,-4.049164017840818
-4.052246237566684,22.428294407536324,-23.809719435806308,0.35547573648435915,6.36822742430301,-4.048030936444862
-4.047731838554026,22.347165039011337,-24.279980256944548,0.355478538633739,6.9196350027199625,-4.046930017053442
-4.044582228371163,22.286198287374965,-24.606371081999868,0.3555021169581529,7.3070046551024594,-4.046178756628661
-4.043625087625073,22.266950608603896,-24.705277774931474,0.3555128640408528,7.425162687133622,-4.045953278739567
-4.052869862494814,22.403769545281175,-24.803662434934896,0.35629229598189005,7.386671849655769,-4.0550268001659
-4.088174132156073,22.92372214163443,-25.13464679933164,0.35923550673709814,7.197487307210066,-4.0894008493869904
-4.131372715454575,23.55055000508616,-25.528822482516052,0.362837543828894,6.964568055488452,-4.1314254389203855
-4.175247165102751,24.17685500032461,-25.91741308412035,0.3664971218507739,6.726579717981337,-4.174068165167597
-4.219687187495147,24.800883604895372,-26.299397271922963,0.3702055095902176,6.484255059169323,-4.217221142946597
-4.265133276379239,25.42853568677403,-26.6784026620803,0.3739999738949965,6.235318902603371,-4.261311024034624
-4.311394336199149,26.056805684519055,-27.052594169771776,0.37786511257217187,5.980942768330945,-4.3061510322063965
-4.344997070257157,26.50658621702012,-27.317309741874627,0.38067453958945413,5.795659717609439,-4.338696510592227
-4.2638987382559845,26.58142879864553,-27.36074958088094,0.3735696088005206,5.764791681196548,-4.256985688632196
-3.7888229583796833,26.614968813156143,-27.378536012206148,0.33204835235097,5.751965004251991,-3.77945497818923
-3.1600915074730627,26.65324059274517,-27.398814911929254,0.2770673054024848,5.737316182968224,-3.147517248580646
-2.529874719509203,26.684627368021037,-27.415432357315428,0.22192694570824475,5.725293166186274,-2.514127876828394
-1.9009701329076103,26.709001245601478,-27.428328664334032,0.16687783459429759,5.715951386033842,-1.8820903359028
-1.2719838596384663,26.726446256495638,-27.437551433541124,0.11180483875673396,5.709232717599683,-1.2499962896455787
-0.6438194636891769,26.73696367512482,-27.443112048195257,0.05679123421731927,5.70520211758015,-0.6187440388187349
-0.01584723495035134,26.740582907766033,-27.445025604444194,0.0017883781448186065,5.703819501435094,0.012306680092874677
0.6138449781484407,26.73729150828445,-27.443286444046223,-0.053365408764341794,5.705090402413544,0.6450855622419605
1.2416406383925431,26.72710686073131,-27.437899770644055,-0.10834541078028594,5.708976328267745,1.2759665859392249
1.8697147969371568,26.71002120581341,-27.428865191479684,-0.16334031547156427,5.715540436195879,1.9071434510186462
2.4974926478226465,26.6860393703172,-27.416177768556192,-0.2182921760380855,5.72474625364792,2.5380467577346297
3.1275306229677984,26.65501988950314,-27.39975649158554,-0.2734188716595895,5.736643116450835,3.1712539618441986
3.7563376661603813,26.617098846071208,-27.379662315221125,-0.32840579781274254,5.751141561705254,3.803265637486723
4.251516901288478,26.582334324369878,-27.361228033982716,-0.37168576903580924,5.764448099838174,4.301001622316391
4.347452288320765,26.54325497372234,-27.295125203884087,-0.3800477116838185,5.7367962626158135,4.397233236228522
4.330543206771196,26.319496849854374,-26.8558549381893,-0.378430359314577,5.521400901895393,4.378809327201888
4.308145252945711,26.019526356456744,-26.2672261539446,-0.3762960596810678,5.232896580375222,4.354402538650012
4.285866577876277,25.7170243092054,-25.67392067276591,-0.3741824062937894,4.942245482174854,4.330122929746485
4.263770004241326,25.412834842092035,-25.077591792221803,-0.3720953543828304,4.65025635843065,4.30603877496917
4.242044528952589,25.1096227838566,-24.483456562221058,-0.3700525909759815,4.359480175353531,4.282355934843122
4.220606916939611,24.806321423230195,-23.88941590343489,-0.36804605694961856,4.068885163738191,4.258983568440963
4.19940272724167,24.502218077068356,-23.294067795281617,-0.3660705098455149,3.7777823805588304,4.235862190314925
4.178458337056521,24.197742164482147,-22.69824737983501,-0.3641282768993961,3.486577398352326,4.213020429956654
4.1578215509885945,23.893662738974623,-22.10345285378364,-0.3622236120897552,3.1959990713880435,4.190510315061085
4.137234899160721,23.58620011878985,-21.502288059187425,-0.36033270842914217,2.902432648720671,4.168050841630083
4.116963371973151,23.279328910978982,-20.902521387461118,-0.35847985726300174,2.609670186197714,4.145930949527752
4.099051798248582,23.004709069424695,-20.36598850092136,-0.35685039114840583,2.3478741041853377,4.1263824962445526
4.091141415783863,22.882371893595234,-20.127034367520555,-0.35613309377835123,2.231308636058207,4.11774805336022
4.0716027843211915,22.82715653871871,-20.01765288433666,-0.35442029639381073,2.177264843087772,4.097882031302099
3.7140555097156085,22.85121388401536,-20.031559286179274,-0.3233053631589456,2.16923230447127,3.7404551818862695
3.1150558713162266,22.886539349568178,-20.05196569768949,-0.27115197787229356,2.157427391179333,3.141688500210076
2.5030016137851847,22.916209669931618,-20.069092904667844,-0.217832603593488,2.147503520672544,2.529906875065038
1.8878887839825578,22.939499681001195,-20.082529223592537,-0.16422269835706096,2.1397088062872505,1.9150964110368933
1.2759570866203733,22.956183857316034,-20.092147297820766,-0.11087150803254743,2.1340925109202002,1.3034885860669723
0.6644313483603937,22.96640824875648,-20.098041866581774,-0.05754417616330307,2.130670899785691,0.6922991566150289
0.0497196884386344,22.970191405694067,-20.100223073028385,-0.003932542895857099,2.129408947931916,0.07793310816041515
-0.5627290857905013,22.967486961925168,-20.098665136365884,0.049482346752690955,2.130322897975274,-0.5341707181138028
-1.1751995824007992,22.95831628474525,-20.093376557673228,0.10289314036277154,2.1333741010836103,-1.1463015648277943
-1.7892863987194558,22.94263063365836,-20.084333189206024,0.15643424379525972,2.1386389973311615,-1.7600620791230486
-2.4027929373932015,22.920459063603346,-20.071544670175328,0.20990779044740157,2.1460736828419855,-2.3732628136723624
-3.015619505732846,22.891814051513734,-20.0550125927521,0.26329930028426984,2.155669504879563,-2.9858109695228343
-3.6303347332673037,22.856539658126373,-20.03463648028556,0.31682469145320336,2.1674418344631983,-3.6002807689566874
-4.2422778381551,22.81490551836535,-20.010569422022,0.3700759462643923,2.1813553512819674,-4.212020541795815
-4.854105238870096,22.766753846433964,-19.98270658161409,0.4232770400289791,2.197423384691121,-4.823692125029513
-5.469969408875159,22.71167081772886,-19.950795805878332,0.47678282253427284,2.2157738590278364,-5.439454253684303
-5.949982045680614,22.66411964332653,-19.92321654696364,0.5184499406677104,2.231589160912702,-5.919429897953242
-6.036726796643655,22.65160933337228,-19.981758910998764,0.5259974438784139,2.301822574969542,-6.006790489742021
-6.031161660890215,22.62721856730995,-20.392662644442243,0.5256899861927723,2.737149772667352,-6.005222566258446
-6.024266640288004,22.59089975666733,-20.899344928732628,0.525352762680718,3.2801912346617685,-6.00330767124349
-6.017419740712756,22.54802039206977,-21.39980006242061,0.5250667459074629,3.8235656526965567,-6.001438091509032
-6.01061390489514,22.498522436208308,-21.89454378872883,0.5248318019107495,4.367846844197908,-5.999613025177357
-6.003851920257156,22.442408602902166,-22.383371072811737,0.5246482499837862,4.912827039990128,-5.99783436208298
-5.99708286272349,22.37916326420812,-22.86993034705463,0.5245155117015383,5.4626705884016165,-5.996090242565935
-5.99036217527612,22.3092183404047,-23.35020541720083,0.5244354675950217,6.012929049810944,-5.9943964711468976
-5.983699860814615,22.23269655855139,-23.823490790920243,0.524408311534382,6.562774144137209,-5.992756545168743
-5.977225876821235,22.15133915877359,-24.28065305356177,0.5244330043685215,7.1013304795168,-5.991202132719255
-5.973599872569585,22.102704307332097,-24.535501769050054,0.5244693226050184,7.404834500415829,-5.990349068550848
-5.972561008005117,22.088359525197845,-24.608355913257753,0.5244827484758469,7.492039275244025,-5.990107045372153
-6.250100994423662,22.0566818978588,-24.592495113873255,0.5487595611180559,7.505263321089182,-6.269905681760073
-6.824458217931636,21.987572469346414,-24.55182712862716,0.5989566360230862,7.527966325709863,-6.848925580916461
-7.425192439218204,21.908666413741525,-24.505318995343206,0.6514040540442401,7.5538244356872415,-7.454606463210949
-8.02716625601816,21.82277076757255,-24.454599862410415,0.7038985220785742,7.581896577620267,-8.061614789371248
-8.629888907876923,21.729884183953722,-24.399645640175862,0.7563920265907144,7.61216371874891,-8.669462125972101
-9.232981868271128,21.630002001647977,-24.340425187091643,0.808843846911465,7.64457525061323,-9.277775131730138
-9.833040322905857,21.523695991879116,-24.277257746751808,0.8609584676390245,7.67898566455062,-9.883120436055778
-10.435397394651167,21.409983981362494,-24.20952781523875,0.9131919938052082,7.7156577177167796,-10.490886009665969
-11.037502737460905,21.289261474669562,-24.137439004583676,0.9653180165909584,7.754436983694962,-11.098504863342955
-11.639213220263526,21.161515235756607,-24.060950280723603,1.0173194611666303,7.795299803446224,-11.705838024667244
-12.240452346432352,21.026716471754668,-23.980006003664688,1.0691811386653298,7.838194739240796,-12.312816565239137
-12.837776354071355,20.885662266222884,-23.895055915749026,1.1206099374222738,7.882900050014705,-12.915961921824705
-13.2583486112164,20.78204563101625,-23.832487720824066,1.1567590259140375,7.915601197883919,-13.340708929527121
-13.511669241951225,20.717908833685517,-23.79368909568499,1.1785071180740474,7.935783599975512,-13.596575274279529
-13.818849643909273,20.638386024151387,-23.745508484105724,1.2048529930385012,7.960744892518557,-13.906874740682278
-13.809239745682742,20.609080630939648,-23.51409740926889,1.2034457585552867,7.7588854046287326,-13.892902216379085
-13.787404275207253,20.53906804704842,-22.986826275180558,1.2003138188855311,7.3021847009063725,-13.861232295494347
-13.76457086044772,20.460438540216185,-22.43061329274504,1.1971283119863432,6.82518279812712,-13.82818013728941
-13.741896876311866,20.376906003218295,-21.873337043287737,1.1940543435399658,6.35201484472155,-13.79542147749248
-13.719239588292753,20.288034039792908,-21.311497667296692,1.1910702883839683,5.879621058210477,-13.762746183327446
-13.696876630249777,20.19504550579656,-20.752031333381733,1.1882097990630787,5.413707791707597,-13.730550374738828
-13.674583549704547,20.097156012316383,-20.189390843450767,1.1854410860997056,4.949517975249076,-13.698506603313563
-13.65237765800676,19.994514020382347,-19.624011052945043,1.1827645122876933,4.4873376162503815,-13.666636323712899
-13.63030039624703,19.887402018422353,-19.056964264716633,1.180183051968306,4.0279555426481535,-13.63499549041459
-13.608886532755946,19.77869608889288,-18.50219390406529,1.177754300090609,3.5824258175488333,-13.604345522646284
-13.595875709859161,19.710337821199456,-18.162808021680434,1.1763144831602257,3.3117224236537117,-13.58574114893346
-13.591401888235765,19.686429496324752,-18.045701768071883,1.1758256328591934,3.218635865488497,-13.579347014509144
-13.641233893166858,19.899751366269236,-18.185565773395798,1.1799690313692375,3.1441700303453906,-13.627712164554739
-13.770743172090791,20.448698448605214,-18.555997311808866,1.1907531495153534,2.9630160409886517,-13.753616803714703
-13.901627012536256,20.994699117047865,-18.920311997105497,1.2016527695797514,2.778640133349972,-13.880761797484316
-13.959585992104062,21.233721831414446,-19.07850677767379,1.2064799256715546,2.6966134930497336,-13.937034904330805
-13.959660555127721,21.243710015818596,-19.25311741152649,1.2066541501176506,2.8611979235778775,-13.940579499927788
-13.945436168050144,21.209497143312664,-19.718146865325668,1.2060194728199578,3.3606289355297996,-13.936868159480099
-13.930040856528684,21.16597708611332,-20.218762322626674,1.2054404927060158,3.9049678617132333,-13.93291979443203
-13.914763515383619,21.11598715213507,-20.71272458494766,1.2049792483743749,4.449121045153025,-13.929075854104006
-13.899512146771372,21.059182457613062,-21.202996368890105,1.2046339366199934,4.996397269518136,-13.925316131827339
-13.884314911088051,20.995580576913877,-21.688641811475087,1.2044069803916848,5.54584269575359,-13.921651031885261
-13.86924497659033,20.925470097971804,-22.167320030568803,1.2043001788042191,6.094826876205702,-13.918100883265963
-13.854263165512204,20.848676795162923,-22.64028245482074,1.2043136147811377,6.644775953021633,-13.914658840940284
-13.839348787673496,20.765061488638,-23.108171453242164,1.2044484483314446,7.196471715959944,-13.91132305297423
-13.826663654262452,20.68820641438935,-23.503769661148752,1.204660860114427,7.669087004963141,-13.90856041245471
-13.822331003875268,20.66073046718152,-23.638384454887742,1.204754379061827,7.831232899101138,-13.907633054111683
-13.819448696106711,20.64210313433473,-23.7277941488613,1.2048225776404418,7.9393065648146735,-13.907020799881535
-13.84420104115255,20.748259579934466,-23.8185428171993,1.2068913101874015,7.923382278552354,-13.931643474212308
-13.958849885943247,21.241817069449343,-24.144569112779525,1.216190086753256,7.753468769464569,-14.04361639579484
-14.103502643202914,21.85555610185091,-24.54534142975342,1.227915457468912,7.537470455476827,-14.184778778555279
-14.250453203849982,22.469019745126154,-24.940819932705633,1.2398203877319374,7.316376081463559,-14.328056184487163
-14.400183460560942,23.083953918923424,-25.332145442259083,1.2519448707654721,7.089568838937029,-14.47391517026122
-14.552016723881932,23.697339016602946,-25.717427474642932,1.2642351356051993,6.858190828645861,-14.621693614404569
-14.707584474068815,24.315437006236014,-26.100590864576173,1.2768243005322235,6.619867923741111,-14.772975421702757
-14.866357573524112,24.935714080689934,-26.48001108906239,1.2896706502447508,6.375518744114754,-14.927240777023417
-15.027975864593074,25.556429775636985,-26.854623378533077,1.302746256190079,6.125824967305664,-15.084135782898766
-15.191566816522284,26.174028270147666,-27.222346384485967,1.315981806398049,5.872278887085337,-15.242811114133684
-15.35891683458199,26.794965995216227,-27.587053299211842,1.3295231718651437,5.6122552835086745,-15.404996207016364
-15.53085571055508,27.421789580860104,-27.950160996394008,1.3434389595091656,5.344602764791155,-15.571488938070203
-15.705091470725403,28.04576177892049,-28.306604302887592,1.3575451800828855,5.073043507061964,-15.740065574683513
-15.873525007469446,28.638484986521757,-28.640595071420318,1.3711871754035112,4.81037558246665,-15.902898070970451
-15.961180817171307,28.942961664602144,-28.810429485145736,1.3782892245629519,4.6736699356246145,-15.98758949631157
-15.978461252315613,29.002031147887536,-28.8035852235673,1.3796127902772741,4.6073596230356,-16.003330652121424
-15.914763828183766,28.776064230499404,-28.372207776609663,1.3738704983066539,4.403538357260347,-15.934504732476448
-15.828709627071865,28.46717518966216,-27.78260777407131,1.36613710595438,4.1249644142655635,-15.841510383623639
-15.743889430335177,28.158568727696373,-27.1936324628289,1.3585426296863083,3.8466906356199493,-15.74983571049307
-15.660071719394596,27.849473288412028,-26.603804317506796,1.3510659272159395,3.568017219045698,-15.65923018524426
-15.57746807897423,27.540739756997116,-26.01474231477927,1.34372546189275,3.2897074941293103,-15.569922241943884
-15.496146362957917,27.232715308452647,-25.427104016258294,1.3365266983952964,3.0120706734955673,-15.481985055080749
-15.415501173784238,26.923162320750677,-24.836616628703762,1.3294157415365915,2.7330866809088494,-15.394763662810844
-15.335035715842464,26.610145377920876,-24.239585834005233,1.322349058168223,2.451008793633646,-15.307720118137913
-15.255972865489852,26.298450611879755,-23.645137270812945,1.3154339264473616,2.170147396881878,-15.22217685582397
-15.177802058578495,25.986150795762878,-23.049591634262974,1.3086251869155756,1.8887630610979493,-15.137581288926754
-15.100716352469222,25.67408009638872,-22.454536395132852,1.3019393087534905,1.6076048573700308,-15.054142086562065
-15.034000108817873,25.400624612487647,-21.933153962523132,1.29617610237261,1.3612511093466206,-14.981911919567352
-15.004867125879091,25.280218424841195,-21.703593883454396,1.2936663998441469,1.2527820166399588,-14.950366607105094
-14.964902196847447,25.22470225620576,-21.60476863736645,1.2902794838112308,1.2103832474400442,-14.909504781805243
-14.57479567417535,25.143858491192272,-21.55052335211329,1.2574048565246427,1.2456313621171653,-14.520769927272314
-13.971748404466284,25.01348745565707,-21.463472975215137,1.2064721376751297,1.3018837588384657,-13.919817263847852
-13.358308251722274,24.874088254311776,-21.370876532211877,1.1545253317044737,1.3612924123447434,-13.308469178318012
-12.743575878541664,24.7274689031573,-21.273913714021475,1.10233692279479,1.4230248767236795,-12.695786711750948
-12.13176944878676,24.574589377756265,-21.173178259105697,1.0502715261324858,1.4866039900804446,-12.08596174429946
-11.516460158310775,24.413766247900483,-21.067527916865682,0.9977873737982323,1.5527470928323697,-11.472588706330063
-10.90491709301825,24.246822210441646,-20.958115590021237,0.9455102266043164,1.6206249620742876,-10.862901497135157
-10.292825540708414,24.07255145264001,-20.84410213408855,0.8930792010020718,1.6906514092012301,-10.252586056487099
-9.67795660456104,23.890179404109837,-20.724941413939998,0.8403057388445745,1.7631430112410285,-9.639423320504774
-9.069300977900605,23.702341534388786,-20.60230222181518,0.7879690316572179,1.8369719106466065,-9.032366879552226
-8.46655498333371,23.509069147239025,-20.47615169525004,0.7360512788885276,1.9120937344039852,-8.431109553487111
-7.87217620962373,23.311310495462074,-20.34705288926512,0.6847753580893511,1.9880799269742357,-7.838093261434025
-7.276686667718563,23.105953947610125,-20.212926906373188,0.6333249104731005,2.0661476252163182,-7.243869759318932
-6.6808553822029415,22.893134246386282,-20.07380167773849,0.5817737312769854,2.1461492422526014,-6.649193296347734
-6.1719497848653155,22.705466794140012,-19.95097851985746,0.5376908034996631,2.21595710152103,-6.141180596256189
-6.03712349790307,22.653192809895756,-19.95224936370763,0.5260170613409394,2.270749979552894,-6.006907208046601
-6.03214686182659,22.631865529370216,-20.31990053081185,0.5257386449098316,2.6597576785827175,-6.005502970468003
-6.025224457810052,22.596366408693065,-20.828986890416864,0.5253931709414775,3.204383708780138,-6.003576100838273
-6.018384629196956,22.554493112004717,-21.329315188867678,0.5251005475847981,3.7466252054923213,-6.0017039412748225
-6.011564810093213,22.505869934004096,-21.825470475099316,0.5248581023750118,4.2914432841988335,-5.999870394821634
-6.004767332382031,22.450429813908336,-22.317254780370888,0.5246666116526447,4.838707017393976,-5.998077558350021
-5.997977988473837,22.387953391037538,-22.805659131159864,0.5245265499640012,5.389626867805881,-5.9963232785442395
-5.9912688634068765,22.319091010077095,-23.285495835381116,0.5244396651550061,5.938364379497566,-5.994627322171785
-5.984600815789633,22.24348304566334,-23.759582959235697,0.5244053498300271,6.488097465404738,-5.992980645912791
-5.978025705343109,22.161782933835266,-24.22426030658264,0.5244236342472559,7.034512195722608,-5.991396761267334
-5.973954877594829,22.107577936538423,-24.510534419821038,0.5244614943343396,7.375014280316083,-5.990436797383126
-5.972727880641299,22.090689454470915,-24.596605113422,0.5244769524329719,7.47798036504209,-5.990150641026286
-5.983254292210281,22.19579020805325,-24.680307099125432,0.5253714263200588,7.456486234537038,-6.000559013591778
-6.032844461044333,22.690698477889953,-24.99689154374526,0.5294930278033206,7.277714267559084,-6.048862001610761
-6.096260124919277,23.314465022640473,-25.39119536374248,0.5347642239545335,7.047673419704809,-6.110580450931985
-6.161208560430015,23.94294370022661,-25.783196027170526,0.5401639963788485,6.810597445680537,-6.173732474433886
-6.2267853202469015,24.567126278438472,-26.167301674275603,0.545617823746307,6.569910752789211,-6.237437198203499
-6.293419727188278,25.190961862047494,-26.546032638704908,0.5511620959060863,6.324180346782633,-6.302110927841601
-6.361908145999838,25.82148674448084,-26.923613891140565,0.556863863754336,6.070587017343144,-6.368524265972261
-6.431751296631616,26.453627204404988,-27.296938175861865,0.5626824234110643,5.811101508409465,-6.436190420779179
-6.50264028104178,27.08430409740567,-27.664218067730495,0.5685928819726406,5.547018149038936,-6.504808585668939
-6.574866321838705,27.71583816424319,-28.026846136749885,0.5746203939383071,5.277405595556384,-6.574659206199035
-6.64854557400916,28.348889955480896,-28.385206547680777,0.580775608996798,5.001985904711077,-6.6458527088368085
-6.72419629811174,28.98742273398895,-28.741491968167995,0.587102913245125,4.718982829697806,-6.718887226078536
-6.801288825220457,29.62648836273398,-29.09290284540952,0.5935591485789239,4.430549707317052,-6.793248848778793
-6.879411544191684,30.262420512385955,-29.437489362010123,0.6001108736553681,4.138406809197478,-6.868539248744631
-6.938740107912001,30.737700432294243,-29.691722322010815,0.6050929996415458,3.916748674362778,-6.925674321102269
-7.033929564443055,30.80177497406266,-29.726306454311935,0.6133253320995173,3.886249649022101,-7.020748953167713
-7.521477086109943,30.742089450986175,-29.697689649410428,0.6555961107844003,3.9119276988068608,-7.509658057229125
-8.16303094323822,30.657305067310485,-29.656966778945264,0.7111536770032261,3.9483474314862397,-8.153101720472424
-8.810842629695895,30.564449299735898,-29.612269869400123,0.7671716098918271,3.9881583288313958,-8.80294353146151
-9.461029928629394,30.463880092509985,-29.56374209075085,0.8233042151901161,4.031155626839747,-9.455300573538004
-10.107718551517861,30.35647792795224,-29.51178862118375,0.8790419503990828,4.07700440012995,-10.104289195835754
-10.758274564074473,30.240951667777235,-29.455753028992888,0.9350116448125151,4.126202243431289,-10.757310769465443
-11.40763957160058,30.118086397465216,-29.395981138718728,0.9907683399225734,4.178358730810995,-11.409298176448111
-12.053351655174295,29.988372619060424,-29.332686711958917,1.046101148921665,4.233303090705447,-12.057787001226442
-12.701662089025747,29.850499142105406,-29.26519178857588,1.1015373862836835,4.291531916221971,-12.709064299537255
-13.349518340000968,29.70499869558154,-29.19371498416252,1.1568056920097274,4.352758260545768,-13.360074215580099
-13.987271463447614,29.554154039528804,-29.119350042955936,1.211087181868758,4.4160559789877185,-14.001124017439219
-14.407736477472875,29.450531407557587,-29.068107950876747,1.2468021306565127,4.459414268931022,-14.423871320324476
-14.694802402927571,29.377865728024304,-29.032097860267058,1.2711519417478014,4.489758989084352,-14.712546615201465
-15.283357345727822,29.223972840917764,-28.955623509661564,1.3209817199441767,4.553827652053012,-15.304535729359696
-15.826622246570034,29.07602022163288,-28.88183701711442,1.3668720300051775,4.615241400112181,-15.851133543967387
-15.983263989065989,29.018956355462535,-28.83589443712882,1.3800629047560948,4.622607771800821,-16.008506634731166
-15.927526590670418,28.82149924175896,-28.458937287394665,1.3750363914166048,4.444499176020028,-15.948282447379997
-15.842410711406849,28.516614406622164,-27.87696737657616,1.3673830540578051,4.169529600029991,-15.856304108664087
-15.757274985454703,28.207526266797615,-27.28705987531354,1.3597558440197985,3.8908149277723467,-15.764290604791093
-15.673278516469761,27.898431721313198,-26.69722137330123,1.352258744891664,3.612136419934733,-15.673494105947247
-15.590654613521238,27.590281503866684,-26.10926096710771,1.3449120237898264,3.334347197563746,-15.58416659722755
-15.508948443976017,27.281457446170027,-25.520086520022236,1.3376747776823221,3.0559848640396354,-15.495816097628731
-15.428020791449995,26.97146834227639,-24.928757277339162,1.3305345104165482,2.776603585211787,-15.408291674333908
-15.347729658425074,26.659784851664437,-24.334260352507897,1.3234786710261508,2.495723523322706,-15.321439282872758
-15.268633103655603,26.348621120948422,-23.74081548977514,1.3165560535432914,2.2153371841477836,-15.23586224973929
-15.190286638582519,26.036286745613495,-23.145195359313163,1.3097274398146306,1.9339186539773054,-15.151079381629305
-15.112793577334566,25.723226367701166,-22.548245001550946,1.3030016957411323,1.6518661658395082,-15.06720209325096
-15.044813002797643,25.44513933013058,-22.018025531898363,1.2971254746872452,1.4013379787206843,-14.993605537744932
-15.014629171354454,25.32061326329803,-21.78060825606173,1.294523703538705,1.2891567621750257,-14.960923365312032
-14.997032263251768,25.247713177955553,-21.64162284941984,1.293008996250548,1.223484706765854,-14.941868546650712
-15.021398144249208,25.08194160357075,-21.519451140875564,1.2950822458337248,1.2665245159890883,-14.967170739622164
-15.12139864506877,24.55648086292369,-21.20156438763978,1.3036137575022977,1.4717826402730612,-15.071698617024145
-15.235136818240784,23.948569493818436,-20.82920381811456,1.3133343879215493,1.7046800488936584,-15.190648457195481
-15.346138657399154,23.344479329692074,-20.454279417800464,1.32283882150069,1.9312364076841804,-15.30679658433042
-15.455787690158331,22.73699173739586,-20.07229206894083,1.332244601827881,2.154139842225385,-15.421583055266131
-15.5637996648979,22.12783915468375,-19.684245211321418,1.341526612548637,2.3726689171799085,-15.53470359263297
-15.669284162862512,21.522381690399225,-19.293553941795437,1.3506072695346865,2.5849009775772487,-15.645218292591164
-15.762010899321035,20.98131339096874,-18.940176801230674,1.358602446678063,2.7703500300313153,-15.742396565532653
-15.799312728673284,20.7612758006797,-18.79532086990868,1.361822049591703,2.8446259355384664,-15.781496139939506
-15.792264675109593,20.745563506645972,-19.00586249259505,1.361507496461194,3.0709833661269457,-15.779827301298058
-15.775818603768244,20.707778619856,-19.48494650765252,1.3608390699025317,3.5880969695296825,-15.775660593597829
-15.758606567486366,20.661632105951053,-19.983558990304605,1.3602639032850818,4.133111022301827,-15.771378806671168
-15.741507761776584,20.608969988241274,-20.47602239266291,1.3598212296390872,4.67848881705325,-15.767209506618132
-15.724484094678866,20.54965013528061,-20.96342991551591,1.3595108473592148,5.2254662164622,-15.763146495383408
-15.707544828050475,20.483662976205025,-21.445504484576198,1.3593341264138545,5.7737755466039316,-15.759195307525717
-15.690709280552898,20.411060216062886,-21.921691224463608,1.3592922187372367,6.322809913151778,-15.755363554148783
-15.673907178588339,20.331483641118513,-22.39395865031363,1.3593866032994495,6.8748970297701915,-15.751638811313097
-15.657256331246245,20.24546677162832,-22.858988258120323,1.359617784779615,7.426183135518471,-15.7480503621009
-15.644255197458591,20.173259247515972,-23.21998392903152,1.359895835925068,7.8595725010242115,-15.745322750256271
-15.640194742165372,20.149788541648874,-23.33234529483868,1.3600005226457532,7.995462544124532,-15.744484653613737
-15.63716037162471,20.13196161314581,-23.416192977711944,1.3600843481575846,8.097180423072537,-15.743862698150933
-15.672508362178085,20.26598671820632,-23.527029680662608,1.3630003610300807,8.073160365771306,-15.778941092005228
-15.806797820103823,20.776024381228314,-23.867480150924848,1.3738004350248987,7.900420785700451,-15.910210982381365
-15.969701544336425,21.385671669592103,-24.26974093417504,1.3868908211579336,7.689177107184677,-16.06932234019697
-16.134501951064934,21.992537842571178,-24.66513306771391,1.4001227252952646,7.47376412134479,-16.230145353342767
-16.303134663614195,22.603486285010746,-25.058141740148383,1.4136524110287951,7.251755470324612,-16.39456529378731
-16.47535528042864,23.217222250826538,-25.44787867328463,1.4274610522689892,7.023561003052876,-16.562338218794487
-16.65004881081295,23.82949004930677,-25.831654634119808,1.4414602210691667,6.790772249916383,-16.73237414961471
-16.828856241189794,24.445723746322102,-26.212876730887544,1.455782438816348,6.551319589153584,-16.90626609844105
-17.009377203233495,25.057402705427172,-26.586310967609265,1.4702365556258201,6.30854720616481,-17.08167649657829
-17.19555220842596,25.677507717984128,-26.959866450606473,1.485139218729193,6.057281906889049,-17.26242943493147
-17.38444305063245,26.29580345492459,-27.327329281902216,1.5002564118741042,5.801616453279751,-17.445666384719907
-17.57678448999726,26.914443309810657,-27.69002879983754,1.5156482479234035,5.5407056770827445,-17.63209706478384
-17.772489110110595,27.53284738402628,-28.047655862211798,1.5313090815721746,5.274819994831988,-17.821633099431637
-17.961589120656853,28.12005677227334,-28.382705993197458,1.5464425478265909,5.017675358805246,-18.004628944818574
-18.057188929673543,28.407827443254316,-28.545325481200315,1.5540995507844353,4.889984592311059,-18.097154217073523
-18.312353448476657,28.32503996031252,-28.503258353594408,1.5753934743841551,4.92372653525816,-18.354276085748847
-18.885492993097564,28.134224590043807,-28.40598308994435,1.6231234554118326,5.001244518164989,-18.931962170289932
-19.505534956701872,27.920142430671547,-28.29632236512297,1.674600759409916,5.087792342653616,-19.557161744189276
-20.128069769017465,27.6970888197375,-28.181475049408636,1.7261145787517322,5.177489842243435,-20.185131613833605
-20.745673979488604,27.467650580907716,-28.062706267547515,1.7770439469653827,5.269211714326306,-20.808393832293817
-21.365315470215666,27.229180855763044,-27.93858609497727,1.827965991768037,5.364025737762272,-21.433974665377917
-21.972211975649003,26.98745655923618,-27.81206326168848,1.8776634329665582,5.459556515242964,-22.046954495176053
-22.524235964811396,26.76046927671128,-27.69260284814836,1.922711633112153,5.548731205940478,-22.604745476835742
-22.77598770153401,26.65466912399102,-27.63670240832228,1.943202072028059,5.590086736472319,-22.859207944031166
-23.216000117227782,26.466291961032212,-27.53683710743781,1.9789449860662898,5.663498938011257,-23.304062969131756
-23.81497677520254,26.202692454746945,-27.396360439579023,2.0274417605434176,5.765622944152728,-23.909869126602562
-24.367533809641003,25.952087727323455,-27.26201378564117,2.072014483142639,5.862056986387578,-24.468972978677318
-24.587613925720497,25.84644269052456,-27.198517750655295,2.0897042460405277,5.89619286885051,-24.691548980586344
-24.53251737517605,25.72792667236058,-26.88504297370233,2.0845971260650344,5.7033691744370705,-24.629082164667274
-24.434518209573145,25.513851709600033,-26.3226678067265,2.075569933407433,5.358854260645125,-24.518002926334113
-24.334796982987985,25.29167515542529,-25.743997262939335,2.0664587929337244,5.00619593794924,-24.405008089581383
-24.236076311906988,25.06736800452688,-25.164639579418733,2.0575134481362087,4.654926591680712,-24.293180511962195
-24.13813563299242,24.840497127535357,-24.583352162004193,2.0487121450485306,4.304245675464852,-24.182266911229075
-24.040354209204498,24.60963587539162,-23.996419036834688,2.0399983383269524,3.9518878052639383,-24.071561365411593
-23.94474260192916,24.379633794874707,-23.416017344173593,2.031548953122472,3.6051047942390957,-23.96333675655431
-23.84988530214625,24.147228804127337,-22.833727470235853,2.0232360324632572,3.258793374818549,-23.855987336700544
-23.755835207002228,23.912600983163692,-22.249908250216958,2.0150629326441294,2.9131307019762516,-23.749570089114666
-23.662057421834984,23.674433760643524,-21.66122433054452,2.0069824632720934,2.566118343356851,-23.64347710427147
-23.572176477670688,23.442157362276074,-21.0907390756905,1.9993028983435601,2.2312549576742096,-23.541805629977944
-23.523823627618366,23.315560372787356,-20.78125986651002,1.9951981099375031,2.0501671328203797,-23.487114355516802
-23.498240431060662,23.248110378408658,-20.616777733356916,1.9930338504898595,1.9540828835675976,-23.458178650959226
-23.49059160094836,23.225696620728602,-20.53560158507254,1.9923532922334524,1.8956216716524785,-23.44849403512393
-23.64410100628954,23.57773485317689,-20.75861984768908,2.004480887642101,1.7613348044090498,-23.597310767915065
-23.900170600319736,24.15620163239627,-21.12148189142477,2.0246993937662157,1.5368759092359225,-23.845413933798593
-24.166143266550396,24.745703014398934,-21.48668031217501,2.045685308644772,1.303285919866804,-24.10293376402442
-24.436103993653674,25.33255470226233,-21.84566341723835,2.0669716901079753,1.0658970073743286,-24.364135212207547
-24.692991871168083,25.880529894915032,-22.176765594457038,2.0872147593988317,0.8398768729358927,-24.61252537513939
-24.8107504641253,26.12838917261578,-22.325233953065652,2.096490378348682,0.7362642926363332,-24.72633698699811
-24.86647751967347,26.24496459868895,-22.394785077181496,2.100879063393125,0.6872359203389063,-24.78018511934382
-24.86647751967347,26.24496459868895,-22.394785077181496,2.100879063393125,0.6872359203389063,-24.78018511934382
-24.86647751967347,26.24496459868895,-22.394785077181496,2.100879063393125,0.6872359203389063,-24.78018511934382
-24.86647751967347,26.24496459868895,-22.394785077181496,2.100879063393125,0.6872359203389063,-24.78018511934382
-24.86647751967347,26.24496459868895,-22.394785077181496,2.100879063393125,0.6872359203389063,-24.78018511934382
-24.86647751967347,26.24496459868895,-22.394785077181496,2.100879063393125,0.6872359203389063,-24.78018511934382
-24.866282627046548,26.244758934455376,-22.394609561794034,2.1008626226160363,0.6872305508483016,-24.779990924440046
-24.207142514028018,25.54918851548956,-21.801004589892866,2.0452587968603892,0.6690705686061653,-24.123210558534367
-23.547520657937795,24.853109727781508,-21.20696577232385,1.9896143321612332,0.6508973138511682,-23.465950174215838
-22.431875806220685,23.675803808146025,-20.202244139130517,1.895500621411667,0.6201601605577169,-22.354299374242533
-20.82298178144328,21.977987109112018,-18.753314733216623,1.7597773339859635,0.5758334895778012,-20.751165252336854
-19.196788486485513,20.26191501889564,-17.288806040613146,1.622594712519121,0.5310302060642642,-19.130793792307543
-17.566612732785895,18.54164036166676,-15.820710846046184,1.4850761382895998,0.4861172017514562,-17.5064541308928
-15.935513780691624,16.820391481383524,-14.35178424227457,1.3474796847721084,0.44117876238148535,-15.88119457616938
-14.307977699272849,15.102902389648314,-12.886066270029763,1.210183788353658,0.3963384837317014,-14.259485136906548
-12.678664768574587,13.38353824316623,-11.41874811211003,1.072738000256975,0.3514492510724055,-12.63600520955342
-11.05099325445275,11.665906233438095,-9.952908172586481,0.9354306789892793,0.30660524111355086,-11.014160822441854
-9.416340704930873,9.940907350381945,-8.480781288541372,0.7975344506465762,0.2615688965108284,-9.385360392307136
-7.7932730856304415,8.228133690170935,-7.019087500651021,0.6606155053256493,0.21685172854891802,-7.768103417895346
-6.165121110252964,6.509994664361875,-5.552814869830856,0.5232676532460468,0.17199448139254173,-6.145780289598026
-4.536464220350466,4.791322817683968,-4.086087525716027,0.3858772075225192,0.1271233233261373,-4.522954054389225
-2.9131209983109208,3.078258322324359,-2.6241455369454987,0.2489350128705608,0.08239856222773088,-2.9054224639067887
-1.5158877830345519,1.603800807529758,-1.365832521075089,0.13106703501917288,0.04390336238115679,-1.513191397613025
-0.8567237208156232,0.9082051157046132,-0.7722059811276899,0.07546118895382307,0.025742720314128466,-0.8563871682460139
-0.19855804459218085,0.21366299011137255,-0.17947856244311752,0.019939564861667494,0.007609584799334993,-0.20057775061398866
0.0036396613331586103,0.000289929897601111,0.0026155950412983906,0.00288254498621649,0.002038831819078099,0.0008960796992324354
0.0036396613331586103,0.000289929897601111,0.0026155950412983906,0.00288254498621649,0.002038831819078099,0.0008960796992324354
0.0036396613331586103,0.000289929897601111,0.0026155950412983906,0.00288254498621649,0.002038831819078099,0.0008960796992324354
0.0036396613331586103,0.000289929897601111,0.0026155950412983906,0.00288254498621649,0.002038831819078099,0.0008960796992324354
0.0036396613331586103,0.000289929897601111,0.0026155950412983906,0.00288254498621649,0.002038831819078099,0.0008960796992324354
0.0036396613331586103,0.000289929897601111,0.0026155950412983906,0.00288254498621649,0.002038831819078099,0.0008960796992324354
0.0036396613331586103,0.000289929897601111,0.0026155950412983906,0.00288254498621649,0.002038831819078099,0.0008960796992324354
0.0036396613331586103,0.000289929897601111,0.0026155950412983906,0.00288254498621649,0.002038831819078099,0.0008960796992324354
0.0036396613331586103,0.000289929897601111,0.0026155950412983906,0.00288254498621649,0.002038831819078099,0.0008960796992324354
0.0036396613331586103,0.000289929897601111,0.0026155950412983906,0.00288254498621649,0.002038831819078099,0.0008960796992324354
0.0036396613331586103,0.000289929897601111,0.0026155950412983906,0.00288254498621649,0.002038831819078099,0.0008960796992324354
0.0036396613331586103,0.000289929897601111,0.0026155950412983906,0.00288254498621649,0.002038831819078099,0.0008960796992324354
0.0036396613331586103,0.000289929897601111,0.0026155950412983906,0.00288254498621649,0.002038831819078099,0.0008960796992324354
