RAMEL-ESPOL/ARCHIE/matlab/data/joint_goals_square_t35_h35_p12.txt
Joint0,Joint1,Joint2,Joint3,Joint4,Joint5 
-0.00013133169133656777,9.573480259770518,14.255894197713094,-0.0051713140151219686,-23.824442698719157,0.004476487110371242
-0.00013133169133656777,9.573480259770518,14.255894197713094,-0.0051713140151219686,-23.824442698719157,0.004476487110371242
-0.00013133169133656777,9.573480259770518,14.255894197713094,-0.0051713140151219686,-23.824442698719157,0.004476487110371242
-0.00013133169133656777,9.573480259770518,14.255894197713094,-0.0051713140151219686,-23.824442698719157,0.004476487110371242
-0.00013133169133656777,9.573480259770518,14.255894197713094,-0.0051713140151219686,-23.824442698719157,0.004476487110371242
-0.00013133169133656777,9.573480259770518,14.255894197713094,-0.0051713140151219686,-23.824442698719157,0.004476487110371242
-0.00013133169133656777,9.573480259770518,14.255894197713094,-0.0051713140151219686,-23.824442698719157,0.004476487110371242
-0.00013133169133656777,9.573480259770518,14.255894197713094,-0.0051713140151219686,-23.824442698719157,0.004476487110371242
-0.00013133169133656777,9.573480259770518,14.255894197713094,-0.0051713140151219686,-23.824442698719157,0.004476487110371242
-0.00013133169133656777,9.573480259770518,14.255894197713094,-0.0051713140151219686,-23.824442698719157,0.004476487110371242
-0.00013133169133656777,9.573480259770518,14.255894197713094,-0.0051713140151219686,-23.824442698719157,0.004476487110371242
-0.00013133169133656777,9.573480259770518,14.255894197713094,-0.0051713140151219686,-23.824442698719157,0.004476487110371242
-0.00013133169133656777,9.573480259770518,14.255894197713094,-0.0051713140151219686,-23.824442698719157,0.004476487110371242
-0.00013133169133656777,9.573480259770518,14.255894197713094,-0.0051713140151219686,-23.824442698719157,0.004476487110371242
-0.00013133169133656777,9.573480259770518,14.255894197713094,-0.0051713140151219686,-23.824442698719157,0.004476487110371242
-0.00013133169133656777,9.573480259770518,14.255894197713094,-0.0051713140151219686,-23.824442698719157,0.004476487110371242
-0.00013103773633855567,9.573480873990627,14.255892709579653,-0.005171312859419552,-23.824438950132627,0.00447678342499439
0.01809297519911363,9.611476480394822,14.163742276430161,-0.005161761386335696,-23.592202353735264,0.022821891387110476
0.05885372772234431,9.695856716819208,13.958408822644287,-0.005587261133408344,-23.07391869960045,0.06367551519137807
0.10167201294365039,9.783608501247983,13.743845208082947,-0.0066899319556243024,-22.531139964705986,0.10633865121422208
0.14483517650178948,9.871157281290325,13.528707563436566,-0.008470252563755575,-21.985665987366115,0.14909847353884212
0.1880996027193891,9.958005465105252,13.314205808492602,-0.010917717076025003,-21.440549828806514,0.19172482300354185
0.23125527682482436,10.043741911613854,13.101359471193934,-0.01401004003150194,-20.89838727371877,0.2340253733184064
0.2747778934404667,10.129313566872252,12.887811492980257,-0.01777735384602364,-20.353167468826204,0.2764787092915877
0.3182258898892017,10.213852738376989,12.675719428353725,-0.022178731331742516,-19.810390210357177,0.31866591310722553
0.3619328785493116,10.298012095450657,12.463442008114548,-0.027243245893698188,-19.265850975801733,0.36092332262422405
0.4060176096381644,10.382009863551028,12.250406811729915,-0.03299019233373222,-18.718056725042295,0.4033752908914397
0.4504434703126206,10.465763287916703,12.036798044807636,-0.039422325162227545,-18.167452452191476,0.4459958371497502
0.4948236309833332,10.54854256528923,11.82446792120747,-0.046482419851606824,-17.618802381579847,0.48842543813295064
0.5394520845292653,10.630898170244247,11.611999007699662,-0.05421433329690325,-17.068437920402523,0.5309571700447928
0.5840116178177893,10.712247258502792,11.400890281102615,-0.06256011158957057,-16.520236738263893,0.5733006207863091
0.6289846695921307,10.793467942678031,11.188850952919557,-0.0716109897030252,-15.96823703100692,0.6159254315429239
0.673741783992071,10.873424886081553,10.978838987805423,-0.08123846408069682,-15.420132655050228,0.6582465992154218
0.7187435159218968,10.952947047301558,10.768678129102838,-0.0915366114767138,-14.870244927769553,0.700711685598887
0.7637095703577894,11.031539754131964,10.559668693496333,-0.10244044563743503,-14.321968526732482,0.7430675209661282
0.8089950720224371,11.109821984641641,10.350154009708579,-0.1140370995290118,-13.770946260029934,0.7856597692921298
0.8542277601965118,11.187148763198286,10.141850152653758,-0.12623228805564674,-13.221680500553388,0.8281494329603566
0.8996613373067056,11.263955599174686,9.93357895105909,-0.13909333860954612,-12.67105916474901,0.8707861754318114
0.9449668014833387,11.339689953508621,9.726836832168656,-0.15252492878555496,-12.123036338560915,0.9132725434315767
0.9905150417379439,11.414974079321508,9.519921175212222,-0.16663600507857176,-11.573094445639745,0.9559675588891422
1.0360788867552606,11.4894304728429,9.313858595402717,-0.1813584147858356,-11.023950492965957,0.998669333697542
1.081755922555727,11.563220047837568,9.108198661405915,-0.1967236484676134,-10.474398623767296,1.0414804359627974
1.1275954010500369,11.636419486418433,8.902715216220638,-0.21275151521377855,-9.923821556822634,1.0844581686043386
1.1734573193356321,11.708804728687285,8.698028941689904,-0.22939480358394224,-9.373873660216852,1.1274824014218083
1.2192480667992545,11.780233819564794,8.494544187251485,-0.24661697990608888,-8.825643956252113,1.1704762010727374
1.2653576195244667,11.851312428362162,8.290523444354081,-0.26456840988374514,-8.27443881251188,1.2138169826221386
1.311427796856912,11.921484782570595,8.087548077028956,-0.2831142469679489,-7.724516469893391,1.2571794267502427
1.3573355668219471,11.990572856368445,7.886143360185152,-0.3022003789465331,-7.177309814370791,1.300458148079836
1.4036507346692504,12.059431062638543,7.683805514248303,-0.32206834610783397,-6.626003082086929,1.3442017667675779
1.449755810562402,12.127139491472104,7.483227048590788,-0.34245720539845176,-6.077921777678515,1.3878384076876276
1.4962074010629864,12.194515075064093,7.281979924566806,-0.36361627197412305,-5.5264231411245355,1.4319062189798317
1.5423745289727981,12.26064408184502,7.082789433033154,-0.3852600510923359,-4.978971286941785,1.4758176391454616
1.5888339504373656,12.326355329668676,6.883157604394358,-0.4076601813040437,-4.4286989444944,1.5201322038413523
1.6354302199328379,12.391420155443805,6.683754151942142,-0.43075168821589127,-3.8774281699448125,1.56471439865681
1.6820198618478284,12.45563729054848,6.485187164651326,-0.4544678342395451,-3.3268313838871437,1.6094386107701482
1.7284096422685515,12.518748374858342,6.288265845384853,-0.4787081294114703,-2.779161307605566,1.654129390831325
1.7749595759760732,12.581246567175583,6.091452119201299,-0.5036622234044684,-2.230140321466102,1.6991444526592425
1.8215827250452354,12.64301098721262,5.895110938198592,-0.5292909663340418,-1.6807715959351777,1.7444121993109996
1.868240828263704,12.703989972460372,5.699397833855553,-0.555578604897303,-1.1314818348284288,1.789907418506879
1.9151667024870713,12.764481533054484,5.50333555467975,-0.5826659368630733,-0.5795090889254435,1.835870505372946
1.9618622156692238,12.823844168311128,5.308998359429822,-0.6102699415521565,-0.03068792883838267,1.8818253370984712
2.0085162401874297,12.882326805889562,5.115585799988225,-0.6385006009063331,0.5172302700326701,1.9279674624157812
2.0553638275997352,12.9402213384253,4.922119654233103,-0.6675077891721631,1.067028612583001,1.9745422400363613
2.1022186426337344,12.997293367891874,4.729366918810011,-0.6971851339215112,1.6165421567096911,2.0213778818323385
2.1491524801775226,13.05362917408489,4.53702710260772,-0.7275850430885773,2.166636084958971,2.0685589346527267
2.196045249923237,13.109084527223382,4.3455863062072515,-0.7586360398770826,2.715926285969495,2.1159772371720216
2.2430078698326024,13.163790571892546,4.1545856647994075,-0.790418102786554,3.2657353060628247,2.1637576513437335
2.2899666207497558,13.217660433062964,3.9643198729197517,-0.8228889375956107,3.8152228073632335,2.211838357061912
2.33701157351808,13.270795744246872,3.7744194940811635,-0.8561192953839958,4.365465133484037,2.2603252191805194
2.384001344001309,13.323036361217241,3.5854497419044367,-0.8900170209514319,4.914831213111595,2.309085861697014
2.4309501735715973,13.374401029594289,3.3973450603058466,-0.9245975049035096,5.463510794331185,2.358147205702937
2.4780776700336067,13.42512637944852,3.2092228584227738,-0.9600335375773691,6.014091832640568,2.407753795003289
2.5252676831471597,13.47508109293905,3.0215463099109003,-0.9962515033148606,6.565238220256045,2.4577998832465937
2.5722421702122094,13.523974760958067,2.835412303174506,-1.0330430726311324,7.113725299341104,2.5080027687547974
2.619453888117354,13.572277825187944,2.6490218681025275,-1.0707724458815122,7.664861276759554,2.5588609088437018
2.666390097294107,13.61946637364001,2.4643932249266984,-1.109038369748256,8.212682123047795,2.6098359457465063
2.713419392905935,13.665915370493007,2.280067467813337,-1.1481468080428117,8.761511704235609,2.661340555899872
2.760517985605433,13.711596352425127,2.096136428738948,-1.1880923549139013,9.311093030332941,2.7133660628506506
2.8076464794214657,13.75646785707702,1.9127511981803436,-1.2288548112102289,9.86098712857231,2.7658857993839225
2.854808939733765,13.800531094902283,1.7298927565180713,-1.2704507743304678,10.411262116695525,2.818921186575411
2.9018343942241964,13.843628265222991,1.5482172630732824,-1.3127384908847144,10.959943682764054,2.872294498872074
2.9489991938910327,13.886011430736849,1.36665284109219,-1.3559789492421137,11.51027659212511,2.9263360849305515
2.996053084144703,13.92745382578125,1.18615921773273,-1.3999562449304372,12.05936095965975,2.9807765971632314
3.0431150233803392,13.968061729931856,1.0062738924359793,-1.4447921333017808,12.60860474633248,3.0357692943530292
3.090734195235688,14.008292298911167,0.824905327283842,-1.4910394940355993,13.164438693030467,3.091983963293367
3.1384222470883243,14.047714495133299,0.6439223516961917,-1.5382563720160434,13.721184529455524,3.1488742465988704
3.185810833997852,14.08602841430198,0.46471446246190934,-1.5860870506766498,14.274561163814806,3.206015715213664
3.2332877890856544,14.123551669817985,0.28580707924931037,-1.634932944782223,14.829116467424232,3.2638916906972835
3.2808095041820144,14.160244285890581,0.10736372197341676,-1.6847698780703186,15.384361403578472,3.3224720127504983
3.3283439543285582,14.196077970199996,-0.0704975652478277,-1.735583484518288,15.939941699569545,3.3817393569232133
3.375977154025895,14.231112392667514,-0.24809964960255043,-1.7874873971529053,16.49688289487674,3.4418250091800813
3.423341464128587,14.265079647330179,-0.42407824230919977,-1.8400945886224138,17.050904580155958,3.5022836090899276
3.470635110232857,14.298129016506731,-0.5991795042229143,-1.89363392243933,17.604341953546278,3.563383099422945
3.5182505199485132,14.330525350301496,-0.7748542797994405,-1.9485782244296448,18.16180823265151,3.625659872937279
3.5655529143318403,14.361834014725048,-0.9487631200713617,-2.0042164250318817,18.71589046238515,3.688308002032517
3.612846143519731,14.392262518253828,-1.1220320015528913,-2.0609169609344744,19.27016351229584,3.75174664617195
3.660171269717489,14.421833979184743,-1.2948134027746705,-2.1187525388904653,19.825127257768205,3.8160569612088455
3.7075281561161733,14.450543655652146,-1.4671078934023165,-2.1777489948894857,20.380799097464116,3.881266907752057
3.7548085153327193,14.47832435834268,-1.6385246528454522,-2.2377942775830797,20.935926074668938,3.9472532578293036
3.8021651655266893,14.505262893984598,-1.8096198544858457,-2.299108046991255,21.492320527747705,4.014257428044403
3.848266779855071,14.530631770583303,-1.9756075499213552,-2.359948680228563,22.03434404363512,4.080389797268748
3.874074566517398,14.544463673307007,-2.0682816429170283,-2.3945130321317616,22.337937519103264,4.117810566193414
3.885385054311778,14.550441823613113,-2.1088412798367973,-2.40977710038648,22.471028877517238,4.134302654655993
3.8764072163232384,14.465359488768312,-2.213059030482573,-2.40805651513893,22.66740069999453,4.13364061492551
3.8505278180496814,14.233140817549211,-2.4809421790967967,-2.4008516554921346,23.168124141808025,4.12896410270408
3.82323376389239,13.979217453297805,-2.761890895507028,-2.3935296692066474,23.703646835460308,4.124224038409933
3.7964592271616,13.720837275457797,-3.0357527878282653,-2.3866336182917456,24.236522053641938,4.119775336845913
3.773722827628307,13.493968838574405,-3.266828136282743,-2.3810087568737703,24.69499946287966,4.1161614931658965
3.7643165460873784,13.39805914183264,-3.3620001847964085,-2.378745541194025,24.88630087349498,4.114712034119957
3.7575082751289153,13.327878094739031,-3.4307231040012787,-2.3771311869719334,25.025363427516012,4.113679979814064
3.735360427321777,13.09507884920986,-3.6532980963428536,-2.3720202122677865,25.4812511792924,4.110424118601334
3.709666026012939,12.81618787839056,-3.909507337811345,-2.3663677961707106,26.016942493200983,4.106848118021503
3.684424621475206,12.532712791427361,-4.158930812282575,-2.3611154635561102,26.550416778169996,4.1035553334452946
3.66050291809908,12.255093471003942,-4.393070977511976,-2.3564231449084487,27.062717252383997,4.100645679293258
3.648820934551114,12.116268245852513,-4.506568076498871,-2.3542358134258,27.315302095254985,4.099302267486002
3.643271927848632,12.050267656418715,-4.564314790863715,-2.353292336906616,27.43917089482566,4.098836704383173
3.6560714012992306,12.275223487889722,-4.849165702470331,-2.36282665257672,27.498493011780106,4.115905607093882
3.6825615752246446,12.736051630437705,-5.430203997183037,-2.3825180133876094,27.617512340933562,4.151126803105938
3.7110269016121147,13.224283685330878,-6.042133660785321,-2.4036155483283466,27.73992284115017,4.188817829902321
3.7401353581123225,13.716319201383612,-6.654998792415938,-2.4251229738472575,27.859428272001,4.227194957204953
3.7699279837954567,14.212583422335882,-7.269212899107239,-2.4470657002288045,27.976014512309728,4.266302900774551
3.800226803908096,14.70990292524913,-7.880764626262763,-2.469308158248293,28.08885131180828,4.305899813870617
3.8312580261403317,15.211771841042605,-8.493862281563299,-2.4920116742869443,28.19864193744421,4.346272633409574
3.863029352951822,15.718019091034122,-9.108167067355543,-2.5151762029276075,28.30521771241259,4.387420577951246
3.8953931298773905,16.22605589507987,-9.720441241651473,-2.5386888731739092,28.407936015557752,4.429142825181041
3.928547310787362,16.738743492568453,-10.334031995376794,-2.5626880107751675,28.507272930101532,4.471684462235916
3.9623900695900396,17.254236868257763,-10.94661735004603,-2.5870939870136582,28.602755676437585,4.514903844353265
3.996902709678228,17.772030737783528,-11.557511952244983,-2.611887825226679,28.694204495356463,4.558767157905303
4.031355879548218,18.28122106007825,-12.153912822679999,-2.6365431691271466,28.779755127868313,4.602344373867525
4.0560008547045205,18.64086034591143,-12.572543996223072,-2.6541209958666823,28.837553030863145,4.633388312985921
4.036849006970402,18.711874493829935,-12.654220628165337,-2.641891868979382,28.84908580965751,4.612231947703874
3.677023005466815,18.732839102327652,-12.668087941760403,-2.406769377682648,28.857784225876195,4.203742251270942
3.1131260413024875,18.761734650538155,-12.6871851777757,-2.038078872093267,28.869728929826042,3.5635121953473923
2.5412666870340797,18.786115970144337,-12.703294056904765,-1.6639489865410424,28.87984744631573,2.914170046982861
1.968205687310556,18.805586629992444,-12.716149416458533,-1.2888386914220744,28.887905639213244,2.2634023927724387
1.3956139065904893,18.8200915338784,-12.72572641826066,-0.9138859884284243,28.89394064311907,1.6131215624414126
0.8215465638117285,18.829672340576582,-12.732047659965621,-0.537860475256981,28.897902162171555,0.9611314152076742
0.24533521589565288,18.834299615158844,-12.73510333089724,-0.16036697991430218,28.89984017526088,0.3066867492983172
-0.3231058566651771,18.8339671349191,-12.734882350373717,0.21205381947291851,28.89968563085502,-0.33893838273632254
-0.8981189362466856,18.828683406426965,-12.731398188912545,0.5887567615953854,28.897507866440016,-0.992020434603485
-1.4731877345410378,18.818418553402864,-12.724622271594576,0.9654255610501662,28.893230759276314,-1.6451437334919679
-2.042299256382899,18.80335272291892,-12.714679226905071,1.3380831013885646,28.88699542355412,-2.291467269612708
-2.6154272740617133,18.78323820333964,-12.701394991430819,1.7132129046977933,28.878639418804763,-2.942302874063796
-3.1902715896441554,18.758073204996293,-12.684772115806453,2.0892685490951433,28.868230876578508,-3.595026350080589
-3.7367590993144346,18.729502614102298,-12.665885187804408,2.4465439399157853,28.856389892530107,-4.215479379771049
-4.038478651632876,18.711784172496312,-12.654171230666213,2.643693647001091,28.84908964270302,-4.5580039181465715
-4.063082525634033,18.716502889205152,-12.533739874270164,2.6565642870793877,28.72294426788585,-4.57928483799945
-4.071290939496636,18.736793573683038,-12.07180673908627,2.6497909506444115,28.240859601353655,-4.563159725848751
-4.080615850274023,18.753765242595705,-11.545266634220184,2.6425009236390244,27.69749979684795,-4.545219241882145
-4.090079387529119,18.7645322177428,-11.009031797563363,2.6355265037985713,27.150645870921593,-4.527405530261154
-4.099566929058645,18.768955804569803,-10.46961387568777,2.628947049772865,26.606946515719567,-4.509926856905165
-4.1091258784332085,18.767119297480452,-9.924354003120387,2.6227204088148843,26.0636604868346,-4.492684501838716
-4.1186005577498745,18.759217318306845,-9.38219679435278,2.6169326166649025,25.5295358332052,-4.4759423725487055
-4.128073050456555,18.745411190585816,-8.838526661163302,2.611514598738752,24.999797116387956,-4.459535389268563
-4.13751940098241,18.72590387262838,-8.294781237046205,2.606465543025068,24.47567897037147,-4.443489122966898
-4.146981379350018,18.70075702585286,-7.748612189353377,2.601750298789236,23.954772181285723,-4.4277182921600415
-4.156012670113921,18.67164277300637,-7.225927569362068,2.597558504135851,23.461307752698506,-4.412935178513293
-4.1602567025566595,18.656270162103514,-6.979853226898268,2.5956900358225723,23.23065443709168,-4.406076047322055
-4.176431533693387,18.88292571741797,-7.24083598704359,2.606426015355359,23.264227609695943,-4.4249941566937485
-4.2121273375987895,19.377512885795948,-7.807469243817677,2.6300672290557703,23.334601702708895,-4.466607311938388
-4.250729546747511,19.90390109272158,-8.406218005028038,2.655553698758164,23.405141853089876,-4.511399912931411
-4.290545966461922,20.437916262492728,-9.009078790677055,2.6817557761665247,23.472096490325928,-4.557378052597626
-4.330998211782778,20.971471554362488,-9.606817490395185,2.7082875520778087,23.53434492658763,-4.60386221185052
-4.36065936876402,21.35710714823783,-10.035971191889692,2.727685333891426,23.576435430785065,-4.637802392719345
-4.345219860396963,21.412533886405303,-10.09688299137729,2.7181684420888557,23.582634588784913,-4.621586688546015
-4.00211802398918,21.17100289400617,-9.819563028731977,2.5033974664901404,23.562223154848898,-4.2531483170332445
-3.482939283007771,20.79910241479061,-9.392282274471526,2.178373794025298,23.527674002262323,-3.695950613403492
-2.9574841512990213,20.41465504333714,-8.950173059217176,1.8494206427319233,23.488142729055973,-3.1324522625890023
-2.4373503610316183,20.025908755702496,-8.502616728451365,1.5238470459927438,23.444355735756808,-2.5751484878564095
-1.9169322907449418,19.62856816838858,-8.044567392326872,1.1981927045603553,23.39576971756066,-2.0180851916555302
-1.410040181026268,19.233272142938777,-7.588203280026262,0.8811436294743784,23.343714491754902,-1.4760839330455418
-0.9024311960013588,18.82899690390899,-7.120710525903072,0.563833562298553,23.286763838944083,-0.9339541739640833
-0.3985531873582733,18.419124604193943,-6.645890912326385,0.24908904322842176,23.22531067541401,-0.3965037419150526
0.10347278538230162,18.002026064382903,-6.161750370175784,-0.06421948101453921,23.15905427395296,0.13821780442731338
0.5267724965410736,17.643375321439336,-5.744637296455344,-0.3281425213679376,23.099162794627606,0.5884495314707046
0.7251604866350518,17.47304748642611,-5.546270920556523,-0.45174943123290445,23.069811821533925,0.799251264697364
1.1642227603833946,17.09089685032691,-5.100538378833985,-0.7250839881158517,23.00181141480042,1.2652657309643591
1.6605779180090685,16.650075596993435,-4.585176234906536,-1.0336849926671126,22.919819638414772,1.7911882754113795
2.151159318091662,16.20493404926234,-4.063402270507206,-1.3382302757458626,22.83326608763728,2.309978302408761
2.6336518468397117,15.75768916386697,-3.537726739377341,-1.6372539518310911,22.74260677819434,2.8191532083871715
3.102365787947,15.31397548065076,-3.014726017439385,-1.9272209070247417,22.649114318710236,3.31270963262569
3.558152887330052,14.873499229030445,-2.4940364981721808,-2.2086568870925953,22.552890500686498,3.7915593839297648
3.8548812650189705,14.581839598365422,-2.14841357803346,-2.3915685109690092,22.48732247248861,4.102676048980071
3.8817315133686723,14.512115258200357,-2.157796581781223,-2.4095733066161635,22.565263127516573,4.1346300516060595
3.8586758721988867,14.307126018383826,-2.396766569344124,-2.4030966422250173,23.009777207076908,4.130423817563604
3.8313188564242906,14.055406142081873,-2.6788616843193096,-2.395671989263095,23.54424585182809,4.125613002586024
3.804351840969293,13.797967031761257,-2.9552267112212998,-2.3886398948032492,24.078689214642875,4.1210713469754445
3.778757632372887,13.544798596571109,-3.2157942969864304,-2.3822392383229594,24.593027127865795,4.116954276497494
3.7658649621985365,13.413921276426583,-3.3463629527443777,-2.379119078312844,24.85477449837741,4.114954596831883
3.7593825963596625,13.347253455361969,-3.411828872823209,-2.377577201973348,24.987059318101306,4.113968482851567
3.742720404225295,13.173201362764821,-3.5795158886167036,-2.3736980868932993,25.32918532777199,4.111494396870462
3.717179789635895,12.898731031028714,-3.834826594633347,-2.3679928673762083,25.85955537545961,4.107876632777469
3.691852379443424,12.61711903113763,-4.0857854695556,-2.362632977097873,26.39270540805638,4.10450666723083
3.6669056308750188,12.330263413599976,-4.330632763946633,-2.357654720908966,26.924973862100515,4.101409367487722
3.650412694592046,12.135306662771352,-4.4911429269970995,-2.3545332124887834,27.280811940740865,4.099487779166439
3.6436768675439386,12.054444932193983,-4.5563685489562475,-2.3532982039530497,27.427050245429083,4.098732743811251
3.4759905186278073,12.057752215661257,-4.568777783432979,-2.245380948639424,27.44282706919327,3.911974394095556
2.992399693681556,12.083251190318553,-4.587892139661955,-1.933320201916809,27.45393411161724,3.371786866807467
2.451378612083248,12.107240920631229,-4.605867705584839,-1.5840024166884088,27.46439632172329,2.767365755711311
1.9063336310352454,12.126573870429121,-4.620344582777067,-1.2319119600539203,27.472802278803652,2.1583749651481727
1.3642651215944288,12.14099761261085,-4.631145311252178,-0.8816104829086769,27.479103231646597,1.552655642184875
0.8191130560021657,12.150678058805047,-4.638393025610562,-0.529219329425382,27.48333614135355,0.9434502556629908
0.27864489953904453,12.15550259963529,-4.6420053409685424,-0.17979802809936088,27.485450242312655,0.3394549938674083
-0.264940620650082,12.155563116051512,-4.642048212715549,0.17165765371683087,27.48545346741577,-0.2680330901362722
-0.8081003640754989,12.1508250899887,-4.638503493751741,0.5228199602556274,27.483394360973353,-0.8750366378475825
-1.3532630481924248,12.141243551876826,-4.631332760054617,0.8752199100819902,27.479222446567245,-1.484254725527329
-1.896653447095813,12.126877765962059,-4.6205784134635595,1.226378562316542,27.47296475201719,-2.091452491424391
-2.4388775247431873,12.107742631050662,-4.606244991944122,1.5766476297379286,27.46459892129486,-2.697291245954007
-2.9813967638404195,12.083792178161556,-4.588301980669698,1.9269376248825014,27.454171881503157,-3.303388202945045
-3.462785802882099,12.058505932372908,-4.569349020459942,2.237582522689502,27.443165884697272,-3.841118287354325
-3.6433346083818687,12.048371037902795,-4.560621798389146,2.3540196372282765,27.43741496767695,-4.042722371762333
-3.6503886644308516,12.113537975812847,-4.381584737078191,2.3533817208963224,27.19312978200786,-4.039298348590663
-3.6656127875966127,12.249185186737662,-3.994055687365951,2.3522393306878424,26.669775512004456,-4.032105736558049
-3.681413830340287,12.382908108880846,-3.590288514620951,2.3513821824802763,26.132096767431108,-4.024914909055879
-3.697372569840194,12.510854682026505,-3.180983817114974,2.3508436998115787,25.59465110899917,-4.0179230928987035
-3.7135721274073212,12.633618415939303,-2.76405037262156,2.3506211267394335,25.054752817463314,-4.0110913151997405
-3.7299245996685184,12.750470010001354,-2.3417940780732307,2.350715450799141,24.51543821181454,-4.004453785627296
-3.7464093211709435,12.86127305695298,-1.9148071352995764,2.3511231683634017,23.97743623094407,-3.9980133947028347
-3.7630591095257913,12.966254900785248,-1.4822971450477427,2.35184212512674,23.43972677475385,-3.9917521144696404
-3.7799439513611235,13.065803464111484,-1.0424933263378986,2.3528752294159987,22.900150259272348,-3.9856406082115883
-3.795609439856183,13.1521060442452,-0.6334589170184776,2.3540980252527057,22.404602362530056,-3.980174924911549
-3.802011323478685,13.185733072361634,-0.46604412795808603,2.3546689701017782,22.20347356467232,-3.977995851521899
-3.8074017794130164,13.264446645865185,-0.5320424021522203,2.357786662568983,22.1905529003505,-3.983105261640685
-3.8309617046797872,13.654202434682514,-1.0133294000478001,2.373893939760558,22.281057617354676,-4.0119961985020325
-3.8611850727321775,14.14732770318191,-1.6189113293779698,2.394510165183767,22.392190269806065,-4.048914888258874
-3.8804533808368493,14.45778256645738,-1.9982379815800393,2.4076262222988927,22.460213750487792,-4.07236864509153
-3.8859822124580607,14.54838177765522,-2.1146216088899714,2.411497538394334,22.48574847024434,-4.079378890315952
-3.8709033475532983,14.415768858753031,-2.2711912853839333,2.4072180602928253,22.775294809011513,-4.076601313569525
-3.844032350485694,14.172589858320395,-2.5490548567349753,2.399802023052974,23.296981756560633,-4.071796496706224
-3.8169763051081578,13.918603570128713,-2.8272071225751008,2.3926157356063626,23.82976408432128,-4.067154120597336
-3.7901868286483316,13.6577840792529,-3.1008438461552177,2.385788647315104,24.3648526407954,-4.06276052788501
-3.7694601483553907,13.44941829888772,-3.3112292614654164,2.3807106313998325,24.784089527400997,-4.059506326735632
-3.761428016474904,13.367093258166848,-3.392428121266921,2.378791926301329,24.947800801818403,-4.058280444210534
-3.7527382268910556,13.277019994413786,-3.480058340002456,2.3767475979365966,25.12570646385307,-4.05697683795022
-3.7291206624016904,13.026832624433755,-3.7170319915372785,2.371360053995661,25.613414131274386,-4.0535557853069415
-3.703700972286294,12.748549579151408,-3.970013563240559,2.365844923059891,26.145262375956573,-4.050080168369644
-3.678455957613343,12.462649550163313,-4.218954432125353,2.3606696036542476,26.680677933373595,-4.0468502572543965
-3.6561186717235974,12.201462104131727,-4.437200967540177,2.3563819110288273,27.16059135492747,-4.0441827318359715
-3.6465368593319645,12.087041221622382,-4.530173458721298,2.3546064875783115,27.3681998054453,-4.043097185894328
-3.6444843041350756,12.068944697324296,-4.588003884912064,2.354900793808147,27.444146274422792,-4.044320683131749
-3.661927892718814,12.374977240312838,-4.975233025193077,2.3678901130133325,27.524561520647822,-4.067571412186575
-3.689554824045248,12.85401907825251,-5.578413664716753,2.3884131945277147,27.647456844922964,-4.104270175589161
-3.7182543356088855,13.344522901413038,-6.192264569388959,2.409668856188364,27.7695044337774,-4.142232612463065
-3.7475518695823875,13.837974748935514,-6.805942170488945,2.4312996321509,27.888395516046508,-4.180818757612412
-3.7773988405702035,14.333357758052436,-7.418103322418843,2.453265360831235,28.003805579492056,-4.219956792568289
-3.80802728433945,14.834263960359268,-8.033076203108358,2.4757317784453754,28.11645960692049,-4.259941496945998
-3.8391598806754397,15.335924162841444,-8.644909115733741,2.498490546478022,28.22518737186031,-4.3004017298850945
-3.871044250180803,15.842113699196823,-9.25812129232459,2.5217178025565254,28.33072077278983,-4.34165041451742
-3.903602168077144,16.35132202870975,-9.870768510508269,2.5453509596064485,28.432629191435005,-4.38357589009828
-3.936991792220757,16.8657371843363,-10.485360498553737,2.5694988474243536,28.531226255968594,-4.426370635715131
-3.9710123214573443,17.38200238668656,-11.097777285213539,2.594010359747809,28.625757652418507,-4.469766414774275
-4.005513537453031,17.89770413241849,-11.705119831133489,2.61877278282832,28.715744533944168,-4.513563936958143
-4.039495257802888,18.398146175971913,-12.290263539386066,2.6430685834900767,28.798806571294474,-4.556496379625796
-4.058930951795663,18.681115846601422,-12.61927744629066,2.6569227035285032,28.84390831658618,-4.580960595659601
-4.062543708097521,18.714997408396133,-12.563875633275744,2.6570040990003134,28.75455439473507,-4.580332513872915
-4.070276323818573,18.734562590268908,-12.128851349753562,2.65059326977993,28.300096470455703,-4.565113970432883
-4.079526847587127,18.752113718525926,-11.606720389069515,2.6433142059442805,27.760565845024658,-4.547272749404994
-4.085404561131312,18.76001733203227,-11.274020703048997,2.638903136684149,27.420055575168263,-4.536135498312158
-4.089596193961488,18.76413771944137,-11.036322937317633,2.6358563539030895,27.178302292224117,-4.528284599780494
-4.093091838357905,18.766620061025158,-10.837819907912467,2.6333773095740574,26.977370104178114,-4.521794296866525
-4.096159866405962,18.768090744817606,-10.663397485955784,2.6312471934267374,26.80152300194562,-4.516139927007813
-4.097941400090075,18.768642916271222,-10.562028554528922,2.630029678363783,26.699628327139145,-4.512874353293255
-4.10176605082318,18.769085634358877,-10.344196133030755,2.6274634170981828,26.48140922778631,-4.5059072197065175
-4.1104877317195285,18.766349783342726,-9.846397984882994,2.6218495599841223,25.98647125536593,-4.490236569822359
-4.119907463309742,18.757656235581663,-9.30715263412217,2.6161479358134336,25.456048512924205,-4.473639122409929
-4.129314073764284,18.743167039331954,-8.767049883566004,2.6108159845307055,24.930558687454962,-4.457389647796914
-4.138786636537537,18.722851954329485,-8.22159086573785,2.605799209213772,24.40553439810203,-4.441339993419362
-4.148176137465566,18.697198632691084,-7.6797393309045106,2.601200581012837,23.889446409895765,-4.4257632777874925
-4.156974665575355,18.66826385743435,-7.170375857791371,2.5971511307165946,23.409120457113776,-4.411390944781194
-4.160768672191524,18.663418528468704,-6.988093884750871,2.596047908806486,23.23169755269053,-4.406680889205101
-4.180569526383374,18.940602839516885,-7.307114247110426,2.609188065210481,23.27261013430288,-4.429833183450878
-4.217088147243552,19.445596249598335,-7.885159894044363,2.6333649660302454,23.34395039816582,-4.472381220946738
-4.255948800527532,19.97436124709063,-8.486022449775467,2.6590111203264826,23.41421366149322,-4.517445218670078
-4.295904506715926,20.509058359249266,-9.089041985895046,2.6852932594782293,23.48063667957172,-4.563554298977472
-4.336010000542465,21.03691058454077,-9.679808342697154,2.7115862999944538,23.541630649412582,-4.609611104506348
-4.362542119449199,21.38138027661663,-10.062900069923023,2.7289328167217057,23.578974900721306,-4.639958312592869
-4.314979583866678,21.406327135216717,-10.089139989521481,2.6992910112399846,23.582477865378387,-4.5891952114173415
-3.907137035319058,21.238727936422404,-9.892234575587702,2.444234857222438,23.57113976538214,-4.151887989155303
-3.3379820191851985,20.999640205729865,-9.612635353627367,2.0882055112815787,23.552728997452597,-3.5418738273808765
-2.76567049345727,20.75301917159179,-9.325678501079974,1.7301349288300514,23.531109789313774,-2.9288090957801396
-2.193868428074666,20.50028636418815,-9.032987364822125,1.3723627265330534,23.506341563680877,-2.316653711824001
-1.6207870605975925,20.240516429418353,-8.73344645949095,1.013817742274449,23.478247822314696,-1.7035293327699277
-1.0530810507827368,19.976673248175413,-8.4304212460997,0.6587086383711579,23.447191312803188,-1.0965775994108535
-0.49744503098915166,19.712040334722495,-8.12758021513414,0.31126544421334423,23.413594490362247,-0.5029730201893103
0.06128648945359663,19.43942146702987,-7.816614684587963,-0.03795249314678092,23.376555028423144,0.09346261292591784
0.615417017608604,19.16246523169347,-7.50162959757413,-0.3840878944332965,23.336500152059536,0.6844751040726365
1.1671722834560787,18.880049666236904,-7.181286700003195,-0.7284948249983658,23.293328992303614,1.272421243736107
1.715396471322369,18.592733449256116,-6.85614914780102,-1.0704091594650376,23.247085773197277,1.8560360220512826
2.2638383715969286,18.298467221159648,-6.523834637359202,-1.412126926678777,23.19741487038263,2.439276688686149
2.807558212439134,17.999837710822604,-6.18719706955358,-1.7505299401699155,23.144732763169262,3.0168575214621924
3.3495296399391634,17.695182189712327,-5.844290068783116,-2.087431350470676,23.08873848236705,3.591907666856255
3.8559079443273747,17.404090930633068,-5.517054548082285,-2.401794595060872,23.03320958306003,4.128546460870987
4.0643669180545645,17.28099228972136,-5.381816377974899,-2.5311337295379586,23.012284864648823,4.3494063914799
4.049249252747742,17.15562948240901,-5.526769606412023,-2.526829155268702,23.28299063962951,4.346299997421437
4.020212265990324,16.907968557233108,-5.804280824935905,-2.5187858043614177,23.80890676241849,4.340496786067899
3.990893504406675,16.64846511312998,-6.08314159267553,-2.510974254896342,24.348015923411722,4.3348644286684435
3.9625099044217893,16.387886018112376,-6.351659807452561,-2.5037206044960545,24.87782831347378,4.329640255904157
3.9463406824522362,16.235206101617177,-6.503925281699514,-2.499729000798905,25.183178327037794,4.326769087980221
3.9389128247384053,16.16401526538533,-6.573691496973715,-2.497930380613705,25.32432058095131,4.32547641791688
3.923897578191981,16.018050248684,-6.71435588865747,-2.4943631456785034,25.611323063005663,4.322915004528629
3.8966040863123172,15.745544568162973,-6.968711584163314,-2.488119862628577,26.13885803854498,4.3184414503618145
3.8691856895447785,15.462197943990976,-7.222355113370599,-2.4821718062705167,26.67651886355766,4.31419420035259
3.8421030984211217,15.172567690209638,-7.470870191785181,-2.4766282940900592,27.21532060858392,4.310253743804453
3.8167198740581783,14.892025189567043,-7.701803885299526,-2.4717440494208573,27.727406453069307,4.306801515845568
3.804858645934727,14.757839161730738,-7.809010964202387,-2.4695684177768005,27.969082558383164,4.30527138158965
3.78980823777673,14.693582944954779,-7.860470991975561,-2.4624664088366197,28.085335089371675,4.294001388327611
3.4906485016097566,14.710803417137827,-7.872772394229479,-2.268357270405795,28.092702334240382,3.957369878545646
2.956082269631883,14.73803019958275,-7.892208587300641,-1.9213223068955714,28.104316652894113,3.3557747650524137
2.399305644652023,14.761568710691327,-7.909003888734806,-1.5596564421453345,28.11436593836276,2.7291050323337585
1.8442536346867495,14.780150855799173,-7.9222593777864585,-1.198935742758583,28.12232007083574,2.104311618900337
1.2888402711859177,14.793871261665727,-7.932040478542204,-0.8378449499075232,28.128167931014296,1.4790595883470035
0.7328351909899021,14.802731784439306,-7.938358755324762,-0.4762753551147577,28.131970146297533,0.8531074798153516
0.1772866054438074,14.806717126690891,-7.941201266464255,-0.1149487015757522,28.13368705041491,0.2276490816968671
-0.37904532543124003,14.805832407570003,-7.940568583391818,0.2468996839368324,28.133287979249538,-0.398696836904256
-0.9342145090027472,14.800087576446883,-7.936475346702871,0.6079649553520425,28.1308414400902,-1.023722630440127
-1.4910503683585907,14.7894430924339,-7.928888398836416,0.9700458277510536,28.1262998281606,-1.650599289487034
-2.044780831511756,14.774002719828523,-7.917875733338982,1.32999689048776,28.119677337258203,-2.2739393513113457
-2.60190579368214,14.753576644055716,-7.903306721657887,1.6920065213041346,28.11096048183674,-2.9010445012853623
-3.156450100930413,14.728362842023394,-7.885314640536682,2.052149516172876,28.100205431535606,-3.5251738732497038
-3.6378638914458823,14.702514500913807,-7.8668601067974695,2.3646133441990718,28.08918293163725,-4.066926930609958
-3.7994188015370765,14.693178554047568,-7.855350559737825,2.4693133252110284,28.080230725906844,-4.248475346689173
-3.8036395912830643,14.701592322249928,-7.581496981868282,2.4656003088520486,27.79804461714058,-4.2394582261069305
-3.8115896611181554,14.712899878604874,-7.064090380891312,2.458885643280367,27.26947968744024,-4.2227267752916005
-3.8197647738582576,14.718454915809959,-6.529921268008349,2.452349721003599,26.729904032255536,-4.205853633385865
-3.8279422514804273,14.71798388230215,-5.993507476405583,2.4461729902252825,26.19410501909426,-4.189297892754998
-3.8361357969431857,14.711596398354777,-5.453998270719069,2.4403337846437374,25.661122744861828,-4.173018961844139
-3.8442721970082356,14.69951977329695,-4.916282182514325,2.434869907961288,25.135617435402448,-4.157146838436912
-3.8525129552186828,14.681589345929213,-4.369720048809729,2.42966445906545,24.607117423987415,-4.141356241328996
-3.860673297978795,14.658302769457906,-3.826607218621775,2.424824912950112,24.087417634187492,-4.125990382379445
-3.8688700581126803,14.629489505037363,-3.2792303603713133,2.4202692365445895,23.568977307301566,-4.110815460110969
-3.8770589317824586,14.59539180200925,-2.7305837596322413,2.416013977983375,23.054547976989756,-4.095903756186425
-3.8843032746166943,14.560890102564695,-2.243757768723551,2.4124888401963163,22.602326618877814,-4.082910662529291
-3.887556345058849,14.571487835838067,-2.136792343935979,2.4124493598563093,22.484733882162644,-4.080990211235308
-3.907356569481824,14.886286823609538,-2.5193458175834507,2.425897160340296,22.551611995257073,-4.105000950153201
-3.9390944621028514,15.38450302477238,-3.1216413620047776,2.447405701959486,22.654279402967443,-4.143349683388784
-3.9721718553569576,15.895618755761555,-3.7355016647242363,2.469760443986772,22.755543044135624,-4.183138481957256
-4.005996221248608,16.4099681755692,-4.349108616607853,2.4925551326356126,22.853276304607633,-4.223640674079554
-4.039890627057287,16.91722187614021,-4.950169703671507,2.51533137626128,22.945546254035783,-4.264042159154365
-4.061185156858536,17.231846095622,-5.32093477831421,2.529607279581025,23.000716086342972,-4.289331728224613
-4.0646208539741115,17.28232010297667,-5.380269571162312,2.531908164632359,23.00941983700902,-4.293405336713503
-4.0646208539741115,17.28232010297667,-5.380269571162312,2.531908164632359,23.00941983700902,-4.293405336713503
-4.0646208539741115,17.28232010297667,-5.380269571162312,2.531908164632359,23.00941983700902,-4.293405336713503
-4.0646208539741115,17.28232010297667,-5.380269571162312,2.531908164632359,23.00941983700902,-4.293405336713503
-4.0646208539741115,17.28232010297667,-5.380269571162312,2.531908164632359,23.00941983700902,-4.293405336713503
-4.0646208539741115,17.28232010297667,-5.380269571162312,2.531908164632359,23.00941983700902,-4.293405336713503
-4.064601911047763,17.282284209551865,-5.380178056690434,2.531896375813519,23.009201524018327,-4.293385318517435
-3.977562343506702,17.11735994625384,-4.959684416513343,2.4777287316641394,22.00608996941492,-4.2014050670745515
-3.8903788597970963,16.95216298780412,-4.538495508249552,2.423471523652882,21.001319813147468,-4.109272730255516
-3.803473423578589,16.787492879141535,-4.118649864951074,2.3693873539273147,19.99975409204587,-4.017434223919179
-3.6909759806078473,16.574330538966667,-3.575167623003285,2.2993764194671957,18.7032462152799,-3.8985510150125053
-3.5422850645661286,16.292588102968004,-2.8568324300101398,2.206841071970283,16.98961665392381,-3.7414198592500636
-3.3931832289222577,16.01006704852517,-2.136512058503234,2.114049995413446,15.271251336031034,-3.583854458587322
-3.2436027835282277,15.726639115030867,-1.413879493108487,2.0209610639457285,13.54737014778074,-3.425783280536133
-3.094831682947176,15.444744743809506,-0.6951569235487665,1.928375814918792,11.83281647753741,-3.2685673886669053
-2.9456200008420415,15.162015550158134,0.025694123140269236,1.8355163772223848,10.113185203739302,-3.1108859062563736
-2.7964620396910544,14.879388148014197,0.7462856405117615,1.7426903718787552,8.394173051926195,-2.9532611941976463
-2.647353898378423,14.596855145467712,1.4666364751021315,1.649895371092615,6.675735062610851,-2.7956891299333457
-2.498285431355747,14.314397318536496,2.186795640695562,1.5571250609486835,4.957754310616405,-2.638158992016671
-2.3488152808615235,14.031178373960795,2.908895364473297,1.4641047696988918,3.235144246425379,-2.480204369606825
-2.200104729049893,13.749398731723879,3.627325419109274,1.3715572022033358,1.5212883872114342,-2.32305246347642
-2.0501129168347236,13.465191332386185,4.3519453235609085,1.2782122633563096,-0.20733371167436623,-2.164546567920162
-1.901432489516153,13.183468770623882,5.070229844871029,1.1856834433438397,-1.9208423928413714,-2.0074264962591193
-1.7520942561994852,12.90049978527867,5.791692268444277,1.092745248581116,-3.6419321410566226,-1.8496112791278618
-1.6030533140725576,12.618094113054584,6.511718459530415,0.999992068103614,-5.359595674781901,-1.6921102285205956
-1.454174682452317,12.335995989931407,7.2309605183221946,0.9073398989019756,-7.075388616208858,-1.5347807017574686
-1.3044728248215527,12.052338002172537,7.954179633889795,0.8141754085244356,-8.80066905334077,-1.3765812196673395
-1.155507136540701,11.770074922397782,8.673842268899453,0.7214690610410567,-10.51746530331614,-1.2191596945894347
-1.0067994229759412,11.488300658126168,9.392258611785795,0.628923259881787,-12.23128845236951,-1.0620107878151634
-0.8577010250415646,11.205786117522067,10.112562375501325,0.536134322726947,-13.949614151429007,-0.9044490199988701
-0.7086008630356524,10.923268234320947,10.8328746615577,0.44334428773118345,-15.667960181018522,-0.7468853879758942
-0.5588546110234872,10.63952612722585,11.556308249181699,0.3501521692401099,-17.39375225346987,-0.5886389915170563
-0.41002224278967747,10.357515664865938,12.27532680663591,0.25752879129656375,-19.109012019712313,-0.4313583542192237
-0.2827202909075562,10.116301453632005,12.890330564821047,0.17830451406403713,-20.576138551519602,-0.2968302783787313
-0.19581096717738677,9.95162397883681,13.310194988933542,0.12421792500948751,-21.577749075323894,-0.20498766386136377
-0.10893191683577669,9.78700386664631,13.729913160396633,0.07015017610069005,-22.57901070509391,-0.11317704116071106
-0.022294906690863883,9.622842376922081,14.148462020404557,0.016233056929780013,-23.57748287571512,-0.02162219774275068
-0.0009858714046685594,9.582465602939267,14.25140731378423,0.002971729085926879,-23.823064742869395,0.0008964162508782116
-0.0009858714046685594,9.582465602939267,14.25140731378423,0.002971729085926879,-23.823064742869395,0.0008964162508782116
-0.0009858714046685594,9.582465602939267,14.25140731378423,0.002971729085926879,-23.823064742869395,0.0008964162508782116
-0.0009858714046685594,9.582465602939267,14.25140731378423,0.002971729085926879,-23.823064742869395,0.0008964162508782116
-0.0009858714046685594,9.582465602939267,14.25140731378423,0.002971729085926879,-23.823064742869395,0.0008964162508782116
-0.0009858714046685594,9.582465602939267,14.25140731378423,0.002971729085926879,-23.823064742869395,0.0008964162508782116
-0.0009858714046685594,9.582465602939267,14.25140731378423,0.002971729085926879,-23.823064742869395,0.0008964162508782116
-0.0009858714046685594,9.582465602939267,14.25140731378423,0.002971729085926879,-23.823064742869395,0.0008964162508782116
-0.0009858714046685594,9.582465602939267,14.25140731378423,0.002971729085926879,-23.823064742869395,0.0008964162508782116
-0.0009858714046685594,9.582465602939267,14.25140731378423,0.002971729085926879,-23.823064742869395,0.0008964162508782116
-0.0009858714046685594,9.582465602939267,14.25140731378423,0.002971729085926879,-23.823064742869395,0.0008964162508782116
-0.0009858714046685594,9.582465602939267,14.25140731378423,0.002971729085926879,-23.823064742869395,0.0008964162508782116
