RAMEL-ESPOL/ARCHIE/matlab/data/joint_goals_square_t35_h35_p12.txt
Joint0,Joint1,Joint2,Joint3,Joint4,Joint5 
-0.00045074334009788484,9.58161281624201,14.248451177951997,0.0029196598084679907,-23.82543558893271,0.005641591883385503
-0.00045074334009788484,9.58161281624201,14.248451177951997,0.0029196598084679907,-23.82543558893271,0.005641591883385503
-0.00045074334009788484,9.58161281624201,14.248451177951997,0.0029196598084679907,-23.82543558893271,0.005641591883385503
-0.00045074334009788484,9.58161281624201,14.248451177951997,0.0029196598084679907,-23.82543558893271,0.005641591883385503
-0.00045074334009788484,9.58161281624201,14.248451177951997,0.0029196598084679907,-23.82543558893271,0.005641591883385503
-0.00045074334009788484,9.58161281624201,14.248451177951997,0.0029196598084679907,-23.82543558893271,0.005641591883385503
-0.00045074334009788484,9.58161281624201,14.248451177951997,0.0029196598084679907,-23.82543558893271,0.005641591883385503
-0.00045074334009788484,9.58161281624201,14.248451177951997,0.0029196598084679907,-23.82543558893271,0.005641591883385503
-0.00045074334009788484,9.58161281624201,14.248451177951997,0.0029196598084679907,-23.82543558893271,0.005641591883385503
-0.00045074334009788484,9.58161281624201,14.248451177951997,0.0029196598084679907,-23.82543558893271,0.005641591883385503
-0.00045074334009788484,9.58161281624201,14.248451177951997,0.0029196598084679907,-23.82543558893271,0.005641591883385503
-0.00045074334009788484,9.58161281624201,14.248451177951997,0.0029196598084679907,-23.82543558893271,0.005641591883385503
-0.00045074334009788484,9.58161281624201,14.248451177951997,0.0029196598084679907,-23.82543558893271,0.005641591883385503
-0.00045074334009788484,9.58161281624201,14.248451177951997,0.0029196598084679907,-23.82543558893271,0.005641591883385503
-0.00045074334009788484,9.58161281624201,14.248451177951997,0.0029196598084679907,-23.82543558893271,0.005641591883385503
-0.00043593514149546566,9.581643709348517,14.248376282889547,0.0029196772415660895,-23.825246840250774,0.005656494542713924
0.01798987677829882,9.619998609721758,14.155294465430796,0.0028779690693536654,-23.590550826558815,0.024174239873908272
0.058698057115187,9.70413438967171,13.950421422705313,0.0023398138369471674,-23.073180710142385,0.06490872791876263
0.101578488505378,9.791872826208067,13.735748244012893,0.001118162718104505,-22.529864413053648,0.1075657674585562
0.14464887819989233,9.879094693817038,13.521271024943518,-0.0007740572989344745,-21.985805442829086,0.1501674450196655
0.187991167323447,9.965961971527433,13.306578020909532,-0.0033403702308379335,-21.439943995339434,0.1928058505431408
0.23125725522230692,10.051781007433592,13.093379876657892,-0.006554466304845972,-20.89662529861076,0.23515149697027507
0.2748771617494786,10.137406070130384,12.879547402485743,-0.010444760841378404,-20.350415471447864,0.27763747723390214
0.3182407290108264,10.22164578737332,12.668055435294162,-0.014949891127219209,-19.808913047166847,0.3196826008338735
0.36197318143536517,10.30572049168101,12.455839217056196,-0.02012851568902713,-19.264270006519727,0.36190593348752187
0.4061813340681966,10.389818802933252,12.242392382103953,-0.02600336236457985,-18.71515284809684,0.4044189067880168
0.45064505469127447,10.473508486274916,12.028785593441931,-0.03255305728696003,-18.164286552003585,0.4470190542404163
0.4950067133808009,10.556120196290472,11.8167240065017,-0.03972062326639454,-17.6160649129198,0.48937607005950867
0.5396510964471124,10.638373233962014,11.604356628087906,-0.04756488659966352,-17.065697697284683,0.5318694341636829
0.5841623116939607,10.719504625743221,11.393649738349843,-0.056009268823323834,-16.518276678815166,0.5741152501274881
0.6290628188944074,10.800466580358506,11.18212202046138,-0.06515196831974696,-15.967346206293387,0.6166208706659022
0.6739218591590651,10.880479483493932,10.971798045709079,-0.0749065511597664,-15.418165909880873,0.6589895557125475
0.7187957382264463,10.959651441271992,10.76239695446275,-0.08527923710893104,-14.870005919290124,0.7012866450805623
0.7638757505478991,11.038320236960695,10.55301780391597,-0.09631366697814954,-14.320499591537885,0.7437037479008908
0.8092855827296715,11.11669261481262,10.343088463599026,-0.1080463788516738,-13.768121947200893,0.7863678163144784
0.854391652981601,11.193680608777758,10.135523926352663,-0.12030977283574631,-13.220543718004768,0.8286951675066547
0.8997240200415789,11.270197043822737,9.92786820106884,-0.13324242954256876,-12.67129085561404,0.8711948421379895
0.9452915749152037,11.346249537751149,9.720081001994783,-0.14685253175076782,-12.120236095097725,0.9138860155327636
0.990763678038069,11.421287722604685,9.513660770057056,-0.16104088782836437,-11.571347645599092,0.9564700909874695
1.0364341378666275,11.495798774288158,9.307263613319481,-0.17589832377168915,-11.02104788348208,0.9992333969361245
1.0821258725118157,11.56949269321442,9.101683458513023,-0.19136900980700886,-10.471443705985783,1.042021216268831
1.127878935079976,11.642436566207461,8.896729963705093,-0.20746593653235518,-9.922022700301705,1.0848821267017452
1.1736348738685671,11.714539999147604,8.692654617534487,-0.2241679386649236,-9.37345619253057,1.127772361698125
1.2195723156675833,11.78608374318688,8.488654164859495,-0.24154233947803883,-8.823575968619275,1.1708704617703531
1.2656296019865985,11.856967646898392,8.284999430269716,-0.2595705756777254,-8.273096967562129,1.2141298884999152
1.3116750397573715,11.92699005318123,8.082264437318026,-0.27820236317753455,-7.723565087771264,1.2574380127171376
1.3583044771831392,11.997045208058303,7.8778306086209895,-0.2976896164105686,-7.1678530662476945,1.3013674642109825
1.4039034496104152,12.064723282870442,7.678753085896123,-0.31734862065642067,-6.625160678096008,1.3444069386256554
1.4502215350924241,12.13263300147612,7.477374350111269,-0.33792754945706177,-6.074628394435482,1.3882177838344694
1.4964334627150455,12.199550981194237,7.277288966403664,-0.3590723189301303,-5.5260507148172575,1.4320320397069908
1.5427371944007755,12.265767339971477,7.077629470454492,-0.3808739895515399,-4.97704877602294,1.4760481991922378
1.589223264403406,12.331407014144563,6.8780030773925676,-0.4033817666220762,-4.426526830721204,1.5203642790098935
1.6356539140519422,12.39613361233937,6.679424649475172,-0.42648447369107845,-3.877275398322692,1.564765087056573
1.6822736457176217,12.460286913402095,6.4808427382006935,-0.4503082440379549,-3.326377293943845,1.609496092458067
1.7287086491038743,12.523354789449671,6.283840773943226,-0.4746642192469868,-2.7782229188630962,1.6542096860702802
1.775346580901549,12.585865561745534,6.086765755009799,-0.49975847110647653,-2.2282097168475183,1.6992903752651127
1.8220740038842775,12.64766141338647,5.89009589446425,-0.5255386808802712,-1.677654177481084,1.7446413838946275
1.8686030398505669,12.708366492368992,5.695031789765847,-0.5518468410947881,-1.1299205229275757,1.7899939253819224
1.915328729840719,12.768497948382292,5.499909233957903,-0.5789097385589246,-0.5803328366326227,1.8357444440425448
1.9621319527234253,12.82789683000399,5.305224480603899,-0.6066677828510795,-0.030270959022923153,1.8817896434706762
2.0089846995855174,12.886525699306151,5.111089407647696,-0.6351111105246863,0.5199592051374926,1.9281145337532246
2.0557259958512097,12.944186122639621,4.918162024087944,-0.6641451194171429,1.0684926465486788,1.9745712410570706
2.102701429978923,13.001302273814085,4.72501157929121,-0.6939919458924013,1.6194079239334578,2.0215161856110813
2.149627826182315,13.05752600093931,4.532799663503344,-0.7244807636721374,2.169406040290101,2.068679987573595
2.196481413537497,13.112833019442593,4.341613828275996,-0.7555989836544507,2.7182335320769284,2.1160499250280553
2.2434808195978886,13.1674801969802,4.150556963947236,-0.787499317030254,3.2684741556422354,2.1638601342214474
2.2905350691122464,13.22135703521931,3.9599969835109934,-0.8201307141435469,3.8190843139291326,2.212032613181941
2.337335017646549,13.274115448878245,3.771174879301267,-0.8532809128829189,4.366471193901324,2.260261627840261
2.384446851666284,13.326392439087773,3.5818014825901394,-0.8873593805537336,4.917279427394961,2.309144318199271
2.4313147831986854,13.377569823229672,3.3941063256643935,-0.9219729066206019,5.465032985541635,2.3581178491692927
2.4784093887813827,13.428161957719407,3.2061986707224106,-0.9574765053019467,6.0152540037225055,2.4076872506519895
2.525561679214289,13.477979766609781,3.018753357948055,-0.9937575658503012,6.5659886711552575,2.4576916722341737
2.572485021731219,13.526724845818515,2.8329005538194125,-1.0306001442529016,7.1139118260296925,2.50783903609814
2.6196874670695367,13.574923338702984,2.6466237265824377,-1.0684134599810895,7.664977482184319,2.5586872427693375
2.6667661792589774,13.622159453618776,2.461510707235072,-1.106887980869899,8.214503642538453,2.609818867158698
2.7138000344726056,13.66851623992788,2.27724274381647,-1.146094095170575,8.76343272395792,2.6613322110458473
2.760912544584689,13.714113986345223,2.0933317050455313,-1.186145923952096,9.313227211621374,2.7133781410229236
2.80807494939717,13.75892065117747,1.90988785239518,-1.2270331538528017,9.863572184060963,2.7659422773062636
2.8552106227710445,13.802861991236435,1.7272050783655717,-1.2687012985368926,10.413594199367342,2.818955437804559
2.9022882495348328,13.845910103415608,1.5453985218006507,-1.3111323672647164,10.962948380924894,2.872397337523482
2.9493825406885144,13.888133302193067,1.3641745052819412,-1.3544050048676004,11.512526846792953,2.926368749090382
2.9965260891990178,13.929557933942098,1.1834047168072062,-1.3985637114388554,12.062730190242032,2.980925073157303
3.0435202492617868,13.97001071995819,1.0038448636775776,-1.4434332299927422,12.611259822809474,3.03585218573717
3.0910263412436754,14.010049847836783,0.8229714578525793,-1.4896689204633582,13.165855780167833,3.091947404764529
3.1386762547311338,14.049345700224816,0.642195540896632,-1.536945758846386,13.722242780389273,3.148806785314334
3.186059063266332,14.087561054749928,0.46306988702149304,-1.5848680769469403,14.275642169326876,3.205956963509506
3.2337569642207247,14.125162437655515,0.2833908500807272,-1.6340422892923565,14.832873806436824,3.264120989565026
3.28115475242069,14.16166253281749,0.10547278297987814,-1.683851437617716,15.386770315879062,3.322569351656221
3.3287485249541997,14.197444231337608,-0.07255196355361825,-1.7348312988010066,15.943148219242351,3.3819326884942287
3.3760474639225793,14.232139137795729,-0.248852629226372,-1.786471229333973,16.496288492035585,3.441618137781502
3.42355232291122,14.266114761505994,-0.4253005131428516,-1.8393341286154017,17.05206589027662,3.5022778204558382
3.470971273760859,14.299156817612051,-0.6008123017515751,-1.8931186099282138,17.60708613826449,3.563564540476631
3.518307843653467,14.331270015736283,-0.7754071637513393,-1.9478435755053933,18.16140807588584,3.625502304547396
3.565807523697121,14.362616069180183,-0.9499916505812575,-2.003816810713209,18.717925998781872,3.6884385453210506
3.613083094659918,14.392938543054633,-1.12314630586182,-2.0606019063822436,19.272121184167336,3.751883493141241
3.660596299257292,14.422530537382352,-1.2965645784415953,-2.1187768635309947,19.82942517927725,3.816482894458078
3.707661583547207,14.450968118384282,-1.467750590946423,-2.1775185373844357,20.381812863607067,3.881325362082023
3.7550743604081456,14.478731742094697,-1.6396015278668696,-2.2378408095126328,20.938636835191357,3.9475313317684826
3.8022554567135107,14.505476080281603,-1.810018066617144,-2.299036436137224,21.493114442971766,4.014323266554917
3.8482906906429992,14.530718284332595,-1.9757258776590483,-2.359894358119119,22.034502923928265,4.080395221967216
3.8741081324948277,14.544504947589386,-2.0684123085328077,-2.3945306777645317,22.338293196932504,4.117850015177457
3.885401149314821,14.550451787731435,-2.1088996223185,-2.409797116341065,22.47121577553397,4.134325562091234
3.876235094839503,14.463841802278651,-2.2148451702033873,-2.40800777606267,22.67070867527145,4.133608946689152
3.8504109005988414,14.232073059690563,-2.4821492299544228,-2.4008196771274504,23.17040174827558,4.1289433703505205
3.823196754957391,13.978866728203569,-2.7622706679105073,-2.3935199387290167,23.704378211386082,4.12421774927008
3.7964291421736256,13.720541613836234,-3.036059468493715,-2.386626034579148,24.237125104232568,4.119770454593068
3.7736428608279082,13.493158650314736,-3.2676383283901917,-2.380989354725645,24.696621713251464,4.116149054738506
3.764257359329242,13.397451968977418,-3.36259824933944,-2.378731415223669,24.88750749088434,4.114702995937496
3.757445221763075,13.32722513728423,-3.4313589209886883,-2.3771163292646804,25.02665366886032,4.113670488638586
3.735257518559474,13.093980654256125,-3.654328584162307,-2.3719969819537376,25.483382239124268,4.110409365085864
3.709683127047921,12.81637675053183,-3.909337581317045,-2.3663714553380797,26.01658347262524,4.1068504227447455
3.6844230154496067,12.532694444434018,-4.158946605637882,-2.361115139098348,26.550450954756027,4.103555130935664
3.6604575533970087,12.254558553517457,-4.393512821300187,-2.356414516442288,27.06369503500697,4.100640361955341
3.6487655819880525,12.115605330723334,-4.507104501714633,-2.354225613672204,27.316502676637572,4.099296024699702
3.6432831436475417,12.050465454393642,-4.564565608356028,-2.353300697421332,27.43922341269219,4.098851676361722
3.6560674906653237,12.275154987194503,-4.849079083956769,-2.362823741392562,27.498475069026263,4.1159003968177075
3.68257021231104,12.736200841010707,-5.430391580594009,-2.3825244244155592,27.617550324159122,4.151138263390815
3.711182921286601,13.226940270840531,-6.045452985814406,-2.4037310072406393,27.74057850442868,4.189023973608259
3.7402444305794007,13.718149476625326,-6.657271337341284,-2.425203437239876,27.859865564460986,4.227338448587545
3.7700077527255385,14.21390252397678,-7.2708403236919565,-2.4471243568030454,27.97631917275564,4.266407383265727
3.8004248025589256,14.71312912780863,-7.8847189926802965,-2.4694532691988864,28.089570328349428,4.3061580025567565
3.831421974959949,15.214403943538525,-8.497067096112119,-2.492131420934176,28.199207027474184,4.34648545901668
3.8631157233207127,15.719385021144923,-9.109818877805086,-2.5152390639168045,28.30549955143555,4.387532180159549
3.8956570271299267,16.230167205924722,-9.725378761718703,-2.538880247453994,28.408749797674584,4.429482232719417
3.9287127486671345,16.74128266511625,-10.3370602404011,-2.5628075443352443,28.507754161596008,4.471896244500795
3.9625892061574195,17.25724709313313,-10.95018161372948,-2.5872373211748316,28.603300214743054,4.515157541965364
3.9969952319524737,17.773408184503943,-11.559131041431614,-2.611954161777405,28.694441694223357,4.558884458042786
4.0315969676368955,18.28475752026486,-12.158039851437238,-2.6367153588730354,28.780334042721993,4.602648571187384
4.056009842291522,18.640990816931293,-12.572695478144016,-2.6541273971977266,28.837573605108112,4.6333996146954775
4.036932337010752,18.711869404767107,-12.654217261237056,-2.6419463054837182,28.849083699136763,4.612326542842627
3.675413567235392,18.732928506011447,-12.668147067666082,-2.4057174621506734,28.85782134166127,4.201915069458219
3.1124722278914443,18.761765305294052,-12.687205440335786,-2.037651250703085,28.869741679597716,3.5627698346754184
2.5397980740696413,18.786172127970246,-12.703331179432325,-1.6629879039642967,28.879870993767437,2.9125023689145086
1.966905143862625,18.805625150331906,-12.716174996057344,-1.287987215792894,28.887922847560358,2.261925461937035
1.393939813113305,18.820126401888867,-12.72574829581061,-0.9127895743752814,28.893945672027385,1.6112201620147302
0.8209799154420729,18.829679416126563,-12.732052734030727,-0.5374892234894689,28.89790846256518,0.9604878548498056
0.24788739984069072,18.83429019176594,-12.735097480998267,-0.1620389852740394,28.89983933183,0.3095854645291395
-0.32607614902013565,18.83395267549103,-12.734873240669774,0.2139999552028828,28.899683189121145,-0.34231201361885444
-0.8984499319561021,18.82867901199946,-12.73139568126721,0.5889737543109052,28.89750929657668,-0.9923964183908572
-1.4727173023074385,18.818429049810092,-12.724629589691226,0.9651176747800675,28.89323835681675,-1.6446095391449658
-2.0471687705902437,18.803202961616293,-12.714580792146572,1.3412713583382474,28.886936934997138,-2.296997359648655
-2.620101572306297,18.7830540649595,-12.70127381652152,1.716271959603136,28.878566767671686,-2.9476108479697993
-3.19361475203127,18.757912343978916,-12.68466624444209,2.0914552797558987,28.86816779579468,-3.598822387109957
-3.7400453975864143,18.729316968981745,-12.665762871575435,2.4486920677682256,28.85631665645457,-4.219210424159382
-4.038814180542677,18.711763765546362,-12.654158131528458,2.643913231959321,28.84908450207457,-4.558384991974573
-4.063097678847739,18.716544983290365,-12.532891094222329,2.656551918812372,28.722056585711726,-4.579255077889666
-4.071339163729445,18.736898057372372,-12.06909120743897,2.6497525868048064,28.238043319044518,-4.563066209293311
-4.08067376558431,18.753850791552573,-11.541993276932978,2.6424573986073496,27.6941447453127,-4.54510932778454
-4.090095427743268,18.76454509846619,-11.008124033653136,2.6355154712100406,27.149728402368947,-4.527375948138441
-4.099605802035478,18.768961134906448,-10.467402790111718,2.6289213502665287,26.604733600882827,-4.509856279924944
-4.109117223656422,18.76712389345501,-9.924851220304317,2.6227262949349663,26.064155917185932,-4.492700225192601
-4.118610076892459,18.75920657892067,-9.381654041750654,2.616927409074595,25.529006879540596,-4.475925987359354
-4.128113694508384,18.745339604957675,-8.836193258448414,2.611492545416925,24.997538757036374,-4.45946594796388
-4.1375748554161795,18.725773019696657,-8.29158751435924,2.6064373304726063,24.472619721936912,-4.443396079880242
-4.14697448279914,18.700777573804185,-7.749013663370702,2.6017540263703878,23.955155956204432,-4.427729935877735
-4.156056933130815,18.671488400817402,-7.223365538058501,2.5975390842575794,23.458903534518257,-4.412863597380703
-4.1602877664713205,18.65670637558237,-6.980356146985232,2.595711018827569,23.230722631972355,-4.406112524449421
-4.176508280374252,18.883996913660543,-7.242067821600201,2.606477282357545,23.264387598722642,-4.425083960810516
-4.212176080899195,19.378182569351644,-7.808234143251543,2.6300998267837885,23.334697561453016,-4.466664141818055
-4.250985490308389,19.90736170707393,-8.410139772559607,2.6557227705642026,23.405593826844296,-4.511696314263301
-4.290617042918227,20.438861030728127,-9.010141558020115,2.6818028404647927,23.472214034564132,-4.557460063177616
-4.331260778929592,20.974905062368315,-9.610649293462693,2.708459843779995,23.53473354906464,-4.604163321157773
-4.360719193484373,21.357879879409374,-10.036829077077535,2.727724785587537,23.576520630483564,-4.637870869427325
-4.3447238231589225,21.41218712837129,-10.096485270967435,2.7178583343208165,23.58260968323035,-4.621054057066418
-3.998996495261133,21.168789916753408,-9.817021875362862,2.5014437229472666,23.562031898294023,-4.249797151357207
-3.4791752506385647,20.79637778121682,-9.389150976827121,2.1760175799577643,23.52741150721834,-3.691912390115707
-2.958110670684327,20.415118573596168,-8.950706844418937,1.84981301861823,23.48819705513698,-3.133123709370658
-2.433363268256113,20.022896635324535,-8.4991472588425,1.5213517109394465,23.44400676467238,-2.5708781596812704
-1.9152426186486677,19.627264505722863,-8.043063943709269,1.197135590718904,23.395608655728346,-2.016277151713238
-1.4068330028203864,19.230745058895085,-7.585284042078765,0.8791380036723929,23.343375259559604,-1.4726560049072879
-0.9002699122383614,18.82725748724269,-7.118697908199748,0.5624827076614646,23.286516301403463,-0.9316466282692759
-0.39741324381259485,18.418187759953234,-6.644805155886164,0.24837686741922585,23.225171585775968,-0.3952877883163507
0.1031898691026469,18.002263926732248,-6.162027290077389,-0.0640434803741129,23.159098321459794,0.1379176165948643
0.5286843970348938,17.641740867171503,-5.742735198095366,-0.32933466159737856,23.09888945297943,0.5904828836107234
0.7255671996271333,17.472697144681774,-5.545863298017288,-0.452003441503977,23.06975642524001,0.7996844640236304
1.1662765096739294,17.089092403075348,-5.098432016638166,-0.7263625797837019,23.00148907556592,1.267445189668526
1.6618396714570343,16.6489432966616,-4.5838513726102015,-1.0344698506744523,22.91961001630231,1.7925254961077617
2.154673643503161,16.20171095804685,-4.059619792566132,-1.3404112773896462,22.83263184730931,2.3136927252358546
2.6344515063039475,15.756940506767798,-3.5368461946141445,-1.6377504128761906,22.742457986293495,2.8199982534469554
3.1026617453116367,15.313691765502755,-3.01439030394429,-1.9274017358010065,22.649045578613364,3.313017655492893
3.5603463518783003,14.87135820967407,-2.491502503389839,-2.2100114715918737,22.55242062212924,3.7938634478150592
3.8555922523684414,14.581136456830425,-2.1475801187186225,-2.3920081325382476,22.487168529767334,4.103423453197069
3.881677439588857,14.51164008392135,-2.158361731099881,-2.409559603681505,22.56630997690048,4.134622766765465
3.858480687347572,14.305361027507685,-2.398788416722638,-2.4030443820657283,23.013573947576393,4.130391543994842
3.8311449600262772,14.053773741951835,-2.6806527503427056,-2.395627458375471,23.547678676789626,4.125585841354133
3.8043293122473933,13.7977458507011,-2.95546011981802,-2.3886358853964653,24.079149556791364,4.121070427004166
3.778668585863796,13.543900477450174,-3.216701020191516,-2.382219189676544,24.59483927690259,4.1169430910908575
3.765870040640024,13.41397108758368,-3.3463148382115007,-2.379122047772227,24.854681675047708,4.114958186710204
3.75938739003096,13.347300754333004,-3.4117837138842373,-2.3775800924937354,24.98697196944837,4.113972024090268
3.7426730299364066,13.172698532503775,-3.579994569483735,-2.373688999430629,25.330173156863427,4.111490319901078
3.7171143931595365,12.8980138598777,-3.8354806389327023,-2.3679804119541754,25.860933313774172,4.1078704926622684
3.691703900548048,12.615437468795665,-4.08725288001935,-2.3626042336748028,26.39586298256171,4.104490434222095
3.6667888313805514,12.328895118101046,-4.331776332809096,-2.3576339333554084,26.927493583797943,4.101398288505583
3.6503698696191003,12.134792242065675,-4.491561171245502,-2.3545270900494333,27.281750787823334,4.09948582142829
3.6436614744271427,12.054256851550349,-4.556520355601205,-2.353297209065498,27.42739569860395,4.098733937230198
3.4749291242652456,12.057812536150028,-4.568823729810978,-2.244697918158032,27.44285922688316,3.910791538180993
2.992919414120092,12.083225987364298,-4.58787403230743,-1.9336572392579354,27.453929546863083,3.3723699988764917
2.4481887821420627,12.107368359452577,-4.605963928317246,-1.5819437216158798,27.46445812097886,2.763804259627468
1.9059464867052858,12.126586049340501,-4.62035455240973,-1.231663017429695,27.47281460400917,2.157944488445943
1.3611324384088028,12.141067396470325,-4.631198419685118,-0.8795867742208551,27.479140828600304,1.5491569215512326
0.8189628216265513,12.150680254048588,-4.638395552532247,-0.5291230882482366,27.483344412094333,0.9432841365802197
0.27652075705718143,12.155512492595546,-4.642013717569695,-0.17842538231720803,27.485462602650188,0.3370827675865667
-0.26733772243532106,12.155552896292063,-4.642041667518606,0.1732070633959063,27.485458135206674,-0.2707106591224301
-0.8109475983115945,12.150788057300595,-4.638476949193251,0.5246604118564403,27.483387907876672,-0.8782173555196128
-1.354479042036164,12.141217040315935,-4.631314122863752,0.8760058379677771,27.479220895215036,-1.4856126144398034
-1.8965822283714764,12.126879401415328,-4.620577116206166,1.22633091195262,27.47294460445037,-2.0913723888799636
-2.440333899899874,12.107685118409163,-4.606203312466795,1.5775888022533873,27.464585442870373,-2.698918009140516
-2.985560719345764,12.083589879580641,-4.5881517583198645,1.9296261890991606,27.454095154589574,-3.308039638450688
-3.462704308131811,12.058510829983708,-4.5693539901715585,2.237530874039258,27.44317874044609,-3.841027286999011
-3.6433442368628612,12.048462202035005,-4.560369843058218,2.3540164345388113,27.437052644753297,-4.042716876753898
-3.650500917716618,12.114564003237795,-4.378725029644777,2.353369863655993,27.189223655048643,-4.039243573815114
-3.665595745151475,12.249038100871243,-3.994482374401509,2.352238176036455,26.670330392656222,-4.032112898613455
-3.6814216787963425,12.382973733229047,-3.590079538357662,2.351379594114036,26.131802978343696,-4.024910684996364
-3.6974731105467433,12.511639098366661,-3.178392384582347,2.3508391089598564,25.591254929359632,-4.017879195217143
-3.713657123080076,12.634244729697519,-2.7618508822178565,2.350618587835382,25.05190685404781,-4.011055483610935
-3.7299167043275983,12.75041593260721,-2.3419899406852354,2.350713134371804,24.515669158011434,-4.0044562832142425
-3.746483223716233,12.861754937313217,-1.9128816662705674,2.3511235012537215,23.97500882863216,-3.997984444695501
-3.763162237290356,12.966884338468349,-1.479605966886486,2.351845350506533,23.436385705434937,-3.9917134705996813
-3.7799945809300306,13.066092066912157,-1.041164238326616,2.3528766247505537,22.898512796266335,-3.985622054495913
-3.7956857638942547,13.152512696987253,-0.6314551138676368,2.354102456874039,22.4021717770132,-3.9801482090212397
-3.8020102154590885,13.18572759325933,-0.4660643739110154,2.354666733652064,22.203480209513867,-3.9779956774626783
-3.8074471126685703,13.265203954900661,-0.5329776772940596,2.357815676138968,22.19070979469313,-3.983160731428475
-3.831035993006621,13.655426655977587,-1.0148352950161093,2.3739426558027428,22.281316946165596,-4.012086915390961
-3.8613163178235994,14.149455139443935,-1.6215135515777044,2.3945975372352013,22.392640189276467,-4.0490746195942835
-3.8804941879165646,14.458439527309213,-1.9990369128966161,2.4076519286531437,22.46033482246191,-4.072418003622616
-3.8859670833141684,14.548251206519726,-2.114773468862798,2.411491064791604,22.48601217326622,-4.079375602043893
-3.8708786661923322,14.41555069524696,-2.2714417760249046,2.4072089810325603,22.77574496335003,-4.076596331601074
-3.843868644259177,14.17108201740981,-2.5507375464539788,2.399755535699111,23.300157103541558,-4.071767308046674
-3.816791709133446,13.91683956105145,-2.8290935608291674,2.3925655438853117,23.833399811898722,-4.0671226250788015
-3.790147807577056,13.657398656717465,-3.1012358391811663,2.385776745029726,24.365611879220825,-4.062753735419224
-3.7694197773747877,13.449008011092701,-3.3116326593522545,2.3806987436785048,24.784885061364463,-4.05949955819103
-3.761405183929046,13.366859374831353,-3.3926535186180473,2.378784330388992,24.94824151980096,-4.058276421659569
-3.752693649514329,13.276556648540625,-3.4805021505481477,2.3767350109180705,25.126595561265514,-4.05696963848014
-3.7290014779570524,13.025551604033577,-3.7182182765649476,2.371331298740673,25.615865089941497,-4.053538383547831
-3.7035271895498934,12.746615918782982,-3.971730300279675,2.365806047943192,26.1488976512855,-4.05005655060679
-3.6783757045855383,12.46172684464706,-4.219737017175995,2.3606514272508745,26.682365947646197,-4.046839716987829
-3.6560562732852806,12.200721638251704,-4.4378075278856945,2.3563701753298574,27.161938372996087,-4.04417550502762
-3.6464756674589083,12.08630581481721,-4.530765830411393,2.354595276094158,27.369527543925877,-4.043090320547962
-3.644517178181346,12.06952389684143,-4.5887379625901294,2.354925271897154,27.444298271706252,-4.044364507989914
-3.662127282183778,12.378458723544421,-4.9796293943418695,2.3680384214254366,27.52546604693982,-4.067836765657011
-3.6896659540511965,12.85593210894303,-5.580814992526135,2.388495601152093,27.64793871426707,-4.104417436709114
-3.7183835722645187,13.346715681848666,-6.195000160114987,2.409764399796389,27.770039963789603,-4.142403146423748
-3.747611453403137,13.838970805490188,-6.807176797425307,2.43134352577514,27.88862995268217,-4.180897008117391
-3.777512336193315,14.335227360276399,-7.420405926750624,2.453348720225339,28.0042319520633,-4.220105232653901
-3.8080627704524095,14.834839849965704,-8.033780717777091,2.475757733814902,28.116585179131846,-4.259987664780414
-3.8392682949517543,15.337658069976193,-8.64701657864079,2.498569632553444,28.2255544690184,-4.3005422529779604
-3.871155915172252,15.843873045094837,-9.26024511603999,2.521798971076008,28.331078607297332,-4.341794485316308
-3.903776456060071,16.354027552299133,-9.87401222938022,2.5454772099895058,28.43315775672429,-4.383799749080693
-3.9371872176879052,16.868725389974486,-10.488917897746262,2.569639885377766,28.531784762513425,-4.426620463056755
-3.9712911094637824,17.386200810208628,-11.102739431168448,2.5942108023195627,28.62650664314894,-4.47012111551739
-4.005518159492618,17.89777257478738,-11.705199975834718,2.618776056287225,28.71575460312045,-4.5135697325952195
-4.039433693391573,18.397246108589528,-12.289214779879144,2.643024613778689,28.79865944849665,-4.556418727240516
-4.058946927520434,18.681347340798,-12.619545882751064,2.656934039142949,28.843943071890127,-4.580980618468751
-4.0625483369594155,18.7150104008833,-12.563615744470846,2.657000141643828,28.75428018232225,-4.580323280649502
-4.070427804261171,18.734900855691244,-12.12031625140065,2.6504706638250353,28.29122422665945,-4.564818623212964
-4.07958430625232,18.752202881430417,-11.603471607052354,2.6432702721538233,27.75722741000067,-4.5471631103626216
-4.085412295373436,18.760026068869823,-11.273582585463515,2.638897409209174,27.419607430339454,-4.536120903213189
-4.089641702554028,18.764175734582995,-11.03374047174853,2.6358236797943047,27.17568109813402,-4.528199724734882
-4.093117466708923,18.766635096366198,-10.83636382557396,2.6333593075130524,26.97589796218517,-4.521746860959594
-4.0961829212464425,18.76809915851592,-10.66208617814661,2.63123132510483,26.800202212429003,-4.516097552604299
-4.09793939403554,18.76864237746217,-10.562142870432572,2.6300310130323834,26.699741740959904,-4.512877985626391
-4.101825512193782,18.769084388398483,-10.340807368563478,2.6274240080096765,26.478021161730798,-4.505799336994837
-4.1105273347628755,18.76632548898076,-9.844134420763805,2.6218247895745366,25.984231128039273,-4.490166055914229
-4.119956173762142,18.75759589791254,-9.304360012797156,2.6161193842892887,25.45331547166579,-4.473554122767157
-4.129348498804285,18.743103600880435,-8.765070573785069,2.610797086183616,24.928641848604872,-4.457330716767678
-4.138789290739502,18.722845432459696,-8.221437952964022,2.6057978259719787,24.405386628765985,-4.44133550371487
-4.148250784247419,18.696973063980316,-7.675423910880661,2.6011651009993466,23.885357193135693,-4.425640365691946
-4.156999350719757,18.66817611088503,-7.168945725541562,2.59714023646213,23.407778100986373,-4.411351027239138
-4.160788694613597,18.663699902585435,-6.988418354710303,2.596061264613953,23.23173946382316,-4.406704358344931
-4.181028849854803,18.94700397872834,-7.314466881937151,2.609492674402686,23.27353991528972,-4.4303695838397354
-4.217261586479545,19.44797563359393,-7.887873813057733,2.633479670828314,23.344276522694575,-4.4725828601548825
-4.256175149866017,19.977415397088592,-8.489479896230174,2.6591603115213065,23.414605983298433,-4.517707090109041
-4.296029866062767,20.510721816558302,-9.090910788176421,2.6853756377506053,23.48083579120843,-4.563698637781686
-4.336258127928723,21.04014878522993,-9.683418356375595,2.7117487522927495,23.541990286828238,-4.609895375278472
-4.362702296170301,21.383448464399105,-10.065194312095311,2.729037480211719,23.579192970177456,-4.640141256372459
-4.313620179953574,21.405773506446288,-10.088488258061968,2.698441039303933,23.58244240652913,-4.587737376399417
-3.906834984884121,21.23860263284324,-9.892087635772953,2.444045994872431,23.57113058226768,-4.151564196201361
-3.336052142646859,20.998819207810275,-9.611677687367417,2.0869982164345298,23.552661384705363,-3.5398059532059274
-2.7648846307702035,20.75267627941378,-9.325280549139352,1.729643276278042,23.531078723002494,-2.927967445609719
-2.16165528451535,20.48585669097389,-9.016312376299362,1.3522080952068287,23.504821980373972,-2.282181721990806
-1.617293771374497,20.238912870524086,-8.731601411961641,1.0116323553300341,23.47806843369452,-1.6997930223652666
-1.0534127469975152,19.976829401567084,-8.430600409695122,0.6589160643519916,23.447211971190423,-1.096931900514881
-0.49380440661593744,19.71028563309201,-8.125575661991315,0.3089893505215304,23.413365619009937,-0.4990848873066619
0.06432811721123305,19.437918107467482,-7.814899413430739,-0.03985100049014673,23.376314567386785,0.09670374865016768
0.6155655568931934,19.162390215404642,-7.50154462593436,-0.38418080381717806,23.336491224656143,0.6846338204724393
1.1700109558835374,18.878579436818896,-7.179621312915378,-0.7302662208579411,23.29310063512877,1.2754450739341736
1.7189851263632925,18.59083014749143,-6.853997908661389,-1.0726464933980993,23.24677417185954,1.8598547988418055
2.267432691259892,18.29651571959407,-6.521633161103083,-1.4143655017060917,23.197080230247437,2.4430974214921393
2.810022522363937,17.998468417126887,-6.185654984590028,-1.752063059998926,23.14448833130335,3.019474245776201
3.353982364491486,17.69264991502041,-5.841442030301188,-2.090197743516179,23.088266074607493,3.596629734987333
3.8562044753438998,17.403918737692237,-5.516861303476529,-2.401978896164065,23.033178340963012,4.128861013272936
4.0643599667042505,17.280934911353892,-5.381883848488482,-2.5311320846610887,23.0124117485955,4.349405473099426
4.049127296137768,17.154607729593774,-5.527938417780164,-2.526795113178427,23.285186196574237,4.346275702615448
4.0201719065643235,16.907617633286897,-5.804666399224501,-2.5187751884901277,23.809646146019695,4.340489401421172
3.9908118757423843,16.6477286069765,-6.083916652602806,-2.510953313293494,24.34953141015721,4.334849611924485
3.9624372410334963,16.38720652369772,-6.352345973750156,-2.5037027928226183,24.879197652614746,4.3296277152362705
3.9463458372934497,16.235254925725762,-6.503877531113864,-2.499730616227646,25.183083479276956,4.326770528787315
3.9389121638155165,16.164008552050444,-6.5736984043657465,-2.497930581402524,25.324336073758303,4.3254768423998335
3.9238614193479284,16.017695135897227,-6.714694737523845,-2.4943550249651305,25.612019776642896,4.322909459151389
3.8965436656701513,15.744930523073627,-6.9692733540611975,-2.4881067551926743,26.14003719381405,4.318432358060802
3.8690072529593866,15.460321011086156,-7.223999859662394,-2.4821345658186953,26.68004674286905,4.314167953719021
3.8420050990952888,15.171501108100903,-7.4717662163670475,-2.47660922198429,27.217287435068126,4.310240515996985
3.8165597386865535,14.89022676834712,-7.703255067572341,-2.4717145751569536,27.73066174123569,4.306781046487502
3.804804019073159,14.757216176554856,-7.809504291524502,-2.4695589263248396,27.970202027194226,4.305265015646536
3.789669739530797,14.693591323588384,-7.860477227749757,-2.4623769136535856,28.08534072932562,4.293846066248421
3.4875390276688307,14.710975025214823,-7.872895214514683,-2.2663396338879442,28.09277785373372,3.953871282998393
2.953227628473428,14.738163153727985,-7.892301984665213,-1.9194682274199362,28.10436103811577,3.3525615243292965
2.3984527734410332,14.76160110106677,-7.909027576041448,-1.5591026301948554,28.114384585593214,2.7281456219475144
1.8412463782751864,14.780238254948623,-7.92232237575418,-1.196981236898194,28.122362989367996,2.1009269107406627
1.28621664405107,14.793924799660767,-7.932079422605111,-0.8361391912635314,28.128197241226925,1.4761064865776812
0.7308641677646408,14.802754660697966,-7.938375926141207,-0.4749935784014435,28.13198709145104,0.85088892628266
0.17528934278683672,14.806722779980847,-7.941205907876238,-0.11364968244450933,28.13369453450348,0.22540081804302387
-0.3799422272111229,14.80582731966499,-7.940566115550737,0.24748322182900795,28.13329540868724,-0.3997062498302065
-0.9368367321268921,14.800049104198509,-7.936449207518649,0.6096705965704755,28.130835630587146,-1.0266744744430805
-1.4924180174713588,14.789410287747822,-7.928862482529947,0.970933784627903,28.12626484806486,-1.6521388868327471
-2.0464736316907333,14.77394840461967,-7.917838326923671,1.3310977697408126,28.119665143146644,-2.275844812513077
-2.603135995229546,14.753526361107406,-7.903272151935666,1.6928064948151147,28.110949812601664,-2.9024291854606017
-3.1606088034196076,14.72815450931066,-7.88516339025663,2.0548475536852404,28.100095491366844,-3.5298536965797322
-3.638757876010627,14.702462546027279,-7.866820422311368,2.3651912231227743,28.08913943577798,-4.067932377679754
-3.7994229536108635,14.693187743622671,-7.855089215289261,2.469310853394303,28.079969536965304,-4.248466999823842
-3.803660098064356,14.701629172994734,-7.580172791094861,2.4655837492576436,27.796693231475746,-4.23941520975476
-3.8115960336638053,14.712906795580844,-7.063682692121241,2.4588816162319618,27.26907446433279,-4.222714039192553
-3.819779675226339,14.718459738122629,-6.5289536119250355,2.452339343436232,26.72894108531424,-4.2058237094658
-3.8280017100698185,14.717959297942645,-5.98960779902142,2.446130544859157,26.190240219992315,-4.189179166032848
-3.836144938426996,14.711586486537152,-5.453403351972268,2.440328635737592,25.66054715691017,-4.173001468417943
-3.8442981146604263,14.699472775597519,-4.91457444517048,2.4348541928056573,25.133966382526665,-4.157097224387219
-3.8525034534262783,14.68161392964747,-4.370359660446135,2.4296714267602764,24.60774156885032,-4.141374760614758
-3.860714520709531,14.658172008622534,-3.8238673092519484,2.4248023904528795,24.084818381512378,-4.125913888152809
-3.868900582631342,14.629372950656276,-3.277197002600189,2.4202539654490884,23.567070223083945,-4.110759870701177
-3.8770939569077574,14.595235460234953,-2.72824181632971,2.4159975291977323,23.052372146576445,-4.09584093614157
-3.8843302689117216,14.560755046386296,-2.2419498436250054,2.4124772260776397,22.600663396175037,-4.082863007358767
-3.8876083956302447,14.572318295345983,-2.137804691388518,2.412485734046728,22.48492274454849,-4.081053529062214
-3.9075370515088954,14.889141010716118,-2.522808445852881,2.4260206344091446,22.552221705717805,-4.105219622024412
-3.9393503927237186,15.388488144469843,-3.1264445479823952,2.447579915850259,22.655095320405422,-4.143658359442165
-3.9722465987148223,15.896763172327317,-3.736872573685174,2.469811899606187,22.75577545111085,-4.183228308187348
-4.006153887280608,16.412345166971452,-4.351935699088671,2.492662253744211,22.85372853835131,-4.223829161704612
-4.039870092935963,16.916915710201966,-4.949809199654051,2.5153186272296733,22.945502120910053,-4.264017871450758
-4.061229549804406,17.232497501720676,-5.3217018516414365,2.529638048465805,23.0008389952346,-4.289384512024274
-4.06462096642647,17.282320495406278,-5.3802710983911055,2.531909275595198,23.00943023669752,-4.29340560763773
-4.06462096642647,17.282320495406278,-5.3802710983911055,2.531909275595198,23.00943023669752,-4.29340560763773
-4.06462096642647,17.282320495406278,-5.3802710983911055,2.531909275595198,23.00943023669752,-4.29340560763773
-4.06462096642647,17.282320495406278,-5.3802710983911055,2.531909275595198,23.00943023669752,-4.29340560763773
-4.06462096642647,17.282320495406278,-5.3802710983911055,2.531909275595198,23.00943023669752,-4.29340560763773
-4.06462096642647,17.282320495406278,-5.3802710983911055,2.531909275595198,23.00943023669752,-4.29340560763773
-4.064616101518227,17.282311259920032,-5.380247581713743,2.5319062407014252,23.00937412130552,-4.293400464657584
-3.977654602032536,17.117224542487065,-4.959880860615644,2.4776567255831505,22.006296901977255,-4.201468357605927
-3.890672680528884,16.952099056128443,-4.539415420696237,2.4233944705215835,21.002984120232167,-4.109514661240007
-3.80354462329642,16.78669614737126,-4.118243569347406,2.3690410510656985,19.99798570264398,-4.017406476214796
-3.691431293810336,16.573861483125572,-3.5762943965964187,2.299100976447779,18.704788972416956,-3.8988848928797695
-3.542696273627952,16.291504619519785,-2.8573181471492024,2.206315056543894,16.98917101109342,-3.7416483700667404
-3.3939884552733157,16.009199395553114,-2.1384733897209327,2.1135461060572145,15.273866815446631,-3.5844406039029786
-3.2443394280805133,15.725107391477655,-1.4150788846973656,2.020189997766248,13.547706032117034,-3.4262378306133034
-3.095785217043308,15.443093773888043,-0.6969766559139221,1.9275168727027567,11.834173655053739,-3.2691924517638538
-2.946585400141723,15.159854545498984,0.02424639325481723,1.8344409969357098,10.113194390125658,-3.1114645650484123
-2.797625785633039,14.877071314589248,0.7443083183295546,1.7415149675193138,8.394985794399137,-2.953990610385992
-2.648778609108805,14.594501534665032,1.4638267248687367,1.648659080708248,6.678074140209457,-2.796635520518732
-2.499489128528846,14.311092089772998,2.1854832029307523,1.5555272697157931,4.9560606291643,-2.6388128450642783
-2.3507279647603996,14.028685595482015,2.9045858289194952,1.4627250405615415,3.2401411086937095,-2.481548684331401
-2.2014113257869163,13.745224593405892,3.626373589042005,1.3695762872476134,1.5178143329737348,-2.323697298144547
-2.0522675936767847,13.46209183574438,4.347325527661526,1.2765353990642652,-0.2025180091552912,-2.16602870195517
-1.9036997760264576,13.18005238751582,5.06549353000427,1.1838537857367877,-1.9162073347962354,-2.008968938756076
-1.75463015561634,12.897060322659184,5.786087217069778,1.0908591309304412,-3.6356848186441915,-1.851378690396253
-1.605445110794591,12.613849137417771,6.507238858882376,0.997792470484808,-5.356493691653402,-1.6936664201137495
-1.4565028299722431,12.331098812580207,7.227216993947365,0.9048772544063204,-7.074502348027524,-1.5362107899089028
-1.307459323223216,12.048156321599537,7.947684449126884,0.8118988901821339,-8.793678617904837,-1.3786481478334824
-1.1585978887286528,11.76555947450729,8.6672717778474,0.7190341087684967,-10.510754733900201,-1.2212779850286306
-1.0095835401846236,11.482672337129973,9.387598283996596,0.6260739344156006,-12.229594671821841,-1.063746167803738
-0.8604947351724217,11.199643852443847,10.108284708288592,0.5330673116077022,-13.949293444831397,-0.9061356382746282
-0.7112042695884511,10.91623253763145,10.829945947801471,0.4399348861365374,-15.671318317629641,-0.7483119215145987
-0.5624248768569717,10.633791437685236,11.549136691514315,0.3471212851405915,-17.387448104225573,-0.5910284898745856
-0.4135700713597998,10.351207175005925,12.26869197605535,0.25426063911901053,-19.104447756540928,-0.4336653349720974
-0.286063198352382,10.109149583549598,12.885052623475183,0.17471755308887604,-20.575204820045432,-0.298870332948603
-0.19920355620014824,9.944256230915148,13.304926972275904,0.12053158000913565,-21.577107142765232,-0.20704590526469902
-0.11231317766013045,9.779304528673169,13.724949898948758,0.06632643253447756,-22.579364001349454,-0.1151889843405811
-0.02544264961341296,9.614390510380957,14.144876869516553,0.01213366846676126,-23.581391889898192,-0.023353048538452874
-0.004177788253871915,9.574021540442814,14.247669945730546,-0.001132068953075306,-23.826676275840036,-0.0008727150287297865
-0.004177788253871915,9.574021540442814,14.247669945730546,-0.001132068953075306,-23.826676275840036,-0.0008727150287297865
-0.004177788253871915,9.574021540442814,14.247669945730546,-0.001132068953075306,-23.826676275840036,-0.0008727150287297865
-0.004177788253871915,9.574021540442814,14.247669945730546,-0.001132068953075306,-23.826676275840036,-0.0008727150287297865
-0.004177788253871915,9.574021540442814,14.247669945730546,-0.001132068953075306,-23.826676275840036,-0.0008727150287297865
-0.004177788253871915,9.574021540442814,14.247669945730546,-0.001132068953075306,-23.826676275840036,-0.0008727150287297865
-0.004177788253871915,9.574021540442814,14.247669945730546,-0.001132068953075306,-23.826676275840036,-0.0008727150287297865
-0.004177788253871915,9.574021540442814,14.247669945730546,-0.001132068953075306,-23.826676275840036,-0.0008727150287297865
-0.004177788253871915,9.574021540442814,14.247669945730546,-0.001132068953075306,-23.826676275840036,-0.0008727150287297865
-0.004177788253871915,9.574021540442814,14.247669945730546,-0.001132068953075306,-23.826676275840036,-0.0008727150287297865
-0.004177788253871915,9.574021540442814,14.247669945730546,-0.001132068953075306,-23.826676275840036,-0.0008727150287297865
-0.004177788253871915,9.574021540442814,14.247669945730546,-0.001132068953075306,-23.826676275840036,-0.0008727150287297865
-0.004177788253871915,9.574021540442814,14.247669945730546,-0.001132068953075306,-23.826676275840036,-0.0008727150287297865
