RAMEL-ESPOL/ARCHIE/matlab/data/joint_goals_square_t0_h20_p21.txt
Joint0,Joint1,Joint2,Joint3,Joint4,Joint5 
0.004833812085927946,-0.003926612817382389,-0.004711370248872505,0.00046815224609377703,0.005271880238218001,0.0013970839599508687
0.004833812085927946,-0.003926612817382389,-0.004711370248872505,0.00046815224609377703,0.005271880238218001,0.0013970839599508687
0.004833812085927946,-0.003926612817382389,-0.004711370248872505,0.00046815224609377703,0.005271880238218001,0.0013970839599508687
0.004833812085927946,-0.003926612817382389,-0.004711370248872505,0.00046815224609377703,0.005271880238218001,0.0013970839599508687
0.004833812085927946,-0.003926612817382389,-0.004711370248872505,0.00046815224609377703,0.005271880238218001,0.0013970839599508687
0.004833812085927946,-0.003926612817382389,-0.004711370248872505,0.00046815224609377703,0.005271880238218001,0.0013970839599508687
0.004833812085927946,-0.003926612817382389,-0.004711370248872505,0.00046815224609377703,0.005271880238218001,0.0013970839599508687
0.004833812085927946,-0.003926612817382389,-0.004711370248872505,0.00046815224609377703,0.005271880238218001,0.0013970839599508687
0.004833812085927946,-0.003926612817382389,-0.004711370248872505,0.00046815224609377703,0.005271880238218001,0.0013970839599508687
0.004833812085927946,-0.003926612817382389,-0.004711370248872505,0.00046815224609377703,0.005271880238218001,0.0013970839599508687
0.004833812085927946,-0.003926612817382389,-0.004711370248872505,0.00046815224609377703,0.005271880238218001,0.0013970839599508687
0.004833812085927946,-0.003926612817382389,-0.004711370248872505,0.00046815224609377703,0.005271880238218001,0.0013970839599508687
0.004833812085927946,-0.003926612817382389,-0.004711370248872505,0.00046815224609377703,0.005271880238218001,0.0013970839599508687
0.004833812085927946,-0.003926612817382389,-0.004711370248872505,0.00046815224609377703,0.005271880238218001,0.0013970839599508687
0.004833812085927946,-0.003926612817382389,-0.004711370248872505,0.00046815224609377703,0.005271880238218001,0.0013970839599508687
0.004833812085927946,-0.003926612817382389,-0.004711370248872505,0.00046815224609377703,0.005271880238218001,0.0013970839599508687
0.004833812085927946,-0.003926612817382389,-0.004711370248872505,0.00046815224609377703,0.005271880238218001,0.0013970839599508687
0.004833812085927946,-0.003926612817382389,-0.004711370248872505,0.00046815224609377703,0.005271880238218001,0.0013970839599508687
0.004833812085927946,-0.003926612817382389,-0.004711370248872505,0.00046815224609377703,0.005271880238218001,0.0013970839599508687
0.004833812085927946,-0.003926612817382389,-0.004711370248872505,0.00046815224609377703,0.005271880238218001,0.0013970839599508687
0.004833812085927946,-0.003926612817382389,-0.004711370248872505,0.00046815224609377703,0.005271880238218001,0.0013970839599508687
0.004833812085927946,-0.003926612817382389,-0.004711370248872505,0.00046815224609377703,0.005271880238218001,0.0013970839599508687
0.004833812085927946,-0.003926612817382389,-0.004711370248872505,0.00046815224609377703,0.005271880238218001,0.0013970839599508687
0.004833812085927946,-0.003926612817382389,-0.004711370248872505,0.00046815224609377703,0.005271880238218001,0.0013970839599508687
0.004842419695683462,-0.003913155062446475,-0.0047266927363290205,0.0004681527517886157,0.005273745041069581,0.0014056915544083596
0.14314070255821112,0.21149133287668118,-0.24966717598472868,0.00047219998166444556,0.034839707506213534,0.13973317169052069
0.4416481146903583,0.6708739629402503,-0.7699563006600882,0.00047264827175226033,0.09586399049536001,0.4383579082206311
0.7517724154916076,1.1402625883092825,-1.2986516623066648,0.000472524489378046,0.15528843611677312,0.7485994595940223
1.0718613856330415,1.616545960483834,-1.8320978589806753,0.00047165400884900693,0.21256898959113066,1.0688057386251681
1.3995550855646994,2.0957626477634697,-2.3657736897100214,0.00046986786739693505,0.26714578972864234,1.3966167506149905
1.7354261355092457,2.578377664776428,-2.9001471800921297,0.00046713999860929133,0.31902188893366795,1.732605168320495
2.0772374997967806,3.0608745257559042,-3.431305008686281,0.00046331821493523253,0.3678004203909431,2.0745339625576915
2.4287155535320704,3.5481627244277596,-3.964619976585046,0.0004585326431263963,0.41394469544966683,2.4261294934137885
2.790703373479701,4.0408961596402335,-4.500723812258595,0.00045277198464168647,0.4574324740086141,2.7882347769529123
3.158474058458395,4.5322811516355035,-5.032201658169505,0.0004457793266542126,0.49764256113091704,3.1561229580355623
3.5379383016775954,5.029820034809861,-5.56713948293351,0.0004377320944105595,0.5351586805099516,3.535704787748099
3.9245129350008954,5.5270714125187554,-6.098576079551443,0.0004224314573713266,0.5694894261183466,3.9224265679523684
4.3224507089634905,6.0290837101213715,-6.631883207774585,0.0004117420632868089,0.6009010388622269,4.320481975592626
4.731586209754381,6.5350958027277155,-7.1661930260761375,0.00039979165599363136,0.6293154097288691,4.72973519413665
5.151472353359072,7.044035845745338,-7.700334760556655,0.00037993071554642626,0.654661894359475,5.149768607462925
5.581278722196549,7.554424159371142,-8.232740125936116,0.0003650198408533848,0.6767951081517268,5.579692796403365
6.022715383137628,8.067810108217346,-8.76501626318755,0.0003442226842926359,0.6958191395114927,6.021266063442015
6.480150764170994,8.588572131400946,-9.301638153832567,0.00032368934555028115,0.7118049170722547,6.47883013915833
6.947362741727252,9.10901025772683,-9.834643895873233,0.00029662579178765715,0.7245159164418803,6.946189594263064
7.4302442029369375,9.63508837949995,-10.370132127617287,0.0002752215313494287,0.7340408599294289,7.429189033527215
7.92588789689153,10.162953789887217,-10.904160298270693,0.00024414811706704174,0.7403460944048872,7.924980318272574
8.43328955080945,10.690998214183665,-11.435133337190809,0.00021076951821366897,0.7434166389748031,8.432529649324428
8.958367135697449,11.224678971092871,-11.968541761750057,0.00017508042108166147,0.7432856090401435,8.95775494225264
9.492363795937846,11.754507002277943,-12.494945298634937,0.0001456040029510043,0.739973919358025,9.491869783966308
10.024424625180405,12.269846970713408,-13.004004139465026,0.00010506667232281384,0.7338326706041547,10.024078367533862
10.539931265588121,12.757527766044673,-13.483120782662333,6.189382846741237e-05,0.7254075745771823,10.539732789481182
11.031342159953741,13.212049104302425,-13.927419500453924,2.5672261262409074e-05,0.7152956285057414,11.031261899980867
11.309158084298367,13.464633966076606,-14.17340876301498,6.848470583122842e-06,0.70875517163814,11.309136980431914
11.309929486223352,13.460440981963785,-14.442765224110309,6.849214592607143e-06,0.9823046169384495,11.30990834965086
11.309929602052327,13.446491665769706,-14.957975566334648,6.850586027333862e-06,1.511464275356875,11.309908402202522
11.309929722113331,13.425695885284862,-15.48778415579829,6.8526342839809855e-06,2.0620686453053794,11.309908456389104
11.30992984076417,13.398736179722368,-16.00713323087084,6.855293596217925e-06,2.608377425940438,11.309908509634576
11.309929958152544,13.365722195627631,-16.51679927448515,6.858554819481819e-06,3.151057453649497,11.30990856199593
11.309930075095862,13.326489227449411,-17.02040766665758,6.862436317094766e-06,3.693898814000153,11.309908613825185
11.309930191803916,13.280949607957874,-17.518882880922334,6.866949320674201e-06,4.237913647756461,11.309908665198593
11.30993030819508,13.22910635502014,-18.01188882154406,6.872096529035136e-06,4.782762841315936,11.309908716062866
11.309930407231985,13.17988245956782,-18.4281360146493,6.876992845333147e-06,5.248233929873506,11.309908759037318
11.309930452855252,13.155611651345666,-18.61887937298559,6.87941032112204e-06,5.46324809643195,11.309908778735995
11.309930512352356,13.122438483354452,-18.86666813172787,6.882717961213975e-06,5.744210023165452,11.309908804328952
11.31428763454264,13.139798753314906,-18.933326595528424,6.884815676501099e-06,5.793508217526349,11.314265920415457
11.382876807479786,13.518561888864177,-19.203564908625204,6.9071090775144905e-06,5.684983403287229,11.382855104118104
11.489921021031831,14.102342958840168,-19.616055116178845,6.941891967407374e-06,5.513692553739297,11.489899334876725
11.600643802133057,14.696977005600239,-20.031215543502377,6.977862691223539e-06,5.334218947691574,11.600622134278977
11.712765387020298,15.289813381656447,-20.44012096440036,7.0142854207505415e-06,5.15028800616586,11.712743738200734
11.827076861300595,15.88482070876095,-20.845526400658063,7.051422363782283e-06,4.9606861292949915,11.827055232388277
11.943548390442878,16.481541233190285,-21.247093798770443,7.089269323303789e-06,4.765533017298134,11.943526782314663
12.06166830012221,17.07712389790937,-21.642920559653856,7.12766571689833e-06,4.565777128067697,12.06164671356872
12.181501061531273,17.671723058919316,-22.03315874942345,7.166638286324138e-06,4.36141617172921,12.181479497356646
12.304875695891694,18.27402367248417,-22.42344886661989,7.2067883889124866e-06,4.149405690792285,12.30485415525419
12.4300889377076,18.875311576323863,-22.80808521927482,7.247568591312458e-06,3.9327541553614136,12.430067421452977
12.557287923177112,19.476086803922797,-23.187430884770492,7.289033361187626e-06,3.7113246093571743,12.55726643218223
12.686535238128,20.076421807450103,-23.56156885885432,7.331209860765137e-06,3.4851275963702153,12.686513773285125
12.818245352760536,20.677967773070858,-23.931543553266735,7.374240507181815e-06,3.253556342033811,12.818223915050872
12.95257570744672,21.281110529796017,-24.297582867534526,7.418184423161018e-06,3.0164529168898286,12.952554297891334
13.089796836947857,21.88669137633544,-24.660173827243174,7.463138294218941e-06,2.7734630478551954,13.089775456633323
13.22991672666639,22.494348921058346,-25.01907103001377,7.509113355472957e-06,2.524702724189779,13.22989537669031
13.372693194572165,23.102671958429788,-25.373433796335465,7.556038794517714e-06,2.2707424718928624,13.372671875986883
13.517780566743212,23.709902391867452,-25.72226941645006,7.603809294143098e-06,2.0123476777493163,13.517759280528502
13.665091639668866,24.315447291220472,-26.065297092674065,7.652404091388037e-06,1.74983047422066,13.665070386785668
13.815646954181384,24.923176026724377,-26.404728311213237,7.702168731705723e-06,1.4815329774199395,13.815625735825925
13.97049426123914,25.536775552101474,-26.742553183089296,7.753460625940934e-06,1.2057583447967646,13.970473078860696
14.128033431682448,26.1494334783507,-27.074988823888656,7.80576044126383e-06,0.9255360807322179,14.128012286367701
14.288784949550047,26.76283174505048,-27.40297641645039,7.859250580203474e-06,0.6401254285656747,14.288763842511573
14.45331688517838,27.37869062960064,-27.72742522714827,7.914130935377821e-06,0.3487153773584049,14.453295817771016
14.619935507938438,27.990353964196473,-28.04487515749974,7.969846054527489e-06,0.05450199620774091,14.619914481110568
14.790471513223762,28.604224235468187,-28.35869885216319,8.027017677906991e-06,-0.24554455659579583,14.7904505283708
14.964850391042988,29.219538267860163,-28.668489705773524,8.08563259220698e-06,-0.5510677108607169,14.964829449549063
15.144634992849312,29.841171412897506,-28.976637989436057,8.146229912690445e-06,-0.8645525467731201,15.144614096498453
15.326762521343849,30.458068312511884,-29.27767125874634,8.207788933881815e-06,-1.1804161510910696,15.326741671155634
15.514335279567653,31.080283594393098,-29.5765152759148,8.271369786546806e-06,-1.5037873888391375,15.514314477351421
15.704430585913132,31.697663293967306,-29.868313138720556,8.335993337468165e-06,-1.8293691980717242,15.70440983273386
15.899921824788532,32.31910278762424,-30.157303388497223,8.402647637819441e-06,-2.1618184134159697,15.899901122454088
16.09841107107765,32.93650860734933,-30.43974689276536,8.470526691234864e-06,-2.4967806996728745,16.098390420774493
16.302447377731244,33.557339426412206,-30.719086556932258,8.54051372071138e-06,-2.8382718243153437,16.30242678131545
16.512504333947472,34.18227961855858,-30.995569745824103,8.612786946363044e-06,-3.1867287961726447,16.512483793409157
16.72728584030565,34.80681902233916,-31.26718301626635,8.686914504272305e-06,-3.5396548971446307,16.727265357295114
16.947544333056392,35.432568687085514,-31.53464154137776,8.763168745998952e-06,-3.8979460033122657,16.947523909427364
17.172590671863823,36.057008643339074,-31.796892418889957,8.841323216893009e-06,-4.2601350475710955,17.172570309284932
17.403838867366932,36.68344878404115,-32.05533983523734,8.921881601738021e-06,-4.628127736190554,17.40381856789142
17.64079776435105,37.309881160633424,-32.30915555219869,9.004686064932074e-06,-5.000744358886349,17.640777529899708
17.882314551277084,37.93276374415966,-32.556964698205405,9.089343495943163e-06,-5.375817758430421,17.88229438345078
18.13177639007865,38.560147671234766,-32.80198029589479,9.17705351473503e-06,-5.758186048242478,18.13175629141224
18.332387977611695,39.05325505497515,-32.99134003174339,9.247779285613383e-06,-6.061933664053275,18.33236793479659
18.417766917628025,39.26010332277815,-33.06993211631516,9.27793017025764e-06,-6.190189833561734,18.417746898642616
18.329322081591204,39.32966969701499,-33.0962525758413,9.249758922544423e-06,-6.233435762493982,18.3293020665095
17.807831147403856,39.46600617311936,-33.14767277771053,9.080193584546216e-06,-6.318352119672532,17.807811127295956
17.108607188395478,39.64174133913917,-33.21363525939555,8.851531398907171e-06,-6.428124912784561,17.108587159987387
16.40380928069912,39.81080251324052,-33.27675583894321,8.619563295075535e-06,-6.53406561414491,16.40378924216716
15.69111730210302,39.97363931830631,-33.337240526944846,8.383518520146192e-06,-6.636417836298303,15.691097251598386
14.977637990025517,40.128601081199385,-33.39451611520133,8.145760900299007e-06,-6.734104113189309,14.977617925847333
14.268183403595152,40.274812128587435,-33.4483036886218,7.907941650442932e-06,-6.826527685891396,14.268163324206599
13.547441574395924,40.4154159516825,-33.499796377524916,7.664945600102841e-06,-6.915638917367537,13.54742147796893
12.832733680854302,40.547050664521294,-33.547798265015686,7.422637423825665e-06,-6.999271836163358,12.832713566015252
12.115282439726315,40.671485551862354,-33.592991590508156,7.1780918405620106e-06,-7.078513488777574,12.11526230494905
11.393288750474815,40.78900580862525,-33.63551030903098,6.930717562839064e-06,-7.153515115267095,11.393268594224542
10.666338077387882,40.8996170231478,-33.67538457255782,6.680391330964112e-06,-7.2242521519723155,10.666317898155512
9.937256233225705,41.002857349782566,-33.71247508335716,6.428112513841344e-06,-7.290402050583144,9.937236029637829
9.211704733401858,41.098025789607185,-33.74655745322147,6.1758893530602175e-06,-7.35148819973861,9.21168450434491
8.488525458457847,41.18543659048627,-33.77777019416968,5.923379070312858e-06,-7.407686335436687,8.488505202858887
7.753052944732205,41.26677433663531,-33.806735780597656,5.665485405056024e-06,-7.460058568955273,7.753032661024471
7.0197103820036935,41.340348436498964,-33.83287139680914,5.407291671614523e-06,-7.507497122908533,7.019690069217732
6.288024375955018,41.40631964193776,-33.856253588790466,5.148688159690838e-06,-7.550086203229856,6.288004033180062
5.553345601903856,41.46513657935969,-33.877058122962275,4.888078533302978e-06,-7.588098670311487,5.553325228105828
4.818365673021466,41.5165780924479,-33.89522142396524,4.6264614392272124e-06,-7.621376942929354,4.818345267344196
4.087181916965181,41.56044755709066,-33.910687239083515,4.365351910276122e-06,-7.649780649363524,4.087161478806197
3.3534863329643096,41.597176588684526,-33.92361883913817,4.1025504258431565e-06,-7.673578134680304,3.353465861513452
2.6188811020516805,41.62666068496562,-33.93398847806658,3.838676506372625e-06,-7.692692642528565,2.6188605966373917
1.8715136474726644,41.649194050019005,-33.941906825605805,3.569505100265344e-06,-7.7073077079686545,1.8714931069312375
1.1372953378330521,41.664016724548375,-33.94711242414199,3.30442159029288e-06,-7.716924827650662,1.137274762291412
0.39861204614622053,41.671626958987986,-33.94978408776067,3.0371312521679014e-06,-7.721863439025099,0.39859143497317945
-0.34582793294945097,41.67189054251594,-33.94987658607277,2.7672082114516123e-06,-7.722034561651841,-0.3458485803822602
-1.0841764940871288,41.664808527126425,-33.94739035519679,2.4990026413472237e-06,-7.717438810807274,-1.0841971777571244
-1.8265421327553701,41.65030983258499,-33.94229864460051,2.22889901666123e-06,-7.708031857259003,-1.8265628530606999
-2.566476610753799,41.628485765411206,-33.93462986588922,1.9592962497368927e-06,-7.693876595641166,-2.5664973677009675
-3.3053951038969,41.59932972853497,-33.924376219908716,1.6897354629413867e-06,-7.674974228108834,-3.305415897487615
-4.047237376484889,41.562635177732545,-33.91145762075647,1.4188325097393547e-06,-7.651198296447941,-4.047258206841913
-4.7868884053661604,41.5186165373063,-33.895940227573156,1.1485091205691466e-06,-7.622697065673943,-4.786909272284217
-5.53051006334003,41.46684617586814,-33.877661874084566,8.765671741494768e-07,-7.589205070794703,-5.530530966842761
-6.26857014821758,41.407973043735545,-33.8568385455888,6.065471928273311e-07,-7.551155276671247,-6.2685910877855475
-7.010100694422953,41.34126354787514,-33.833195613766314,3.351994441156085e-07,-7.508088718719311,-7.010121669903974
-7.7518848465040735,41.26689784402805,-33.80677918668529,6.375476967288501e-08,-7.460139444557698,-7.7519058575122575
-8.492596534142493,41.18496593730572,-33.7776018016684,-2.0724766151471364e-07,-7.4073849219765115,-8.492617580153674
-9.231039959363722,41.09558740015156,-33.74568487638702,-4.773173314699857e-07,-7.34992330577204,-9.231061039725171
-9.972631816561432,40.99802510796683,-33.71074108874327,-7.483817889908359e-07,-7.2873047934067765,-9.972652930795904
-10.704066221585531,40.89406594014299,-33.673386084964186,-1.0155278925947675e-06,-7.220700618235831,-10.704087368542814
-11.430638068027683,40.78311494096013,-33.63338200247215,-1.2806454193943692e-06,-7.14975368714212,-11.430659246742875
-12.153115282814035,40.66511561005282,-33.59068159932823,-1.5439703020475874e-06,-7.074454741748724,-12.15313649229867
-12.871498536476466,40.54010884094368,-33.54527096585569,-1.8054599943908488e-06,-6.994858585313016,-12.871519775685668
-13.588407436837935,40.4076373015267,-33.49695266271873,-2.0660252206616884e-06,-6.910705325030886,-13.588428704776257
-14.307699637782083,40.266873549484686,-33.44538862308167,-2.327020734731786e-06,-6.82150558528875,-14.307720933537256
-15.017678890976375,40.12011690470737,-33.39138642056749,-2.584163762472561e-06,-6.728751112849021,-15.017700213130299
-15.730404215878638,39.964874607362546,-33.33399166617443,-2.8417840333705825e-06,-6.630903536417822,-15.73042556340843
-16.441926882668525,39.80186501612916,-33.27342607691829,-3.0984087694002402e-06,-6.528459497838155,-16.441948254339316
-17.144565234010333,39.63290050493839,-33.21032419690819,-3.351237226369582e-06,-6.422596827400475,-17.144586628285996
-17.84543659854909,39.456327281574,-33.14402820272546,-3.60280291094234e-06,-6.31231955598595,-17.845458014085487
-18.344854599750693,39.32553989835834,-33.09469037474537,-3.7816561617274982e-06,-6.2308699687862745,-18.34487602961668
-18.420715442420452,39.259329550765244,-33.01980242209677,-3.8089476637315534e-06,-6.239547568851543,-18.420736875823994
-18.32542702060871,38.975558503632264,-32.57628948445118,-3.775911514615191e-06,-6.399289465633766,-18.32544846088756
-18.201367815903915,38.60230600530211,-31.99091902818109,-3.732929193508113e-06,-6.611407431651582,-18.201389265126252
-18.079891679793356,38.23254354234618,-31.408814813479356,-3.690874458692841e-06,-6.823749191214104,-18.079913137761647
-17.95959372913476,37.86206714333115,-30.823424367411317,-3.6492608718877307e-06,-7.0386632459174026,-17.959615195750118
-17.841046788978414,37.49267273424236,-30.237628670819834,-3.608286776457967e-06,-7.255064540870714,-17.841068264098354
-17.726042657702912,37.13010888460028,-29.660649470649982,-3.568570572884625e-06,-7.46947989854267,-17.726064141054746
-17.61094817120635,36.76298921246431,-29.074423097432025,-3.5288573803916144e-06,-7.68858660669181,-17.610969662775624
-17.49870423664796,36.400728711678646,-28.494022527909994,-3.4901619939975564e-06,-7.9067266822406665,-17.498725736208424
-17.38654283857306,36.03443842201267,-27.905248731083674,-3.4515300838863788e-06,-8.129210196129893,-17.386564346093905
-17.275961146723684,35.66898285140527,-27.315931443693568,-3.413477782472448e-06,-8.35307191946975,-17.275982662065974
-17.17954824135179,35.346753239585134,-26.794784120962568,-3.3803308493344163e-06,-8.551989636035236,-17.179569763489717
-17.137042546918707,35.20360341069967,-26.562810756444964,-3.3657263428459994e-06,-8.640813174141895,-17.137064072045202
-17.112752329325893,35.12149614068686,-26.42963138703842,-3.3573830037769512e-06,-8.691885274944639,-17.1127738561581
-17.127613858159975,35.15131329858305,-26.40144097531421,-3.363289626580564e-06,-8.74989284370395,-17.127635389249654
-17.301373169335314,35.59167105933851,-26.58584576866302,-3.428628383612053e-06,-9.005845800937914,-17.301394725489235
-17.544392247245682,36.19361372990992,-26.833981812494493,-3.5201866197980038e-06,-9.35965241313409,-17.544413839178997
-17.794106661099296,36.79575822604249,-27.077665410054312,-3.6144805868309236e-06,-9.71811329637841,-17.794128290656364
-18.049625679545017,37.39533384025101,-27.31581308880829,-3.711189458481899e-06,-10.079541215745666,-18.049647348476167
-18.28570122860945,37.934921794221395,-27.526306608261343,-3.800738879789157e-06,-10.408635635038197,-18.285722934684078
-18.394330528313187,38.178710627572286,-27.62022182812066,-3.842008734440437e-06,-10.558509241407553,-18.39435225172061
-18.399630563872865,38.25605711082329,-27.649864181225027,-3.8445298297833385e-06,-10.606213371207113,-18.39965229088592
-17.980779658902076,38.09898818115011,-27.58959176168584,-3.6912354579231673e-06,-10.509416888172359,-17.98080135155987
-17.32088585427135,37.84461244551911,-27.49132949766007,-3.449500711089189e-06,-10.353303457041443,-17.320907493578368
-16.645019842869605,37.57512263496337,-27.386351368762433,-3.201669733898347e-06,-10.188791814017033,-16.645041428575254
-15.967253994575106,37.2955448608773,-27.276488436014972,-2.952934177964045e-06,-10.019077008549115,-15.967275527653609
-15.30157022357551,37.01162385855828,-27.163922382732068,-2.7084698747926197e-06,-9.84772209194031,-15.301591706127647
-14.64392527726408,36.721819583749046,-27.047987007417095,-2.46683727815361e-06,-9.673853221748502,-14.643946711095781
-13.989528711273142,36.424023069774165,-26.927762173813758,-2.2263158951501496e-06,-9.496281567834801,-13.989550097867436
-13.342296594054751,36.11999636965683,-26.803878503592284,-1.9883819577840492e-06,-9.31613856145411,-13.342317935209532
-12.693079798793056,35.805304662765124,-26.674430642434277,-1.749706839821815e-06,-9.130894736654282,-12.69310109570985
-12.059957821459875,35.488775953118385,-26.542975139750922,-1.516969630796484e-06,-8.94582154754383,-12.059979076587545
-11.424817105183239,35.16141673334494,-26.405698961479043,-1.2835420501368917e-06,-8.755738521407912,-11.424838319788279
-10.79294547405972,34.825716010971824,-26.26352586886908,-1.051397244760246e-06,-8.562210904400809,-10.792966649799249
-10.167062264138174,34.483067554153166,-26.11694726124601,-8.215611503871528e-07,-8.3661410653507,-10.167083402861087
-9.544462505066809,34.1319368520258,-25.965204060529725,-5.930655032464189e-07,-8.166753571572162,-9.544483608484498
-8.928466400469494,33.77415861278814,-25.808986032565063,-3.671516787201669e-07,-7.9651933654354945,-8.928487470499322
-8.317934633425981,33.40908933375804,-25.647914726975944,-1.434218663977393e-07,-7.761195394714348,-8.317955671930452
-7.711417641540424,33.035813161257764,-25.48147515917218,7.863587893296378e-08,-7.554358790382199,-7.711438650321677
-7.107628661562626,32.65341615396523,-25.309133109628636,2.994736933017448e-07,-7.344303830681786,-7.107649642382817
-6.511691253354671,32.26512308327798,-25.13222885889602,5.172024434849526e-07,-7.132915006537181,-6.511712208218523
-5.91978222416034,31.868458936376058,-24.94952452933969,7.33206291641218e-07,-6.918955182804051,-5.919803154903471
-5.332057053814144,31.46344174197163,-24.760896687535254,9.474151662896475e-07,-6.702565821667314,-5.332077962288956
-4.74959063285074,31.050762223580286,-24.566537865664056,1.1594263679807283e-06,-6.484245114530607,-4.749611520952912
-4.17148708252922,30.629739307670604,-24.3659947901002,1.3695566441365149e-06,-6.263765261526259,-4.171507952122701
-3.706991852551056,30.282974414765114,-24.199108143051415,1.538170449760978e-06,-6.083887003968151,-3.707012708535825
-3.4781934463202084,30.109329085217546,-24.114955336620636,1.6211500244742677e-06,-5.994394474586511,-3.478214296022116
-2.9716165833107566,29.718063294536723,-23.92390981599375,1.8046908310069333e-06,-5.794174189485766,-2.9716374201042557
-2.406045265250557,29.269908539334537,-23.7026504157144,2.0093003634832104e-06,-5.567278815850692,-2.4060660892897867
-1.8395822176563839,28.808726581016472,-23.47223599120364,2.213897184319738e-06,-5.336511261280292,-1.8396030307074793
-1.2721494806784055,28.334017800161376,-23.232169890955667,2.418496185834619e-06,-5.101868557848397,-1.2721702845484208
-0.7063633079338802,27.847603046605574,-22.983130003168938,2.6221437899288574e-06,-4.864493667303981,-0.706384104501009
-0.14015111651176282,27.34733505339392,-22.72376285172641,2.8255770196872612e-06,-4.62359279872709,-0.14017190765184917
0.4277891624452337,26.83155806415211,-22.45290978676449,3.029252126536757e-06,-4.378668845536564,0.4277683748294255
0.9841655106133931,26.312270527623422,-22.176667531991576,3.228403609351914e-06,-4.135623533498618,0.9841447245603748
1.524727413758169,25.794039522426594,-21.897428646888752,3.421530208440049e-06,-3.89663138212805,1.52470662741056
2.060408940658984,25.2667416179296,-21.609642469525188,3.6125526868277507e-06,-3.6571196221993456,2.0603881522380982
2.5871268536185936,24.73450613973437,-21.31540286429015,3.8000232830543057e-06,-3.419123715247331,2.587106061414863
3.1031686564653826,24.199410384067164,-21.01576170101904,3.983347330832914e-06,-3.183669087872826,3.1031478588661012
3.604719893425553,23.665992645609734,-20.713233940964933,4.161190668538236e-06,-2.952779073886818,3.6046990889712403
4.093705518411888,23.132881624183955,-20.407049279467895,4.334258938173779e-06,-2.7258526777638012,4.093684705739839
4.570664829573247,22.600086085591965,-20.09720592304326,4.50276384414502e-06,-2.50290045886531,4.570644007423518
5.0399166892551746,22.06319617586153,-19.78108405910016,4.668247406163032e-06,-2.282132375567496,5.039895856371869
5.492795210435279,21.532736190817257,-19.464892052776918,4.827673939872784e-06,-2.0678643593559354,5.492774365870287
5.937546004119772,20.99968876491567,-19.143282945090164,4.983966797258685e-06,-1.8564260030936364,5.937525146823344
6.37248576748042,20.46645877914345,-18.81766345113545,5.136548888760483e-06,-1.6488154728915245,6.372464896533525
6.7971162613194185,19.934147584500963,-18.488700260553525,5.285261732746326e-06,-1.4454674302360233,6.797095375910155
7.213651703029059,19.400411741283666,-18.154925578355808,5.430895377484707e-06,-1.2455062302840325,7.213630802354317
7.622650118727528,18.86486560570704,-17.816048618371664,5.573656920122108e-06,-1.0488370154314335,7.622629202037073
8.022791173614593,18.329609952787674,-17.473367673611367,5.713097950246183e-06,-0.856262267874593,8.022770240285796
8.410560857938975,17.799934495136693,-17.13032092876636,5.848010222282923e-06,-0.6696335159585701,8.410539907587577
8.793346684348437,17.266184653892598,-16.78065878769105,5.9809767621557806e-06,-0.48554577628599943,8.793325716343462
9.168557666679348,16.732215043435232,-16.426844474537482,6.111106082940698e-06,-0.3053904393974516,9.16853668057001
9.535686435754092,16.19913364106798,-16.069606465261383,6.2382331150772475e-06,-0.12954700674929684,9.535665431184366
9.895914391579137,15.665590039785574,-15.708030889378307,6.36277701778852e-06,0.04242105825506635,9.895893368200722
10.249414152711282,15.131644800938556,-15.342135646926874,6.484806234630306e-06,0.210471094276696,10.249393110229152
10.596759774419763,14.596723405398523,-14.971498267234617,6.604526890033655e-06,0.3747551497931313,10.596738712567383
10.918794486406611,14.091446208894684,-14.617644678336449,6.715358337275765e-06,0.5261787948241534,10.91877340608807
11.067432211121524,13.855136994885335,-14.450897911478526,6.766459238773706e-06,0.5957412594593274,11.0674111221216
11.226681956828214,13.599752324815052,-14.269789579916829,6.8211701225788994e-06,0.6700176168467227,11.226660858420026
11.30854704083302,13.467570979867572,-14.175683821882712,6.849279651826567e-06,0.7080932135241231,11.308525937546236
11.309931436280177,13.46091755268564,-14.420016479920378,6.85018794140683e-06,0.9590792989091563,11.309910302977967
11.309931335591326,13.447294066075862,-14.93343617522441,6.851527335081492e-06,1.486122480822945,11.309910139256662
11.309931230876106,13.426824982199534,-15.462840403263431,6.853543491069808e-06,2.0359957927382637,11.3099099687465
11.30993112756735,13.400274929613909,-15.980599629811708,6.856162525666134e-06,2.580305071872161,11.309909800264547
11.309931024214139,13.367334966732843,-16.4940814223512,6.859416619092402e-06,3.126726827292705,11.309909631429196
11.309930921886497,13.328374740717507,-16.998037676975997,6.8632713599748595e-06,3.669643307932818,11.309909463972069
11.30993081952101,13.283016846487445,-17.497770770042266,6.867766608487854e-06,4.214734295229145,11.3099092961367
11.309930717746541,13.231527637766868,-17.990246290163476,6.872878925673299e-06,4.758699024070918,11.309909128936217
11.309930628454197,13.181051155231748,-18.41872955805672,6.877900190484395e-06,5.237658774499273,11.30990898195127
11.309930588441558,13.156811666932358,-18.609646219561263,6.8803147737542635e-06,5.4528149243032,11.309908915993951
11.309930533265394,13.12173079921178,-18.871806761881402,6.883813077676206e-06,5.750056334343904,11.309908824944108
11.26923212388611,13.124633746821718,-18.922462836243227,6.870377250567632e-06,5.797809456234362,11.269210411214106
10.860952909578886,13.213259692854608,-18.985899111763338,6.729286865922712e-06,5.772619737500336,10.860931214104689
10.30070863861119,13.329312517100137,-19.068796352723396,6.5351651567107216e-06,5.739464089672111,10.300686966426827
9.739018059243545,13.439247086408516,-19.14714507271589,6.339957950287653e-06,5.707878177541884,9.738996410060702
9.172637628997819,13.543634708903264,-19.22138019943254,6.1425454476494035e-06,5.677725620352511,9.172616002667652
8.60873713353591,13.641156279934632,-19.29059151653615,5.945440491048664e-06,5.649415307210984,8.60871552963122
8.042358712925736,13.7327056893608,-19.35544047345464,5.7469273507904455e-06,5.622714797172479,8.042337131229953
7.473593938634597,13.818221591067973,-19.415907301073975,5.5470487412350365e-06,5.5976656672765275,7.473572378937663
6.908839442925929,13.896801198143127,-19.471377413912283,5.348072253622324e-06,5.574556119579159,6.90881790478609
6.343506273881932,13.969170757088445,-19.522385748521426,5.148403198276854e-06,5.553194843682979,6.343484757050053
5.775209088012952,14.035603688625246,-19.56914391742501,4.947212141839721e-06,5.533520031196279,5.775187592342586
5.207990219125774,14.095621304456143,-19.61133256477874,4.7459455535381456e-06,5.515691014941411,5.207968744334401
4.6381891417363565,14.14960851788495,-19.64923830581328,4.5433206694975206e-06,5.499609496549598,4.638167687691431
4.0663257184574695,14.197459540547495,-19.682800926839327,4.339535113240408e-06,5.485321050766677,4.06630428502141
3.491819625085421,14.23916322401752,-19.712025191990676,4.134395266187154e-06,5.472841590137236,3.4917982121561426
2.9208901491636428,14.274299011278709,-19.736627698284483,3.930141221343042e-06,5.462308269152132,2.920868756434888
2.34990205832261,14.303162414864067,-19.756825044038976,3.7254944410093193e-06,5.453642173327029,2.3498806856359566
1.7779953794424823,14.325791835192232,-19.772651821024546,3.520164181339996e-06,5.446839493965383,1.7779740266870667
1.2056186750335116,14.342155213611484,-19.78409165032767,3.3143287177486446e-06,5.4419159108446875,1.2055973421003547
0.6332227138139196,14.352237805679001,-19.79113860944316,3.1081683048311735e-06,5.438880245935398,0.6332014005965089
0.06062058656921325,14.356043046556717,-19.793797804623143,2.9016340729804866e-06,5.437734170321684,0.060599292985814325
-0.5095893061662958,14.35359098323063,-19.792084265872557,2.6956834930926764e-06,5.43847266714946,-0.5096105802676084
-1.0823543427445663,14.34485682310362,-19.785980008717278,2.4885481865326648e-06,5.441102544304615,-1.0823755973281226
-1.6546245263946169,14.329849855410696,-19.775489183585822,2.2813484308263893e-06,5.445618663131817,-1.6546457615102739
-2.227377779814732,14.308538901824424,-19.76058595939527,2.073748915409065e-06,5.4520263708373395,-2.2273989954602946
-2.7999927837025886,14.280933298166872,-19.741271127881465,1.8659934143154919e-06,5.460317123362542,-2.8000139798781762
-3.371578387078364,14.247084772279166,-19.71757348726221,1.6584246132706983e-06,5.470467991110248,-3.371599563795642
-3.9406198031594566,14.20712916111353,-19.68957921032031,1.4516129091131474e-06,5.482429309939933,-3.9406409604633073
-4.511947662182607,14.160716321240951,-19.657032202532328,1.2438214031676362e-06,5.496295128626618,-4.511968799934545
-5.086512649916682,14.10765988164568,-19.61978873995452,1.0347210341770747e-06,5.512108094251227,-5.086533767926058
-5.658118827249836,14.04850637868036,-19.578218034804532,8.265853711359725e-07,5.52969088280449,-5.658139925520214
-6.228777475779971,13.983091024119306,-19.53218860128092,6.187019169524037e-07,5.549076796657527,-6.228798554228096
-6.799978482585331,13.91122447495981,-19.481549351261428,4.1054669091409825e-07,5.570304090670664,-6.799999541058063
-7.377381439351885,13.832052792772748,-19.425677268665478,2.0007496824038794e-07,5.593603687178925,-7.377402477477338
-7.944688175961164,13.747846726568032,-19.366154051028786,-6.753156655633302e-09,5.618286534774167,-7.944709193925536
-8.516936611363022,13.656428621514799,-19.30141798984367,-2.1540101031111297e-07,5.644968579725965,-8.516957608802693
-9.089250883277353,13.558457024780019,-19.231908404623745,-4.240723361458282e-07,5.6734305943987104,-9.089271859983635
-9.66111706364625,13.453987975789696,-19.157637494266005,-6.325610313750075e-07,5.703628738258276,-9.66113801941203
-10.23191522628323,13.343120276273488,-19.07864643853643,-8.406225321155758e-07,5.7355053893265024,-10.231936160908123
-10.803787140145458,13.225394653040208,-18.994576227816253,-1.0490188918875705e-06,5.76916081120238,-10.803808053333226
-11.24323056993385,13.1303793755851,-18.926578828572605,-1.2091067267638694e-06,5.79617869801404,-11.243251466464073
-11.303360328785736,13.088505841339602,-18.821855772636845,-1.2308632037894275e-06,5.733329177595269,-11.303381224462761
-11.27067468125613,12.951844812587511,-18.35099677040245,-1.2182706613021092e-06,5.399131203417587,-11.270695585265377
-11.231017838704702,12.781850563087758,-17.773701639646518,-1.2030626441592113e-06,4.991830321326813,-11.231038752664178
-11.191436729903922,12.607556913321682,-17.190823244007564,-1.1879590992777962e-06,4.583245574630826,-11.191457653621685
-11.152140989126575,12.429898502318704,-16.605417387944545,-1.1730375584686088e-06,4.175498128763422,-11.152161922362367
-11.113672247873145,12.251466903065271,-16.025714933417156,-1.1584992718669819e-06,3.7742272727085564,-11.113693190263568
-11.075394122305653,12.069435892876179,-15.442265117982943,-1.1440997196736778e-06,3.3728084666956826,-11.075415073646019
-11.037239198040679,11.883485994489472,-14.85399766096209,-1.1298114812322412e-06,2.970490907305474,-11.037260158144782
-10.999592869101633,11.69555247756856,-14.26689599425551,-1.1157760785691179e-06,2.571322756782852,-10.999613837699359
-10.962075885604051,11.503798735109434,-13.675087687085481,-1.1018493925976334e-06,2.171268191346434,-10.96209686251535
-10.925328448241492,11.311600766053626,-13.088786914477094,-1.0882658227937441e-06,1.7771653870918573,-10.92534943315042
-10.89809991950511,11.16636115329444,-12.650051341213329,-1.0782369378087561e-06,1.4836694260726297,-10.898120910247473
-10.888649942018123,11.115386548780105,-12.496915113845809,-1.074763379410234e-06,1.3815078030419345,-10.888670934766694
-10.899289878809554,11.177738284145441,-12.505385939378284,-1.078595995712679e-06,1.3276268934088626,-10.899310872479663
-10.979360400912025,11.63543823886689,-12.845330885566252,-1.1075668407215456e-06,1.2098718864020646,-10.97938139618508
-11.082099495437214,12.21429597470918,-13.270902459718398,-1.1447387792246962e-06,1.056585726730185,-11.082120492985338
-11.187741120660268,12.799874305143602,-13.69647467640774,-1.1829609854806819e-06,0.8965796151299702,-11.187762120804496
-11.279204548200765,13.299166022825256,-14.055424909355938,-1.2160543389471616e-06,0.7562381323105125,-11.279225550803547
-11.309931691305184,13.465244321899956,-14.17971898196472,-1.2271739083592494e-06,0.7144539064994712,-11.309952694655413
-11.309931717033194,13.459828102749656,-14.471188935112211,-1.2272691368287954e-06,1.011340078797262,-11.309952714023707
-11.309931763205336,13.445386731436932,-14.991029930220922,-1.2275235855077944e-06,1.5456224452187135,-11.309952748747634
-11.30993181071818,13.424139469638451,-15.521620849184487,-1.227898613207861e-06,2.097460625980762,-11.309952784430047
-11.309931857374815,13.396902284440516,-16.038355373755746,-1.228380073468884e-06,2.6414323357499487,-11.30995281941676
-11.309931903827064,13.363441484982312,-16.54859044230976,-1.2289724009608937e-06,3.185128203762179,-11.309952854194815
-11.309931950140184,13.32371076786135,-17.053080430312743,-1.2296768037435644e-06,3.7293489088861227,-11.309952888810143
-11.309931996323977,13.277685760770963,-17.55195760173041,-1.230494179438509e-06,4.274251087394176,-11.309952923267007
-11.309932042170253,13.225599211924582,-18.043023653389305,-1.231420924709086e-06,4.817403687899452,-11.309952957407432
-11.309932080118283,13.177612617779902,-18.446341273636477,-1.2322763051751649e-06,5.268707902291315,-11.309952985614984
-11.309932098241344,13.153124955127508,-18.637946900570675,-1.2327133865653607e-06,5.484801191877905,-11.309952999069179
-11.309932120338472,13.121885400066123,-18.870683860080643,-1.2332715472887092e-06,5.7487777064492525,-11.309953015458289
-11.316398247674593,13.151500292838918,-18.94170604478938,-1.2357156617271827e-06,5.790184998523766,-11.316419141660944
-11.389437467977862,13.554588077741725,-19.229161444218914,-1.262050677032319e-06,5.674552614634062,-11.389458361840052
-11.496259512723402,14.136625330221271,-19.640127128805563,-1.3005487678437107e-06,5.503481049117905,-11.496280406641217
-11.607253152874366,14.732172098971299,-20.055630200252093,-1.3405293219302409e-06,5.323437354360357,-11.607274047148824
-11.71994115216201,15.32743230860055,-20.4659003747068,-1.3810998753183233e-06,5.138447321850258,-11.719962047110249
-11.834200321332203,15.921581301588748,-20.870409251903656,-1.422216831250223e-06,4.94880720884243,-11.834221217284126
-11.950945593461963,16.51911121234613,-21.272209485648887,-1.4642101679873283e-06,4.753077534759534,-11.950966490772318
-12.068633827476377,17.11194043221817,-21.66590644973417,-1.5065258661039836e-06,4.553945282012816,-12.068654726495947
-12.189268718687265,17.709928003356882,-22.058064714854726,-1.5498855139244431e-06,4.348115979201594,-12.189289619811914
-12.313587878724022,18.316174813042668,-22.450574875404534,-1.594555093209287e-06,4.134379333466636,-12.313608782390565
-12.437844897109969,18.912222702832757,-22.831534642013814,-1.6391900721254044e-06,3.919291213782641,-12.437865803693258
-12.564795494227226,19.511226280204177,-23.209465814918268,-1.6847822933719878e-06,3.6982188129889404,-12.564816404176781
-12.695013325513592,20.115442539545036,-23.585717129487076,-1.731539522578261e-06,3.470253872090365,-12.695034239319167
-12.826822226037084,20.716779623105687,-23.955245833643772,-1.7788620152189262e-06,3.238445496716184,-12.826843144158746
-12.960757679100295,21.31750664739885,-24.3195141685671,-1.8269444475072815e-06,3.0019868115533903,-12.960778602030055
-13.098873997074787,21.92637280815198,-24.68376114963141,-1.8765269046641009e-06,2.757367636321428,-13.098894925404952
-13.238971875499532,22.533243967354135,-25.041875470370403,-1.9268227566442866e-06,2.5086108025019658,-13.238992809762179
-13.381410813041057,23.13945777375596,-25.394704809487838,-1.977964215731648e-06,2.255226340065721,-13.381431753800188
-13.527181280127879,23.74886497528868,-25.744485926108602,-2.0303103849844397e-06,1.9956002602477165,-13.527202228015739
-13.675218302669158,24.356666391911357,-26.08847156836115,-2.083482586266458e-06,1.7317844911877749,-13.67523925828835
-13.825531556683089,24.9626805055421,-26.4266254430168,-2.137488178513189e-06,1.4639242577457687,-13.825552520653698
-13.980427049472326,25.57573783779635,-26.76383910973457,-2.193160232386016e-06,1.1880805980599318,-13.98044802257078
-14.138115374012008,26.188241944980803,-27.095883381879013,-2.2498606110927812e-06,0.9076207691311807,-14.138136356939917
-14.299296396202331,26.80252754705546,-27.42403534643037,-2.307846102725824e-06,0.6214871380162712,-14.299317389729818
-14.462900584223409,27.414189438217807,-27.745979120416923,-2.3667372407992824e-06,0.33176902751238435,-14.46292158907272
-14.63038535475248,28.028312739686125,-28.064418811548926,-2.4270643734493614e-06,0.03608542418063928,-14.630406371770922
-14.80141724011736,28.64320432881725,-28.378465373759774,-2.4887138188529515e-06,-0.26475959540468325,-14.80143827015752
-14.976267030634544,29.259386462704725,-28.68838778362794,-2.5517899543587443e-06,-0.5710193117352222,-14.976288074598429
-15.155662269073296,29.878878991658002,-28.995174530534126,-2.6165628220508123e-06,-0.883725085694002,-15.155683327954424
-15.338390929921827,30.497017754209885,-29.296518931362666,-2.6826025238901345e-06,-1.2005194389709464,-15.338412004643526
-15.525363361851849,31.11645176849711,-29.593739171406483,-2.7502459662024862e-06,-1.5227332043548143,-15.525384453444685
-15.716600936436485,31.73673801914331,-29.886623533994126,-2.8195096231957846e-06,-1.85013508312476,-15.71662204596568
-15.911974047219308,32.35696978337526,-30.17476002161471,-2.890355561358886e-06,-2.182230350009754,-15.911995175769427
-16.111015041104505,32.9752537052383,-30.45731666465364,-2.9626230909395915e-06,-2.517957618678806,-16.11103618974216
-16.314647941138983,33.59401968339779,-30.73544440501176,-3.0366571651587416e-06,-2.8585958458338583,-16.314669111053394
-16.52524089770932,34.2197105118979,-31.011980206673805,-3.1133309878446432e-06,-3.2077508613886025,-16.52526209038319
-16.740579357678186,34.844996171581236,-31.283634574132236,-3.1918510577186754e-06,-3.5613821417888047,-16.740600574401107
-16.961276921571955,35.47109263112854,-31.550954815122708,-3.2724529536306325e-06,-3.920158347925675,-16.961298163738615
-17.18696184015694,36.09637621870615,-31.813270650398024,-3.3550131883557425e-06,-4.283126087212383,-17.18698310915607
-17.41823650754994,36.721945385670274,-32.0710708068105,-3.4397648433314806e-06,-4.650895084095842,-17.418257804879005
-17.65562716283383,37.34856851839755,-32.32467943136832,-3.5269147146223747e-06,-5.023909577888357,-17.65564849009663
-17.8990032506159,37.97522918122927,-32.57369378047144,-3.6164294398024557e-06,-5.401555876512427,-17.899024609442773
-18.147186643098287,38.598376676537875,-32.81676182926647,-3.70788896262458e-06,-5.7816353072427775,-18.1472080350012
-18.340059374069924,39.071905670193225,-32.99844628209019,-3.7790898280684143e-06,-6.073479835543653,-18.34008079228154
-18.42018332266222,39.26592380709566,-33.07213601144064,-3.808700445901951e-06,-6.193808237821951,-18.420204751955385
-18.411358274612677,39.231582047686445,-32.97649735839727,-3.805977192748977e-06,-6.2551051320395485,-18.41137970765951
-18.307447159045747,38.92173922943917,-32.49202785294675,-3.7699510562828224e-06,-6.4297318260713885,-18.307468599589818
-18.183743701166822,38.54893217326921,-31.907032058662768,-3.727092596958115e-06,-6.64192057222695,-18.18376515062784
-18.061995898765552,38.1777107012874,-31.32231143166738,-3.684944614609808e-06,-6.855419735061825,-18.06201735699074
-17.942398943710238,37.80876148379453,-30.73902252968465,-3.6435744558968994e-06,-7.069759427144822,-17.94242041053036
-17.824774728015633,37.441632310621976,-30.15652547819631,-3.6029201832636423e-06,-7.285127312841448,-17.8247962032721
-17.709124592918794,37.07641974693468,-29.575043501547004,-3.562981918208334e-06,-7.501396732976288,-17.709146076451045
-17.594604489523423,36.7105070575714,-28.9904575495353,-3.523468140668527e-06,-7.720070002645167,-17.59462598122937
-17.482012815551258,36.346496224096065,-28.40697111183106,-3.4846542311957937e-06,-7.939545613696547,-17.482034315270113
-17.37028319966945,35.980976852604385,-27.81915650630959,-3.4461725588935612e-06,-8.161840854418251,-17.37030470731465
-17.260198186793982,35.61653300332681,-27.23120113492017,-3.4082927022302172e-06,-8.38535238304724,-17.260219702221868
-17.169453340971298,35.31281731592609,-26.73981658260952,-3.377095005503269e-06,-8.57302125327241,-17.169474862792747
-17.13150992685178,35.18492160378276,-26.532516712959005,-3.3640577100869355e-06,-8.652425412986807,-17.131531451340397
-17.10810901870709,35.10577532275713,-26.40412161558855,-3.3560194345678807e-06,-8.701674230688402,-17.108130544838744
-17.14441418097076,35.19425989298183,-26.41953233683938,-3.3698349199310222e-06,-8.774748077556776,-17.144435713438764
-17.336577605747316,35.679866547837904,-26.622486083088408,-3.4421183254868973e-06,-9.057400974881672,-17.33659916600866
-17.580169752259707,36.28089041607098,-26.869582958938828,-3.5339311105964486e-06,-9.411327952631272,-17.5801913485098
-17.83136387348576,36.88421103399346,-27.113080156290344,-3.6288245268906006e-06,-9.771151357724642,-17.831385507711605
-18.088211930061686,37.484458469371845,-27.350830409298887,-3.7260791509803413e-06,-10.133648523861643,-18.0882336039996
-18.311421824937845,37.99289790786364,-27.5487078023867,-3.810780878465754e-06,-10.444210554824826,-18.311443534091097
-18.409409968337833,38.21233135337187,-27.633115532385006,-3.848018338017179e-06,-10.57923626389731,-18.409431693152776
-18.434945196798868,38.269144198081754,-27.654872105085072,-3.857727591431185e-06,-10.61429253421975,-18.434966925715123
-18.434945196798868,38.269144198081754,-27.654872105085072,-3.857727591431185e-06,-10.61429253421975,-18.434966925715123
-18.434945196798868,38.269144198081754,-27.654872105085072,-3.857727591431185e-06,-10.61429253421975,-18.434966925715123
-18.434945196798868,38.269144198081754,-27.654872105085072,-3.857727591431185e-06,-10.61429253421975,-18.434966925715123
-18.434945196798868,38.269144198081754,-27.654872105085072,-3.857727591431185e-06,-10.61429253421975,-18.434966925715123
-18.434945196798868,38.269144198081754,-27.654872105085072,-3.857727591431185e-06,-10.61429253421975,-18.434966925715123
-18.434875553923316,38.26899963082237,-27.654767620045213,-3.859560760658044e-06,-10.614252445097199,-18.434897276445316
-18.047216758292684,37.464283151007194,-27.073164054845194,-1.4063679545185663e-05,-10.391101105622283,-18.04720288798688
-17.662372381633844,36.66540894628866,-26.495782955706584,-2.419371600313835e-05,-10.16956985414866,-17.662323176905648
-17.191588160401388,35.688137630552305,-25.78946651301298,-3.658589739946776e-05,-9.89856831682825,-17.19149573069826
-16.360681230503427,33.96331026375983,-24.542858830625914,-5.845738105243943e-05,-9.420266272670858,-16.360512511218808
-15.533322854836776,32.24584911721473,-23.301575035676706,-8.023545816002186e-05,-8.944006913056784,-15.533078171780584
-14.705988635970206,30.528438116249575,-22.060327483116964,-0.00010201289940209502,-8.467761459027612,-14.705667991360391
-13.878134989440792,28.80994886811171,-20.818300634475264,-0.00012380401323880917,-7.991217002421869,-13.877738335586189
-13.049786982598523,27.090433408534306,-19.575532098236916,-0.00014560813983677509,-7.514387972972068,-13.049314274109527
-12.222406627819254,25.37292663693353,-18.334215328077548,-0.0001673867954878562,-7.038115961333904,-12.221857953540672
-11.393661239167548,23.652586277484286,-17.090850600859614,-0.00018920138213788856,-6.561058183603249,-11.39303647376903
-10.565152694312513,21.932737567156554,-15.847841209824141,-0.00021100973448532842,-6.08413674228768,-10.564451859539824
-9.735174964408941,20.20983906811313,-14.602627603969351,-0.00023285675934302906,-5.606369581449654,-9.734397925369104
-8.908261145438427,18.49330074881619,-13.362010776369585,-0.00025462313464122405,-5.1303661257988935,-8.907408183443916
-8.08169003965905,16.777473846249283,-12.12190812055194,-0.0002763804888978464,-4.6545599490658836,-8.080761186176018
-7.2535270038488,15.058342356388104,-10.879417095911148,-0.0002981797466100713,-4.17783739606915,-7.2525221127144555
-6.42577154211835,13.340056923890925,-9.63753755368883,-0.00031996827598497826,-3.7013494584168076,-6.424690650754042
-5.596911631519319,11.619478835543596,-8.394001009466843,-0.00034178587713014694,-3.2242257574406756,-5.595754638520256
-4.769761127300497,9.902449196245694,-7.153029083554336,-0.0003635584825575573,-2.7480860566413754,-4.768528189615541
-3.9406982031562583,8.181449684865292,-5.9091879585953535,-0.00038538142751113035,-2.2708454932463984,-3.9393891451968925
-3.110987191897069,6.459104850258296,-4.664374510085705,-0.0004072214316878611,-1.793231865936897,-3.1096019541592836
-2.286800452146079,4.748227502966756,-3.4278491129256263,-0.00042891602365338177,-1.318798222160781,-2.2853395418399427
-1.458520639716185,3.0288536038752287,-2.18518288860129,-0.0004507183552091815,-0.8420084480423108,-1.4569836810369095
-0.8720405416511505,1.8114165037346202,-1.3052881982239035,-0.00046615593241075554,-0.5044079061903104,-0.8704497353992724
-0.4865238240879091,1.011146628875419,-0.7268983876322416,-0.0004763036665103702,-0.2824896293864446,-0.48489762168276596
-0.10113479799523406,0.21114182069819296,-0.14870015224889163,-0.0004864480394610877,-0.06064485671306052,-0.0994732111607969
-0.00022802599884300798,0.0016758076328818059,0.002690036771470341,-0.0004891041501935668,-0.002559030757649778,0.0014428255740718437
-0.00022802599884300798,0.0016758076328818059,0.002690036771470341,-0.0004891041501935668,-0.002559030757649778,0.0014428255740718437
-0.00022802599884300798,0.0016758076328818059,0.002690036771470341,-0.0004891041501935668,-0.002559030757649778,0.0014428255740718437
-0.00022802599884300798,0.0016758076328818059,0.002690036771470341,-0.0004891041501935668,-0.002559030757649778,0.0014428255740718437
-0.00022802599884300798,0.0016758076328818059,0.002690036771470341,-0.0004891041501935668,-0.002559030757649778,0.0014428255740718437
-0.00022802599884300798,0.0016758076328818059,0.002690036771470341,-0.0004891041501935668,-0.002559030757649778,0.0014428255740718437
-0.00022802599884300798,0.0016758076328818059,0.002690036771470341,-0.0004891041501935668,-0.002559030757649778,0.0014428255740718437
-0.00022802599884300798,0.0016758076328818059,0.002690036771470341,-0.0004891041501935668,-0.002559030757649778,0.0014428255740718437
-0.00022802599884300798,0.0016758076328818059,0.002690036771470341,-0.0004891041501935668,-0.002559030757649778,0.0014428255740718437
-0.00022802599884300798,0.0016758076328818059,0.002690036771470341,-0.0004891041501935668,-0.002559030757649778,0.0014428255740718437
-0.00022802599884300798,0.0016758076328818059,0.002690036771470341,-0.0004891041501935668,-0.002559030757649778,0.0014428255740718437
-0.00022802599884300798,0.0016758076328818059,0.002690036771470341,-0.0004891041501935668,-0.002559030757649778,0.0014428255740718437
