RAMEL-ESPOL/ARCHIE/matlab/data/joint_goals_square_t35_h35_p12.txt
Joint0,Joint1,Joint2,Joint3,Joint4,Joint5 
0.0005238877634372885,9.582472928029004,14.246238245104564,0.0013197447206471685,-23.825543966631198,0.0055420466280165165
0.0005238877634372885,9.582472928029004,14.246238245104564,0.0013197447206471685,-23.825543966631198,0.0055420466280165165
0.0005238877634372885,9.582472928029004,14.246238245104564,0.0013197447206471685,-23.825543966631198,0.0055420466280165165
0.0005238877634372885,9.582472928029004,14.246238245104564,0.0013197447206471685,-23.825543966631198,0.0055420466280165165
0.0005238877634372885,9.582472928029004,14.246238245104564,0.0013197447206471685,-23.825543966631198,0.0055420466280165165
0.0005238877634372885,9.582472928029004,14.246238245104564,0.0013197447206471685,-23.825543966631198,0.0055420466280165165
0.0005238877634372885,9.582472928029004,14.246238245104564,0.0013197447206471685,-23.825543966631198,0.0055420466280165165
0.0005238877634372885,9.582472928029004,14.246238245104564,0.0013197447206471685,-23.825543966631198,0.0055420466280165165
0.0005238877634372885,9.582472928029004,14.246238245104564,0.0013197447206471685,-23.825543966631198,0.0055420466280165165
0.0005238877634372885,9.582472928029004,14.246238245104564,0.0013197447206471685,-23.825543966631198,0.0055420466280165165
0.0005238877634372885,9.582472928029004,14.246238245104564,0.0013197447206471685,-23.825543966631198,0.0055420466280165165
0.0005238877634372885,9.582472928029004,14.246238245104564,0.0013197447206471685,-23.825543966631198,0.0055420466280165165
0.0005238877634372885,9.582472928029004,14.246238245104564,0.0013197447206471685,-23.825543966631198,0.0055420466280165165
0.0005238877634372885,9.582472928029004,14.246238245104564,0.0013197447206471685,-23.825543966631198,0.0055420466280165165
0.0005238877634372885,9.582472928029004,14.246238245104564,0.0013197447206471685,-23.825543966631198,0.0055420466280165165
0.0005238877634372885,9.582472928029004,14.246238245104564,0.0013197447206471685,-23.825543966631198,0.0055420466280165165
0.0005238877634372885,9.582472928029004,14.246238245104564,0.0013197447206471685,-23.825543966631198,0.0055420466280165165
0.0005244205135892463,9.582474039629316,14.246235550211082,0.0013197456017876533,-23.825537174035517,0.005542583048772376
0.018651100147426294,9.620213464357024,14.154648818387916,0.0012884298561037708,-23.594579150054443,0.02376937556223936
0.059406918613961274,9.704465899119949,13.94949744080591,0.0007728609669093241,-23.076438197279746,0.06457363243959056
0.10249018988124974,9.792635403626615,13.733772202260225,-0.00043257504315004434,-22.530384020042465,0.10745455384746251
0.14543922979123833,9.879626026767095,13.519864794258131,-0.0022988047082313466,-21.987694373642036,0.14995748985693266
0.18868740852724622,9.96632094972054,13.305601267014021,-0.004837698217831218,-21.442851465440672,0.19252484062749475
0.23201906335654823,10.052286069346193,13.092043715653155,-0.00803513489180988,-20.89854383110341,0.23495582348130592
0.2754193906587885,10.137497120872856,12.879250215551364,-0.01188374783322701,-20.35491709604844,0.27724899848608225
0.319071078909004,10.222312436990544,12.666317001197852,-0.016397633064449243,-19.809652369663798,0.3195940691256807
0.3626600633450669,10.3061251547014,12.454763593549051,-0.021539735918093838,-19.266636254696515,0.3616986955767816
0.4066991575964435,10.389918396710337,12.242096293615552,-0.027370685104696653,-18.71945429214725,0.4040692689510769
0.4510318881860418,10.47338065254806,12.029078994183985,-0.03387788232439436,-18.17004212303538,0.4465643032735921
0.4956649926751158,10.556515115445192,11.815682264137173,-0.04106751187566053,-17.618300213275514,0.48920033590328144
0.5400706974127076,10.6383446568641,11.604414113994801,-0.048848947183117726,-17.070712891433114,0.5314857610656695
0.5848127355854541,10.719912713469885,11.392578771035112,-0.05731650130672124,-16.52029094266881,0.5739696503110717
0.6295862167079838,10.800660063196592,11.181615545572983,-0.0664138956741941,-15.970759942607312,0.6163735097639438
0.6744585668262776,10.880711694615782,10.971194678405125,-0.0761516378208779,-15.421257358637336,0.6587730384007415
0.7194708398367547,10.960140894245818,10.761115539119361,-0.08653801778744848,-14.871250540308491,0.7012184041764429
0.7644567761203578,11.038657645054766,10.55214227480067,-0.0975319001144487,-14.322736863535676,0.7435644331800251
0.8096568896395726,11.116682744815158,10.34314855860677,-0.10919115678618184,-13.772753016716132,0.7860488704399924
0.8549865984495783,11.19406645080435,10.134521809023008,-0.12149662669422735,-13.222303879729655,0.8286031935686575
0.9003931408157895,11.270718817558512,9.926496902212465,-0.1344341064348635,-12.672000957961822,0.8711891050839148
0.9458444373821209,11.34658793536258,9.719210582199937,-0.14799327135813514,-12.122201461617818,0.9137878012548719
0.9913612995604878,11.421710886418873,9.512557700357222,-0.16217927162583923,-11.572622283763526,0.9564300023410897
1.0367628376532012,11.495795703444431,9.307344815750872,-0.1769318529597888,-11.025411665550399,0.9989574034112229
1.082603297992141,11.56974279410152,9.101063526529776,-0.19243494838414968,-10.473865893266836,1.0419002593703144
1.1283191531853065,11.64263908664385,8.896246542425475,-0.20850203329081846,-9.924741879381164,1.0847417707623768
1.174130847086194,11.714841514862554,8.691893054975045,-0.22520810742672992,-9.375358174803065,1.1276995051908287
1.2200670712791646,11.786393579888857,8.487869541631959,-0.24256645596195744,-8.825345028603964,1.1708115166577586
1.265934470341454,11.856996764186691,8.285024742119324,-0.2605038924521311,-8.276987683558845,1.213907274903302
1.3120865732355567,11.927193274172383,8.081790010509335,-0.27916209202456177,-7.726034411748054,1.2573302021400492
1.3580396754491615,11.996248889390188,7.880286724398657,-0.29834661784264543,-7.178231402659607,1.30063616967762
1.404210116950995,12.064792332362224,7.678679019195828,-0.31823145456826146,-6.628586035876107,1.3442284122506036
1.450612242721091,12.132836085776457,7.4769060877601285,-0.33883180465918317,-6.076908763165159,1.3881325827698898
1.4967399422815402,12.19964246353133,7.277157230954244,-0.35992251721431356,-5.529186703628828,1.431880509779642
1.5431078454575116,12.265960734413719,7.077193088104383,-0.38173902600492016,-4.979279775244462,1.4759710452415653
1.5896513417340883,12.33169017751565,6.8772935945944615,-0.4042603011505487,-4.427934829545188,1.5203552662734807
1.6360334932643632,12.396357291371764,6.678896777124814,-0.4273250261935206,-3.8791156558998483,1.5647228874546397
1.682529829673781,12.460350093538825,6.480813574141519,-0.45107099224793223,-3.329533665406177,1.6093482629288967
1.7289334423400269,12.523385632220476,6.283917058328562,-0.47539502160813457,-2.781608031584623,1.6540439128687674
1.7755605118750803,12.585892149426794,6.08686021571662,-0.5004678955451297,-2.2315810833532557,1.699126179367271
1.8221863380581358,12.647564552942312,5.890589771905263,-0.5261760372052766,-1.682081004561116,1.7443902436242162
1.869001925764799,12.708652344802074,5.694298091104609,-0.5526317346717766,-1.130833762635142,1.7900340244094213
1.915558189770595,12.768573136550234,5.499858340326499,-0.5795831950821518,-0.5831006699519303,1.8356306188922886
1.9623346032237041,12.827946795923086,5.305259087917513,-0.6073108576837674,-0.033214831274290396,1.8816608498678074
2.0092949547424626,12.886718030098544,5.110653137026843,-0.6358058286399665,0.5184175090415138,1.9281036402060532
2.056027112620819,12.9443735845281,4.917739801584299,-0.6648215305133249,1.0669804097873468,1.9745628443915224
2.1028218495561166,13.00127773315752,4.725307562157051,-0.6945398339358025,1.6159134572687281,2.0213381615735093
2.149784444263016,13.057553502303712,4.532921766224003,-0.7250376038278588,2.1664731238689203,2.068548774646026
2.196701308847143,13.112942611455184,4.341453342181845,-0.7561842806725788,2.716177964239711,2.115993268141213
2.2435869887901765,13.167464952396003,4.1508344973255475,-0.7879938074791789,3.2652226865480296,2.1636981012915246
2.2905249270414636,13.221217757050177,3.9607198290421852,-0.820529401917181,3.814607541949419,2.2117609151621638
2.3376388070583802,13.274337073318918,3.7706072428110335,-0.8538885337162443,4.365801340324729,2.260323459702163
2.384542514649852,13.326388789154391,3.5820478637433357,-0.8878041128346883,4.914309892747259,2.3090004242350863
2.431428965185361,13.377593389354494,3.394254932624247,-0.9224177784704743,5.4624133334225515,2.3580027277721385
2.4785838964132867,13.428256271068829,3.2060838269063896,-0.9579541146250533,6.013472660266513,2.407645311547997
2.525528624052165,13.47786168949963,3.019440256698561,-0.9940618285382479,6.561915636510764,2.457438545227989
2.572564901413208,13.526731396190549,2.8331164772373145,-1.0309789791969344,7.1112900096825316,2.5077150992720885
2.619674068982104,13.574841508043903,2.647184513839607,-1.0687037521901972,7.661398829369041,2.5584712624748867
2.66672695930798,13.622059181351558,2.462149408108284,-1.10714270451893,8.210755158331398,2.6095826792158596
2.713849207948609,13.668509750605462,2.2775122292935874,-1.1464086503614874,8.760847103847855,2.661200814738441
2.7611153044393237,13.714260237054779,2.0929808013772475,-1.1865794671546823,9.312564958992443,2.713425533065066
2.8079956518468263,13.758803832497057,1.9106127898400427,-1.2272097800562205,9.859748152475783,2.765683620195944
2.8551806524605636,13.802797741887877,1.7277162329539673,-1.2689073605136845,10.410475799783827,2.8187594079890177
2.902329856576232,13.845916517274285,1.5456118134898977,-1.3113899768706703,10.960794748667661,2.8722902177461846
2.9492220945576313,13.887964538829875,1.3651434704122007,-1.354463140598847,11.508143666879093,2.926036903875544
2.9963894307795975,13.929417272403484,1.184259673279001,-1.3986288908229345,12.058753244095278,2.9806265732220876
3.043457422205485,13.969939692222946,1.004395899823117,-1.4435546471986445,12.608272653337517,3.035646176022426
3.0909416065907824,14.00996556845642,0.8235846744483362,-1.4897554121752992,13.162741661244942,3.0917220718534515
3.1386388480904457,14.049305145532156,0.6426083664868566,-1.5370659448915946,13.719810343352048,3.1486445661134663
3.186060516807572,14.087555400689245,0.46331599155266334,-1.585015392048871,14.273791691635234,3.205848701080652
3.2336057580627795,14.125040676182607,0.2841917515345028,-1.6340191240728987,14.82936781648278,3.263832877608947
3.2811455728185033,14.16165413981198,0.10572053906990589,-1.683964522390021,15.385051672966263,3.3224625628197013
3.328584298328774,14.197323036698373,-0.07174398196177187,-1.7347653868410189,15.939744064882872,3.3816385281541272
3.3760701933781077,14.232158156388047,-0.2487606757528252,-1.786597105960115,16.495197669805783,3.4415661678634395
3.4235019657060097,14.266083232942325,-0.42495520586315105,-1.8393677271655788,17.050246837008313,3.5021395939471036
3.4708971740689916,14.299111021867953,-0.6003975327037345,-1.8931135179300145,17.60511545549616,3.563401930843162
3.5182211671566312,14.331217914167896,-0.7749642859580402,-1.9478120655851676,18.159415890128898,3.625329265644963
3.5655695934674445,14.362467557521502,-0.9490118702494212,-2.0035935404597205,18.71428681099483,3.688069738277359
3.6129520071187287,14.392862085800711,-1.122576896070257,-2.060493061210222,19.26985931871767,3.7516622593664035
3.660377210994587,14.422402273939502,-1.2956925857487565,-2.1185467536617555,19.82625592220584,3.8161463323178286
3.7075428006982767,14.450902939688062,-1.4672615116676786,-2.177400582198335,20.37994486370098,3.881131431424964
3.7548560347783764,14.478610468063396,-1.638769507250444,-2.237583255498103,20.93572399159317,3.9472027824661153
3.8021446978495024,14.505417560139394,-1.8095920661410663,-2.298905755225035,21.491589758727493,4.014151447667548
3.8480869874899333,14.530610045580099,-1.9749819097444696,-2.359628923716944,22.032005611597253,4.0800944947380495
3.87406601151651,14.544483197753156,-2.068257451083506,-2.3944758882221366,22.337765415819522,4.117786646794891
3.8854025262695417,14.550452543896276,-2.1089043176655653,-2.4097991093583735,22.471229952542718,4.134327445797812
3.876361236568386,14.46495424285814,-2.2135362019190548,-2.408043489600578,22.668284225827694,4.133632151297412
3.850487535126282,14.232772930280458,-2.4813580586260433,-2.4008406375984706,23.168908872587295,4.128956959467645
3.823311446724398,13.979953634235057,-2.7610937434090097,-2.3935500934719838,23.7021116580474,4.1242372388726904
3.796571674441175,13.721942354761884,-3.0346065230209462,-2.386661963098752,24.234268061222668,4.119793583989629
3.7737415212356797,13.494158233601013,-3.266638740329273,-2.381013292368213,24.69462023465882,4.116164400632782
3.7642992485227222,13.397881694062837,-3.36217497193633,-2.3787414127609843,24.886653511740818,4.114709392546511
3.757524977892982,13.328051011668718,-3.430554666113407,-2.3771351242430203,25.025021683988594,4.113682494909682
3.7352882018058255,13.094308096601306,-3.6540213354185607,-2.37200390816236,25.482746839418134,4.110413763870668
3.7098074937690555,12.81774981842821,-3.9081029136339858,-2.3663980832717635,26.013972888301762,4.106867197303011
3.6845715810249113,12.534390939771418,-4.157485457329208,-2.361145163271327,26.547289937242883,4.103573855571344
3.6605293313898595,12.255404837001555,-4.392813694272734,-2.356428171383667,27.062148008254145,4.100648776968006
3.6488111098522578,12.11615058305774,-4.50666328821904,-2.3542340029859727,27.315515190046877,4.099301159274868
3.6432805727772313,12.050420115359337,-4.564508116262951,-2.353298781061591,27.43921137476067,4.098848244510684
3.6560402575134403,12.274677954872786,-4.848475881092953,-2.3628034692327016,27.498350119427425,4.1158641150382715
3.6825634129578795,12.736083378446647,-5.43024390990386,-2.3825193774314726,27.61752042275613,4.151129241395349
3.711067674493796,13.224977935359401,-6.043001105666664,-2.40364572135897,27.740094186777938,4.188871701651078
3.7401285820391283,13.716205480924103,-6.654857583958049,-2.4251179748667733,27.859401093137784,4.2271860422907315
3.7699297979033903,14.212613421571875,-7.2692499102720625,-2.4470670341281706,27.97602144091119,4.266305276725532
3.800252671821565,14.710324418814253,-7.881281252222803,-2.4693271164901014,28.088945249124897,4.3059335452616825
3.831309563932418,15.212599289376648,-8.494869793637548,-2.492049317378508,28.198819605260553,4.346339536614637
3.8630380865813914,15.718157211790047,-9.108334095890205,-2.515182559266703,28.30524621152377,4.387431862809588
3.8954824766880694,16.227448066523568,-9.72211330571623,-2.5387536685681904,28.40821170109803,4.429257742771304
3.928618776704094,16.73984045079725,-10.335340287714267,-2.562739647908135,28.50748087723454,4.47177595017614
3.9625101148033925,17.256051665749315,-10.948766248644212,-2.5871803947298133,28.603084050672738,4.515056784444664
3.9968946973740445,17.771911452955678,-11.557371741533004,-2.6118820804848224,28.694183954222286,4.5587569996467
4.031499439291538,18.283326901641964,-12.156370327720353,-2.636645702259295,28.780099852052167,4.602525512967819
4.055924904282275,18.6397577912597,-12.571263887207762,-2.6540668996329626,28.837379164501225,4.633292804364157
4.037305999444505,18.711846584806345,-12.654202163700386,-2.6421904063126216,28.849074236683084,4.612750720700538
3.6781648001635614,18.732775676057813,-12.668045995634474,-2.4075156450944943,28.857757894341542,4.205038520878877
3.114751122957052,18.761658361496867,-12.687134751171575,-2.039141738703287,28.86969720073661,3.5653573628553468
2.5434376883466276,18.786032863070957,-12.703239170151752,-1.6653697281910582,28.879813017713477,2.9166353289066924
1.9691157862650657,18.805559747106283,-12.716131924412862,-1.2894345722628389,28.88789661771392,2.26443598135654
1.3969005625638644,18.82006451549684,-12.72570837391351,-0.9147286767241685,28.893927673195538,1.6145828151676782
0.8218894614401562,18.82966818953755,-12.732045319734173,-0.5380850566679971,28.897903755310878,0.9615208796471941
0.24846075547287413,18.834288083939708,-12.735096218003324,-0.16241459671379416,28.89983952129229,0.3102366688731073
-0.32296874873757137,18.833967913097172,-12.734883388392221,0.2119641618502981,28.89969031181648,-0.33878270035342656
-0.896786345705777,18.828701524060822,-12.731410652759621,0.5878840344613417,28.897519615839858,-0.9905070095089279
-1.471085843328609,18.81846519613941,-12.72465355335551,0.9640492651888298,28.893254249243963,-1.6427567045914102
-2.0433877915913783,18.80331933396826,-12.714657713486154,1.338796079457978,28.886985970306156,-2.2927035811836087
-2.6172537290664315,18.783166329014474,-12.701348064879692,1.7144084854513635,28.878614139537785,-2.9443770519411387
-3.1893762699260324,18.758116346443103,-12.684801143235497,2.088683456040081,28.86825304441378,-3.594009984084097
-3.735712905164999,18.72956166110649,-12.665924745877094,2.4458606847176365,28.856418601036303,-4.214291880559545
-4.038225405468267,18.711799748481923,-12.654182058725326,2.6435287290512792,28.84910043084,-4.557716677298593
-4.063101082306925,18.716554683474744,-12.532675327033294,2.656544820035313,28.72180365878784,-4.57924548514889
-4.071292445016809,18.73679682661202,-12.071699738796912,2.6497860032145875,28.240724784262063,-4.563154301256673
-4.080620582250379,18.75377196293673,-11.544976593470148,2.6424936350209163,27.697178521299666,-4.545207790392794
-4.09007648428258,18.764529375082553,-11.009173980693886,2.6355249214535617,27.150766261312057,-4.52740853658678
-4.099579337446138,18.76895669944619,-10.46888438372733,2.62893508822038,26.606191718948157,-4.509901886347451
-4.109094430491183,18.767134521454825,-9.9261276509942,2.622736662134568,26.065393875370095,-4.49273833104118
-4.118599890296886,18.759216804328176,-9.382211743322665,2.6169294620154293,25.529526693271812,-4.475941276507032
-4.128110016959104,18.745344408596825,-8.836378317488382,2.611490643842322,24.99769143890431,-4.459469769442155
-4.1375488369104305,18.72583253385382,-8.293060710051318,2.606446864734199,24.474005552807945,-4.443437417547621
-4.146966022219796,18.700800241413475,-7.749475849114128,2.60175423353319,23.955567845332713,-4.427741515033228
-4.156023596429746,18.671602363527075,-7.225270223270842,2.5975501883544236,23.4606663445576,-4.412915345294716
-4.1602581089231485,18.656293655974398,-6.979876996968566,2.5956879353627587,23.23063003046217,-4.406076555619069
-4.17654404865247,18.884500699544613,-7.242643820827402,2.6064976111607914,23.26443059147806,-4.425124500163372
-4.211990154047446,19.375630690742014,-7.8053175491495805,2.629973453027897,23.334314035024995,-4.466446613806265
-4.25090444594077,19.906270129643573,-8.408899694655998,2.6556659029993823,23.405421616099883,-4.511601217769873
-4.290528929684724,20.437693529729554,-9.008825476833467,2.681741478281281,23.472042111019583,-4.557357262993596
-4.331088952963233,20.972662127499166,-9.608143211929264,2.708343835986669,23.5344511108078,-4.603965043993561
-4.3606359918580075,21.35680883562,-10.035637292296538,2.7276669165203313,23.576376365684826,-4.637774498669069
-4.345097070822718,21.412447270725963,-10.096780758573617,2.71808843463468,23.582600092698808,-4.621453590517719
-4.000880945554153,21.170125112924456,-9.818552137335995,2.5026200758298636,23.562118535229665,-4.2518190453155125
-3.4821902120846984,20.798559372458993,-9.391655339512548,2.1779023330134297,23.527593897863103,-3.6951461889719477
-2.9599527907594836,20.41647968336321,-8.952269705846305,1.8509640311721793,23.488312176052396,-3.1350981996072242
-2.4369278903072233,20.02558870343973,-8.502245311134743,1.5235811253937739,23.444291608880455,-2.5746960957244127
-1.9182947209327939,19.62961855209264,-8.045776369853515,1.199044146241732,23.395876294474373,-2.0195434496437605
-1.4089081334290525,19.232379068768743,-7.587168690825453,0.8804353809897343,23.343566066907012,-1.4748753945173787
-0.902308956088102,18.828897446268527,-7.120592687543534,0.5637573869382471,23.286722813977295,-0.9338255515232969
-0.3986082884205897,18.419168786913396,-6.6459394628858846,0.24912422770526696,23.225291413657963,-0.39656492735649124
0.1029172903381122,18.002491360171444,-6.162288320699497,-0.06387150625923768,23.159104040861614,0.13762328507072086
0.5270421812694034,17.643143523216516,-5.744364804348843,-0.3283085098794068,23.099097432902866,0.5887321338023546
0.7246361576196945,17.473498251544147,-5.546793460469272,-0.45142064611421445,23.069864437241055,0.7986902123457872
1.1655401978932365,17.089737715400226,-5.099182238413436,-0.7259007196198187,23.00157472916383,1.2666577958977356
1.6618712803347495,16.648915301460274,-4.583818609521322,-1.0344918214364158,22.919604714974646,1.7925626326158988
2.1530083431264315,16.203238753670334,-4.061413037612116,-1.3393802384381426,22.832935235555258,2.3119365375403507
2.6326108345855985,15.758664959930002,-3.538875827358804,-1.6366120016681753,22.74281400065244,2.8180600713478774
3.102005132569236,15.314319985678186,-3.015131817783568,-1.926996762583284,22.649180121746184,3.312328447740834
3.55723913659431,14.874391908364979,-2.4950938729825367,-2.208095572881068,22.553094459884797,3.790604239395688
3.8553524088317377,14.581373839875493,-2.147861667481207,-2.391860603903739,22.487222102952522,4.103172563805688
3.881677341221398,14.51163884780835,-2.158363129276575,-2.409559811515556,22.56631228795425,4.1346231726956715
3.85855029638745,14.305989387692211,-2.39806894561036,-2.403063871618018,23.012224120981184,4.130404461618867
3.831222884417672,14.05450392401146,-2.679852023067561,-2.3956484277885934,23.546145587476342,4.125599682264129
3.804391790138016,13.798352765747762,-2.9548222717236,-2.388652080988189,24.07790299304015,4.12108114339712
3.7786800036194075,13.5440149798836,-3.2165855306487128,-2.382222224587611,24.594608691939897,4.116945317523712
3.765891142717469,13.414186791565365,-3.346101879122255,-2.3791273367592463,24.854252194155336,4.114961851722822
3.7593971827434145,13.34740148662332,-3.41168525506555,-2.377582649928584,24.986772224813862,4.1139739392170664
3.7426787077545884,13.172758103466544,-3.5799379197221115,-2.3736905425419206,25.330056479142424,4.111491584337618
3.7170933962849535,12.897783909185945,-3.8356899642976505,-2.3679760878932976,25.861372746515784,4.1078680468607685
3.6917916208779715,12.61642907756918,-4.08638808071225,-2.3626225135259395,26.39400425178538,4.104502158564748
3.6668677398712055,12.329817423784244,-4.331006102847503,-2.357649435012383,26.925798941759513,4.101408165131335
3.6503920233176386,12.135056614602755,-4.491346662554228,-2.354531435911241,27.281271084081432,4.099488777865531
3.6437000012054916,12.054720877245732,-4.556148127651216,-2.353304457482767,27.426558257103782,4.0987386549284865
3.4772136439738435,12.057683064799226,-4.568726593806183,-2.246171905383516,27.442802341715083,3.9133436421523897
2.9941774261808005,12.083164526546586,-4.587827922269177,-1.9344694777523248,27.453902354239112,3.373775718305947
2.4505644043104766,12.107273570863942,-4.605892870067946,-1.5834781920733172,27.46441636103273,2.766458801772653
1.9062910853486468,12.126575376903139,-4.6203465332156215,-1.2318858582967394,27.472809718790366,2.158329857261616
1.3634413348012384,12.141016096291638,-4.631159958782776,-0.8810792603955003,27.47911798589425,1.5517373187651333
0.821009095733657,12.150653055137209,-4.63837515087635,-0.5304461178854805,27.48333218941211,0.945571167385104
0.27597127807806365,12.155514992191723,-4.6420155734155415,-0.17807027010504445,27.48546356664421,0.3364689492066458
-0.26619584336979957,12.155557874024112,-4.642045358322564,0.17246865879393522,27.485460028218416,-0.26943434719164616
-0.8103121556854815,12.150796375340153,-4.638483152462088,0.5242495002353119,27.48339135550328,-0.8775070531000253
-1.3538703792724922,12.141230440381793,-4.6313241320562275,0.8756123377447591,27.47922656253133,-1.48493229899155
-1.8969600056500395,12.126867704536334,-4.62056834847595,1.2265749349249973,27.472939428012783,-2.091794401470777
-2.439598480787911,12.107714293746856,-4.606225054392177,1.5771137243136875,27.464597235707682,-2.69809627147753
-2.9829451568257648,12.083717140680871,-4.588247096260286,1.9279378240121812,27.4541503427131,-3.3051177006591694
-3.4628240282485927,12.058504067958243,-4.569348918970215,2.2376080883302287,27.443175785501857,-3.8411609779205627
-3.643340265859167,12.048425102495342,-4.560470510611934,2.354016806931329,27.437190438342572,-4.042718813490843
-3.6504572084584828,12.114165022213811,-4.379835481433137,2.3533735841589474,27.19073357464981,-4.039264591927398
-3.6655493684922926,12.248634970066936,-3.9956651103458927,2.3522411795714753,26.67191678828553,-4.032134407780855
-3.6813870647844262,12.38268855539711,-3.590965679976458,2.3513811079009383,26.13297469630798,-4.024926132951394
-3.6973915043534835,12.511003115239136,-3.180489151883765,2.3508410214054574,25.593988664629247,-4.017914254472295
-3.71359950073583,12.633820768622629,-2.7633364328853003,2.3506187985689135,25.05381706888024,-4.0110793092499195
-3.7298993759377685,12.750295774692674,-2.342438074327569,2.3507128643912742,24.516237651545868,-4.004463177593333
-3.7463948752861866,12.861179554620307,-1.915173415131562,2.3511204902700538,23.977877086754955,-3.998018301436158
-3.7631340661151023,12.966712530892048,-1.480338759364891,2.3518438719734465,23.437290657637188,-3.9917238560058284
-3.7799511512023916,13.065844836004102,-1.0422969063418859,2.352873576253236,22.899893257042585,-3.985637467635126
-3.7955654136453516,13.15187193731332,-0.6346010242775005,2.3540920903455924,22.405960059167285,-3.9801894508973428
-3.8020105047579564,13.185729093666623,-0.4660567818628905,2.3546667547910367,22.20347109414067,-3.9779955729818797
-3.807463055674577,13.265469356690216,-0.5333062107969869,2.357826581693795,22.19077221447187,-3.983180310400669
-3.831062648439809,13.655864970936234,-1.0153752390841584,2.37396085629194,22.281417392155603,-4.0121195413311375
-3.8612792483293696,14.148855082999777,-1.6207789906547467,2.394572278873535,22.39250729479769,-4.049029432902772
-3.880428094091797,14.45737979249278,-1.9977446373111445,2.4076069697045037,22.460105178185884,-4.072337657522398
-3.8859745240115777,14.548315955631027,-2.1146960852969747,2.411493191863394,22.48586984173071,-4.079376981155921
-3.8708945747097476,14.415692034703723,-2.271276813011651,2.40721344686893,22.775438258946004,-4.076599225644253
-3.844019452981701,14.172472154824304,-2.549182477819112,2.3997963735718573,23.297208276109743,-4.0717937283449
-3.816910585440076,13.917976548796041,-2.827875346593914,2.3925964638173913,23.831041773905852,-4.067142560614211
-3.7902127308458913,13.658042117543388,-3.10057493329191,2.3857929322572415,24.364305967221362,-4.062764126730167
-3.769459204983912,13.449410056622614,-3.3112336234642945,2.380708221141086,24.784083040095453,-4.059505615560315
-3.761412278383394,13.366932485347062,-3.3925818717583813,2.3787860072909215,24.948096578156395,-4.058277489041274
-3.752666950359979,13.276278292493533,-3.4807710296481376,2.3767287746150525,25.127143397769142,-4.05696566291332
-3.7290583858574733,13.026163974732667,-3.717649420271914,2.3713439755102,25.61468253181543,-4.053546402893344
-3.7035880425443475,12.747293571545226,-3.9711273928493087,2.365818882972997,26.147615680929263,-4.050064598992907
-3.6784254992730916,12.462300365966392,-4.219248372179354,2.3606613244246244,26.681302633819122,-4.046845855514663
-3.6561361033805833,12.201668628344748,-4.437031414077015,2.356385243972302,27.160213455889526,-4.044184692416435
-3.646533252444753,12.086997627772305,-4.530208333971783,2.35460588662851,27.36827692599541,-4.043096736349253
-3.6444708379713036,12.06870696932176,-4.5877023236387,2.3548908055330546,27.444081614192516,-4.0443026403551965
-3.662027347904378,12.376713531729573,-4.9774255088534005,2.3679641495319244,27.525011820371947,-4.067703726585843
-3.6896489918662896,12.855639895695012,-5.58044816500358,2.3884830919945808,27.647864847736834,-4.104394933894469
-3.718332593983003,13.345850469807246,-6.193920701629425,2.409726774322813,27.769828014486315,-4.142335839884617
-3.7476755970836613,13.84004305461506,-6.808506045562859,2.431390881362061,27.888884002540305,-4.180981286268151
-3.7775535208018174,14.335905650970846,-7.421241369695569,2.4533790527230286,28.004387192533674,-4.2201590997973115
-3.8080225126085776,14.83418616793033,-8.032980842452792,2.475728327302922,28.116440830323413,-4.259935210735192
-3.8391776770293915,15.336208478394743,-8.645254541712958,2.498503575662033,28.225246224532132,-4.3004247346078435
-3.8711243245772815,15.843375141991627,-9.259644043267704,2.521776072797171,28.330976899702005,-4.341753696114008
-3.903732893668834,16.353351099677795,-9.873201169538268,2.5454457193337494,28.43302518551378,-4.383743766379931
-3.936969738372703,16.86539962866708,-10.484958454964943,2.569482965810621,28.53116138559889,-4.426342363645773
-3.9711741712294097,17.384439837657094,-11.100658224720181,2.5941267883260295,28.626191978714544,-4.46997230383474
-4.005571789692538,17.89856805639811,-11.706133439255167,2.618814547828244,28.71588998717843,-4.513637635040855
-4.0393373385780675,18.395837092681575,-12.287573065078018,2.6429559266567106,28.798431394886265,-4.556297259611499
-4.058921519370584,18.6809787838635,-12.619118238567648,2.6569160216700993,28.843885200491428,-4.580948664725063
-4.062554116073847,18.715026656700577,-12.563291808127502,2.656995331296044,28.753940070826264,-4.580311826250356
-4.070288400931179,18.7345896194423,-12.128171733761837,2.650583550813702,28.29938859667241,-4.565090402962393
-4.079539024300935,18.75213255279027,-11.606032716929738,2.643304964210996,27.759858103283623,-4.5472495072600525
-4.085404328340751,18.760017001650343,-11.274034741065261,2.6389033706783236,27.42006850939444,-4.5361359207169425
-4.089596142761252,18.76413761543571,-11.03632669397975,2.6358564529565016,27.178304721580037,-4.528284679178274
-4.093101985257619,18.766625976120416,-10.837244210012331,2.6333702554608163,26.976787213861773,-4.521775514292973
-4.096167058038265,18.768093330744016,-10.662989257126776,2.631242314356682,26.80111086374697,-4.516126703990853
-4.097943986321985,18.768643497023476,-10.561882209101144,2.6300279837956295,26.699480008654746,-4.512869605987809
-4.101799640940823,18.7690849902873,-10.342282606409425,2.62744122706845,26.47949540272381,-4.5058462753185715
-4.110527907669339,18.76632514550662,-9.844102407424574,2.6218245205245805,25.98419944696178,-4.490165055408154
-4.119901112570149,18.757664068669897,-9.307517624901216,2.616151716174161,25.456404154920552,-4.4736501816226
-4.129314162592541,18.743166857851744,-8.767045662588968,2.610815996941767,24.93055321864869,-4.457389477111796
-4.138786926018362,18.722851239332424,-8.221575068079158,2.6057991220197687,24.405517888584825,-4.441339488292166
-4.148203934693853,18.697114684609094,-7.678133395272426,2.6011874837965863,23.887924492328477,-4.425717600441195
-4.156982291507972,18.668236859352778,-7.169935171551596,2.597147881023896,23.408706595764684,-4.411378706598462
-4.160772854054812,18.663476992633893,-6.988161280272023,2.596050800727829,23.231706030114804,-4.40668583432108
-4.180519267496603,18.939901914081265,-7.306309021363746,2.609154854086442,23.27250792283751,-4.429774538988796
-4.217224487572937,19.447466489138012,-7.88729307766581,2.6334552050015736,23.34420667001355,-4.472539757604238
-4.255946808774534,19.974334034664345,-8.485991614586533,2.6590099220407986,23.414209873616354,-4.517442963957754
-4.2959059477189845,20.509077149713182,-9.089063067103861,2.6852943196662427,23.480638642021006,-4.563556007407081
-4.336149647315752,21.038732849168817,-9.681839840439103,2.711677811070595,23.541832912751534,-4.609771128228336
-4.362550033536921,21.381482159516757,-10.063013069421164,2.728938099074936,23.578985375620693,-4.639967400513485
-4.31432229135105,21.406059434243527,-10.088824837177857,2.6988801241466227,23.582460565851363,-4.588490364244806
-3.908804420364344,21.239419544386397,-9.893045451744147,2.4452778430900266,23.57118891699619,-4.153675581446955
-3.3389550829531895,21.00005413935822,-9.613118166202796,2.0888143793134533,23.552762813510526,-3.5429165237545797
-2.7655107441555535,20.752949482382178,-9.325597676035578,1.7300350779101892,23.53110400908989,-2.9286379787895602
-2.1927164418873204,20.499770697651922,-9.032391577471648,1.37164203550257,23.506289119593102,-2.315420766452263
-1.6209378529262501,20.240585675830655,-8.733526219015198,1.0139121394809782,23.47825639854894,-1.7036905361153354
-1.0520318574611016,19.976179534033907,-8.429855353928218,0.6580524957659931,23.447131595292714,-1.095456212856821
-0.49223249779164163,19.709527561902235,-8.124709561580026,0.30800670994669804,23.41326517436121,-0.4974063478932044
0.06258568540608009,19.438779987149523,-7.815884153715092,-0.03876428121172398,23.376465861521464,0.09484900370197817
0.6158250360571674,19.162258893189748,-7.501395320895191,-0.38434268306076924,23.336470168323306,0.6849101931942394
1.1694434100939013,18.878873332943936,-7.179954107726723,-0.7299119305528803,23.293145195254727,1.2748403147641072
1.716631952798032,18.592078183598797,-6.855408511761948,-1.0711793737224293,23.246978391592453,1.8573507038490542
2.265801590637467,18.29740124970766,-6.522631993512851,-1.4133494686827712,23.197230851220166,2.441363333884796
2.8100292301951524,17.998464581573224,-6.185650432936228,-1.752066929074292,23.14448543236524,3.0194809146370374
3.3513136892945816,17.69416783122934,-5.843149118438806,-2.088539628875415,23.088548493450325,3.5937994777477984
3.855542862006441,17.40430305812147,-5.517292878862425,-2.4015680733384843,23.03325062577908,4.128159766924873
4.064361424122391,17.280947182639093,-5.381869102290392,-2.531132145885234,23.01238282336894,4.349405247247249
4.049259825949129,17.15571804396189,-5.526668329441799,-2.5268321321631317,23.282800514499694,4.346302144655216
4.020251857267284,16.908312400931592,-5.803903284824273,-2.51879656443724,23.80818435368921,4.340504546560085
3.9909387434155312,16.648873112745616,-6.082712441983607,-2.510986053361294,24.347177613996642,4.334872930489873
3.9624906006191436,16.38770559954313,-6.351841896217993,-2.503715772296911,24.878191290445564,4.329636777265352
3.946355794197549,16.235350253705057,-6.50378321463712,-2.499732677881962,25.182891716039677,4.326771730391437
3.9389134460047517,16.16402125388166,-6.5736856575750515,-2.4979305249604002,25.32430872296516,4.325476520556097
3.9239106691116246,16.018178691136185,-6.714233456368335,-2.4943662111508536,25.611071849132227,4.322917203115254
3.896644863263921,15.745958625849166,-6.968332889375893,-2.4881289519310665,26.138064269436597,4.318447951926631
3.8690568659152653,15.460843170124031,-7.223542053434188,-2.482144651360399,26.67906369936682,4.3141748505446245
3.8420099896081203,15.171554712745301,-7.471720857184887,-2.4766098201149167,27.217186482933396,4.310240646918649
3.8166443180794563,14.891176874036885,-7.702488277431525,-2.4717299624759157,27.728940952721256,4.306791590032824
3.8048400742681032,14.757627509204427,-7.809178451271857,-2.4695650599771755,27.9694621255178,4.305269022896205
3.7897008784368618,14.69358939584839,-7.860475597940175,-2.462396758291771,28.085337823634003,4.293880582333074
3.490660866584645,14.710802734490525,-7.872771904665544,-2.268365290080646,28.092702025740145,3.957383788571166
2.9536707996291183,14.738142387787429,-7.892286816546594,-1.919755690458951,28.104349299454174,3.3530597853517805
2.397887947377536,14.76162239798907,-7.909042441560812,-1.558735362496555,28.114390975180868,2.7275093918252864
1.8425708815943953,14.780199793645439,-7.922294632962733,-1.1978419647631704,28.122343941953417,2.1024174831612314
1.2862761735535015,14.793923527345028,-7.932078230355264,-0.8361777255581808,28.12819433395467,1.4761731490618992
0.7332609195671362,14.802727005964208,-7.938355925087283,-0.47655219733237264,28.131972882803804,0.8535869336812637
0.17758993368119763,14.806716399671519,-7.941201431853925,-0.11514588404836579,28.13369241228493,0.22799073108063234
-0.3806857264657897,14.805822798977191,-7.940562434535608,0.24796679325437845,28.133289663987707,-0.4005435667643224
-0.9349129657024562,14.800077404179557,-7.936468788987118,0.6084194242279584,28.130842836137255,-1.0245088962098376
-1.4904696215968645,14.78945683833744,-7.928898883542067,0.9696685617995974,28.126311379699036,-1.6499454881020212
-2.044892462318484,14.773999265782262,-7.917873950565795,1.3300698236715094,28.11968149967515,-2.2740650298597895
-2.6003246029861575,14.753641779600153,-7.903353858055957,1.6909797865801999,28.110993808382016,-2.8992648504595233
-3.1564076041509366,14.728365113475936,-7.885316943521424,2.052122441972064,28.100212040926742,-3.5251261446378366
-3.6378485639173204,14.702514689531066,-7.866857072074703,2.364600721044224,28.089156805197035,-4.066909059733795
-3.7994217530994168,14.693185075348019,-7.85516347577513,2.4693113584883233,28.080042138894903,-4.248469324379909
-3.803625701426067,14.701567481584185,-7.5824033850317845,2.4656130179019793,27.798980557015124,-4.239488055353781
-3.8115765386279246,14.712886110325616,-7.064950358654289,2.4588970897661544,27.270358152316867,-4.22275443223237
-3.819759987484811,14.71845359806591,-6.5302389463765715,2.452354089206029,26.730227904231253,-4.205863711686842
-3.827976966350141,14.717969511888812,-5.991230318133887,2.4461481573638015,26.191847793179768,-4.18922856017765
-3.836155049362973,14.71157483357648,-5.452732648713257,2.4403210987261112,25.65988397182124,-4.172981341190857
-3.844288720301705,14.699489758875703,-4.915192667212932,2.4348597763489472,25.134563164534853,-4.157115168910863
-3.8524867850266844,14.681655690158768,-4.37146335657592,2.4296810954598747,24.608798937830453,-4.141406205436313
-3.8606821417878514,14.658274941000357,-3.8260221499865814,2.4248204542409564,24.08686549113529,-4.1259741304108974
-3.868858000239567,14.629536269933443,-3.280041507144785,2.4202763296280647,23.56974647283067,-4.110837847433345
-3.8770790025690034,14.595302183732356,-2.7292414711162443,2.416004516018246,23.053300557935255,-4.095867751979062
-3.88431724623521,14.560820221651582,-2.2428222420788453,2.4124828549407322,22.601466131744083,-4.082886015434423
-3.8875604482834127,14.571552703784612,-2.1368719051251683,2.412452685404577,22.484753360050515,-4.080995260018212
-3.907428485446659,14.887424001308291,-2.5207255934974446,2.4259465026833196,22.551856369951295,-4.10508810815488
-3.9392324220273838,15.386651202420193,-3.1242305142923845,2.4474996136834073,22.65471918621798,-4.143516083287324
-3.9722063576311575,15.89614692234161,-3.7361344399183354,2.4697842762373896,22.755651067959953,-4.1831799635799065
-4.006135330340801,16.41206582539401,-4.351603093788743,2.492649296516575,22.853671807043675,-4.2238069405426755
-4.039785430440296,16.915659154826393,-4.948324763632489,2.5152613439183313,22.94527378662169,-4.2639171274515775
-4.061199654566965,17.23205855340174,-5.321185184437192,2.5296175491613897,23.000758336256087,-4.289349002747757
-4.064620915106239,17.282320313122174,-5.380270389004425,2.5319087651396197,23.00942540588341,-4.293405490795394
-4.064620915106239,17.282320313122174,-5.380270389004425,2.5319087651396197,23.00942540588341,-4.293405490795394
-4.064620915106239,17.282320313122174,-5.380270389004425,2.5319087651396197,23.00942540588341,-4.293405490795394
-4.064620915106239,17.282320313122174,-5.380270389004425,2.5319087651396197,23.00942540588341,-4.293405490795394
-4.064620915106239,17.282320313122174,-5.380270389004425,2.5319087651396197,23.00942540588341,-4.293405490795394
-4.064620915106239,17.282320313122174,-5.380270389004425,2.5319087651396197,23.00942540588341,-4.293405490795394
-4.064605608659654,17.282291281681808,-5.380196398387005,2.53189922438184,23.009248940716713,-4.293389316220086
-3.97756294531152,17.11719915033758,-4.959436402455706,2.4776441127938753,22.005750316008225,-4.20140989399234
-3.8906775288936113,16.95240526619604,-4.539436530527702,2.4234870157819586,21.00406456181806,-4.109596637196955
-3.803802953166127,16.78763194338177,-4.119489061969308,2.3693366759491776,20.002503787925075,-4.017794835938471
-3.6909000812186994,16.573491255956615,-3.5737220769767686,2.2989624746036856,18.70086764345488,-3.8984885035018912
-3.542441895044013,16.29191349364653,-2.856082434437399,2.206426066051485,16.989320915419132,-3.741610282362077
-3.393511720197214,16.009440519576465,-2.136161221641348,2.113595459262596,15.272332718049574,-3.5842333029847606
-3.2444083198410527,15.72663899204257,-1.4154026451685546,2.0206568781886975,13.553347436104206,-3.42667327334619
-3.0953071290534413,15.443841655354488,-0.6946547496425354,1.9277196743749105,11.83438762786238,-3.2691155785952564
-2.9458715718012436,15.160410132278203,0.027709457090737043,1.8345740544907783,10.111572971038788,-3.111204553270074
-2.7968933505108637,14.877846029450481,0.7478629240553525,1.741713499570047,8.39403085518603,-2.953776802421038
-2.6477261812906887,14.594923552749036,1.4689297561114505,1.6487351703232427,6.674310393905895,-2.7961493871689935
-2.498278074803315,14.31146822778179,2.191354625236459,1.555581728296168,4.951351059291477,-2.638225100859409
-2.34985243130945,14.029952188543243,2.9088369580414555,1.4630656041276415,3.2401795097508903,-2.481381268108744
-2.20028845298093,13.746277091702273,3.631821946003985,1.3698399372923007,1.5158843103000792,-2.3233345381078583
-2.0510739300622958,13.463264800159406,4.353117683532464,1.2768320917129858,-0.20438208293400265,-2.1656570834193225
-1.9025134886856843,13.18149309239111,5.071251622738446,1.1842319458258106,-1.9171076921132462,-2.0086708075161184
-1.7534143300451266,12.898699610036934,5.791989694964564,1.0912960086824235,-3.6360440721108604,-1.8511152601685927
-1.6036118860117305,12.614572219918665,6.516127414531963,0.9979217022842486,-5.363088498178583,-1.6928165395126424
-1.455207693335867,12.333096866030575,7.233506055127328,0.9054189487604101,-7.074012745240875,-1.5359953741962005
-1.3061202624053079,12.050325627396488,7.954187436174417,0.8124903216899245,-8.792813918658156,-1.3784522197138311
-1.1567511766297016,11.76702017948061,8.676230323026791,0.7193861345611925,-10.51486223823085,-1.2206114358975397
-1.0075721313849821,11.484075177753752,9.397354563207216,0.6264004027946115,-12.234719615982046,-1.0629714710539044
-0.8584350310580379,11.2012097321389,10.118276043697692,0.5334408159793329,-13.954093418602588,-0.9053758300987393
-0.709204823532952,10.918167691907184,10.839647599849968,0.4404231939290266,-15.674540636737904,-0.7476818012271099
-0.5605426257099412,10.636202984660615,11.558273424762632,0.34775962158933055,-17.388439377001244,-0.5905879976037322
-0.4111138790577018,10.352784379117173,12.280604709387362,0.25461824686322226,-19.111175515688696,-0.4326841691521873
-0.28402257361018657,10.111732765062897,12.894957890988927,0.17540016352704701,-20.57638746260372,-0.29838468432968895
-0.19736932524199868,9.947379229558265,13.313835473870407,0.12138778064680153,-21.575396594668195,-0.20681676335298924
-0.11057283811430028,9.782754015876646,13.7334054659401,0.06728611471176398,-22.57605709966458,-0.11509747960964607
-0.0234867372710484,9.617579497477914,14.154375436607538,0.013003927824697217,-23.580056507149408,-0.023072156262260668
-0.0024406990885355692,9.57766188505369,14.256110960308444,-0.00011441100082648568,-23.82269235443782,-0.0008324595692925116
-0.0024406990885355692,9.57766188505369,14.256110960308444,-0.00011441100082648568,-23.82269235443782,-0.0008324595692925116
-0.0024406990885355692,9.57766188505369,14.256110960308444,-0.00011441100082648568,-23.82269235443782,-0.0008324595692925116
-0.0024406990885355692,9.57766188505369,14.256110960308444,-0.00011441100082648568,-23.82269235443782,-0.0008324595692925116
-0.0024406990885355692,9.57766188505369,14.256110960308444,-0.00011441100082648568,-23.82269235443782,-0.0008324595692925116
-0.0024406990885355692,9.57766188505369,14.256110960308444,-0.00011441100082648568,-23.82269235443782,-0.0008324595692925116
-0.0024406990885355692,9.57766188505369,14.256110960308444,-0.00011441100082648568,-23.82269235443782,-0.0008324595692925116
-0.0024406990885355692,9.57766188505369,14.256110960308444,-0.00011441100082648568,-23.82269235443782,-0.0008324595692925116
-0.0024406990885355692,9.57766188505369,14.256110960308444,-0.00011441100082648568,-23.82269235443782,-0.0008324595692925116
-0.0024406990885355692,9.57766188505369,14.256110960308444,-0.00011441100082648568,-23.82269235443782,-0.0008324595692925116
-0.0024406990885355692,9.57766188505369,14.256110960308444,-0.00011441100082648568,-23.82269235443782,-0.0008324595692925116
-0.0024406990885355692,9.57766188505369,14.256110960308444,-0.00011441100082648568,-23.82269235443782,-0.0008324595692925116
-0.0024406990885355692,9.57766188505369,14.256110960308444,-0.00011441100082648568,-23.82269235443782,-0.0008324595692925116
