RAMEL-ESPOL/ARCHIE/matlab/data/joint_goals_square_t35_h35_p12.txt
Joint0,Joint1,Joint2,Joint3,Joint4,Joint5 
0.005523285929010681,9.576387410515888,14.247220932757735,0.0031730324472218456,-23.833150978959463,0.005230175585472131
0.005523285929010681,9.576387410515888,14.247220932757735,0.0031730324472218456,-23.833150978959463,0.005230175585472131
0.005523285929010681,9.576387410515888,14.247220932757735,0.0031730324472218456,-23.833150978959463,0.005230175585472131
0.005523285929010681,9.576387410515888,14.247220932757735,0.0031730324472218456,-23.833150978959463,0.005230175585472131
0.005523285929010681,9.576387410515888,14.247220932757735,0.0031730324472218456,-23.833150978959463,0.005230175585472131
0.005523285929010681,9.576387410515888,14.247220932757735,0.0031730324472218456,-23.833150978959463,0.005230175585472131
0.005523285929010681,9.576387410515888,14.247220932757735,0.0031730324472218456,-23.833150978959463,0.005230175585472131
0.005523285929010681,9.576387410515888,14.247220932757735,0.0031730324472218456,-23.833150978959463,0.005230175585472131
0.005523285929010681,9.576387410515888,14.247220932757735,0.0031730324472218456,-23.833150978959463,0.005230175585472131
0.005523285929010681,9.576387410515888,14.247220932757735,0.0031730324472218456,-23.833150978959463,0.005230175585472131
0.005523285929010681,9.576387410515888,14.247220932757735,0.0031730324472218456,-23.833150978959463,0.005230175585472131
0.005523285929010681,9.576387410515888,14.247220932757735,0.0031730324472218456,-23.833150978959463,0.005230175585472131
0.005523285929010681,9.576387410515888,14.247220932757735,0.0031730324472218456,-23.833150978959463,0.005230175585472131
0.005523285929010681,9.576387410515888,14.247220932757735,0.0031730324472218456,-23.833150978959463,0.005230175585472131
0.005523285929010681,9.576387410515888,14.247220932757735,0.0031730324472218456,-23.833150978959463,0.005230175585472131
0.005523285929010681,9.576387410515888,14.247220932757735,0.0031730324472218456,-23.833150978959463,0.005230175585472131
0.0055251951005951165,9.576391384418567,14.24721120235801,0.00317303406285867,-23.83312652047549,0.0052320999930991745
0.023671914878743303,9.614080133964592,14.154830849634383,0.003126828028715264,-23.600805900601898,0.023498765296858137
0.06454526387255378,9.698361641248846,13.947535621098703,0.0025744892496061917,-23.07867341285012,0.06446451584162666
0.10773418709136098,9.78651225768736,13.729652336584426,0.0013257986191497373,-22.528636589556417,0.10749601356672263
0.15108939702609708,9.874077358289469,13.51210142030023,-0.0006036615099532463,-21.978160507606006,0.1504450274163858
0.19446032982753642,9.9607577514032,13.295623089360928,-0.003200528983875446,-21.429114926540375,0.19317607999301012
0.23810833884182295,10.047076769941686,13.078902551103736,-0.006476853266673164,-20.878156623801043,0.23595921939655642
0.2816426238622118,10.132266457950783,12.863865210011122,-0.010397114878779395,-20.33017768565435,0.27842465519772774
0.3255351846772323,10.217252431563074,12.64816830326016,-0.014999940948488139,-19.779201224644133,0.3210453061308596
0.36929560270670314,10.301087250404374,12.434210524360875,-0.020230162750282638,-19.231348059945002,0.3633572824185544
0.4133982609428409,10.384682214342202,12.219660740501704,-0.026140670981361074,-18.680643406492102,0.4058316110080361
0.45748165638015026,10.467350869002251,12.006270485666036,-0.032682092259659144,-18.131571922495073,0.44813161815431574
0.5017751094262399,10.549525732524302,11.792918193723242,-0.03988507848256701,-17.58124225707234,0.4904894506715423
0.5461802954243744,10.631022640901412,11.580071068056965,-0.0477334717805049,-17.030847726711702,0.5328224010989119
0.5904250162437292,10.71135109580834,11.369014822238723,-0.056171541846117994,-16.48371817515951,0.574883736991546
0.6351849294947907,10.791734587198265,11.15652181892181,-0.06532939914444005,-15.931472521603187,0.617326824652687
0.6797230760641559,10.870848104712426,10.94608423572918,-0.07505653168574404,-15.383175386338626,0.6594640007362063
0.7243888143959027,10.949321722366092,10.73603232483021,-0.0854219325182656,-14.83448286135451,0.7016380941355049
0.7691993322970808,11.02718421189041,10.526278812699706,-0.09643018650528558,-14.285156130029172,0.7438764090330721
0.8142269812343855,11.104557084414642,10.316481736890447,-0.10810181520343783,-13.734284238924879,0.7862580290014969
0.8592090139830929,11.180989911493535,10.10785616208944,-0.12036794845415627,-13.185051032203807,0.82854688777499
0.9043001691310507,11.256749580562447,9.899672120793014,-0.1332681758502374,-12.635533159910018,0.8708998113459308
0.9495735803150683,11.33195619783199,9.691587165393285,-0.14682574533667017,-12.084813836462331,0.9133964985395276
0.9947630057162394,11.406169968983408,9.484814534730557,-0.16095975266504925,-11.536100221502698,0.9557981698950052
1.0400442350806411,11.479684457574528,9.278536919818789,-0.1757225119285012,-10.987223889888456,0.9982808776757314
1.0855696770056666,11.552742502381864,9.07205733075701,-0.19116792150584327,-10.436314340210009,1.040998647798451
1.1309224215544953,11.62467765498612,8.867256349399154,-0.2071538523406096,-9.888386000905061,1.0835712455912252
1.1767054825647443,11.696443641982118,8.661406264282782,-0.22389615158470572,-9.336128515362363,1.1265758751284227
1.2222447540575059,11.76698279195592,8.45753161181732,-0.24115056379927347,-8.78764678381891,1.1693903893586814
1.2678188158671728,11.836736468744753,8.254367632009872,-0.2590173687542864,-8.239548627802455,1.2122872221560368
1.3137775273496868,11.906232347590878,8.050355404873095,-0.2776412546127444,-7.687606661055719,1.255607241254619
1.3594811613810283,11.9745031900092,7.848327352711898,-0.29676504467550463,-7.139476734197244,1.2987584791796505
1.4053908306363665,12.042242516429681,7.646233198336547,-0.31658063896840566,-6.589597724714158,1.3421869847255965
1.4513221545214299,12.109175351147861,7.444880412275966,-0.3370131161020438,-6.040154056120498,1.3857297387150576
1.4972217362538964,12.175227255388606,7.244492677593799,-0.3580390257811822,-5.491755469424972,1.4293468527169277
1.5433168327508129,12.240723703549955,7.04407238669687,-0.3797665710678611,-4.94166187521482,1.4732656707208776
1.589565413719751,12.305598197227285,6.843801958458148,-0.4021840902243699,-4.39035397405452,1.5174583938727282
1.6356485686805848,12.369406256622794,6.645052705157051,-0.4251382794340683,-3.8416055081887635,1.5616311513668208
1.6818106254292606,12.432491004290656,6.446759427622493,-0.4487508687667939,-3.2924781905439096,1.6060286806825077
1.7280711659778405,12.494876644698138,6.248833703476156,-0.4730375875825062,-2.7427154797319044,1.650681686934919
1.774376992826297,12.55648956386944,6.051498214269983,-0.49797594558996383,-2.1929256161677686,1.6955506847181767
1.820677349232304,12.617263128250688,5.85496178504765,-0.5235421809596561,-1.6436857477409497,1.7405978698012308
1.8671529187130504,12.677431718283541,5.658453442953986,-0.5498426721440717,-1.0928292779441982,1.7860113499200607
1.9134170628801919,12.73649731002131,5.463599146778057,-0.5766613815890423,-0.5449130039778721,1.8314244328136684
1.959870097594665,12.794973121355811,5.268704452705217,-0.6042336618360058,0.004829561218116773,1.877241371187041
2.0063440687138963,12.852643387568456,5.074471570706644,-0.6324683630402902,0.5544328041482139,1.9233095944891425
2.053030387617151,12.909740527959405,4.880098736779117,-0.6614912233486931,1.1061821540210484,1.9698324113029617
2.099554535278452,12.965806251002688,4.6871391510393074,-0.6910753033341634,1.6556752144675573,2.0164489075406262
2.146099815587917,13.021066063543076,4.494822254659219,-0.721339418462922,2.20510247093918,2.063353656549198
2.192636744099107,13.075485442563718,4.303263307258141,-0.7522701666849045,2.754139423860724,2.110529208384122
2.2393018362687673,13.129221360118828,4.111896592142208,-0.7839668783835497,3.304418976408947,2.1581274524436735
2.285881394503503,13.182027152421922,3.921592930687299,-0.8162915664615443,3.853443985570387,2.205943344634563
2.332513868876957,13.23406091645329,3.7317797307950866,-0.8493463283692679,4.402869477708051,2.2541314744335357
2.3791142729792334,13.285227576474325,3.542797234876855,-0.8830783468466502,4.9517166316364145,2.302617134584782
2.425789887073755,13.335643751571414,3.354205522605268,-0.9175737813450524,5.501271084851933,2.3515256320563163
2.4726141319813837,13.385382806203811,3.165707080691873,-0.9528998012070519,6.052418351608222,2.400949840906594
2.5192586482598363,13.434096523487131,2.9786175571887146,-0.988816292319661,6.601315607045038,2.450556534864576
2.5658608058890238,13.481934070836463,2.7923756354092286,-1.0254324490083944,7.149602034280377,2.500503021239788
2.6127445837957697,13.529221224558963,2.6056864594351024,-1.06301757116669,7.7011101324740805,2.5511537569974796
2.659903263518597,13.575935568015487,2.418583763207761,-1.10158943163324,8.255781009296895,2.6025235121826142
2.7071078245829514,13.621840937507308,2.2319780027993064,-1.1409787425167186,8.810942017110806,2.654382327544491
2.7542814525337938,13.666861430212874,2.04616821019005,-1.1811325151446863,9.365711327368464,2.706661600421804
2.801482223626991,13.7110516582649,1.8609207520678328,-1.2221113162301696,9.920793340245416,2.759441570781252
2.8488816264696464,13.754564948164331,1.675562739361251,-1.2640816367033754,10.478226107852374,2.8129338207426966
2.8960663358005583,13.797021169560997,1.4917056306649146,-1.3066893283778394,11.033169882789098,2.8666883623112844
2.9430330274592436,13.838427777287093,1.309349057123254,-1.3499327937267,11.585605782682567,2.920711489948625
2.9903104934251656,13.87924713260165,1.1264375512188438,-1.3943145863134365,12.141774440859148,2.975630406946053
3.03740004806241,13.919043807789892,0.944898975590559,-1.4393837032635737,12.695830086923026,3.0308857912380653
3.084631516164622,13.958096082904257,0.7634570056177512,-1.4854691106646758,13.251673670834764,3.08688232666661
3.1317735080777003,13.996209540193961,0.5829977783323325,-1.5323614446564484,13.80660242939587,3.143365444043843
3.1789780287412515,14.03350597614832,0.4029352190463075,-1.5802267928677654,14.362425601201123,3.200536148061863
3.2261279686505664,14.069890649556738,0.2237127254944106,-1.6289629541495219,14.917784157405695,3.2582726824622017
3.273117397481321,14.105285671185397,0.04572530078296793,-1.6784709624699634,15.471448770803491,3.316461353627549
3.3203228585759184,14.139971031915856,-0.1324555125399142,-1.7291667316779862,16.027876041009108,3.375590555794393
3.3673031937978517,14.173620482689465,-0.3091677438971161,-1.7805944937977467,16.58188514157938,3.4351290550464224
3.4144970427608334,14.206546179015236,-0.48606454565182855,-1.8332530356466725,17.13866784916286,3.4956547028399623
3.4615847849796033,14.23851966133723,-0.6619486374922583,-1.886808876883296,17.694473335077276,3.5567829038014582
3.5083901479499766,14.269429410574897,-0.8361718236511381,-1.941069431326742,18.247236363822005,3.6182991084199725
3.5554116210445414,14.299603926245144,-1.0105935928385286,-1.9966314445970657,18.80286204548821,3.6808808690824617
3.6022901346231593,14.328807811779274,-1.1838829510486242,-2.0530952206300577,19.357126754969002,3.744077030108082
3.649268771992844,14.357190969051183,-1.3569417467454585,-2.110774792919788,19.912922509224007,3.808239690790209
3.69631455973667,14.384725626303577,-1.529647452821049,-2.169659590280717,20.469879508217193,3.873354955669594
3.7430238557101387,14.411180189477642,-1.7005256020681618,-2.2292592263588316,21.02323407558744,3.938883821125852
3.7897959200876774,14.436785291369851,-1.8710439396309593,-2.290098770594091,21.5777307536415,4.005406748508858
3.8362955089217947,14.461360209576092,-2.0399861124951566,-2.351760441704141,22.1294099908336,4.072469327799455
3.8655104724214726,14.476349425883983,-2.1458333720525897,-2.3911136891959806,22.47623977322223,4.115089730917153
3.8766084138399277,14.481952022544279,-2.185981917097746,-2.4061884649073577,22.608035904870178,4.131380240735394
3.8708826690129907,14.416470904721155,-2.2703603706545143,-2.406497913697113,22.77372370897254,4.132627498260469
3.8459421864101784,14.191133623341925,-2.528262270645826,-2.3996017695575023,23.25756110047893,4.128153343090905
3.8187294289968103,13.93640120244097,-2.808089138714365,-2.392349785470929,23.792768204030708,4.123461069294436
3.7920944022403478,13.677821791717093,-3.080223736852199,-2.385537478586559,24.32411122246998,4.119069322513997
3.771415408711282,13.470553313543064,-3.290198857585834,-2.3804504862588978,24.74183965827147,4.115803081154266
3.7634558110299183,13.38922109276797,-3.3706967192204758,-2.3785407596062504,24.90385552894294,4.114580426887615
3.7546307272824118,13.29802117926171,-3.4597278564509244,-2.3764553453736945,25.084292023911033,4.113247801484068
3.730951366438686,13.047901568173824,-3.6974208249561302,-2.3710292787867377,25.572652980403582,4.109794548741085
3.7054436819019907,12.769431970832372,-3.951392712137893,-2.3654685598649428,26.105680430226677,4.106281495011523
3.6802927543021786,12.485391435435101,-4.199533850889157,-2.360285261834286,26.638434943707043,4.103037500370961
3.6559692475504746,12.201472275873508,-4.437186355854131,-2.3555664546396615,27.16055584194384,4.100117848486831
3.6426980254720287,12.042638065168221,-4.565825939422306,-2.353117651304714,27.44832729471384,4.098618656153445
3.6364650963460785,11.967066276742417,-4.62598113716758,-2.35199892829028,27.584193581807888,4.097938049730817
3.6468465084738253,12.150832836383747,-4.862262750567597,-2.359830591251683,27.63624091215615,4.111984391592577
3.6724248443068914,12.59764780796675,-5.426740372187364,-2.378910403149199,27.752753786938058,4.146111124260632
3.700773273464219,13.086001665277216,-6.040088246536927,-2.399995439654607,27.87646615785002,4.1837800542291905
3.729715789289879,13.577381911080856,-6.653413830350667,-2.4214557703125306,27.997095050635433,4.222073671061692
3.7593017137724605,14.072389372062577,-7.267367266187328,-2.4433233431284034,28.114687059107766,4.261048582203135
3.789467824245286,14.569743083039588,-7.880267599973101,-2.46554678789677,28.228844609602124,4.300612940083352
3.820266460472636,15.070094244722345,-8.492831883816127,-2.4881599920318465,28.33963066385162,4.340826877979619
3.8518224655616917,15.575203852231336,-9.107100915165473,-2.5112492206144506,28.447318677316794,4.38184330219373
3.883942094176258,16.081734819156438,-9.718919083251073,-2.5346674909546216,28.551098619203046,4.42340080966547
3.916829470996452,16.59267749968681,-10.331805777661417,-2.55855832529369,28.651489396776025,4.465753853158209
3.9506175800780032,17.109758403598516,-10.947678458957654,-2.583011584522957,28.748674966949217,4.5090608984087535
3.9848085628348584,17.625154709758608,-11.557143081969997,-2.607661641856533,28.841107221048734,4.55267433247857
4.019250740133303,18.136604119647433,-12.15757743464421,-2.6323965320382805,28.92843325380474,4.596397168101556
4.04588394774179,18.526925099717786,-12.612873168023249,-2.6514572224042783,28.992117802838223,4.6300632303179645
4.044135071622,18.620981828987883,-12.72195583993577,-2.650699228603858,29.007208545987222,4.628870950683055
3.7232111927497993,18.63986507765674,-12.73447271542935,-2.4406852660706537,29.015053340819673,4.263885387352987
3.1718616638555805,18.668639214736157,-12.753529921540268,-2.079671979659888,29.02696009010081,3.636770267493919
2.6003912042993753,18.69358531458259,-12.770046932900849,-1.7052480742384157,29.03732521913348,2.9866954843830382
2.0261785158673966,18.713660584235335,-12.783329673592085,-1.3288270538894515,29.045645255460315,2.3334373191371363
1.453949385541282,18.7287013950121,-12.793281399645274,-0.9535514542011054,29.051911078773355,1.6823872924576437
0.8828651376556099,18.738776094365175,-12.799942544407857,-0.5789158101558117,29.05608321592693,1.032604388775602
0.31189939812394796,18.74392559031976,-12.803349857429081,-0.20429026328537703,29.05824061206756,0.38293523434371324
-0.2613128760389046,18.74414463629105,-12.803493161635494,0.17183230304580457,29.058315830783894,-0.26929757270745386
-0.8335242265925712,18.739417488946867,-12.800369788043467,0.5472793075129445,29.056366278810092,-0.9203854249891953
-1.403681317480711,18.729789294092765,-12.7940047881219,0.9213154396676556,29.052379507709418,-1.569115994063183
-1.97741587017181,18.715139909662692,-12.784313051668475,1.297588767893179,29.046276484958792,-2.2218821897915513
-2.547500774456042,18.695649008197147,-12.77141824242035,1.6713203890883435,29.038198743151707,-2.8704493390292813
-3.119626503083748,18.671132160430236,-12.75518692442236,2.0461926888151876,29.02801108115224,-3.521275550728132
-3.678193956572126,18.64239624211324,-12.736156394540503,2.411954599836678,29.016116307249153,-4.156607181726451
-4.00869400544997,18.623153908125325,-12.723405294015741,2.6282481706691874,29.008144596764375,-4.532488314427576
-4.053761837620963,18.62448939023924,-12.649075190204293,2.6557696036781464,28.930496940210816,-4.579684266442993
-4.0612856872439345,18.6453232982042,-12.225108194122889,2.6493985575565397,28.4858262912515,-4.564733601644352
-4.070700685440862,18.665372111078028,-11.69280186402113,2.6418288524150073,27.93362804817593,-4.546402060468175
-4.080126761224247,18.67889174706922,-11.157957940805149,2.6346825866310932,27.385415089788275,-4.528451205685964
-4.089633419644999,18.686047977289807,-10.616671506230007,2.6278967722109385,26.837118057618486,-4.510736332726352
-4.099276960387052,18.686822560571578,-10.065738911341112,2.621429522769444,26.285552500715518,-4.493148065386099
-4.108840192462066,18.681299422944864,-9.517615758286153,2.615414801566444,25.743087147109353,-4.476068874793212
-4.118391366319596,18.669683594881278,-8.96847703902099,2.6097894530336556,25.205693283036222,-4.459355519675412
-4.127944871203868,18.652115584001464,-8.41755653224415,2.6045307776755844,24.672464648473515,-4.442967019505309
-4.137429796660909,18.628930187770823,-7.869015928936617,2.5996612396206635,24.147227522193454,-4.427007246703748
-4.146632687396952,18.60109420101318,-7.33533626606514,2.5952598136742155,23.641493982199766,-4.4118054554349575
-4.151283885049123,18.585064168861827,-7.0650829242111435,2.5931530952815955,23.38732474178331,-4.404224748190781
-4.165744236010375,18.787573420296944,-7.295759255305699,2.602715763964606,23.414820799232782,-4.421039302369883
-4.2005177856076115,19.271550804376638,-7.851106898412249,2.6258021681633,23.484562789883746,-4.461696838242788
-4.239028700395247,19.799153857776048,-8.452222933466107,2.651290434426459,23.556260400333734,-4.50651702199402
-4.278489624115323,20.33090958110879,-9.053527957549905,2.6773215253733884,23.623936399792125,-4.552220857563394
-4.319026216801898,20.868120820226245,-9.656358201556154,2.703972384366481,23.68761723270248,-4.598940656699037
-4.349692226682038,21.268616327917353,-10.102729097022479,2.724073843326183,23.732017126023006,-4.634132002292923
-4.343059562423113,21.34434537736704,-10.186477932315107,2.720099111018355,23.74033751475139,-4.627447360458827
-4.021886645315171,21.11804624748308,-9.926353667116999,2.5188034413818454,23.72096320388228,-4.281931014938862
-3.5052020002460536,20.74777669020193,-9.500475955065971,2.194939051075872,23.686240022514937,-3.7263976399072263
-2.983877881740188,20.36624111310274,-9.061235800187914,1.8681675990170195,23.646691899661175,-3.166309347624715
-2.4639013817135207,19.977532453672282,-8.613239526680294,1.5422902850981952,23.602596914922913,-2.60815911235566
-1.946610792506475,19.582525389419104,-8.157394530016287,1.2181941101845677,23.553985927512958,-2.053436432228708
-1.4366756853739957,19.18480194522059,-7.697742331614704,0.8988502148658475,23.501294621840067,-1.5071929945035845
-0.9317938426671858,18.782642151916946,-7.232207722914803,0.5828594724585133,23.444315089321094,-0.9670023534443227
-0.4269187803915302,18.37191629605171,-6.755905379862031,0.26710862975229155,23.38240207660835,-0.42751870857966284
0.07254175011580614,17.956921525739855,-6.273712307555992,-0.04497597190081834,23.316144530215546,0.10542539816592433
0.5010335719145981,17.593828235327116,-5.850999893687176,-0.3124567368055005,23.255205947815636,0.5619927472283424
0.6982325716555542,17.42448752655517,-5.6535803503129465,-0.4354689987971385,23.22587572427915,0.7719025852202085
1.1332253737891125,17.045846234232766,-5.211494405071637,-0.7065921068969979,23.15817949846881,1.2344174888818862
1.6275259835599656,16.606872761493356,-4.697785494074477,-1.0142809673896276,23.076179203279526,1.7590949764097266
2.11910583511952,16.16086204776503,-4.174482395178253,-1.3198061650661939,22.989098110598928,2.279862762483948
2.598815754489288,15.7162541633492,-3.651403552281664,-1.617453704239082,22.898617346555405,2.786996580374174
3.0668060853251276,15.273323472526224,-3.1288357514389515,-1.9073158632551073,22.804962393235208,3.280670551152748
3.5223917651089947,14.833149764297758,-2.608018149509564,-2.1889487001274373,22.708442736401363,3.760145926996944
3.8223423586647005,14.53837854942431,-2.258382256646943,-2.374057537885169,22.641934993564284,4.0751911948240265
3.8772937592327352,14.473159056690163,-2.2038734309881636,-2.40831010233952,22.650398119067223,4.133806851787314
3.8587851359495553,14.308114073999029,-2.3956342853002357,-2.4031255570892096,23.007649109956024,4.1304403330502915
3.8316126093254317,14.058159967027942,-2.675839213901364,-2.395748871806407,23.538457428438598,4.12566048903228
3.8045761642998603,13.800148308026056,-2.952932893608565,-2.388695881033912,24.074203687627843,4.121105169033283
3.778891203318427,13.546143716841767,-3.2144368056854713,-2.3822706150514916,24.590316250441873,4.116972132227508
3.765979623113802,13.415096773074728,-3.345201681774747,-2.3791451801370687,24.852429918862686,4.114969015298336
3.7594507395686634,13.347958572129908,-3.4111391191750546,-2.3775919871851627,24.98565772418398,4.113975641696165
3.7428787528548138,13.174874909774253,-3.577924098905667,-2.3737330505677328,25.325911186740814,4.111514350785477
3.717327966437495,12.900352085045295,-3.833349554532746,-2.3680237659894865,25.856448741381,4.10789383333757
3.6920362090793097,12.619199250009773,-4.083970335708693,-2.3626694279234695,26.38880073267168,4.104527140124088
3.667000677493865,12.331375949761496,-4.329702456778422,-2.3576717528239626,26.9229237361815,4.101417549518664
3.6465152633546465,12.088608681035769,-4.528904794612646,-2.35381442380212,27.365354040483997,4.099045583475251
3.638228177573131,11.988504070921085,-4.608985250559466,-2.352314978881944,27.545724506633547,4.098131632783111
3.562325731120225,11.969866391059398,-4.630488841544502,-2.304176390570989,27.588895951340657,4.015123757369499
3.1450881521023963,11.992740792914834,-4.647667464607118,-2.034610806832357,27.59887130694287,3.548286546426749
2.6002914605078304,12.018305685369521,-4.666859368496173,-1.6824372872930309,27.610037139926778,2.9386445085905755
2.0599612622572323,12.038857379830594,-4.6822815415571055,-1.3329670481123286,27.619020575829804,2.3339230077920896
1.5173616727408017,12.054690970510135,-4.694159626919239,-0.9818830564554141,27.62594750400109,1.7266001618735674
0.9728667904355338,12.065746383237803,-4.702447817951396,-0.6294644002857601,27.63075714902418,1.1171091048300916
0.43228782798073906,12.07193849490684,-4.707092043562019,-0.2795115437239949,27.63347319037088,0.5119736913674621
-0.10916758466931123,12.073365289438765,-4.7081632248405745,0.07103938592014543,27.63410601484301,-0.09415578335723881
-0.6531740198441802,12.069985731681884,-4.705630896465012,0.42323427367304284,27.63263760305812,-0.7031377944172376
-1.1944137435358484,12.061834034187944,-4.699516199114246,0.7735904448554756,27.629051670746247,-1.3090035483041398
-1.7370029297279064,12.048864150195952,-4.689790621965874,1.1247368309421406,27.623392694431757,-1.9163438823793268
-2.279033337871609,12.031105400668409,-4.676469799590234,1.4753987563267874,27.615644333366593,-2.523007042584912
-2.8236729618533953,12.008418375373537,-4.659445517488434,1.8275862551421036,27.60574823003992,-3.1325221459438573
-3.3398970543310065,11.982423269790754,-4.639925801719332,2.1612102529591137,27.594381245013196,-3.7101580395258464
-3.6104803222345017,11.967049627847835,-4.628381653996963,2.336001791638917,27.58769814729624,-4.012896313666988
-3.640284060255816,12.001255066158464,-4.531025206859524,2.352425631025081,27.45503947513043,-4.040127515465805
-3.6542112128181494,12.128865491465465,-4.176830543504739,2.3512176019663933,26.973073749546494,-4.033403224784057
-3.6699683119227515,12.266389445388569,-3.7745570573275744,2.350171214311391,26.433090761582,-4.0260641050416055
-3.6857783816006906,12.397249825169911,-3.369383736069202,2.3494509126026326,25.896866997427708,-4.018974390938037
-3.701881443603766,12.523393048506616,-2.955206666185271,2.3490441913534594,25.356349283899323,-4.012022587266173
-3.7180906821629707,12.643285182164425,-2.5368720865035983,2.348955791485846,24.81792010971837,-4.005286733687507
-3.7344880022147193,12.757535315027026,-2.1123231073209054,2.3491821200332796,24.278912538303853,-3.9987275152085604
-3.751080318433716,12.866141452757129,-1.681427587139727,2.3497227281212743,23.739196371156865,-3.9923389248234176
-3.7677406523222263,12.968301810123172,-1.2475447500105965,2.350569603570907,23.202934335413193,-3.9861639042416095
-3.784308193291148,13.063235430750561,-0.8149534112291227,2.3517032264670092,22.675188476537496,-3.9802502659685097
-3.7932693535596913,13.111882242300979,-0.5805328141605488,2.352433922711135,22.392000276656052,-3.977142190316454
-3.7966721329155297,13.142898968616544,-0.544762034520231,2.3534111909911384,22.325132722119086,-3.977765862076554
-3.815405829763429,13.454688502163206,-0.9306276658130822,2.366255973249405,22.398393365545267,-4.0008184161248765
-3.8454236400348627,13.948030957532298,-1.5381258362577583,2.3867952711350924,22.51123594778046,-4.037626173048727
-3.8693045968840836,14.335152899720013,-2.012193809474221,2.4030981205421047,22.597131601143953,-4.06679584547557
-3.877561443948292,14.467918782377089,-2.174244008830688,2.40872712394885,22.626051576152705,-4.076858225138282
-3.869630168054715,14.404446113641635,-2.284390213452989,2.4068604978992663,22.799842860572745,-4.076368949389913
-3.8441027960180865,14.173238875755377,-2.548327961314251,2.3998210435552187,23.295599896937407,-4.071808366347564
-3.8170220125411176,13.919040100411989,-2.8267381749174465,2.3926275773876435,23.828853259057087,-4.067161319561489
-3.790359664139155,13.659496712941083,-3.099083948827788,2.385831697089167,24.361371782489,-4.062787733123473
-3.769551857406891,13.450352771877292,-3.3103005593415773,2.380732641733361,24.78221994611035,-4.059519963421046
-3.761447460921235,13.367293282618958,-3.392231287373473,2.378796479935921,24.947399226405306,-4.058282912096923
-3.7528855336287372,13.278555463771848,-3.478574307949222,2.376781916134249,25.122679275848796,-4.056998259356012
-3.7293188609912056,13.028965024168054,-3.715050326375382,2.371404166500831,25.609291232361976,-4.053583262049854
-3.7038070134508887,12.749730092759949,-3.9689624775344,2.365867241193994,26.14302408834293,-4.05009372838705
-3.678642597112192,12.464798846472878,-4.21712245198027,2.3607066636871097,26.67668816292053,-4.046872813997993
-3.65461491206492,12.183656639968907,-4.451775912265492,2.3560689066670464,27.193026124170135,-4.044012061724916
-3.6424241898010257,12.037479469182333,-4.569959546845269,2.3538594767199834,27.45763932301823,-4.042641877419234
-3.636494395604227,11.96555719884271,-4.627284071573427,2.3527986534164134,27.587018583160635,-4.042000734338428
-3.648397357375307,12.17537818888598,-4.893361717551712,2.3616941588640006,27.642742226098424,-4.057924081572088
-3.6745490824914464,12.631806599510563,-5.469773038540769,2.381198596833354,27.761549267228013,-4.092807833566645
-3.70302449473037,13.12183479485378,-6.0849522744605204,2.402373892556103,27.885412478415788,-4.130634880814381
-3.7319540517274614,13.612475539530905,-6.697077858697213,2.42382018842758,28.00558099821983,-4.168900342147098
-3.76157973269323,14.10762894523193,-7.310933427795941,2.44571254094865,28.122926897760262,-4.207916370670885
-3.7919227299405174,14.607357491605622,-7.926467308417177,2.468061282300962,28.237334495281573,-4.247700673159485
-3.8225690412883373,15.10470038594756,-8.535057864902116,2.490557511766971,28.347161620549794,-4.287703576293624
-3.854236047165049,15.611057258304603,-9.150553214077638,2.513722674422223,28.454822974058487,-4.328851964086199
-3.8863855313729947,16.117522711092036,-9.761995984168502,2.5371571494515877,28.558291067699997,-4.370435318083872
-3.9192843767018317,16.62810615290186,-10.374152962586422,2.5610505349304704,28.658310244290487,-4.412790025284682
-3.953116605448726,17.145321037505802,-10.989882398394025,2.585529691679401,28.755215886408934,-4.456140111914046
-3.9872835984297494,17.65982356779345,-11.59799053345696,2.6101563136557484,28.84718596419598,-4.499709358222679
-4.0218648209211665,18.17280293757243,-12.199918192940503,2.634984671227123,28.93446801078749,-4.543594723777466
-4.047491323983632,18.548054362378338,-12.637456259106582,2.6533210609655224,28.99551284798125,-4.575979933604094
-4.052902626461687,18.621838995502056,-12.697278501846727,2.6564994451505126,28.981316191402147,-4.581387188852742
-4.059178182179813,18.639927021197288,-12.343863587560291,2.6511376246663,28.609922620274297,-4.568872190537228
-4.068051582863661,18.66040185693819,-11.842642636774995,2.6438983566305074,28.088376289094857,-4.551497173449543
-4.072652642179396,18.668706693397493,-11.582070878723853,2.6402981060547814,27.81957487904295,-4.542631042375962
-4.078231769286657,18.676693755629053,-11.265502154339408,2.636069496838213,27.49510821033271,-4.532007414951105
-4.0813398333486175,18.68016422050927,-11.088862114894813,2.633777737090932,27.315046400608082,-4.5261483214351665
-4.086636821058149,18.684484678108923,-10.787360205885445,2.6299753786228584,27.009305491487943,-4.516258235147515
-4.08963688728464,18.6860487376761,-10.616344672054135,2.6278788020015686,26.836771193514725,-4.510709164062792
-4.091441683247517,18.6866847612595,-10.513377096492855,2.626637113537147,26.733194555959674,-4.50738888409475
-4.093979092663693,18.687194454690502,-10.368502721746925,2.6249160032059717,26.58784803353548,-4.502743344975877
-4.10140277464158,18.68612856070408,-9.943918990349562,2.6200433746048737,26.1644376720093,-4.489300466338524
-4.110753653559589,18.67945222869825,-9.407609504338232,2.6142425514477377,25.6349350303911,-4.472673334907867
-4.1201728820767585,18.66684978254593,-8.86573883998479,2.6087663038111653,25.10579303982972,-4.456255018750241
-4.129584274417694,18.648507408264066,-8.3227293099649,2.6036495954156513,24.58124700703373,-4.440167071218118
-4.138957130852489,18.624679855034874,-7.780744060283289,2.598931565207832,24.063201844506125,-4.4244813895115245
-4.147834472338757,18.59708844817994,-7.265746213953744,2.5947304003334297,23.575901041154253,-4.409856157439451
-4.151715049684039,18.590175670732165,-7.0681703508464855,2.593400651730619,23.385261114712705,-4.404591038376232
-4.170359134602235,18.852173874683626,-7.370101035861089,2.6058019015554628,23.424324122718815,-4.426451160373595
-4.206474539200572,19.353677480006787,-7.944968543358217,2.6297683984148508,23.495995271896994,-4.468649424399912
-4.245279156510671,19.88392113647367,-8.548380253930743,2.6554377713276325,23.567332068508534,-4.513777026767847
-4.284859362187024,20.41587288555617,-9.14917770772433,2.6815336608348677,23.634296665553325,-4.559583376596949
-4.324914551762389,20.945361746292086,-9.742646936262181,2.707854491222003,23.69635977934424,-4.605713929911178
-4.352197804016456,21.30106888511693,-10.138782446025907,2.7257323002206686,23.735474437723745,-4.637007511471876
-4.312841698360507,21.335893971074213,-10.176238655836116,2.701208095919131,23.739932933703844,-4.595010375791549
-3.9204154372045537,21.17447888572343,-9.98636203792083,2.4554921441860174,23.72884200000548,-4.173478795607089
-3.3507445139097083,20.935020413368765,-9.705955550378325,2.098704350053994,23.710105144821455,-3.561821935190333
-2.781136487904816,20.68941050214633,-9.419799107731912,1.7418915601936489,23.68830588503619,-2.9505645954313415
-2.209883278031558,20.436771473943285,-9.126832285478459,1.3840293248645323,23.663276730966466,-2.3379083843797868
-1.6366204841670204,20.176760324723773,-8.8266234807328,1.0249374977240144,23.634878640131443,-1.7235022292804534
-1.0737159908312706,19.915007312272365,-8.525607556799628,0.6724077549575262,23.603796500117927,-1.1206190168869556
-0.516107481757682,19.649300584979922,-8.221143363927986,0.3233127187448606,23.56979171753791,-0.5238561442740639
0.04070797728521039,19.37747138600555,-7.910680953124842,-0.02512344164052527,23.532580502691747,0.07157854260929399
0.5925495119414584,19.101529932972873,-7.59644807927076,-0.37023952636531404,23.492395272692153,0.6611810874784247
1.147183275169795,18.8174983684134,-7.273864123454469,-0.7168532759980822,23.448689927675368,1.2532254504628961
1.693200270903682,18.53118430768451,-6.949454643827564,-1.0577917860745236,23.40231473506148,1.8354991327150172
2.239293424508449,18.2380435472361,-6.617997056086715,-1.398445319569924,23.352540628629903,2.4172470589629653
2.78436675172419,17.93853392933983,-6.279948315482299,-1.7380864261832087,23.299403961219895,2.997263107268069
3.324280878850493,17.63489567550388,-5.937765555075426,-2.0740979463624365,23.243292798794986,3.5711123433736245
3.833765484885005,17.341873558544883,-5.607957535022177,-2.390753029346942,23.187098943109927,4.111962863970893
4.05594307598225,17.21143429836047,-5.462624542774098,-2.5287254069966223,23.162865844916997,4.347667370980978
4.041589190365594,17.091180137674545,-5.6000975305424765,-2.524678295966549,23.420962217838188,4.344746895774047
4.01295584246348,16.84463679810267,-5.8734313462745344,-2.5168229250632854,23.94157146257433,4.33907998823549
3.983799446623758,16.58421185668979,-6.150393750230615,-2.509132323497494,24.479698083472407,4.333536123083066
3.954995496013482,16.317317744123788,-6.422489129119865,-2.501852626865513,25.019411654944157,4.328295174342375
3.926641574071136,16.044931226486465,-6.6886873384233,-2.495008098194833,25.55870294224666,4.323376792256277
3.8987288134064113,15.767095750406874,-6.948975302935092,-2.488594483234987,26.09751580374322,4.318779980759459
3.8712776198678234,15.484161671308055,-7.203073233489859,-2.48261386387008,26.63521975567121,4.3145081851880915
3.8441012219409605,15.194273928904497,-7.452607685544196,-2.477025699985747,27.17530109651504,4.310534463206621
3.8175315778349765,14.901135027869708,-7.69445060191042,-2.4718954113745615,27.71092137496197,4.306907100474843
3.7996895949741054,14.698734800187932,-7.855584570537079,-2.4686419745671055,28.074880929966092,4.304620437182462
3.7924928479669235,14.615805301387418,-7.920275673087127,-2.467374419416245,28.222672324120467,4.303733079810443
3.6333008675650724,14.616870109838288,-7.933360280637775,-2.3642862767081834,28.241358004113053,4.125011967782665
3.147761010113959,14.642958235813895,-7.952023161964946,-2.0486961204159555,28.25251343763403,3.5776667096638026
2.5934942065956186,14.668152409195327,-7.970038606796356,-1.6882203244358625,28.26330139494637,2.9527649326025065
2.041005528657311,14.688409072732737,-7.984513710953774,-1.32871090722918,28.271951739578345,2.3297944420393004
1.484170686753702,14.703930464248758,-7.995604723251901,-0.9662239988189495,28.27861119445503,1.701868093033347
0.9290870044985122,14.7145187202576,-8.003169420915059,-0.6047675154519953,28.283159804885138,1.0758749155725071
0.37434816360871676,14.7202317664098,-8.007247403921799,-0.24346757391990864,28.285588063532007,0.4502437379829472
-0.18001305893542405,14.721083707131907,-8.007857588213746,0.11761424066440435,28.285964936748602,-0.1749710011307618
-0.735010124090565,14.717072296352104,-8.004994693776762,0.4790972382908699,28.284257380480003,-0.800897978566761
-1.2899974864562798,14.708190595508588,-7.9986491326195495,0.840518531902618,28.2804313456347,-1.4267938712325077
-1.8436759707322452,14.694474991939444,-7.988852811861401,1.2009945582916441,28.27456772611389,-2.05117761783453
-2.397780085206043,14.675886866109254,-7.975571660943987,1.5616130118684224,28.26662125791821,-2.6759903373039022
-2.9517998173015765,14.652428923809056,-7.958800097777013,1.9219984963365757,28.256564878012597,-3.3006409932776455
-3.485252817662228,14.625229456174846,-7.9393481769232706,2.268804303712223,28.244947466550588,-3.902026075241796
-3.772271893813935,14.608717872411223,-7.927533061572751,2.455302748753371,28.237884789432457,-4.225558756982274
-3.793987676849317,14.612310142646837,-7.793389127283684,2.4662257289282756,28.099351333600325,-4.243290757563889
-3.801269054496622,14.625993767441203,-7.319380082763334,2.459858708284418,27.6117984948035,-4.22775182796957
-3.8093792913387214,14.635378174281334,-6.7893585721798315,2.4531252430406365,27.072543483346088,-4.210767958759027
-3.8175300623167194,14.638720974059595,-6.254562520095627,2.446725555682414,26.534551384537373,-4.194028750371189
-3.825692734672123,14.636083545235126,-5.71690626966908,2.4406728040763546,25.999674832789577,-4.177581925028021
-3.833837814338742,14.627609767151982,-5.178388589140219,2.43497631257046,25.469768429632353,-4.161473008021321
-3.8420068698021046,14.613375433448317,-4.636311012784341,2.4295957830469854,24.942058825561787,-4.145607110008504
-3.850160284410859,14.593563450243165,-4.093349578859326,2.424546789119565,24.41903870204972,-4.130049186194141
-3.8583050290704284,14.56830019727463,-3.549096472980447,2.4198131840940422,23.90017418785052,-4.114772888402551
-3.866535556138658,14.537332674405269,-2.9972604918755104,2.415334402783236,23.37942866839507,-4.099593314424642
-3.8744582385217345,14.502467767112384,-2.464349893970657,2.41130342213478,22.88149795741066,-4.085215739442719
-3.878451017323952,14.48305000823882,-2.195155094026272,2.409373474649049,22.631777663912814,-4.078053903851959
-3.890738503473349,14.678682692543694,-2.430932934722007,2.417695948723893,22.671381750484702,-4.0928841611290245
-3.920159261862708,15.144277035843627,-2.9955333357024587,2.437698411343159,22.769081279097705,-4.128577104144253
-3.9527787641867307,15.652705244883556,-3.6082114040702775,2.4598168294398435,22.871873653768258,-4.167980349143611
-3.986200466323926,16.165405025846656,-4.221934398464241,2.482415150820624,22.971393854593327,-4.208169873307326
-4.020359201796119,16.681074572576133,-4.835039620425855,2.5054449728413792,23.067283273536166,-4.249057796452551
-4.046848522727822,17.075333120946762,-5.300960117141437,2.5232576726484215,23.137739127824354,-4.2806367511673376
-4.055508160479628,17.203176458983886,-5.451512347769421,2.5290720614520277,23.16005241094973,-4.29093614277941
-4.056109508198673,17.212035616121966,-5.461935702267759,2.5294756697762857,23.161589112305155,-4.29165092725138
-4.056109508198673,17.212035616121966,-5.461935702267759,2.5294756697762857,23.161589112305155,-4.29165092725138
-4.056109508198673,17.212035616121966,-5.461935702267759,2.5294756697762857,23.161589112305155,-4.29165092725138
-4.056109508198673,17.212035616121966,-5.461935702267759,2.5294756697762857,23.161589112305155,-4.29165092725138
-4.056109508198673,17.212035616121966,-5.461935702267759,2.5294756697762857,23.161589112305155,-4.29165092725138
-4.056109508198673,17.212035616121966,-5.461935702267759,2.5294756697762857,23.161589112305155,-4.29165092725138
-4.056100550682338,17.21201874932533,-5.461892175019426,2.5294700939260495,23.161485389597157,-4.291641451535384
-3.968973632761482,17.047960772637428,-5.038516447724432,2.4752355686675953,22.152607534514562,-4.1994741699949465
-3.8827250591408378,16.88555669800605,-4.619408857829363,2.4215477927636724,21.1539003836732,-4.108236045692468
-3.7960263943664745,16.722305112114476,-4.198114140533226,2.3675798453510177,20.149981445147933,-4.016521792094088
-3.684687707437785,16.512656932877817,-3.657086193265287,2.2982740444277923,18.860745714826763,-3.89874207086235
-3.5363642966286597,16.23336737170112,-2.9363384217989528,2.205946093871171,17.143248893791803,-3.7418380291573468
-3.3879364059887584,15.95388107741311,-2.215082951616792,2.1135531069956213,15.424542258498661,-3.5848234633777154
-3.2394582151812976,15.674300069069862,-1.493583057891003,2.021128809409523,13.705253177201817,-3.4277556875246
-3.09070239883164,15.394196298234645,-0.7707340987024627,1.9285316962362333,11.98274935735791,-3.270394225264102
-2.942240227137904,15.114645453513026,-0.0493120466366988,1.8361173701841758,10.263645767864062,-3.113343395243571
-2.7936158257669885,14.834789134051428,0.6728983279039501,1.7436020598469562,8.542663655261071,-2.956120950426057
-2.6449904262234467,14.5549309350538,1.3951135528636418,1.651086128169973,6.821669984413131,-2.798897449690811
-2.497150461563969,14.276551691825235,2.113512115037378,1.559059111848602,5.10977118206337,-2.6425048218914924
-2.348764748032841,13.997144816060146,2.8345626340456844,1.4666923792642137,3.3915529325877047,-2.4855348732009492
-2.20042231582857,13.717819438035155,3.555402836154536,1.3743525883216356,1.6738358551177337,-2.3286107096974997
-2.0515906246294606,13.437572796608627,4.278620493907614,1.2817082447798531,-0.049546550325165285,-2.171168983165315
-1.9034613236774596,13.158648739815366,4.998425027579058,1.189501123195499,-1.7647956947410088,-2.0144702807317825
-1.7546204067085458,12.878384726477105,5.721687516104233,1.0968510368217945,-3.488284929107438,-1.8570187947114478
-1.6067075806346964,12.59986828688597,6.440440133661054,1.0047786659267464,-5.201027423271435,-1.700549090405212
-1.4581951550611425,12.32022281526786,7.162106384344474,0.9123330579772071,-6.9207129227844755,-1.543445099276723
-1.3095379049620826,12.04030464240889,7.884476380670227,0.8197973000536525,-8.642075404109143,-1.3861879054052144
-1.1611759833617281,11.760942566300637,8.605411287577988,0.7274453774051746,-10.360018157186458,-1.2292431250281421
-1.0122166510080202,11.480455579524296,9.329249191839846,0.6347215801470398,-12.084878571232728,-1.071666373195938
-0.8645431543215312,11.202389791648955,10.046838836392975,0.5427981863535997,-13.794849773530325,-0.9154498436782995
-0.7160641314589411,10.922807216565086,10.76834277332325,0.4503733708321033,-15.514148489530351,-0.7583811876349837
-0.567516492369682,10.643095438709171,11.49018013700112,0.3579058432697448,-17.234241740597597,-0.601239945860041
-0.41848314965826644,10.362469092136466,12.214377679705033,0.2651359762468315,-18.95995915053813,-0.44358490211026924
-0.28709751836997244,10.115072979093648,12.852819719549961,0.18335140829992397,-20.481326565407695,-0.3045985043552603
-0.20045334835394168,9.951924005574982,13.273849630532576,0.1294173826351951,-21.48461448706456,-0.2129418980816521
-0.11371969241209035,9.788606532122166,13.695314380366732,0.07542765401643073,-22.488938602483998,-0.12119062904806299
-0.027209876476888935,9.625710544238556,14.115691424726224,0.021577260711989572,-23.49067078384701,-0.029676149348990054
0.001624930804843825,9.571415267259702,14.25580836901437,0.003628248843300062,-23.824560690850713,0.0008267751698572134
0.001624930804843825,9.571415267259702,14.25580836901437,0.003628248843300062,-23.824560690850713,0.0008267751698572134
0.001624930804843825,9.571415267259702,14.25580836901437,0.003628248843300062,-23.824560690850713,0.0008267751698572134
0.001624930804843825,9.571415267259702,14.25580836901437,0.003628248843300062,-23.824560690850713,0.0008267751698572134
0.001624930804843825,9.571415267259702,14.25580836901437,0.003628248843300062,-23.824560690850713,0.0008267751698572134
0.001624930804843825,9.571415267259702,14.25580836901437,0.003628248843300062,-23.824560690850713,0.0008267751698572134
0.001624930804843825,9.571415267259702,14.25580836901437,0.003628248843300062,-23.824560690850713,0.0008267751698572134
0.001624930804843825,9.571415267259702,14.25580836901437,0.003628248843300062,-23.824560690850713,0.0008267751698572134
0.001624930804843825,9.571415267259702,14.25580836901437,0.003628248843300062,-23.824560690850713,0.0008267751698572134
0.001624930804843825,9.571415267259702,14.25580836901437,0.003628248843300062,-23.824560690850713,0.0008267751698572134
0.001624930804843825,9.571415267259702,14.25580836901437,0.003628248843300062,-23.824560690850713,0.0008267751698572134
0.001624930804843825,9.571415267259702,14.25580836901437,0.003628248843300062,-23.824560690850713,0.0008267751698572134
0.001624930804843825,9.571415267259702,14.25580836901437,0.003628248843300062,-23.824560690850713,0.0008267751698572134
