RAMEL-ESPOL/ARCHIE/matlab/data/joint_goals_espol_t35_h35_p12.txt
Joint0,Joint1,Joint2,Joint3,Joint4,Joint5 
<<<<<<< HEAD
-0.003624796272422151,9.572466567943703,14.24552348619977,-0.004576962137982225,-23.828415200405267,-0.0008227012300005474
-0.003624796272422151,9.572466567943703,14.24552348619977,-0.004576962137982225,-23.828415200405267,-0.0008227012300005474
-0.003624796272422151,9.572466567943703,14.24552348619977,-0.004576962137982225,-23.828415200405267,-0.0008227012300005474
-0.003624796272422151,9.572466567943703,14.24552348619977,-0.004576962137982225,-23.828415200405267,-0.0008227012300005474
-0.003624796272422151,9.572466567943703,14.24552348619977,-0.004576962137982225,-23.828415200405267,-0.0008227012300005474
-0.003624796272422151,9.572466567943703,14.24552348619977,-0.004576962137982225,-23.828415200405267,-0.0008227012300005474
-0.003624796272422151,9.572466567943703,14.24552348619977,-0.004576962137982225,-23.828415200405267,-0.0008227012300005474
-0.003624796272422151,9.572466567943703,14.24552348619977,-0.004576962137982225,-23.828415200405267,-0.0008227012300005474
-0.003624796272422151,9.572466567943703,14.24552348619977,-0.004576962137982225,-23.828415200405267,-0.0008227012300005474
-0.003624796272422151,9.572466567943703,14.24552348619977,-0.004576962137982225,-23.828415200405267,-0.0008227012300005474
-0.003624796272422151,9.572466567943703,14.24552348619977,-0.004576962137982225,-23.828415200405267,-0.0008227012300005474
-0.003624796272422151,9.572466567943703,14.24552348619977,-0.004576962137982225,-23.828415200405267,-0.0008227012300005474
-0.003624796272422151,9.572466567943703,14.24552348619977,-0.004576962137982225,-23.828415200405267,-0.0008227012300005474
-0.003624796272422151,9.572466567943703,14.24552348619977,-0.004576962137982225,-23.828415200405267,-0.0008227012300005474
-0.003624796272422151,9.572466567943703,14.24552348619977,-0.004576962137982225,-23.828415200405267,-0.0008227012300005474
-0.003624796272422151,9.572466567943703,14.24552348619977,-0.004576962137982225,-23.828415200405267,-0.0008227012300005474
-0.003624796272422151,9.572466567943703,14.24552348619977,-0.004576962137982225,-23.828415200405267,-0.0008227012300005474
-0.003624796272422151,9.572466567943703,14.24552348619977,-0.004576962137982225,-23.828415200405267,-0.0008227012300005474
-0.003624796272422151,9.572466567943703,14.24552348619977,-0.004576962137982225,-23.828415200405267,-0.0008227012300005474
-0.003624796272422151,9.572466567943703,14.24552348619977,-0.004576962137982225,-23.828415200405267,-0.0008227012300005474
-0.003624796272422151,9.572466567943703,14.24552348619977,-0.004576962137982225,-23.828415200405267,-0.0008227012300005474
-0.003624796272422151,9.572466567943703,14.24552348619977,-0.004576962137982225,-23.828415200405267,-0.0008227012300005474
-0.0036232145394349746,9.572467509667453,14.245520695188432,-0.0045769595254364645,-23.82840851806499,-0.0008211149949028177
0.05244661102848457,9.60574164063301,14.146707685806508,-0.004667320458924909,-23.59164375989171,0.05533455065397685
0.1785914794892825,9.67981009140719,13.925298418219526,-0.006201026942543517,-23.059788937707015,0.18114673603969011
0.3117638867556053,9.75682553499367,13.692882459751464,-0.009792330025110601,-22.499487388505468,0.3132155352819463
0.4451681824583533,9.83277104291175,13.461403244901348,-0.015389561636062341,-21.9393788944628,0.4447858837279908
0.5792949819108113,9.907923165061527,13.229997973245723,-0.023004541795813,-21.377366788558717,0.576380142568609
0.7128842969585484,9.981583019199835,13.00081834713988,-0.032541515830015556,-20.818685285152775,0.7068055353995395
0.8471682016438568,10.054436910892717,12.771728913610692,-0.04406521126788324,-20.258137136669095,0.8373077138274901
0.9817006958184384,10.126239098949055,12.543480566739508,-0.057532348077045395,-19.69754949586685,0.9674899502042655
1.116606727378017,10.197056068719572,12.315847584674453,-0.07294526250802894,-19.13636430112755,1.0975113975059987
1.2516158943790525,10.266747469512056,12.089270756802234,-0.090260683712639,-18.57566797311226,1.2271500720995667
1.3868757651127661,10.335392096577753,11.863486048578318,-0.10948419372815893,-18.01480893640668,1.356586307476235
1.5232175310296907,10.40340127052144,11.63710315546428,-0.1307421042764527,-17.450311798525576,1.4866492100562283
1.6603929566776419,10.47063277674649,11.410539296379289,-0.1540168800489087,-16.883180740489717,1.617133486783334
1.7977876570086238,10.536777990649862,11.184803137020603,-0.17920873411531488,-16.3159244385951,1.7474901460740007
1.934628981102017,10.60147510289681,10.961140611098783,-0.20615330248557057,-15.751690440188714,1.877026150054601
2.0723286003241896,10.665392991319347,10.737229659752238,-0.23512020265454947,-15.184621582947063,2.007115239229279
2.2101297708879026,10.728172975537685,10.514294864307546,-0.26595641692377175,-14.617803491848967,2.137077737140608
2.347788703499817,10.789709193631577,10.292712631842273,-0.29859451766130524,-14.052201364048125,2.2667212224540356
2.4856690426686914,10.850167525860176,10.071881638915137,-0.3331114416606329,-13.48628513198295,2.396424945169723
2.624262905462139,10.909755669547474,9.851008552523496,-0.3696394392040508,-12.918005048543762,2.5266871377329267
2.7622394341634178,10.96790373219752,9.632199639915028,-0.4078213337033518,-12.352783607593418,2.6562930735259647
2.9007346123558313,11.02509500124319,9.413636818239148,-0.44796224323957096,-11.785932211155187,2.7863459233388173
3.038978760548775,11.081011170912449,9.196522954400205,-0.48983823915229335,-11.22056887706128,2.9161584099760405
3.1772304540576757,11.135762326368345,8.98043497854923,-0.5335182209695427,-10.655602050155078,3.0460086435228204
3.316307394233067,11.189664118277353,8.764090106098552,-0.5792728377393853,-10.087661425091966,3.176700299811078
3.454896176330924,11.242205157772535,8.54952171874245,-0.6266739399884593,-9.522080066464978,3.307034519099972
3.5939176946998264,11.293736779945553,8.335290458030597,-0.6760340343741571,-8.9550682317441,3.4379124066994615
3.7328760049468954,11.344071925482728,8.122151827444883,-0.727183589250693,-8.38861918535468,3.568902590353472
3.871530308001841,11.393128966087415,7.9104591165009985,-0.7800275224594022,-7.823683229206097,3.6998121874322267
4.010600929959988,11.441162086807175,7.699101936391794,-0.8348442427197813,-7.25729613665452,3.831356385123331
4.149913143185516,11.488103107638208,7.4883412546724735,-0.8915804962924812,-6.690142005861061,3.963406623058441
4.288710059689982,11.53370048796539,7.279308410952336,-0.94992672332083,-6.125272994024316,4.095279566693133
4.428103415053566,11.578318498598328,7.070319103150344,-1.0103565234664833,-5.558136512354033,4.228066846095364
4.567381670842924,11.621722722510512,6.8624348458815465,-1.0725772462744876,-4.99160061007097,4.361127770158591
4.7065447448998645,11.663915570921972,6.655643378632312,-1.1365911162859186,-4.425638000385634,4.49449663560056
4.845629459372242,11.704909610550677,6.4498786073036705,-1.2024195893972507,-3.8600719593316013,4.628243403945198
4.98485578298314,11.744767831623157,6.244806396906788,-1.2701770710248554,-3.293981714995468,4.762615613884172
5.1245578391192055,11.783576492069038,6.039931744695466,-1.3400491490681294,-2.7259829788933976,4.897975313631042
5.263523846195265,11.821000680937097,5.837020599849317,-1.4114357762790097,-2.1609770081144424,5.033183204603315
5.402712698369965,11.857303196411317,5.634659724237363,-1.4848316977091895,-1.5950400449655218,5.169205819497669
5.541896774849616,11.892419802819457,5.433174116125795,-1.5601348364896244,-1.029072840396322,5.3058590963181285
5.681266472187474,11.926393726786788,5.2322822590457125,-1.6374668519497486,-0.462276702549482,5.443368800127337
5.820420070419811,11.959124884055928,5.032555509906361,-1.7166199444874193,0.10373855815268448,5.581376229698922
5.9597270717327815,11.990698032463285,4.833455942344237,-1.7978201744979068,0.6704994678775534,5.720285888808545
6.098913695847829,12.02104765907644,4.6353683311933205,-1.8809267549501651,1.2369154292604028,5.85986397192486
6.237760475089287,12.050128457684842,4.438594440292939,-1.9658182591025761,1.802115370659664,5.999925889904555
6.3769549160896135,12.07808084642447,4.2421537519607,-2.052935634114931,2.368920365807721,6.141205256288267
6.516342253534615,12.104862863329728,4.046263603585594,-2.1422157839999274,2.9367235195281354,6.283591004525909
6.654862014972664,12.130275609293921,3.8524026974996617,-2.232987457630698,3.5012250201631425,6.426034416379421
6.7941654930804445,12.154618828767001,3.658253925764014,-2.3263553533636254,4.069175514331469,6.570274974262158
6.932871008954003,12.177644305471372,3.465739393420778,-2.4214229695295684,4.634963268225059,6.714926747802169
7.071203967326816,12.199397518769024,3.2745330517061713,-2.5183495642698066,5.199525355347144,6.860257407614981
7.210497389989957,12.220075563633124,3.0827927461564464,-2.6181108597069094,5.768324301429055,7.007718820385659
7.348610758336503,12.239358514860056,2.893458751031755,-2.7191982076525254,6.332638457750942,7.155087460091851
7.486941409356067,12.25744906752815,2.7046031929380496,-2.8226423065031936,6.898193099725589,7.303888170350721
7.625497323795343,12.274336836219648,2.516215107126333,-2.9284922088908325,7.465041719245852,7.454182565650313
7.763715861386397,12.28994927395985,2.3290548145013674,-3.0363488132979106,8.030900732463765,7.605406774357298
7.902108502190077,12.30434040145243,2.142425018943652,-3.146642748239721,8.59788187237314,7.75816753702777
8.040187526637563,12.317455443032719,1.9569790574838788,-3.2590184756571894,9.164004358449153,7.9119747151702144
8.178573445333038,12.329347223822898,1.7718805293346533,-3.374019306023617,9.73182993394768,8.067571109967298
8.315972121585139,12.339907291731523,1.5888521816633743,-3.490592273507916,10.296062392679945,8.223543568287003
8.45401670484091,12.349259432769205,1.405713095919064,-3.6101553367483428,10.863423371629631,8.38179426469146
8.591356546409418,12.357306039527515,1.2242525039145071,-3.731580589324349,11.428377827210475,8.540829158111563
8.729041835544383,12.364106865595218,1.0430777429700666,-3.8558314440789396,11.995259745775238,8.701914497539386
8.866450764150855,12.369623036745793,0.8630058139870114,-3.982395692425074,12.561524974086655,8.86438227864121
9.003595125663413,12.373855332691614,0.6840152431092674,-4.111317525761009,13.127234096169984,9.028295800933831
9.14108097480546,12.376813986688052,0.5053142171655484,-4.243219453655966,13.694902168822962,9.194442187432443
9.277817562977942,12.378473577272251,0.3283160381018417,-4.3770957628933695,14.260037326853784,9.361557974930664
9.414735755265912,12.378845723194495,0.1518101617075318,-4.513895396724259,14.826497034869732,9.530833516439976
9.551377633485076,12.37792267035024,-0.023614675685137945,-4.6532143731715925,15.39239936849484,9.701766740419018
9.688328615110402,12.375691833223128,-0.19871035531703277,-4.79570972407274,15.960181843635507,9.875159214679162
9.824416384075315,12.372172017223376,-0.3719828324920808,-4.940205152154785,16.524992704878837,10.049583993306161
9.960682185728816,12.367337908710628,-0.5447635711312976,-5.087847210631529,17.09116046350639,10.22643132764195
10.097107678132128,12.36117672338314,-0.7170266344675477,-5.23869290810448,17.658622347566773,10.405759987158493
10.232801145781904,12.353728459318694,-0.8876504340651579,-5.391805032635789,18.223675766470766,10.586459609004104
10.368993228686566,12.344920089467978,-1.0581838384278608,-5.548635302789712,18.791453679623608,10.77024201552877
10.504374107082526,12.33483203878818,-1.2269886728254602,-5.707737580088712,19.3565025399965,10.955412125903418
10.640437448720885,12.323345928354797,-1.3959277080751842,-5.870938839077165,19.92506428122346,11.144093162592778
10.775566023549127,12.310592765042376,-1.5629939705766978,-6.036369127473774,20.490387220392435,11.334121517435902
10.910758978229026,12.296482037613849,-1.7294285620565768,-6.205300823845457,21.05665216691255,11.526965320842239
11.045934545919469,12.281012168535089,-1.895129161362321,-6.377718399051377,21.62352352798008,11.72260100757605
11.18070571934904,12.264224294632747,-2.059623228492893,-6.553199720473278,22.189380957219885,11.920549744592014
11.315426615822883,12.246071627927657,-2.2233449516830612,-6.732278847831719,22.755712785860972,12.12141441840769
11.449441110663326,12.226644411889733,-2.385501116327372,-6.914146841494286,23.319759224692895,12.3242916943251
11.584119714705396,12.205734822641714,-2.547748383910273,-7.100759974242668,23.88729150600061,12.53135892617282
11.679010546272389,12.190162736714656,-2.6616332954674045,-7.23461161528124,24.28757622413471,12.679228202056644
11.711528282760021,12.184665993095901,-2.700578098611295,-7.280938929501143,24.424827536350943,12.730284709596935
11.782262801095522,12.17242520000353,-2.7851483961134647,-7.382531866255437,24.723525012002508,12.842034090573714
11.811991300003186,12.167164197176968,-2.8206325623532797,-7.425567574178528,24.84911979091286,12.889285036869078
11.825663195417677,12.160676724374213,-2.841983461392248,-7.446833139592905,24.9193094271991,12.91273537249825
11.775668944363513,11.989997348703389,-3.00350467381988,-7.436107576994063,25.255104393451443,12.906204739020172
11.698126669894156,11.71788408800408,-3.2521613254152557,-7.420197802345074,25.78141237702262,12.896597124336283
11.621472247649992,11.439821872889933,-3.495592092850533,-7.405366124170244,26.308335065424775,12.887748541955087
11.54594742083748,11.156775709978064,-3.7329533243709476,-7.391656693048047,26.83404746345391,12.879690849134303
11.497614895933632,10.970782936820388,-3.8834803711878765,-7.38336949144631,27.173938508835487,12.87489233967491
11.477469904626531,10.892121466521978,-3.945889828923,-7.380030043509075,27.316409015971672,12.872977198668575
11.484667915976901,10.85135816919019,-3.972902891233893,-7.389067222320344,27.382705486608653,12.890763582751063
11.816904802465077,10.785797926803747,-3.922605858248815,-7.599145438791092,27.354835231033277,13.261261673931385
12.341549613512024,10.678179735979386,-3.8399102029196572,-7.930234251704536,27.30915255539664,13.846035052425938
12.877162233514635,10.563102219523135,-3.751302482595755,-8.267390576970067,27.26040821392173,14.44265209750344
13.411655127008574,10.442966885939112,-3.6586093783032743,-8.602958674535145,27.20969890715701,15.037632785491562
13.946683735276725,10.317354665306508,-3.5614776182495507,-8.937936445542705,27.15683542498115,15.632796642377077
14.482157809966274,10.186213236470518,-3.4598378883630203,-9.2722278754475,27.101813422341074,16.22802370492525
15.018984785146657,10.049231551295666,-3.3534181794574422,-9.606357929628572,27.044522686784227,16.824302067066288
15.554754536713252,9.90695523195199,-3.2426106313271656,-9.938788746394827,26.985210570127734,17.418935357669856
16.082567121743224,9.761290866200326,-3.1288743046660454,-10.265229064239632,26.9246848675249,18.004258321288624
16.587557441275916,9.616751483408597,-3.015726099512363,-10.57654310179711,26.8648221276907,18.563809963823388
16.842944246786708,9.541707536693975,-2.9568642609036493,-10.73359150860775,26.833802233198437,18.846608166075804
16.933954214612797,9.517563302006524,-2.929080180487979,-10.788601965783798,26.813350211966455,18.94537629850394
16.9752915840638,9.604451146616002,-2.693373202291659,-10.783394251848144,26.488772703708612,18.922945919738055
17.043591155279728,9.74242808468142,-2.302335234136606,-10.775969853459534,25.95641930735237,18.886854145183428
17.113444715601027,9.876499493111565,-1.9004315697025385,-10.769851250707664,25.41695209931675,18.85114181506924
17.18381832323594,10.004532561967773,-1.493645095113695,-10.765176066810197,24.878531398660428,18.816346228135824
17.254739093726215,10.126609540733353,-1.0818145668664436,-10.761857513751725,24.340928012970185,18.7824078068183
17.32657637814135,10.243318163580085,-0.6628574005116428,-10.75990609800223,23.8014463891013,18.749142336429582
17.399046003361956,10.354148386042452,-0.23846383298221718,-10.759326356692068,23.26230284942527,18.716665812392485
17.47212996810927,10.45906478204652,0.19118674198757013,-10.760139325790515,22.723707573496633,18.684969621716114
17.54596776553752,10.558266976632826,0.6269306486074405,-10.762272336383873,22.184632314418067,18.653960557693352
17.609000602914247,10.637673657823633,1.0001440823148364,-10.765128994898511,21.728436789890964,18.628264522010827
17.628846386071935,10.6616867016498,1.1178759525330006,-10.766221245814034,21.58555686227322,18.620317012799898
17.67325994355201,10.823337612221223,0.9120517400663212,-10.795457832285091,21.620817582141427,18.675144060026874
17.793004349973632,11.258148531490601,0.3508091708477145,-10.874897620978633,21.72295192875104,18.824653778707074
17.912873122661196,11.687456271745093,-0.20061634834872258,-10.954187194217678,21.820624921895348,18.97372425430056
17.965415608301043,11.87380067047176,-0.43912456524538807,-10.988868837478824,21.86203530798395,19.038881518930864
17.989401328149935,11.958500881480504,-0.5473661270196176,-11.004686112171466,21.88065992023491,19.068588650987756
17.936450366820846,11.855322362275441,-0.6786444870161169,-10.991790762283276,22.120716597467993,19.061859329084616
17.82173746160719,11.622222389180838,-0.9456215330837927,-10.963722745604159,22.633090657471545,19.045273300236182
17.70378987626412,11.373916243027985,-1.2180853691104896,-10.936066702233486,23.166413643343123,19.02902806782138
17.58719550075522,11.119584128779232,-1.4852355139876043,-10.90998695859592,23.700210421696923,19.013809403508276
17.499900455127104,10.923225559828001,-1.683725968251062,-10.891300222773888,24.10421750948633,19.00298854633204
17.46671353955717,10.847216873434562,-1.758823394719402,-10.88438213982803,24.2587919430418,18.999009615962112
17.424922774198144,10.750419753277244,-1.8530979677884447,-10.875823874561968,24.454220018779036,18.994105898069137
17.32041396687263,10.502989450030874,-2.087378788391045,-10.855183680021105,24.946770574314293,18.982376334360584
17.209597131823667,10.23205068468679,-2.333383430042885,-10.834553483766538,25.475116606719027,18.970795803004872
17.100100847273232,9.955446839275266,-2.573828666549712,-10.815415058699967,26.00334633177825,18.960270030942247
17.006107530583492,9.710748806362885,-2.778025884367144,-10.800035398134083,26.46176628303372,18.951988585788715
16.967004520103206,9.60693300206131,-2.862347583787764,-10.793930231133242,26.653846059842454,18.948755404907796
16.943013412102513,9.542643526936168,-2.913893751268926,-10.790271217570186,26.772094492909826,18.94683475184749
16.943984655964137,9.558179401659,-2.9931936783507678,-10.79689365187862,26.834549820170157,18.961275288035257
17.031096056760838,9.891031884403084,-3.4339641377810857,-10.860136767739455,26.924287022229688,19.0793077731852
17.15429527233224,10.356019978438834,-4.046948500728524,-10.949308298884086,27.046450347225246,19.24563543831202
17.279879466339363,10.823258740436769,-4.659636881685457,-11.039876691187851,27.165422405914686,19.414464110390675
17.407984972530695,11.293066261912047,-5.272374041166517,-11.131918487321757,27.281193293812805,19.585942758470786
17.538846154399604,11.766092150787559,-5.885924843448008,-11.225578449406306,27.39382006541084,19.76034754246219
17.67199291972765,12.24045134788424,-6.497773914459826,-11.320496990483804,27.502764425066317,19.93701609128645
17.80826948730408,12.718927885164861,-7.111430133242899,-11.41727683713643,27.60854279701454,20.117052957107624
17.947200130716087,13.199654661296993,-7.7244102727062725,-11.515500841472612,27.710668790160707,20.299739323181523
18.089647952240625,13.68535214240161,-8.340080060611031,-11.615775815992745,27.809571563925044,20.486187158142094
18.22937190437047,14.154895080622357,-8.931765956186188,-11.713703442345311,27.90106362363866,20.668229418207233
18.31152073533242,14.427864333951087,-9.274151141014107,-11.771079498896631,27.95237807331412,20.774873749582138
18.34067220028357,14.524189834484096,-9.394691807302205,-11.791404546803614,27.9701554022837,20.81264960011701
18.261238716938408,14.585145215099438,-9.456251230436061,-11.7432248170982,27.9868876128632,20.725087013404977
17.83053568586964,14.714959211393822,-9.54913318237836,-11.477093401187448,28.037044593016397,20.240722742578193
17.29092909992997,14.872529935256797,-9.661573138240701,-11.142585029282277,28.098193460390213,19.63350077443419
16.74895797953424,15.02518841215761,-9.770191217564765,-10.805426215576981,28.157712148247413,19.023197997176176
16.20695381000647,15.172312778876753,-9.874573311968614,-10.46708647239936,28.215304120883662,18.4124464482922
15.662740675930804,15.314532095721038,-9.975204664819001,-10.12625681447105,28.271255544536924,17.798816707340162
15.118376812778413,15.451339427092218,-10.071752148060675,-9.784245781070064,28.325312422000327,17.18463568923154
14.568999458515076,15.583943839615666,-10.165091814045303,-9.438012023631842,28.377901218955955,16.564421286907447
14.021230019005188,15.71076178097706,-10.254143178438529,-9.091773502399286,28.428433866399697,15.945668500178487
13.473423649113249,15.832256844279225,-10.33925634993064,-8.74452424770444,28.477040874011504,15.326530208602005
12.925382326104483,15.948525123532512,-10.42052046278251,-8.396168344169203,28.52370689111634,14.70679213065604
12.537044269177448,16.027747319738218,-10.475790881573984,-8.14877550895482,28.555622405758744,14.267460063092567
12.464633786120544,16.0443211450732,-10.45582533657983,-8.100131403545364,28.529636938998326,14.180365694804165
12.48351496192139,16.063843717865627,-10.09280524434415,-8.083016415167526,28.14825919891139,14.140314555131228
12.510604113670942,16.08637915392671,-9.570126889327595,-8.059563995908967,27.604666126949407,14.083869593638855
12.537941556581263,16.102712571486606,-9.040507807741855,-8.037170732295747,27.060291269380006,14.028074934175931
12.565545134363822,16.11281817820116,-8.503705121700676,-8.015849503781514,26.514916033708104,13.972906991353693
12.593261005932503,16.116657271607952,-7.962527513822735,-7.995622438017463,25.97138815486647,13.91858308610031
12.621067632294672,16.11429839164845,-7.41753244013734,-7.976513920158296,25.430193696847358,13.865141099766223
12.648811137557404,16.10588498198944,-6.871790278681168,-7.958590182072738,24.89425402617539,13.812832182122891
12.676238835037486,16.09175427507156,-6.330472735295035,-7.941990290204365,24.368390635984348,13.762097829687068
12.70369641711306,16.071942129674476,-5.786625520912125,-7.926376288847694,23.845640396080686,13.712184395546656
12.731061030531217,16.046682471980517,-5.242842543551973,-7.911818449921584,23.328356083444312,13.663302857323716
12.749926374370514,16.02612579271136,-4.8669466300648265,-7.9023485458156735,22.97384796999883,13.630085895585966
12.90276593125676,15.995556035609074,-4.825802095359418,-7.994236373408948,22.94264864472048,13.789780398235736
13.39960187643028,15.896819440267265,-4.757592130715737,-8.296251075425213,22.903803862327198,14.318383815442326
13.970344402602542,15.778340124637028,-4.675567620134447,-8.642378553986953,22.85738453659028,14.92543632103178
14.54214195991632,15.654158352892994,-4.5893847933993825,-8.988230655356372,22.808917025454704,15.53340206864148
15.113121196149244,15.524612047509306,-4.499257478345887,-9.332651112572176,22.75862044932386,16.140287671382094
15.685810152034843,15.389041738452805,-4.404692556161135,-9.677119229852819,22.706236125051248,16.74876709280745
16.2580350998729,15.247866656840463,-4.305946302539859,-10.020280037081,22.6519264686052,17.356516911669626
16.827625755161787,15.101592385568503,-4.203347610989965,-10.36081734292937,22.595963812277716,17.961231752230887
17.400741858385366,14.948540333816458,-4.095680316438583,-10.702369482277273,22.537714651908193,18.569438255060952
17.972039512676837,14.790024168709765,-3.983829366884619,-11.041709332061796,22.477706994983834,19.175453896904386
18.505145760802762,14.636667469557354,-3.8752886253729804,-11.357313084234402,22.41994881728143,19.74071179729902
18.75699392211862,14.56237078546298,-3.8225865306348825,-11.50604643466675,22.392066057038523,20.007663326140257
18.699176689816497,14.448980328864213,-3.952300284629516,-11.492395282359729,22.64161922549996,19.99984852107739
18.576102891675173,14.210892918461354,-4.218706388636691,-11.462767291365656,23.160122891024596,19.97998637231387
18.44972561486674,13.957548883400449,-4.4904531453409,-11.433661908767403,23.69948888311796,19.960528662196435
18.32620568784003,13.70097507712372,-4.754127910119602,-11.406553914777263,24.233578798131717,19.942473719801814
18.251551035465038,13.541483098962761,-4.912506743342875,-11.39085648347076,24.559755904551192,19.93202660604647
18.218950935778803,13.470776415249793,-4.981417732317283,-11.384152197630288,24.70298994392759,19.927588691488815
18.15811275190137,13.337071038720211,-5.109604331312185,-11.371906101911494,24.971609399951493,19.91950116870574
18.040693815751684,13.072444663828312,-5.355410226784339,-11.34927016494777,25.494946095805986,19.904628279019686
17.92088140947357,12.793272732448589,-5.603921491682464,-11.327572700790258,26.035686426227645,19.890491175264728
17.803379961055782,12.510224478421383,-5.845218806065121,-11.30774641653916,26.572720807874965,19.877680735991554
17.692474570668868,12.234419954902469,-6.070600651398445,-11.290352653603573,27.085786213246745,19.86661677396669
17.639331707970584,12.099212068098916,-6.177739215712221,-11.28249506663556,27.333788700213166,19.86167740503148
17.607006697014565,12.034347098255562,-6.2313175360633934,-11.274854232848313,27.456233808001425,19.85225185639093
17.3151830130264,12.121686636592537,-6.296839551254193,-11.09500045612348,27.491166193785734,19.52647505348648
16.79933945413945,12.271960609645717,-6.409327955603103,-10.776217320533076,27.551425063030642,18.9502570542122
16.266552828259506,12.421719669689734,-6.521125192701829,-10.4458483216912,27.611713701601875,18.354659519891662
15.734099998008965,12.56591943181731,-6.628480177087037,-10.114579932155078,27.669959362832742,17.75898335687052
15.195558400052395,12.706279876957893,-6.732709036513385,-9.77845254829992,27.726900607985367,17.156068106177393
14.661827356416305,12.840005370253534,-6.8317619502622104,-9.444291977014874,27.781352105638543,16.55812290809931
14.147702627472295,12.963810167933042,-6.923249960320389,-9.121465012802751,27.83194235222912,15.98176655363195
13.889575365158665,13.024132626870387,-6.967749195516794,-8.95904093311823,27.856639436569257,15.692256484175326
13.873230857126943,13.035767278321291,-6.832965500126534,-8.936834590004736,27.71453263425029,15.64836779788661
13.899138642553625,13.053268672344869,-6.357542128758057,-8.913199644646786,27.223582985986027,15.590834684086612
13.927633726273777,13.066645406413928,-5.832401403993275,-8.888482548696706,26.68717509182421,15.528700533726575
13.956586717836217,13.074061999744753,-5.296474934887013,-8.864693719274408,26.145911160005383,15.466745127091253
13.985425848907717,13.075388821040455,-4.760451999376119,-8.842319120553226,25.61056591202988,15.406193289899099
14.014423507929765,13.070749361526676,-4.219133013257588,-8.821031115180501,25.075848055696177,15.346365430956165
14.043070308426321,13.06040419708182,-3.682191906544387,-8.801188701736756,24.5511347882227,15.288287048695832
14.071910669010004,13.044324245641826,-3.1395872251943078,-8.782403632283287,24.026447536329577,15.23083086593157
14.100723773711515,13.02269251436118,-2.5953112666439004,-8.764718906470545,23.505593730130144,15.174346223714043
14.129482523618872,12.995666554118358,-2.050025142004612,-8.748149006985182,22.989072780266913,15.11887121055045
14.157089916124654,12.964715065383965,-1.5246953209888356,-8.73322823573194,22.49632123856904,15.06643039099773
14.170057641239106,12.949429893093216,-1.281270252988133,-8.726733576197729,22.268896428384092,15.042561280916374
14.21779428496431,13.160904357969113,-1.5462014114890155,-8.758642197066186,22.314625773075683,15.101285579053114
14.322366189514264,13.619288861322456,-2.1181324737990708,-8.82839011935652,22.4111762852818,15.229533754186523
14.436813798780541,14.113492053888613,-2.7311812320077427,-8.90448713474977,22.51131313453025,15.369283287368571
14.554004101536368,14.611694060842913,-3.3454196004878,-8.982149848155238,22.608076308122232,15.511731164914309
14.672689184578568,15.108413896991314,-3.9540444530036862,-9.060537009011405,22.70034297765022,15.65533563992597
14.75649968713285,15.454537611231913,-4.375901091305211,-9.115757503387536,22.762124095918917,15.756370132458732
14.783125453029015,15.563720918314154,-4.508590976657589,-9.133263652065915,22.781189635866646,15.788393286714554
14.70639297136565,15.594208596561167,-4.536281600845156,-9.087127050048418,22.790357880040947,15.707260613279713
14.258509604259192,15.571120104042231,-4.460127517894649,-8.815047329602727,22.806330669095175,15.22733509818352
13.68556763068919,15.537128196469702,-4.3595572810555305,-8.466296946383261,22.82497696511834,14.613551337855139
13.113309812541221,15.498185144445111,-4.255555357708668,-8.117210701579166,22.841566050743147,14.000671652675281
12.541138699878701,15.454257862211602,-4.147992583084708,-7.767457016023197,22.85606293867591,13.388063010761071
11.969335062880232,15.405373924512837,-4.03691024113409,-7.417258269825097,22.86849958418668,12.77603510273033
11.394772770746755,15.351226645418356,-3.9216424990067664,-7.0647246215183355,22.87885815055741,12.161251196916274
10.822989854060673,15.29233087629008,-3.8032716507693167,-6.713295083781393,22.88702808325092,11.549646571899617
10.248284957768231,15.228086134495337,-3.6805833642654546,-6.359506516122486,22.89308219420042,10.9351327935251
9.67595386438133,15.159062701712477,-3.5546609561837204,-6.006652032745005,22.896904466587284,10.323383494483815
9.102445118942805,15.084832003145115,-3.4246958928340545,-5.652584812611867,22.89851291260509,9.710613037739977
8.528027677470032,15.005382253172103,-3.2906868310826187,-5.2975096333452125,22.8978868532244,9.09712139562958
7.952114474598992,14.920577175572316,-3.152422334137466,-4.94109819225432,22.894967612606315,8.482295896800855
7.3779267427682385,14.830867951586288,-3.0106225262756894,-4.5853813008336815,22.889714958356798,7.869589634420295
6.8024051964862515,14.735755858333711,-2.8644905929257907,-4.228510353551156,22.882140680019752,7.2557489915979545
6.226451394663273,14.635333891173685,-2.7141742076701076,-3.871080098868328,22.87218668013145,6.641752364688782
5.652018199731986,14.52992172788842,-2.5601277599679864,-3.514341994303929,22.85983331695441,6.029697735200477
5.081748408272905,14.420048586134545,-2.403066423625517,-3.15998498932504,22.845209402982807,5.422407728057198
4.682827617093283,14.340072023947313,-2.290709830409229,-2.912000369312771,22.833538830895666,4.997795017662813
4.631375993327861,14.287557474317607,-2.3276457862068254,-2.8819958242709043,22.925421912053608,4.948148300546766
4.603587224245041,14.075788611762965,-2.567118402167365,-2.874412455946772,23.377460284370038,4.943240545607447
4.571170078719421,13.820177676709566,-2.8449177105035375,-2.8658821385360183,23.91179338095872,4.937735788195374
4.539315427620067,13.559721600465988,-3.1161009792224945,-2.857843666314295,24.444332321544753,4.932568829984144
4.507829298521801,13.29293544565284,-3.382226312224529,-2.850246146908198,24.978125787868464,4.927709445544486
4.476687136198599,13.019623506311811,-3.6433913677543006,-2.8430851771370818,25.513467920914334,4.9231574797487445
4.4461328695587365,12.742048083809346,-3.8974661820823355,-2.836414435593565,26.045959846205328,4.918949316592314
4.4159371873864615,12.458265011208015,-4.146279629328656,-2.8301809290520366,26.579381096504658,4.915053642228714
4.386086846921287,12.168184503795286,-4.389839785374918,-2.824383099743899,27.113829985609367,4.911471948143747
4.361639577017147,11.923333088085553,-4.587400378023526,-2.819914476463387,27.556898577338195,4.9087470514243945
4.35174031730555,11.822281621949935,-4.666880533535807,-2.818178687723688,27.737694672267192,4.907698890163885
4.38218583275026,11.791168657747733,-4.687464995642484,-2.8391843770681016,27.787840036371502,4.944681039617233
4.742874224087717,11.764101982100673,-4.66705806106065,-3.0722725060666747,27.776055113153014,5.349088559665745
5.279979917261844,11.719780781730819,-4.633612482601544,-3.4190818507836926,27.756710652716087,5.951170675044893
5.8201238956369625,11.670347898307922,-4.5962818316749114,-3.7674819315948107,27.73519599678544,6.556500897202415
6.363222132175002,11.61570673445603,-4.554979013972272,-4.117371958587126,27.711447891065152,7.1649629825737655
6.903932087687948,11.556361676462462,-4.510070327005452,-4.465267458919163,27.68566315402184,7.770550616944592
7.448406185707797,11.491593448803547,-4.461006761779594,-4.815093196915105,27.65760333672036,8.380143947804635
7.989068286258985,11.422273284286533,-4.4084311369221725,-5.161939873936979,27.62762454387693,8.985240228054575
8.533403351336945,11.347412000702173,-4.351578724578028,-5.510570797443562,27.595310734832115,9.594199388707986
9.07459363996472,11.267904852155377,-4.291109920546507,-5.8565751965121375,27.561029454654847,10.199372130999048
9.615328521928275,11.183372723446432,-4.226728227102601,-6.201650049979982,27.524693244174273,10.803760428120103
9.983909514497512,11.12281536969664,-4.180544697038538,-6.436473666757206,27.498701676192457,11.215558836424409
10.066415283103103,11.11466250836535,-4.155756528908386,-6.487823477525271,27.47295903187656,11.30518235648147
10.094558826993403,11.212082003042328,-3.894339723654737,-6.484717324860268,27.1132652973028,11.290788778366167
10.136848185472823,11.35251900693189,-3.500048403709726,-6.480817564259463,26.57722356813375,11.269802724728251
10.179865776128151,11.488213020001938,-3.097234004656684,-6.477765619083417,26.03734950710809,11.249214689939468
10.223237727687078,11.617901231893175,-2.6894295936926826,-6.47558890423165,25.498451033254515,11.229197369438864
10.266943107876669,11.741538886911595,-2.276888410577526,-6.474277064787996,24.960827400572754,11.209743880779959
10.31124129975873,11.859824885140235,-1.8572066554696682,-6.473818071770275,24.42136769726133,11.190727907604332
10.355916454475512,11.9721283775475,-1.432519483507383,-6.474244470773795,23.882838503250518,11.17224003967599
10.401060260247672,12.078696782377023,-1.0019125653052476,-6.4754841702901835,23.34408944173161,11.154213327869668
10.446648424037893,12.179439249346256,-0.5657123859267971,-6.477565379438526,22.805532069500046,11.136654060752674
10.484456551322586,12.257882806355514,-0.2029845510910185,-6.479902836994996,22.36300292119419,11.122561050233356
10.495775188349858,12.280932119909114,-0.09611672915965441,-6.480774104341854,22.23266696058205,11.118597195167917
10.526250948819088,12.466203787905217,-0.3291542177512392,-6.501516588505234,22.27675870213921,11.15641419328674
10.601406622764888,12.918542323336093,-0.8959276135775378,-6.55257697277959,22.38209814028719,11.249408628870814
10.677500659289871,13.37008072638957,-1.4585978290599508,-6.604141032183483,22.483970514685552,11.343184715370647
10.711030610612369,13.567034577414065,-1.7030517755132282,-6.626819310513879,22.527374466846876,11.384386365341857
10.71709314759753,13.609805462375412,-1.7779858097635914,-6.632051631913916,22.558637590381757,11.394787974165954
10.667175185525346,13.445507253728902,-1.967136677651155,-6.618703301156427,22.91536669772827,11.38635388019838
10.5936674416013,13.196027329785656,-2.2442114243390687,-6.59968358671546,23.446720668216845,11.374371366477716
10.521062479398445,12.94053677030194,-2.5160259429813836,-6.581666932584708,23.978729421030966,11.363070028869833
10.449194805449128,12.678466154490957,-2.7830947295976016,-6.564615083405596,24.512488038309666,11.352432118349649
10.378401553060218,12.411100025604364,-3.044069996162062,-6.548607608554703,25.045343110662937,11.342513136626831
10.308146193724358,12.136415239811901,-3.300845670577741,-6.533559310000206,25.581242702286964,11.33323813895951
10.239111651394634,11.857181153559475,-3.550797899301146,-6.5195500697551605,26.11475830657711,11.324718067800967
10.171072682813517,11.572630241224351,-3.794696490808553,-6.506558668159049,26.64743866009365,11.316916414457397
10.109304394823166,11.306030757156107,-4.013858775763644,-6.495491925872222,27.13700971609418,11.310369271627847
10.082382559242319,11.187310419349137,-4.108671268958169,-6.490891468993996,27.352193244479025,11.30768093719151
10.067667070027667,11.121760749739577,-4.1603072174221625,-6.488435175475298,27.470278646206417,11.306254888299236
10.081001854970076,11.21267416802243,-4.303515208116982,-6.4999687430555495,27.520740523868433,11.327749360995137
10.144231920197432,11.614883823443058,-4.8203108814013,-6.546881399129642,27.62745259004984,11.412797929247459
10.220456463135132,12.093374126966213,-5.431846693408771,-6.603269418878257,27.750955243915705,11.514927524494016
10.298416606363421,12.575754474178064,-6.044734124307539,-6.660752892720443,27.871645072822528,11.618938037887213
10.378063432250837,13.061479162050464,-6.658176554411794,-6.719282145083457,27.98927379972687,11.72473992473284
10.449637869703306,13.492009146137272,-7.198794043307908,-6.771738544537288,28.090236736460817,11.819433149857623
10.478942445751851,13.666708518580778,-7.41732592103847,-6.793156157031354,28.130322432187747,11.858094772097683
10.441599668492389,13.715351826186907,-7.474154645297091,-6.769898455380272,28.142837116260196,11.81738981875929
10.052811416396432,13.780242428708597,-7.521366860798693,-6.521018680356466,28.17003146821387,11.379667489746568
9.508059694549964,13.866816930451566,-7.584259704292738,-6.171678778655193,28.20633560177422,10.76610565207464
8.963656222552553,13.948306326911498,-7.643369639082244,-5.821893282668766,28.240623813241484,10.152676627877696
8.412643455694857,14.025702277217583,-7.699427478177807,-5.467213121793325,28.27326915076695,9.531547754059432
7.865306928483293,14.097554227935404,-7.751393831473637,-5.114288058963069,28.30361499663851,8.914323724398583
7.316033064800054,14.164658039862132,-7.799867003186806,-4.75955087591729,28.3320466390912,8.294697545901249
6.76833624690276,14.226609075346145,-7.844564239962123,-4.405304573018935,28.358348173368032,7.676645470288021
6.219617154289467,14.283736788641855,-7.885732009465731,-4.049904421535653,28.382616503626192,7.057247564894374
5.670918486933186,14.33594688787446,-7.923321183561466,-3.694071726811123,28.404863297438773,6.437700992201578
5.123099991938342,14.383192856035775,-7.957304915403595,-3.3384004457795027,28.425027396399194,5.8189895968776995
4.663377464882546,14.419092917531321,-7.983107030457043,-3.0396380967356835,28.440365014235688,5.2996631728703205
4.534397601235666,14.43116951271677,-7.983546060785818,-2.955521219572336,28.435426999650844,5.153416532212937
4.5461473541438036,14.522523733475854,-7.7555001534804795,-2.9542844116613582,28.11584996124405,5.14795455357034
4.566078965600024,14.67163823466976,-7.367501330418612,-2.952538750019934,27.578430990818024,5.138995975565856
4.586480100097507,14.816818635347005,-6.9689469909274315,-2.951195707272151,27.034376438684802,5.13021028892473
4.607127910059774,14.956297066739971,-6.564218926304934,-2.950275738531133,26.48983938955641,5.121695559944787
4.627946493193047,15.089547168125547,-6.154865743256529,-2.9497782799344994,25.94689611210351,5.113476697376793
4.6491309301754855,15.217746953675798,-5.737103717137257,-2.9496982970755266,25.400581714476225,5.105473234499568
4.670405165306464,15.339202134392458,-5.316437097811466,-2.9500340462549723,24.85809940272807,5.097783901963317
4.69201217025459,15.45529865793024,-4.888126312636014,-2.9507855484955043,24.3133196302602,5.090314359445471
4.713845667269143,15.565399873844743,-4.454333958667142,-2.95194922009085,23.769043509749586,5.083098001561094
4.7331421429633425,15.656843710019293,-4.070193098782921,-2.953303757342648,23.293115757926138,5.076984744610591
4.7399852812611,15.687980116276309,-3.933807123113545,-2.9538555795063037,23.12547063660802,5.074874288894541
4.751436400246868,15.831484034806177,-4.094721566891579,-2.961353871696041,23.14227946382595,5.088026372391166
4.7865391173795615,16.278700784069322,-4.629363726270386,-2.985112706883444,23.22780410034182,5.130302748339442
4.825063135945187,16.76244904085708,-5.204127506921349,-3.011117168491362,23.316721178747365,5.176506753066928
4.84446547545699,17.00335709161504,-5.488980894876546,-3.024186434002948,23.359604743675256,5.199701625280812
4.845451378157429,17.031974628639244,-5.573218355695195,-3.0260693702159505,23.41509615405268,5.203951092835277
4.818747008526907,16.84067831290565,-5.78612335794109,-3.018738320412001,23.820116099844665,5.198669364546388
4.78378240827705,16.581885294576892,-6.063676093655424,-3.009467355550972,24.357525810903535,5.191994315740425
4.749247280996108,16.316703865254315,-6.336320436323138,-3.000688898701231,24.896393517568495,5.185681506198194
4.715172864367654,16.04541535682548,-6.603696684310917,-2.9924116042713456,25.436077400295446,5.179739815059323
4.6816870063752445,15.769157194622883,-6.864703970284182,-2.9846643180948798,25.974335563226965,5.174192441335888
4.648597976364507,15.486450761743843,-7.12073849723039,-2.977401307011644,26.51404870794995,5.169009077960699
4.61603768863454,15.198511086850027,-7.370681002948793,-2.9706509354458266,27.052878843838894,5.164212356416172
4.584007236596233,14.905459780704312,-7.614480061616024,-2.9644443554358157,27.590650055956097,5.159799666980242
4.554219178740007,14.624012018347802,-7.839131437796787,-2.959010782828319,28.097600611382802,5.1559863960894
4.540759872316937,14.49394108004572,-7.939948432447065,-2.9566765060180007,28.328870725581876,5.1543578601699425
4.534128298777338,14.429417852415321,-7.990953989568119,-2.9555896942749973,28.444585560735145,5.153651287481102
4.550330463749917,14.65054377156893,-8.262882656614556,-2.9675419587769842,28.494488524884083,5.174927986755701
4.584871416081635,15.117194936547047,-8.834143492159683,-2.992962073296832,28.597171692495113,5.220146728510316
4.622188851488004,15.614255554582643,-9.438734674215011,-3.0203327559390964,28.702608275347085,5.268787511228491
4.660806766598293,16.121108207355597,-10.051077584993934,-3.0485556848569195,28.805917845702382,5.318893341295547
4.699399166673068,16.620210451397224,-10.649933784073125,-3.076656632399267,28.903478671605427,5.368734979122122
4.727143999512991,16.974571632583363,-11.072625569288395,-3.0967951019605424,28.970224057253006,5.404425825873533
4.736499719903171,17.08797743456364,-11.207475887598683,-3.1035446546266177,28.99113385349114,5.416374258568199
4.95262494801376,17.071772456933985,-11.196406116029081,-3.2447671939926406,28.984370430924734,5.6621023569312126
5.463745881587613,17.03053128934985,-11.168214485004722,-3.578524004812387,28.967143948898475,6.243153860948792
6.023003462908531,16.98069531130529,-11.134114142731308,-3.9433220985872386,28.94633167654846,6.878792142619357
6.584146471119745,16.9257228656395,-11.096465194210232,-4.3089044400777405,28.923450282938713,7.516420785049008
7.146558563504739,16.86560468864455,-11.055242586797469,-4.674817383194205,28.898446099249444,8.155319303915086
7.708431371574153,16.800497100366346,-11.010549032129934,-5.0398490827317,28.871460077318318,8.793423611775841
8.271003151629529,16.73022221053259,-10.962245463799244,-5.404758441875422,28.842401021282264,9.432123084995679
8.832335936895298,16.65499572144796,-10.91046216125786,-5.768242631269433,28.811341046073274,10.06920014579663
9.394711773322513,16.574479177497,-10.854958474951477,-6.1317477751697815,28.77821964112907,10.70723678268238
9.956890921240706,16.488798576019732,-10.795796956496266,-6.494419225655241,28.74304346375998,11.34480487683485
10.513213554117392,16.398860688454096,-10.733595251486701,-6.852587401638714,28.706262904618697,11.975482453258163
10.892455140503694,16.334591662541694,-10.689079488051556,-7.0963092311149145,28.680038847857656,12.405259134322407
10.947939353425841,16.336338212037774,-10.643782513197634,-7.128545592084732,28.626524342023625,12.461055340026276
10.978386667433755,16.422731222663906,-10.319792004244285,-7.120387114746069,28.215553483015686,12.437349681974698
11.019102376032965,16.532024069281306,-9.885242493370306,-7.110465507634819,27.670887709698903,12.406541558056025
11.060145706047559,16.635150916611593,-9.445779363109772,-7.101567406358451,27.127425513834247,12.376475500055328
11.10163443914258,16.732400562452856,-9.000187599306146,-7.093654796648458,26.583661333653293,12.34704708122792
11.143584179596399,16.823760939951622,-8.54839627509147,-7.086752308432245,26.039529749773816,12.31824790318232
11.18601755711745,16.909263008121115,-8.090090261397954,-7.08078099173094,25.494698233307005,12.290017203821698
11.228837366576677,16.988678964744324,-7.626419583332213,-7.0757811294950095,24.950540805399857,12.262421167812118
11.272228962825116,17.062316976777538,-7.155419580099626,-7.071725800462516,24.404780545770063,12.235327672095528
11.31561004777275,17.129248084711566,-6.683468685365505,-7.068650955119586,23.864740945428963,12.209076172266952
11.346705176022585,17.17321362128164,-6.344566750519653,-7.06702919219978,23.481022747810314,12.190751350398097
11.355415360241713,17.184931660634206,-6.2496075924155425,-7.0666936254541435,23.374097153222355,12.18570139719216
11.365901995061826,17.19871064434542,-6.135160951400279,-7.06629783163358,23.245579231389495,12.179648081436262
11.307654358680413,17.185951888083935,-6.083315425858828,-7.028692986085768,23.21380543069072,12.112694972056518
10.8896897036925,17.07378131510063,-5.91838915773629,-6.770693094313112,23.210700401442068,11.662804957056762
10.32559310888678,16.917775071004513,-5.691880202230391,-6.422046686872043,23.204245646160008,11.055888781206084
9.762002604696482,16.756560583575297,-5.460986358060839,-6.0732401722547475,23.195145774642764,10.449841485371714
9.197526639713747,16.58967686936524,-5.225031333059644,-5.723452711877833,23.183330476246546,9.843186298231895
8.632716596204805,16.4172076589523,-4.984119674468799,-5.373062703683401,23.16872413132965,9.236539501472127
8.066241211841565,16.238653891391053,-4.737554732389947,-5.0212908352691334,23.15129431949009,8.628490424001015
7.500055143856532,16.05454181923287,-4.4860476115917445,-4.669388432526731,23.131009883243333,8.02116322591459
6.933293057590169,15.864511473200928,-4.229082258398368,-4.3168583419821545,23.10775655007452,7.413656831803488
6.368941942209815,15.669519002106782,-3.9679204975643128,-3.9656070095293763,23.081684083738676,6.809189534843437
5.814509447305273,15.472267144210347,-3.7060750502810738,-3.620353806257293,23.05315297239883,6.215815571691708
5.260681945799953,15.26952379756186,-3.4391648751957207,-3.2753452833177836,23.02171570275359,5.6235794329544895
4.709616922744025,15.062048481667166,-3.168143200968637,-2.9319676801574457,22.98747138578385,5.034809867666939
4.157304951015641,14.848267279312987,-2.890913923348363,-2.587764262452174,22.950097847872044,4.445253061912744
3.6115323306104723,14.631191237004915,-2.6113301590041553,-2.247629397293366,22.910175269060833,3.8632317114154295
3.175354487721285,14.45347872689353,-2.383755369413267,-1.975818151882504,22.876065929582712,3.398504300394415
3.0927172084153405,14.394136265900622,-2.3717773778361386,-1.925131192833549,22.926159138801367,3.3125717985813314
3.075559127504479,14.199153907726364,-2.593010792968085,-1.920412950217046,23.342704024741252,3.309507630284955
3.0538532696902303,13.944228946162895,-2.8714073555701476,-1.9146476201916702,23.876438969300374,3.3057732053022635
3.0324216489723987,13.683183555650043,-3.1445120978275707,-1.9091862041589358,24.410994030831947,3.302248773550427
3.0114128143353556,13.417975168841338,-3.410347201259772,-1.9040640786009235,24.94243124137492,3.2989587558588216
2.9906409588290686,13.146392438808432,-3.671178946826954,-1.899233902594933,25.4752317933031,3.2958742925936138
2.9700172311582413,12.867229924492595,-3.9280013091643764,-1.8946775380642074,26.01159677303549,3.2929856692589947
2.9498292615840755,12.584484691596437,-4.177145333173482,-1.8904574550734892,26.543854925661797,3.290333997289895
2.9298820279664377,12.295603093948865,-4.420950455043611,-1.8865300327204682,27.076902986628905,3.287893129174731
2.9122523072119604,12.03217721472522,-4.634321710909914,-1.8832669787155392,27.55401681420383,3.285890935561142
2.904695875899904,11.916884036697315,-4.725136355717055,-1.881929904990019,27.76025959803277,3.2850789018366706
2.9034521637735957,11.905726877834164,-4.78725722388041,-1.8823935170241028,27.833538605818468,3.286405694649962
2.91772611024119,12.22055775065929,-5.186637517962924,-1.8931133464548529,27.91757542082613,3.305572165906894
2.9398100427963483,12.701909827774859,-5.794237930115954,-1.9096582568922875,28.043026786476258,3.3351235597259166
2.9624812390555713,13.189004995764217,-6.405349484163415,-1.926591982933912,28.166220110908256,3.3653332075688978
2.985779676954218,13.682355532661239,-7.020454507653188,-1.943939951680312,28.28712361637425,3.396245570092687
3.0094090432672367,14.175465588550628,-7.631361232923763,-1.961477896926145,28.40405191082428,3.4274607903677357
3.0336410326634793,14.673805117230652,-8.24476576164096,-1.9794038813165993,28.518220865935355,3.45933128814374
3.0585043700612564,15.1776354809788,-8.860838985857642,-1.997734384831418,28.629538549776193,3.4918856579189286
3.0837510815510045,15.681708602169847,-9.473071715471557,-2.0162825650704557,28.736752748163337,3.524791894709352
3.1095368992153665,16.18896246985592,-10.084969869888006,-2.035159144349621,28.840425262071467,3.558246502694693
3.1359701512493867,16.701245375387703,-10.698639125949695,-2.0544386224227336,28.940808995648187,3.592381094565541
3.1564259521296236,17.092482764179223,-11.164386854858849,-2.069308972557169,29.014538987904444,3.6186867098292255
3.161415504333912,17.184768450783313,-11.260807689386644,-2.072657986079076,29.01849206523661,3.624528975458676
3.165749721032893,17.20122992745817,-10.940532521299588,-2.068785620742458,28.681819706091293,3.6155525540340574
3.1726544201160825,17.222422887711645,-10.428723406100074,-2.062880958568551,28.1489169409416,3.6014983084365566
3.1796985218353635,17.23780039918617,-9.904623176330077,-2.0571808892870393,27.60953674798977,3.587459742751816
3.186808715449032,17.247074078905737,-9.37366205558358,-2.051746849720436,27.069396732698085,3.5735828460142582
3.1939337447414644,17.25021638587383,-8.839695368154272,-2.0466117287263716,26.532379189293657,3.5599597490608215
3.2010975761249294,17.247311502551938,-8.300964684848845,-2.041750534928776,25.996641942540133,3.546535400642754
3.2083226524363813,17.2383665102419,-7.755801734876948,-2.0371434615511284,25.46051001150174,3.5332613420887906
3.215592123269993,17.22341153784188,-7.205494810617809,-2.0327972504076173,24.925241447025297,3.5201626082220843
3.2217894555534343,17.206050471881987,-6.734970548877011,-2.029313500940641,24.47214694745427,3.5091906927607477
3.224173450012331,17.198278993602933,-6.5540556237161445,-2.0280635011644654,24.299020891254568,3.505040942614925
3.2299655600354082,17.17682357800752,-6.1127475626155885,-2.0250556786928433,23.879229815494398,3.4950024441770524
3.2355660023810757,17.152715852620563,-5.685052080582803,-2.0223053353602864,23.475699938451935,3.4854322826476904
3.2344924718563677,17.11083420876145,-5.568174096775394,-2.020488209076078,23.400787419121233,3.4814027813716635
3.215444657767253,16.7562903731785,-5.1494924156490365,-2.0076336653472544,23.33734526017943,3.4586311250692954
3.1885092940839543,16.248167565986474,-4.545978090228,-1.9894109428084708,23.242932085420666,3.4263054512508164
3.1619869366555236,15.739868083007295,-3.938178154544796,-1.9714157551102887,23.144388752464103,3.394330833404701
3.135967194878732,15.233269118320385,-3.3283720657169997,-1.953711459378576,23.042114591539622,3.3628203609152143
3.1108759055439066,14.737065094358192,-2.727184979752197,-1.9365918084650315,22.93802553906556,3.332298987057752
3.0957586537394204,14.43436491871723,-2.3585567942667467,-1.9262550604331714,22.87263347051117,3.3138451106142206
3.0887698878015994,14.34978751209628,-2.422749687316346,-1.9240250232964948,23.0215494423346,3.3118539761730994
3.0687714888643707,14.120447896550269,-2.680241245773267,-1.91857685926215,23.508763470728645,3.3083180071807186
3.047229462401044,13.864563150645639,-2.9560000136599305,-1.9129262219363623,24.040816271312707,3.3046616258371
3.025959384323638,13.60261221173331,-3.2264766440876502,-1.9075772370948931,24.573644719820017,3.3012142209283235
3.004885494514423,13.333662383363244,-3.4925208374427696,-1.9025120755884828,25.1090326788141,3.297966118060189
2.984243761044395,13.0608413914878,-3.7510657724289995,-1.8977858922249446,25.640781265438314,3.294954250293857
2.9638102365991394,12.781323887214915,-4.004834640227246,-1.893345493398519,26.174443250519293,3.292146193469666
2.9436548007180847,12.496103931495396,-4.252858046520395,-1.8892066713018871,26.708053938424005,3.289553584793694
2.923782823471081,12.205357301843872,-4.494984484685555,-1.885369681548325,27.24128600979238,3.2871780410646685
2.9089726400822635,11.982333189467147,-4.673770060965962,-1.882672992521715,27.64336117627457,3.285529303464932
2.9033545185457004,11.896285646245476,-4.741199786258085,-1.8816873805022953,27.796938679834245,3.2849319208394765
2.7833469045947097,11.885209874019129,-4.758299680550215,-1.8044623833761586,27.828938097907713,3.151396974864084
2.329235463983356,11.904234354481009,-4.772615277755821,-1.510218563641618,27.837268854223257,2.6419066524521204
1.7862239722640763,11.922536260263021,-4.786383312065582,-1.1582200057123697,27.845293722953524,2.032610213910895
1.2476915530750057,11.935910624743808,-4.796441969117042,-0.8089981372813102,27.851162938699193,1.4282852687298104
0.7053712845072401,11.944577427206408,-4.802955577693012,-0.45723188641068135,27.85493933670726,0.8196711076403045
0.1645562571015067,11.948427127295663,-4.805851022714425,-0.10639092424506073,27.856636083749507,0.212725237123686
-0.3751128555391975,11.947498224305452,-4.805154219207501,0.24371854136774815,27.856237944019846,-0.392939710913855
-0.9171914973959064,11.941767771068617,-4.80084775293278,0.59536458029131,27.85373516425748,-1.0012974820204226
-1.4569949442887982,11.931279538360979,-4.79295948498822,0.9454672848727065,27.849115470809263,-1.6070736143797553
-1.999222995721008,11.915937953526356,-4.7814232806972194,1.2970408759274537,27.842403446763406,-2.215526520831415
-2.5296291538080458,11.89626229332758,-4.766622713232454,1.6408113369327624,27.833795342458462,-2.8106546094376355
-2.8617274165612976,11.881588477776758,-4.755579610843922,1.8559661026612682,27.827365689457697,-3.183239467682187
-2.9042043645663544,11.901036398206749,-4.698048482633089,1.8821390373752263,27.749056165512794,-3.228015668959464
-2.914395344633782,12.021125297028009,-4.374631166327845,1.8811298597017434,27.305457185934998,-3.2229852943483572
-2.92689136499479,12.161779364000028,-3.976550208045585,1.8801407025846626,26.76660605075364,-3.2170263631674922
-2.9395282989972547,12.296812470452233,-3.5723811613018275,1.8794087847433039,26.22728393675251,-3.211224586127693
-2.9522861723629603,12.425980463993556,-3.1628118965038867,1.87893355954315,25.688423087827235,-3.2055857038461633
-2.965161013197131,12.54923823263455,-2.748024741267849,1.878712692462051,25.150251021790357,-3.200107353321394
-2.9781652319133705,12.666695576732398,-2.327673938221604,1.8787438133661463,24.612312095947093,-3.194780362889481
-2.9913400650031505,12.778676579625586,-1.900473300640804,1.8790264395175003,24.072995649563715,-3.189585173340736
-3.004641002191594,12.88476211574574,-1.4679148795019241,1.8795589105263732,23.534213340932872,-3.184536506970486
-3.018087581833551,12.985091491120741,-1.0294170370912257,1.8803405873008079,22.995244057111588,-3.1796234863878325
-3.027236506414972,13.049477855651892,-0.7304217766426477,1.8810078845164115,22.63176455866736,-3.1763857689040784
-3.0295594211494206,13.07196474586045,-0.6818642136546008,1.881478033932463,22.560683897772012,-3.1763163620551613
-3.0429336893670005,13.35148353009028,-1.0282010132081854,1.8906886573699255,22.627035910216758,-3.192840378285645
-3.0664251267574,13.836626932438106,-1.6264609436852964,1.9068350712696422,22.739330059488474,-3.221767104021862
-3.087334406938974,14.262358783437332,-2.1484607503983932,1.9211726306621002,22.83486190033081,-3.2474115091388875
-3.0948945293689185,14.414910484374607,-2.3348241694385887,1.926348729259117,22.86840650706819,-3.2566601721317805
-3.0870066331436434,14.328693326131958,-2.4468652051948707,1.9242651227260492,23.06681202702737,-3.255518415946081
-3.066389319908161,14.091316955244302,-2.7122409425696135,1.9186731201884373,23.569958570727213,-3.2518961234925476
-3.0448511949312866,13.834329886667387,-2.987819136338975,1.9130537139576163,24.102932713019783,-3.248267843358325
-3.023576856326561,13.57115151579851,-3.2581999281826373,1.9077347240379317,24.636892498826924,-3.244848011943303
-3.0025833697794178,13.302043590384672,-3.5230628093570124,1.9027204062414476,25.171255405349587,-3.2416410960406794
-2.9819508390858673,13.02815945638481,-3.7813114774885914,1.8980280912445207,25.703770366779395,-3.23865971730135
-2.9615649187202924,12.748095251135487,-4.034291141400947,1.8936303827905052,26.2371886443734,-3.235887976566541
-2.9414207804170553,12.461824756882034,-4.281960504322836,1.8895268149980988,26.771495292430114,-3.233327227066529
-2.921614097216068,12.17082199714891,-4.523061822102036,1.8857356687229103,27.303956868394696,-3.2309902807893662
-2.9083016798293997,11.969776354630671,-4.68366931020991,1.8833280719555907,27.665848490684613,-3.229524647743303
-2.902965197463061,11.887927466427145,-4.747710244543707,1.8823954641931584,27.81183350636518,-3.2289615662626727
-2.9080179282201195,12.003382598272513,-4.911312314688515,1.8865032700419972,27.85978961346369,-3.236418390499645
-2.927076067334722,12.42186436968202,-5.441194555991968,1.9008034409129486,27.970504497608772,-3.2619766146638183
-2.9495893904790287,12.909598532738416,-6.055272827542889,1.9176491378794616,28.096034196039227,-3.292050019691804
-2.9725330904473215,13.399497689473908,-6.668272500726284,1.9347641569119425,28.218299706493593,-3.322567799644598
-2.9959197036489695,13.89164460057624,-7.280223793477521,1.9521545488427514,28.3372477632367,-3.3535406811014425
-3.01648235990127,14.318527773079001,-7.807873698526275,1.9673989664776532,28.4372572553214,-3.3806630133337183
-3.0247628849003556,14.488924620119874,-8.017672431723643,1.9735256427322452,28.476353065435227,-3.391556128784374
-2.931126701700813,14.523841960791815,-8.058298773800797,1.9126342199562079,28.485219095733914,-3.28598707088802
-2.4911578269113086,14.54279837977284,-8.071888785930362,1.6258327534816637,28.493350678351725,-2.788635741866379
-1.9373797194747306,14.562274126310927,-8.085847006089207,1.2646800520105637,28.50171859572404,-2.1625691388548485
-1.3848863115065828,14.576841828368437,-8.096280686386518,0.9042234390575337,28.507951983679487,-1.537899121712422
-0.831726106061831,14.586569936655955,-8.10324930197448,0.5432289975640859,28.512140205875557,-0.9124364577118923
-0.27788755122711156,14.591444635713648,-8.106741108387208,0.18173025243442706,28.514244213483707,-0.2861829139075273
0.2742223619938258,14.59145942524065,-8.10674856679507,-0.17865872013839174,28.514228346404394,0.33812391790745294
0.8281612403936615,14.586615211119843,-8.103279838731458,-0.5402232701654932,28.5121553885392,0.96449110549212
1.3810266884642686,14.576924513871935,-8.096339231419421,-0.9010264451912978,28.50800082681125,1.589621112561027
1.9341736350773615,14.562368023398644,-8.085907149988616,-1.26190847474794,28.501726290434092,2.2150294370244255
2.4886764277017397,14.542891428563973,-8.071949586384696,-1.623535385598893,28.493375894548898,2.841916253794382
2.916995510207748,14.524493067809821,-8.058759068169675,-1.9027451410929357,28.485483879484562,3.3260994529760612
3.0262327080009666,14.519812585797492,-8.043866358136585,-1.9737169954763096,28.471612979184112,3.4491192506466555
3.0302892032302218,14.53241389857743,-7.7142229353406915,-1.9700118112914242,28.1294323785541,3.440315724213822
3.036712143657591,14.547325422748036,-7.190493142936191,-1.9643946856134276,27.59088989198715,3.426603359213359
3.043247499334227,14.55627565886905,-6.655407730372179,-1.9589833568989152,27.04695152233083,3.412925628355605
3.049841416273543,14.559082634708112,-6.11334888496166,-1.9538233999245733,26.50218065622837,3.399393928017335
3.0564501907082233,14.555760407336624,-5.56793108775299,-1.9489433802203746,25.96017718877666,3.3860906331212215
3.0630131249242876,14.546514404045928,-5.024234107676538,-1.9443760737742937,25.425814782913545,3.3731249603942213
3.0695463949371824,14.531551344978222,-4.4810060771598605,-1.940096050072838,24.89763525662032,3.360450218644235
3.0760845315998484,14.51094804720904,-3.9354375145936067,-1.9360703254868628,24.372752909287364,3.347988113355652
3.082580124159341,14.485020522369737,-3.3915489230707703,-1.9323175968699462,23.854871777116045,3.3358176940688296
3.0891203771543743,14.45353442996921,-2.8420838933071533,-1.9287796602111442,23.336970982910813,3.3237665933043
3.094285910270517,14.42492523192026,-2.4068394237833135,-1.9261510329774831,22.93039584486199,3.314386795991985
3.0186621066087955,14.423858547118432,-2.343952572273887,-1.878272209346117,22.871070169093077,3.2319175563033204
2.5688355864936123,14.442707330646964,-2.3573470660408815,-1.5985454665941656,22.87896692496805,2.75455199398121
1.992926691711727,14.462396520347742,-2.3713347241081335,-1.2402626153019918,22.88723073401928,2.1433442561935796
1.414035643882399,14.477167462338564,-2.3818214615015254,-0.879989471138457,22.893406014839172,1.5289349540439896
0.8373926014326624,14.48688735860616,-2.388723689970871,-0.5210198566926667,22.897496065266125,0.916885859230094
0.25801676591314066,14.491638225322937,-2.3920978359837446,-0.16029202618771965,22.89950187626923,0.3019207164642985
-0.3171535046187823,14.491383068058147,-2.391914741898456,0.19783389933929196,22.899375309239293,-0.3085848466021908
-0.8961148339880038,14.486126368111874,-2.3881852992526214,0.5582998128550963,22.89718141499807,-0.9231090050021636
-1.4727543802566692,14.475899373335896,-2.3809228501839472,0.9172581029947351,22.892871505458494,-1.5351516548047406
-2.0498340329499096,14.460674168718423,-2.370113171287462,1.2763927668021047,22.88649891611249,-2.147635405339341
-2.6288972246405944,14.440369745569722,-2.355691682926667,1.6366230340981485,22.878001787848774,-2.7621869044607745
-3.2072908413545247,14.415049954760212,-2.3376956590379505,1.9962558765187148,22.8673805091462,-3.375978279545712
-3.783652751338349,14.384798305391968,-2.316186812222987,2.354412059434188,22.854737409424995,-3.98755648760959
-4.3391753267546544,14.350880111952504,-2.2920515022380665,2.699374386163038,22.840542647609936,-4.576955139300027
-4.63014234303391,14.331246122799273,-2.2780773927101174,2.8799537235674104,22.832368077888116,-4.8856387050219645
-4.623949319948737,14.230799354293522,-2.3926971572957467,2.880683719778889,23.047468100740197,-4.8908028015941225
-4.592838299514291,13.991183626215518,-2.6604031022675283,2.872288590428933,23.555680035615733,-4.885380160382686
-4.560584703028336,13.733699312327186,-2.9362580928578343,2.8639201569253814,24.08993516558222,-4.879992841766472
-4.528793222605963,13.470568641410992,-3.2063165007537973,2.8560181692363713,24.62401969218794,-4.874927876665855
-4.497513511093521,13.202325722101635,-3.470068540777644,2.8485922550267335,25.15688850078398,-4.870193835527678
-4.466692908344069,12.928652163067564,-3.727875261055635,2.8416269606348723,25.68922268133852,-4.8657831370635884
-4.4362256242666716,12.648679550999638,-3.9805270477922243,2.8350979086285526,26.222684090894052,-4.861682738436011
-4.406182427742195,12.363122170319848,-4.227342511276635,2.8290202151281667,26.755875227460088,-4.857904498065456
-4.376677083857622,12.073223347474006,-4.467318896270714,2.8234132535946967,27.286547094777404,-4.85446233191493
-4.357923956288677,11.883964807306203,-4.618513388355402,2.820042350272435,27.627502802690522,-4.852418569248839
-4.350115647998333,11.803993845072673,-4.681147668563084,2.818684044899051,27.7703164935679,-4.851601573725337
-4.465289247945645,11.78513449362742,-4.6829267297766695,2.8936137308098044,27.785242903854186,-4.9817766833647985
-4.9172804662631195,11.750248519266872,-4.656616653224048,3.1856369259159707,27.77002696046601,-5.488522620028959
-5.459869646108335,11.703872919993058,-4.621616286018371,3.5358700472291638,27.749828374387505,-6.0967029303932305
-6.001073141845836,11.652707825116144,-4.582966846787704,3.8848200606227485,27.727572450757343,-6.703162805913948
-6.54257068678607,11.59658543420304,-4.540527515800064,4.233529348878105,27.70316361585386,-7.309764588814745
-7.084250204058507,11.535486927814553,-4.4942801978741125,4.581893175732596,27.676666233162855,-7.916372822728426
-7.627203758083935,11.469240705984006,-4.444078440617831,4.930570397181955,27.647984963390126,-8.524189243851254
-8.169800585054166,11.398001840553729,-4.390021942690532,5.27846919151514,27.617165528073173,-9.131366075479134
-8.713681498538426,11.321511281584442,-4.331906938746036,5.6266104391202845,27.584172766118236,-9.739730476221863
-9.25545188807728,11.240222125490478,-4.270057947654111,5.97277985226689,27.549182572120674,-10.34546446188779
-9.76854580598808,11.158512844157089,-4.2077975218092,6.300019779378631,27.514084403509894,-10.918872252753312
-10.024047140291234,11.116100136830408,-4.1754419023124525,6.4627396305716065,27.4958789731785,-11.204304494394284
-10.072687810168025,11.13610309271495,-4.099033887033589,6.487925574904972,27.394641307684026,-11.246108403621236
-10.108604860542792,11.25899942637415,-3.7650108433497427,6.484143906292382,26.936621477055436,-11.227885890430258
-10.151512816524766,11.399107490822622,-3.364319421584554,6.480489362758818,26.39447929052207,-11.206837008709867
-10.194438031321697,11.532142260237123,-2.9617587054868513,6.477741041604972,25.85751124731246,-11.186530777146485
-10.237935200828066,11.659863599230164,-2.5521887278018243,6.475848676089886,25.318800460470165,-11.16668554665049
-10.282029858076243,11.782249451053426,-2.135399219423408,6.474814347607945,24.778158001398477,-11.147284989180275
-10.326207807799257,11.897883947077972,-1.7163527963831335,6.474670748894859,24.241969105248277,-11.128545872178027
-10.371181373109255,12.008639124082213,-1.2882515835882333,6.4753453169790545,23.70156205111177,-11.110139042088058
-10.416287834946374,12.112842416317587,-0.8574947509283533,6.47685636045385,23.16502084754361,-11.092332254195059
-10.461650194759562,12.210875996275895,-0.4229791449684957,6.4791894529047775,22.630856700892338,-11.075054386580533
-10.490445535050322,12.269672226116366,-0.14651039323577567,6.481080879810914,22.294554124546263,-11.064400794650103
-10.498631169706778,12.297681950016923,-0.11722966749863171,6.483410788429336,22.23672653377854,-11.06600373613314
-10.548395054995472,12.599498281913439,-0.49651550204983874,6.517267034230586,22.308191424689234,-11.127714078932238
-10.629447966295347,13.085041573106475,-1.103789856618301,6.572287246042208,22.420095923875174,-11.227872085594408
-10.694589983306763,13.46998157585083,-1.5826895518374435,6.616396010492237,22.506116311665796,-11.308056231674609
-10.715193339348653,13.59077080106514,-1.7324957824851084,6.630326293064535,22.532614517773787,-11.333359804332837
-10.706384863054451,13.574546521999991,-1.8190569168557515,6.629896831263802,22.635708142631923,-11.336937331913651
-10.642935347450367,13.363857593987406,-2.0591496151900834,6.613087924259454,23.090651551302628,-11.3263303714367
-10.569496317369037,13.111569058994425,-2.3353795412057137,6.59434532796281,23.623952726845598,-11.314544617702776
-10.497057998082735,12.853579265798302,-2.6059391080818566,6.576634406536541,24.157182825144314,-11.303460313360377
-10.425567734218244,12.589774655301524,-2.8709327788349372,6.559940043341269,24.69056395373965,-11.293073853160422
-10.354831812168298,12.31945685369202,-3.13099709322172,6.544251368992151,25.22543873055931,-11.28335596489261
-10.285294162138861,12.04445426012529,-3.384379285997168,6.529598005944722,25.75820892421188,-11.274387261298408
-10.21652683185248,11.763161481211197,-3.6325772903080797,6.515918600518494,26.292000359664428,-11.266106913504357
-10.148843407585181,11.476954091696665,-3.874378499434284,6.503272989687593,26.824205904456022,-11.258556202044206
-10.096456355322239,11.24888081687095,-4.059725216276927,6.494062207320758,27.24084935861285,-11.253137789801132
-10.076452306344049,11.160251652927421,-4.13006343925656,6.490681365306428,27.401041787072234,-11.251169951351612
-10.065025169471948,11.10925646579728,-4.170251571818387,6.488790265153417,27.492922801131353,-11.250084100019063
-10.098338326977505,11.32243142588748,-4.444811787116507,6.513538940124617,27.550169661956648,-11.294971065354314
-10.169677210491876,11.774386243274968,-5.024581775568758,6.566421148158642,27.669086936808238,-11.390813770615214
-10.246329215013477,12.253256790130916,-5.635411522192687,6.623064672071138,27.791431486696368,-11.493371865165875
-10.325097985735416,12.738290771691545,-6.25044460767222,6.681080096548734,27.91149235013569,-11.598311107093368
-10.405100096220762,13.223816131577268,-6.862391172497949,6.739803299507255,28.02775972209967,-11.704430766575753
-10.486810515540917,13.712546557531532,-7.47460768505349,6.7995708042834675,28.14081306873751,-11.81234057341697
-10.570425424947484,14.205404653257766,-8.088142936430089,6.860511174407986,28.25074968836721,-11.922273263140418
-10.655716086704242,14.700775714161779,-8.700886432764447,6.922472197383614,28.3570888455178,-12.033916279682519
-10.743037526062704,15.200531520517096,-9.315051265163245,6.985636751449545,28.460142829708445,-12.147678048866538
-10.8322319876257,15.703477975404507,-9.929056614183638,7.049903369635868,28.55953067556342,-12.26333791889635
-10.911202115901354,16.142610403152613,-10.461792885580689,7.106589599979744,28.642740540489573,-12.36528740336381
-10.942819747167023,16.316843292148143,-10.67229258424638,7.129229076853444,28.674829932376593,-12.405987291651678
-10.952163167695355,16.3350690985889,-10.514453148243787,7.1232848260568264,28.498971329393978,-12.391617784112647
-10.974200728411818,16.358225699310523,-10.034048169415572,7.103789233126789,27.996571598275008,-12.345511731369148
-10.998232581154554,16.377305816041925,-9.508125212929375,7.083621663308015,27.452791607177712,-12.296239889665785
-11.02249485251512,16.390181004734924,-8.975058563403454,7.064375373186991,26.908040237193894,-12.24751561406002
-11.04686689744906,16.39679807653215,-8.437633573698395,7.046167596458745,26.365147940596305,-12.199589157159036
-11.071417034408523,16.397211958907565,-7.894135024016991,7.028848881992179,25.82235583948267,-12.152236445337017
-11.095902192262772,16.391515173740284,-7.350104515229,7.012599779685027,25.285100224980756,-12.105923115316939
-11.120317502536262,16.379900845519447,-6.805843660321451,6.997417514158728,24.75348823618591,-12.060640366188057
-11.144644747782882,16.362562211984628,-6.2615901154348785,6.983194663064415,24.22757234753235,-12.016317325367087
-11.168912716208364,16.339661546391806,-5.716887158372133,6.969912769156377,23.706733385201076,-11.972888251262079
-11.190431872397806,16.314772623963986,-5.2324381170669625,6.958868690932481,23.24800098562645,-11.935007840522742
-11.198119586047895,16.304854148350383,-5.059046416937609,6.955086310058679,23.08481764470121,-11.921613931205323
-11.08540178270031,16.27570031209339,-4.995415801150885,6.884550490374568,23.063916906480333,-11.797813974422104
-10.617655848567457,16.158632856628323,-4.819220911068104,6.595937699075435,23.059028484142512,-11.295218250963261
-10.051719340494833,16.012136019013695,-4.601955986684124,6.246292705600449,23.0507563190161,-10.687420478961101
-9.486412870347149,15.860448189743424,-4.380382533123113,5.896587135280276,23.039868933938482,-10.080649293014204
-8.922126437715715,15.703642494609507,-4.154572597288153,5.547103117030531,23.02630899799699,-9.475343469338652
-8.35588931673554,15.54082612753828,-3.923235682135523,5.196044668012122,23.010020827992115,-8.868331345324407
-7.788023357626865,15.37197771373997,-3.686347406036633,4.843647529424166,22.99090944983225,-8.259985255727107
-7.2200749697798825,15.197466411143658,-3.444418840310419,4.4909121030992045,22.968968332106588,-7.651985688719833
-6.658474001348807,15.019294686726465,-3.200157930861663,4.141878307452938,22.944445512400396,-7.051231365825159
-6.099941721302326,14.836491462921956,-2.952142263360669,3.7945560989649287,22.917190344160442,-6.454231093978824
-5.547865795380808,14.650239950660623,-2.701896555770183,3.4510971048502865,22.887457601626906,-5.864609219609953
-5.0041472746353985,14.461330504734159,-2.4503620749517667,3.1127291680754237,22.855385022540748,-5.284404357075248
-4.66554282433328,14.340905930143341,-2.2911153861580282,2.901971603200855,22.83397945860356,-4.9233367660519045
-4.631002897678194,14.283969586215052,-2.331781764308536,2.882625907133476,22.933164270883417,-4.892057657927752
-4.602774330862866,14.068639376252278,-2.5750570749794464,2.874931770163549,23.392579220208663,-4.887084055464645
-4.570569701122797,13.814424104687703,-2.851040051761838,2.8664695417509165,23.923694156103217,-4.881630140051329
-4.538764236204785,13.554120832044957,-3.121811982403637,2.8584546222128875,24.455667477657887,-4.876485266284793
-4.50728657568981,13.287157834825406,-3.3878703045423277,2.85087037438051,24.98957045400384,-4.871641437682732
-4.476250724523731,13.014541381872792,-3.648147740088081,2.843744775626644,25.523326454278262,-4.867119094068656
-4.445562039069917,12.735496154781307,-3.9033387564045254,2.8370561562813625,26.058408010637695,-4.862906965208421
-4.4155272326578165,12.4529760521898,-4.150821566015089,2.830867446521986,26.589231182441953,-4.859046680738824
-4.385750290897555,12.163390153563501,-4.393782908866269,2.8250944382113907,27.12258461080156,-4.855487750020084
-4.3613564382016925,11.91890537281912,-4.5909134027635785,2.8206439346548913,27.56485500276162,-4.852780109514825
-4.351778633683499,11.821088132426656,-4.667818142947567,2.8189670878420117,27.739832870599788,-4.851769915204674
-4.351262279716334,11.825544037021595,-4.730003143658528,2.820128490996613,27.79751732488677,-4.85440064930274
-4.373479334234996,12.152586697545548,-5.145477590867874,2.8367912892784037,27.88475371428901,-4.884239336275305
-4.406676466396651,12.635398273020682,-5.755763254486297,2.8616270114492495,28.010432717677126,-4.9286684750116425
-4.440697811787039,13.123107920505982,-6.368495011658659,2.8870016987400726,28.133604151266344,-4.974008303245764
-4.475444178830491,13.614031156127167,-6.981441482233187,2.9128356020360937,28.253725805304864,-5.0201157007823305
-4.510926506360114,14.108093472640249,-7.59441287167883,2.9391312677732175,28.370681115637634,-5.066994885209674
-4.547080694572474,14.60419871701872,-8.20596658720583,2.9658357339553527,28.48412651561776,-5.11455132669567
-4.584218449137564,15.106353271273223,-8.820922696459268,2.993172756211546,28.59485762801962,-5.163182955227154
-4.6219421549760895,15.608942257155629,-9.432304430771707,3.0208433928061647,28.701533969495344,-5.21235767331846
-4.66080907352477,16.1191154972424,-10.04868974261269,3.049249436159841,28.805551553391567,-5.262789037716119
-4.699921532637897,16.62492070427666,-10.655577249117865,3.0777291405931844,28.904411288983585,-5.31330241044272
-4.727361436958982,16.975357539822216,-11.073572134880544,3.0976461201122603,28.97040159848871,-5.348600589925068
-4.735972039674212,17.08458807037419,-11.20344510992496,3.103885271218721,28.990550653600216,-5.359653452843483
-4.74044149226829,17.099084544877936,-10.999914796676952,3.100290893965366,28.772602703058375,-5.351248087585942
-4.750305472902387,17.121055280253184,-10.511032285555748,3.0917079894615433,28.261965369404038,-5.330988874672223
-4.7606071225416295,17.138047288276862,-9.998575540715658,3.0832077969305396,27.73273401652288,-5.310259982501919
-4.766255217336849,17.14483002214891,-9.71681470708253,3.0787423291400375,27.444306268213996,-5.299074424649613
-4.771721213597271,17.14971301980815,-9.443612919687498,3.0745489582252468,27.16633136626115,-5.2883668911969925
-4.775305272544937,17.152026479043396,-9.264197776607297,3.071866639160197,26.984673664142854,-5.28140737960694
-4.778780511930934,17.15360390358569,-9.09002348628224,3.0693159180969927,26.808989843144467,-5.274704830274775
-4.7807929273187355,17.154219825330305,-8.989071851214858,3.067861194604359,26.707461223050224,-5.2708438484324756
-4.784395713157421,17.15478084777001,-8.808172915495101,3.0652973316021277,26.526070287885034,-5.263968310471931
-4.793616570809169,17.153084945922803,-8.344221976420366,3.0589682225828576,26.06398799357234,-5.246581393888463
-4.804297136412962,17.145591458416753,-7.805399661573124,3.052082038331572,25.53284627566774,-5.226832785489945
-4.814958663018977,17.132315181062335,-7.26551250367854,3.045592315422632,25.006421430806423,-5.2074690326954585
-4.825653064332741,17.11331581370468,-6.722246849320107,3.0394914028407367,24.48233512654987,-5.1884058463504275
-4.836371181694132,17.088694616788413,-6.176105661877688,3.0337739701154103,23.96098917899675,-5.169646803220736
-4.845873478829493,17.062297907721774,-5.690557779969003,3.0290268476673665,23.501987247517057,-5.1532936500268445
-4.850102533709637,17.071742572125252,-5.569683576838574,3.028674275419303,23.371631368652892,-5.150300302575014
-4.875719760853842,17.38641330008076,-5.940027103686785,3.045894680288645,23.425896127949343,-5.180829990458494
-4.917744209711649,17.896046980263556,-6.536485931943093,3.0740746777211916,23.510399073535964,-5.230727135322117
-4.961436939797256,18.417485465966724,-7.1424705180392785,3.103281927896647,23.59251456337625,-5.282363458828967
-5.006294183538416,18.94416931845491,-7.750131223308576,3.1331711717248574,23.67097888238663,-5.335124075089412
-5.050851699487104,19.458931184108447,-8.339730531775617,3.162764544272519,23.74330344748331,-5.387283707438234
-5.07704954810537,19.75778492771182,-8.680073716178207,3.1801196519484662,23.783307480269254,-5.417837328765744
-5.07592592222292,19.768047994933983,-8.764270787081404,3.181228985100369,23.857188841504072,-5.421117747741658
-5.0453847285015625,19.562201456903686,-8.989009876127437,3.1727880231719996,24.288775409520948,-5.414445558155783
-5.007515340197698,19.298151383554227,-9.26668913354724,3.162691369954604,24.83173591282102,-5.4064561944616925
-4.970068756737227,19.027128019137756,-9.540040025064187,3.1531262604947865,25.377316563988337,-5.398880067579222
-4.93337716357726,18.75165011385793,-9.806526068917872,3.1441757058657815,25.920451716205864,-5.391785584840743
-4.89707248217174,18.469067127592474,-10.068711068526135,3.135748367446178,26.466367736377933,-5.385102929926189
-4.861533522075953,18.182459221830783,-10.323756677140038,3.127930003843886,27.009134419053012,-5.378902586493918
-4.826397988653287,17.889009571305465,-10.5742030352641,3.120672013462413,27.554115972857293,-5.373124387755102
-4.791886025301894,17.590748536051294,-10.818304662949814,3.1139520554768874,28.097538751086717,-5.367801174698244
-4.759488355701063,17.301383308256394,-11.045608426384177,3.108059727888188,28.615193244753538,-5.363139864868203
-4.744381739250066,17.163268597597117,-11.150941126855702,3.105454719218548,28.85909692284636,-5.361081952322029
-4.736375347573307,17.089232543682858,-11.206589279474482,3.104111681455422,28.989022096434358,-5.360021867998235
-4.954292468456111,17.071656252141263,-11.196336353719031,3.2465692690714056,28.98434400760555,-5.607919927897357
-5.463638264704953,17.03055315757288,-11.168240160048803,3.5791666275704865,28.96717775695697,-6.186952850001018
-6.024798415151079,16.980541360496566,-11.134020680093654,3.9452053541957444,28.946295074034946,-6.824752627142226
-6.587183693555916,16.92542688151319,-11.096275507093072,4.311595240112725,28.923357724385816,-7.463791727064585
-7.148408978659526,16.865414807923404,-11.055126640516718,4.676734072035493,28.89840060505497,-8.101340522504461
-7.711557035643494,16.80013780622501,-11.010317740756014,5.042592010264025,28.871347426822506,-8.740891751721202
-8.272266550532896,16.7300770500869,-10.96216230231963,5.406291388838229,28.842379885374314,-9.37747566512693
-8.836358207223014,16.654457763584908,-10.910109482237182,5.771559373935354,28.811161077366936,-10.017682044072652
-9.398600832756049,16.573925246219556,-10.854595395371655,6.134973960755743,28.77803654706893,-10.655565374530507
-9.960430886972874,16.488264474538138,-10.795448123757817,6.497415766385559,28.74287187807466,-11.292735067024015
-10.51539683767245,16.39852092802122,-10.733381448753759,6.854706985452002,28.70617383772991,-11.921872731826921
-10.892463103442696,16.334614336787382,-10.689117261806276,7.097029833093219,28.680098701085313,-12.34918324619342
-10.946489287251808,16.328213320838017,-10.637923944513295,7.128488108195806,28.628998242331015,-12.403657103718297
-10.964357213768944,16.34855651376928,-10.248934840525042,7.112401034245225,28.22061931084867,-12.366015153438182
-10.98822270100657,16.37013043877812,-9.727519359364532,7.091910004142773,27.678863099674494,-12.316658253579345
-11.003888826242264,16.380874804513354,-9.384116183001536,7.079059880446087,27.325501026608634,-12.284810699624252
-11.014286710214796,16.386533941765677,-9.15570975886789,7.070787300628899,27.09194661833677,-12.263907145829265
-11.037389571825903,16.39496860927163,-8.646863983378958,7.053120435603648,26.575773769916715,-12.218110969140719
-11.061891118468377,16.397788288486954,-8.105333871108474,7.035466573434606,26.032551368040025,-12.170516789329556
-11.086518967064947,16.39441198711501,-7.558889337361705,7.018729732019124,25.490582553206625,-12.123583393813378
-11.110745305971756,16.385152451496214,-7.019445573851892,7.003253215065831,24.96144227031662,-12.078291885245902
-11.135121280483707,16.370025538748084,-6.474814329579974,6.9886356859879575,24.432952548838387,-12.033560157434755
-11.15430039176219,16.354112216417157,-6.045022143590409,6.977786595510868,24.019847882150714,-11.998933227161864
-11.162452423704249,16.346300582012734,-5.862127242021044,6.973381370312364,23.845080751079053,-11.984389443466048
-11.183648907954414,16.323080783721306,-5.385348900648852,6.962296097934805,23.392344956622665,-11.946900032862207
-11.198549792958618,16.304287019390383,-5.049402893694147,6.954896400830113,23.075757029371072,-11.920880743865506
-11.244618753128908,16.176409390036095,-4.891112341948704,6.981420085042318,23.040088655359195,-11.965612545558146
-11.401614546087258,15.734059401312757,-4.37919150064991,7.073469356098708,22.95221034026134,-12.122344540077282
-11.578163653749614,15.22906446117711,-3.791254363502756,7.176556317963955,22.848446396390496,-12.297605851280212
-11.753416950229989,14.719636619826904,-3.1943628530230996,7.278422448195175,22.740074502870552,-12.470489443879714
-11.923915764849912,14.216008321189884,-2.600530241080919,7.377063740648962,22.629306469397918,-12.637584374425183
-12.084617031663933,13.73385894139718,-2.028550965739409,7.4696045377978155,22.519899041315277,-12.794035042569755
-12.167601226081374,13.481976695484596,-1.728392073285173,7.517222321992191,22.461440345445002,-12.874411914003561
-12.201123831797293,13.379654499474274,-1.6061944921937634,7.536424849281887,22.437438030948126,-12.906799415522473
-12.194180733565911,13.310449061705938,-1.6269370331429691,7.537106070364829,22.52750079270603,-12.912274513758481
-12.122446144101145,13.100806594912218,-1.8665826533869503,7.518303137809256,22.982127022525592,-12.900521787103722
-12.039452781465222,12.849901357775533,-2.142144169972776,7.497351610575272,23.514726196982053,-12.887474983906705
-11.957346977173714,12.592578886220851,-2.412810213758493,7.4775017854007135,24.04873461810714,-12.875176443994269
-11.876583846396677,12.330337631914482,-2.6770002131969357,7.458877271787169,24.581033799309182,-12.863679664654837
-11.796431052034572,12.060860058735054,-2.9369975655816063,7.441276261581498,25.116292582538726,-12.852926500272412
-11.717840016786603,11.787425211020702,-3.189641177326315,7.424921138146715,25.64799605720011,-12.843029305000771
-11.640083763717069,11.507641507953723,-3.4371986993620864,7.40965289942416,26.18085657131525,-12.833897292599646
-11.562846483345774,11.220320491023527,-3.6805687661828626,7.395438941448212,26.71697614853836,-12.825489349084686
-11.504550968172461,10.997096511124072,-3.8624580100683263,7.385333991828755,27.126161154736145,-12.81962563479836
-11.482317199783859,10.910484800515826,-3.931404877999695,7.381628217911274,27.283265518589506,-12.817498859522933
-11.468425073936949,10.855949625182303,-3.974361799566897,7.379354958846663,27.381721422712726,-12.816201312890444
-11.503760551524888,11.055262933933568,-4.2350828235158655,7.405708603176157,27.438105591285066,-12.864291247510137
-11.583924073094538,11.50173500187777,-4.810627622610789,7.464918436345273,27.555793404280102,-12.972107754198866
-11.670781352547117,11.978796656247132,-5.422198610283695,7.52886908188928,27.67789833897668,-13.088449008316553
-11.759839475019753,12.460934650312167,-6.036679705329791,7.5942192922859375,27.79744873492481,-13.207227626512893
-11.850338878406124,12.943824725753672,-6.648472987406352,7.660396807590343,27.913275828562615,-13.32740497613236
-11.942873326160061,13.430448526637374,-7.261283074332602,7.727821235506208,28.02601274207917,-13.449745133074117
-12.037591329472908,13.921322557326187,-7.8756468354808185,7.79658303723739,28.135653195405318,-13.574413400879802
-12.13419816279346,14.414680649502108,-8.489254152144252,7.866450806527758,28.24169141328795,-13.700991974333236
-12.232521689038608,14.909463682124816,-9.100719871878672,7.937284220297897,28.343822320180177,-13.829229319517781
-12.33362896581297,15.410770798262627,-9.716229811481304,8.009832173890075,28.442969056028673,-13.96048302265055
-12.421301978874615,15.839506714842488,-10.23941127610378,8.072501403535327,28.524283673686973,-14.073797922610158
-12.456961119913728,16.012338279069045,-10.44947176057589,8.097927184201568,28.556151927881707,-14.119754876165986
-12.557025228362631,16.023762422449902,-10.473041254991436,8.162208638049602,28.554097651262182,-14.2339578987831
-12.993667613890427,15.93435332057224,-10.410654177084297,8.440321459141753,28.51809350483903,-14.727921227597587
-13.543109485135936,15.817126006453112,-10.32869644621166,8.789452415462325,28.471055143319116,-15.34920479871281
-14.090364024497616,15.69508313189843,-10.243173975155875,9.136232170191079,28.422242833451058,-15.967680156440904
-14.636825689436856,15.567901214633206,-10.153843316174544,9.481528395213564,28.371610202367446,-16.584918459681372
-15.187375655662736,15.434333673290663,-10.05979563335452,9.828371682457856,28.318655696988642,-17.20641292933494
-15.737124800267111,15.295453224812423,-9.961750989669486,10.173626140362217,28.26379846810433,-17.82662304905541
-16.283996035056983,15.151774716336439,-9.860052244503887,10.515976267452059,28.207326039573964,-18.44320233514926
-16.82142851052227,15.005138677221298,-9.755975825503777,10.851307487008999,28.149946488621367,-19.048748935313455
-17.14964361969074,14.912906028773493,-9.690364013511969,11.055537284114184,28.113973099257123,-19.418363757729928
-17.204273720099472,14.902084804374422,-9.622051616959062,11.083132556692577,28.04711041932547,-19.46636485449621
-17.233483003421814,14.92526583336929,-9.20479918359545,11.056346296280287,27.609288531965475,-19.40300321681762
-17.269955568825623,14.948397456987175,-8.681707001213757,11.024472184863845,27.06622691804126,-19.325323568086894
-17.30687372738369,14.965366755340696,-8.149998171743,10.993966472493376,26.5206356831105,-19.248287597260447
-17.344395602603452,14.976118804359633,-7.607212402440583,10.964632266472194,25.970137464553613,-19.171498022520723
-17.382024655893513,14.98046725626791,-7.060600956099023,10.93688400597214,25.42212460765438,-19.095979475739192
-17.419714787363112,14.978506272274027,-6.510954650277129,10.910745897946702,24.8772872030316,-19.021799100169883
-17.457242262650315,14.970409725847443,-5.961450410946314,10.886236200650867,24.338630742330235,-18.949268949015718
-17.494571315199085,14.956406129401616,-5.41277313347554,10.863342055380315,23.80660748510396,-18.878410536744912
-17.531940487749075,14.936574910906884,-4.861560508819012,10.841895574674739,23.277790120195895,-18.808735162742252
-17.567823197680426,14.912170191492384,-4.330338992125806,10.822575513901462,22.773368852503225,-18.742914130742587
-17.58586410756949,14.897950835119648,-4.06257963337122,10.813333705968377,22.521007150626318,-18.71021730196847
-17.642280552647563,15.091541138802135,-4.298052539203843,10.849770149819555,22.551731603077844,-18.777664215535957
-17.777174396412196,15.551442379242173,-4.86097485896229,10.937158989729253,22.627854296584566,-18.939703871970863
-17.925760540984502,16.05040072544095,-5.468038861047865,11.033059142895107,22.706156350132364,-19.117381402800625
-18.07788599790374,16.55321558887198,-6.075920970452757,11.13085414025478,22.780520891001245,-19.29842487877646
-18.230517335597934,17.0497945525527,-6.672432490127845,11.228579052801757,22.849457147198898,-19.479203163090844
-18.331174104057112,17.373061706496063,-7.0587014405664075,11.292810110964734,22.891913074583982,-19.597953292061682
-18.364379189936805,17.478981904493125,-7.184911584198287,11.31396130002535,22.905407089167348,-19.637046132250443
-18.377800125720572,17.521692669014755,-7.2357546535468815,11.322504964086107,22.91079003989312,-19.652835461496444
-18.377800125720572,17.521692669014755,-7.2357546535468815,11.322504964086107,22.91079003989312,-19.652835461496444
-18.377800125720572,17.521692669014755,-7.2357546535468815,11.322504964086107,22.91079003989312,-19.652835461496444
-18.377800125720572,17.521692669014755,-7.2357546535468815,11.322504964086107,22.91079003989312,-19.652835461496444
-18.377800125720572,17.521692669014755,-7.2357546535468815,11.322504964086107,22.91079003989312,-19.652835461496444
-18.377800125720572,17.521692669014755,-7.2357546535468815,11.322504964086107,22.91079003989312,-19.652835461496444
-18.377692091507168,17.521645967525423,-7.235628363959821,11.322438376015509,22.9105152437118,-19.6527198952087
-18.045858745779192,17.378199637253996,-6.847722580364347,11.117909259201548,22.066462851693124,-19.297751346736916
-17.71641919827614,17.235788108262174,-6.462615093528862,10.914855586139934,21.228499332730056,-18.94534349052881
-17.360003926121653,17.08171539826646,-6.045973585945661,10.695175129756496,20.321920271623295,-18.564079179878224
-16.686549098788664,16.7905914807091,-5.258719906121351,10.280083871382992,18.608918352904382,-17.8436715246582
-16.00882203598263,16.49762074302786,-4.466472078269999,9.862359373886985,16.88504956195364,-17.118693776516167
-15.333406089918077,16.205649064722845,-3.676925894367715,9.446059358505492,15.167059335164687,-16.396188274655692
-14.65702358630028,15.913259558807098,-2.8862498262331537,9.029163594790505,13.446610569397219,-15.6726488274847
-13.982283136160618,15.621579886753977,-2.097493282008236,8.613279928720218,11.730338536269457,-14.950865916680986
-13.306789663470154,15.329574694909327,-1.3078564712085634,8.19693212895379,10.01215111249928,-14.228277483089204
-12.631775708632528,15.037776791081912,-0.5187802060889684,7.780879885267544,8.295183391920224,-13.506201999019764
-11.954622084923017,14.745053942092657,0.27279728424223026,7.3635088332388685,6.572773202545619,-12.78183766977113
-11.279923137079244,14.453392210828552,1.0615053132084638,6.947650747563181,4.856606734794482,-12.060099154776095
-10.604996490841009,14.161632049133887,1.8504795165217425,6.531652317488355,3.139861092656633,-11.338117066404205
-9.927727392723881,13.868859282376494,2.642191993861172,6.114210091543894,1.4171571821981808,-10.613629211948162
-9.253506236459927,13.577404092888981,3.430341495122005,5.698646497941107,-0.29779397331557894,-9.892401799847828
-8.575913569429796,13.284491452385453,4.2224322173074125,5.281004836753453,-2.021320914727727,-9.167567817466859
-7.900958561412023,12.99271903034008,5.011439574908703,4.864988925585196,-3.7381386979815048,-8.445555389950803
-7.226799021232375,12.701290476515597,5.799517048340588,4.449463309730779,-5.452933126620116,-7.724393889767672
-6.550959978315872,12.409135900103617,6.589557823030707,4.03290251397091,-7.171999543956358,-7.001435793020839
-5.874554656208024,12.11673653011392,7.380260565471444,3.6159926858296783,-8.892506350910333,-6.277871936469668
-5.199183465447225,11.824784198822,8.169754431421369,3.1997202558698046,-10.610382737961134,-5.555414310223309
-4.523066158321258,11.532509333173852,8.960120490769006,2.7829879489169387,-12.330156949057807,-4.832158548869238
-3.8466572526370646,11.240108414060527,9.750827422330604,2.366075911999179,-14.05067287120838,-4.108590858897136
-3.1694021630901026,10.947341702987437,10.542523523963801,1.9486423203903596,-15.773341149421583,-3.384117989679563
-2.4950483004581296,10.655829146626639,11.330828156010423,1.5329969317642682,-17.48862985729048,-2.6627486190104603
-1.8190409535124465,10.363601815032983,12.12106567435865,1.1163323999727823,-19.20812437331012,-1.939610484188163
-1.142783161984568,10.07126622018997,12.911595956840305,0.6995135039202405,-20.92825592099458,-1.2162044439520212
-0.7246321598496115,9.890506126221746,13.400405156496095,0.4417815542455849,-21.991866188379657,-0.7689002288067935
-0.3946790159406824,9.747872577590815,13.786113026080443,0.23841132041439983,-22.831136092853683,-0.41594296858898894
-0.06439095673144014,9.605094250349174,14.17221240418459,0.03483465786993924,-23.67125788898957,-0.06262744299627963
-0.001351646991165731,9.577843349372817,14.245903951935688,-0.004020311082787826,-23.831604885041926,0.004806925982153668
-0.001351646991165731,9.577843349372817,14.245903951935688,-0.004020311082787826,-23.831604885041926,0.004806925982153668
-0.001351646991165731,9.577843349372817,14.245903951935688,-0.004020311082787826,-23.831604885041926,0.004806925982153668
-0.001351646991165731,9.577843349372817,14.245903951935688,-0.004020311082787826,-23.831604885041926,0.004806925982153668
-0.001351646991165731,9.577843349372817,14.245903951935688,-0.004020311082787826,-23.831604885041926,0.004806925982153668
-0.001351646991165731,9.577843349372817,14.245903951935688,-0.004020311082787826,-23.831604885041926,0.004806925982153668
-0.001351646991165731,9.577843349372817,14.245903951935688,-0.004020311082787826,-23.831604885041926,0.004806925982153668
-0.001351646991165731,9.577843349372817,14.245903951935688,-0.004020311082787826,-23.831604885041926,0.004806925982153668
-0.001351646991165731,9.577843349372817,14.245903951935688,-0.004020311082787826,-23.831604885041926,0.004806925982153668
-0.001351646991165731,9.577843349372817,14.245903951935688,-0.004020311082787826,-23.831604885041926,0.004806925982153668
-0.001351646991165731,9.577843349372817,14.245903951935688,-0.004020311082787826,-23.831604885041926,0.004806925982153668
-0.001351646991165731,9.577843349372817,14.245903951935688,-0.004020311082787826,-23.831604885041926,0.004806925982153668
-0.001351646991165731,9.577843349372817,14.245903951935688,-0.004020311082787826,-23.831604885041926,0.004806925982153668
=======
0.003257668609513024,9.579965808173801,14.254285509148566,0.0009551951344297156,-23.830276207827755,-0.0034651364761461097
0.003257668609513024,9.579965808173801,14.254285509148566,0.0009551951344297156,-23.830276207827755,-0.0034651364761461097
0.003257668609513024,9.579965808173801,14.254285509148566,0.0009551951344297156,-23.830276207827755,-0.0034651364761461097
0.003257668609513024,9.579965808173801,14.254285509148566,0.0009551951344297156,-23.830276207827755,-0.0034651364761461097
0.003257668609513024,9.579965808173801,14.254285509148566,0.0009551951344297156,-23.830276207827755,-0.0034651364761461097
0.003257668609513024,9.579965808173801,14.254285509148566,0.0009551951344297156,-23.830276207827755,-0.0034651364761461097
0.003257668609513024,9.579965808173801,14.254285509148566,0.0009551951344297156,-23.830276207827755,-0.0034651364761461097
0.003257668609513024,9.579965808173801,14.254285509148566,0.0009551951344297156,-23.830276207827755,-0.0034651364761461097
0.003257668609513024,9.579965808173801,14.254285509148566,0.0009551951344297156,-23.830276207827755,-0.0034651364761461097
0.003257668609513024,9.579965808173801,14.254285509148566,0.0009551951344297156,-23.830276207827755,-0.0034651364761461097
0.003257668609513024,9.579965808173801,14.254285509148566,0.0009551951344297156,-23.830276207827755,-0.0034651364761461097
0.003257668609513024,9.579965808173801,14.254285509148566,0.0009551951344297156,-23.830276207827755,-0.0034651364761461097
0.003257668609513024,9.579965808173801,14.254285509148566,0.0009551951344297156,-23.830276207827755,-0.0034651364761461097
0.003257668609513024,9.579965808173801,14.254285509148566,0.0009551951344297156,-23.830276207827755,-0.0034651364761461097
0.003257668609513024,9.579965808173801,14.254285509148566,0.0009551951344297156,-23.830276207827755,-0.0034651364761461097
0.003257668609513024,9.579965808173801,14.254285509148566,0.0009551951344297156,-23.830276207827755,-0.0034651364761461097
0.003257668609513024,9.579965808173801,14.254285509148566,0.0009551951344297156,-23.830276207827755,-0.0034651364761461097
0.003257668609513024,9.579965808173801,14.254285509148566,0.0009551951344297156,-23.830276207827755,-0.0034651364761461097
0.003257668609513024,9.579965808173801,14.254285509148566,0.0009551951344297156,-23.830276207827755,-0.0034651364761461097
0.003257668609513024,9.579965808173801,14.254285509148566,0.0009551951344297156,-23.830276207827755,-0.0034651364761461097
0.003257668609513024,9.579965808173801,14.254285509148566,0.0009551951344297156,-23.830276207827755,-0.0034651364761461097
0.003257668609513024,9.579965808173801,14.254285509148566,0.0009551951344297156,-23.830276207827755,-0.0034651364761461097
0.003257668609513024,9.579965808173801,14.254285509148566,0.0009551951344297156,-23.830276207827755,-0.0034651364761461097
0.0032598991722406624,9.579967163211466,14.254281659478083,0.0009551966306989418,-23.830266898555536,-0.0034628987587908616
0.05928888246959741,9.613897927231143,14.157704530938751,0.0008101667110209622,-23.596548663791673,0.05267225356920445
0.18718977152250946,9.690560532443293,13.938148543180242,-0.0008816589144411219,-23.063905109305917,0.18027806983876132
0.3221245096847093,9.770252927556262,13.70786307345316,-0.004690306723178341,-22.50325427675829,0.31412975282742767
0.45714509366187905,9.848788137527064,13.478786713349676,-0.010548695491480787,-21.943517079280628,0.4473209545151811
0.5929561338661736,9.926575163076494,13.249710954122902,-0.018475854294898016,-21.381734612774327,0.5805868450074236
0.7282640592837921,10.002879696109279,13.022796606317218,-0.02837303925950233,-20.823212971920075,0.7127017754785993
0.8642149872238202,10.078356021038207,12.796099216846821,-0.0402993436795451,-20.26317570535198,0.8448286397786684
1.0009011306335218,10.153046620302081,12.56946088756375,-0.05426656423300826,-19.701213766354922,0.9770918415815006
1.1372403484995017,10.226364084231237,12.344658276851357,-0.07014759560093387,-19.141735637358373,1.1084848698529646
1.2745916088404028,10.299039006601408,12.119437475534195,-0.08809163395550952,-18.579128054784668,1.2403559385415255
1.4115067627055815,10.370305811677657,11.89615919183408,-0.10789970483192977,-18.019286042484925,1.3713530086342594
1.5489594979062191,10.440677607499678,11.673215925139182,-0.12969438326877314,-17.45818712692495,1.5024478951615696
1.6867385695882486,10.510042394895288,11.450941305896054,-0.1534410451930151,-16.89666119245519,1.633475284741793
1.8241819040372897,10.57807377943948,11.230383606361846,-0.1790076889171339,-16.337366295576285,1.7638447843644578
