RAMEL-ESPOL/ARCHIE/matlab/data/joint_real_states_espol_t35_h35_p12.txt
Joint0,Joint1,Joint2,Joint3,Joint4,Joint5 
0.0,9.4921875,14.414062499999998,0.0,-23.994140625,-8.173828124999998
0.0,9.4921875,14.414062499999998,0.0,-24.082031250000004,-8.173828124999998
0.0,9.4921875,14.414062499999998,0.0,-23.994140625,-8.173828124999998
0.0,9.4921875,14.414062499999998,0.0,-24.082031250000004,-8.173828124999998
0.0,9.4921875,14.150390624999998,0.0,-24.082031250000004,-8.173828124999998
0.0,9.4921875,14.150390624999998,0.0,-24.082031250000004,-8.173828124999998
0.0,9.404296875,14.150390624999998,0.0,-23.994140625,-8.173828124999998
0.0,9.404296875,14.150390624999998,0.0,-23.994140625,-8.173828124999998
0.0,9.4921875,14.150390624999998,0.0,-23.994140625,-8.173828124999998
0.0,9.404296875,14.150390624999998,0.0,-23.994140625,-8.173828124999998
0.0,9.404296875,14.150390624999998,0.0,-23.994140625,-8.173828124999998
0.0,9.404296875,14.150390624999998,0.0,-24.082031250000004,-8.173828124999998
0.0,9.404296875,14.150390624999998,0.0,-23.994140625,-8.173828124999998
0.0,9.4921875,14.150390624999998,0.0,-24.082031250000004,-8.173828124999998
0.0,9.404296875,14.150390624999998,0.0,-23.994140625,-8.173828124999998
0.0,9.404296875,14.150390624999998,0.0,-24.082031250000004,-8.173828124999998
0.0,9.4921875,14.0625,0.0,-24.082031250000004,-8.173828124999998
0.0,9.4921875,14.0625,0.0,-24.082031250000004,-8.173828124999998
0.0,9.4921875,14.0625,0.0,-23.994140625,-8.173828124999998
0.0,9.4921875,14.150390624999998,0.0,-23.994140625,-8.173828124999998
0.0,9.404296875,14.150390624999998,0.0,-23.994140625,-8.173828124999998
0.0,9.404296875,14.150390624999998,0.0,-23.994140625,-8.173828124999998
0.0,9.4921875,14.150390624999998,0.0,-23.994140625,-8.173828124999998
0.0,9.404296875,14.0625,0.0,-23.994140625,-8.173828124999998
0.0,9.4921875,14.150390624999998,0.0,-23.994140625,-8.173828124999998
0.0,9.4921875,13.974609375,0.0,-23.818359374999996,-8.173828124999998
0.087890625,9.4921875,13.710937499999998,-0.087890625,-23.642578125,-8.173828124999998
0.17578125,9.4921875,13.53515625,-0.087890625,-23.115234375,-8.173828124999998
0.263671875,9.580078124999998,13.095703125000002,-0.087890625,-22.412109375,-8.173828124999998
0.439453125,9.580078124999998,13.095703125000002,-0.087890625,-21.708984374999996,-8.173828124999998
0.615234375,9.755859375,12.656249999999998,-0.087890625,-21.181640625000004,-8.173828124999998
0.7910156249999999,9.84375,12.48046875,-0.087890625,-20.654296875,-8.173828124999998
0.87890625,9.931640625,12.3046875,-0.087890625,-20.126953125,-8.173828124999998
1.0546875,10.01953125,11.953125000000002,-0.17578125,-19.3359375,-8.173828124999998
1.3183593749999998,10.107421875000002,11.953125000000002,-0.087890625,-18.80859375,-8.173828124999998
1.40625,10.107421875000002,11.601562500000002,-0.17578125,-18.193359375,-8.173828124999998
1.4941406250000002,10.1953125,11.425781249999998,-0.17578125,-17.666015625,-8.173828124999998
1.6699218749999998,10.37109375,11.162109375000002,-0.263671875,-16.962890625,-8.173828124999998
1.8457031250000002,10.458984375,10.986328124999998,-0.263671875,-16.347656249999996,-8.173828124999998
1.9335937499999998,10.546874999999998,10.722656249999998,-0.263671875,-15.820312500000002,-8.173828124999998
2.109375,10.634765625,10.546874999999998,-0.263671875,-15.292968749999998,-8.173828124999998
2.2851562500000004,10.722656249999998,10.1953125,-0.3515625,-14.589843750000002,-8.173828124999998
2.4609375,10.810546875,10.107421875000002,-0.3515625,-14.150390624999998,-8.173828124999998
2.6367187499999996,10.810546875,9.755859375,-0.3515625,-13.359374999999998,-8.173828124999998
2.6367187499999996,10.8984375,9.66796875,-0.3515625,-12.919921875,-8.173828124999998
2.8125,11.07421875,9.404296875,-0.3515625,-12.3046875,-8.173828124999998
2.9003906250000004,11.07421875,9.228515625,-0.3515625,-11.77734375,-8.173828124999998
3.076171875,11.07421875,9.052734375,-0.3515625,-11.162109375000002,-8.173828124999998
3.251953125,11.162109375000002,8.701171875,-0.439453125,-10.634765625,-8.173828124999998
3.4277343749999996,11.25,8.613281249999998,-0.439453125,-10.01953125,-8.173828124999998
3.6035156249999996,11.337890625,8.26171875,-0.439453125,-9.404296875,-8.173828124999998
3.6914062500000004,11.337890625,8.173828124999998,-0.439453125,-8.876953125,-8.173828124999998
3.8671874999999996,11.337890625,7.910156250000001,-0.439453125,-8.26171875,-8.173828124999998
3.9550781250000004,11.425781249999998,7.734374999999999,-0.439453125,-7.734374999999999,-8.173828124999998
4.130859375,11.513671875,7.55859375,-0.52734375,-7.119140625,-8.173828124999998
4.306640624999999,11.513671875,7.294921875000001,-0.52734375,-6.591796875,-8.173828124999998
4.39453125,11.601562500000002,7.119140625,-0.615234375,-6.064453125,-8.173828124999998
4.482421875,11.601562500000002,6.943359375000001,-0.703125,-5.273437499999999,-8.173828124999998
4.658203125,11.689453125,6.767578125,-0.7910156249999999,-4.833984375,-8.173828124999998
4.833984375,11.77734375,6.416015625,-0.7910156249999999,-4.21875,-8.173828124999998
5.009765625,11.77734375,6.328124999999999,-0.87890625,-3.6914062500000004,-8.173828124999998
5.09765625,11.865234375,6.15234375,-0.9667968749999999,-3.076171875,-8.173828124999998
5.185546875,11.865234375,5.800781250000001,-1.0546875,-2.4609375,-8.173828124999998
5.44921875,11.865234375,5.712890624999999,-1.0546875,-1.9335937499999998,-8.173828124999998
5.625,11.953125000000002,5.44921875,-1.1425781250000002,-1.40625,-8.173828124999998
5.712890624999999,11.953125000000002,5.273437499999999,-1.23046875,-0.7910156249999999,-8.173828124999998
5.800781250000001,12.041015625000002,5.009765625,-1.3183593749999998,-0.17578125,-8.173828124999998
5.888671875,12.041015625000002,4.921875,-1.40625,0.3515625,-8.173828124999998
6.15234375,12.12890625,4.658203125,-1.4941406250000002,0.7910156249999999,-8.173828124999998
6.240234375,12.12890625,4.482421875,-1.5820312499999998,1.40625,-8.173828124999998
6.416015625,12.216796874999998,4.39453125,-1.6699218749999998,2.021484375,-8.173828124999998
6.50390625,12.216796874999998,4.04296875,-1.7578125,2.548828125,-8.173828124999998
6.679687499999999,12.216796874999998,4.04296875,-1.8457031250000002,3.1640624999999996,-8.173828124999998
6.855468749999999,12.3046875,3.6914062500000004,-1.9335937499999998,3.779296875,-8.173828124999998
6.943359375000001,12.3046875,3.515625,-2.021484375,4.306640624999999,-8.173828124999998
7.119140625,12.3046875,3.3398437499999996,-2.197265625,4.921875,-8.173828124999998
7.207031249999999,12.3046875,3.251953125,-2.197265625,5.44921875,-8.173828124999998
7.382812500000001,12.3046875,2.9003906250000004,-2.2851562500000004,5.976562500000001,-8.173828124999998
7.470703125,12.3046875,2.8125,-2.373046875,6.416015625,-8.173828124999998
7.646484374999999,12.48046875,2.6367187499999996,-2.4609375,7.119140625,-8.173828124999998
7.734374999999999,12.48046875,2.4609375,-2.548828125,7.55859375,-8.173828124999998
7.910156250000001,12.48046875,2.197265625,-2.724609375,8.26171875,-8.173828124999998
8.0859375,12.48046875,2.109375,-2.9003906250000004,8.7890625,-8.173828124999998
8.173828124999998,12.48046875,1.9335937499999998,-2.9003906250000004,9.31640625,-8.173828124999998
8.26171875,12.48046875,1.6699218749999998,-3.076171875,9.931640625,-8.173828124999998
8.4375,12.48046875,1.5820312499999998,-3.251953125,10.37109375,-8.173828124999998
8.613281249999998,12.48046875,1.40625,-3.3398437499999996,10.986328124999998,-8.173828124999998
8.701171875,12.48046875,1.23046875,-3.4277343749999996,11.513671875,-8.173828124999998
8.876953125,12.48046875,1.0546875,-3.6035156249999996,12.12890625,-8.173828124999998
8.96484375,12.48046875,0.87890625,-3.6914062500000004,12.656249999999998,-8.173828124999998
9.228515625,12.48046875,0.7910156249999999,-3.8671874999999996,13.271484375,-8.173828124999998
9.31640625,12.568359375,0.439453125,-4.04296875,13.798828125,-8.173828124999998
9.4921875,12.568359375,0.3515625,-4.130859375,14.326171875,-8.173828124999998
9.580078124999998,12.568359375,0.17578125,-4.306640624999999,14.94140625,-8.173828124999998
9.66796875,12.568359375,-0.087890625,-4.482421875,15.556640625000002,-8.173828124999998
9.84375,12.656249999999998,-0.263671875,-4.570312500000001,16.083984375,-8.173828124999998
9.931640625,12.656249999999998,-0.439453125,-4.74609375,16.5234375,-8.173828124999998
10.1953125,12.656249999999998,-0.52734375,-4.921875,17.226562499999996,-8.173828124999998
10.283203125,12.656249999999998,-0.7910156249999999,-5.09765625,17.666015625,-8.173828124999998
10.37109375,12.656249999999998,-0.9667968749999999,-5.185546875,18.45703125,-8.173828124999998
10.546874999999998,12.656249999999998,-1.0546875,-5.273437499999999,18.896484375,-8.173828124999998
10.722656249999998,12.656249999999998,-1.23046875,-5.44921875,19.51171875,-8.173828124999998
10.810546875,12.656249999999998,-1.40625,-5.625,20.0390625,-8.173828124999998
10.986328124999998,12.656249999999998,-1.4941406250000002,-5.888671875,20.654296875,-8.173828124999998
11.162109375000002,12.656249999999998,-1.6699218749999998,-5.976562500000001,21.26953125,-8.173828124999998
11.25,12.656249999999998,-1.8457031250000002,-6.240234375,21.708984374999996,-8.173828124999998
11.337890625,12.656249999999998,-2.021484375,-6.328124999999999,22.236328125,-8.173828124999998
11.513671875,12.656249999999998,-2.2851562500000004,-6.50390625,22.763671875,-8.173828124999998
11.601562500000002,12.656249999999998,-2.373046875,-6.591796875,23.291015625,-8.173828124999998
11.77734375,12.656249999999998,-2.4609375,-6.679687499999999,23.818359374999996,-8.173828124999998
11.77734375,12.656249999999998,-2.4609375,-6.767578125,23.906250000000004,-8.173828124999998
11.865234375,12.568359375,-2.548828125,-6.943359375000001,24.082031250000004,-8.173828124999998
11.865234375,12.656249999999998,-2.548828125,-6.943359375000001,24.345703125,-8.173828124999998
11.865234375,12.568359375,-2.6367187499999996,-6.943359375000001,24.433593749999996,-8.173828124999998
11.865234375,12.48046875,-2.8125,-6.943359375000001,24.609375,-8.173828124999998
11.865234375,12.041015625000002,-3.076171875,-6.943359375000001,25.13671875,-8.173828124999998
11.865234375,11.77734375,-3.4277343749999996,-7.119140625,25.6640625,-8.173828124999998
11.865234375,11.513671875,-3.515625,-7.119140625,26.191406250000004,-8.173828124999998
11.865234375,11.425781249999998,-3.6914062500000004,-7.119140625,26.455078125,-8.173828124999998
11.689453125,11.425781249999998,-3.6914062500000004,-7.119140625,26.630859375,-8.173828124999998
11.77734375,11.337890625,-3.6914062500000004,-7.119140625,26.718749999999996,-8.173828124999998
12.12890625,11.25,-3.6914062500000004,-7.382812500000001,26.630859375,-8.173828124999998
12.568359375,11.162109375000002,-3.6914062500000004,-7.822265625000001,26.718749999999996,-8.173828124999998
13.095703125000002,11.07421875,-3.6914062500000004,-8.173828124999998,26.718749999999996,-8.173828124999998
13.53515625,10.8984375,-3.6914062500000004,-8.701171875,26.630859375,-8.173828124999998
14.0625,10.722656249999998,-3.6914062500000004,-9.228515625,26.718749999999996,-8.173828124999998
14.501953124999998,10.634765625,-3.6035156249999996,-9.404296875,26.630859375,-8.173828124999998
15.1171875,10.546874999999998,-3.4277343749999996,-9.404296875,26.718749999999996,-8.173828124999998
15.820312500000002,10.283203125,-3.3398437499999996,-10.107421875000002,26.718749999999996,-8.173828124999998
16.347656249999996,10.1953125,-3.251953125,-10.37109375,26.718749999999996,-8.173828124999998
16.787109375,9.931640625,-3.076171875,-10.722656249999998,26.718749999999996,-8.173828124999998
17.05078125,9.931640625,-3.076171875,-10.810546875,26.718749999999996,-8.173828124999998
17.05078125,9.931640625,-2.9882812500000004,-10.810546875,26.718749999999996,-8.173828124999998
17.05078125,9.84375,-2.6367187499999996,-10.810546875,26.630859375,-8.173828124999998
17.05078125,9.84375,-2.2851562500000004,-10.810546875,26.103515625,-8.173828124999998
17.138671875,9.931640625,-1.9335937499999998,-10.810546875,25.48828125,-8.173828124999998
17.314453125,9.931640625,-1.6699218749999998,-10.810546875,24.78515625,-8.173828124999998
17.314453125,9.931640625,-1.23046875,-10.810546875,23.994140625,-8.173828124999998
17.40234375,10.107421875000002,-0.703125,-10.810546875,23.818359374999996,-8.173828124999998
17.490234375000004,10.1953125,-0.263671875,-10.810546875,22.851562499999996,-8.173828124999998
17.578125,10.37109375,0.17578125,-10.810546875,22.412109375,-8.173828124999998
17.666015625,10.458984375,0.7910156249999999,-10.810546875,21.708984374999996,-8.173828124999998
17.666015625,10.546874999999998,0.9667968749999999,-10.810546875,21.708984374999996,-8.173828124999998
17.666015625,10.634765625,1.0546875,-10.810546875,21.26953125,-8.173828124999998
17.666015625,10.810546875,1.0546875,-10.810546875,21.26953125,-8.173828124999998
17.841796875,11.337890625,0.9667968749999999,-10.810546875,21.26953125,-8.173828124999998
18.017578125,11.77734375,0.439453125,-10.8984375,21.357421875,-8.173828124999998
18.10546875,11.953125000000002,0.3515625,-10.8984375,21.357421875,-8.173828124999998
18.10546875,12.12890625,0.263671875,-10.986328124999998,21.357421875,-8.173828124999998
18.193359375,12.12890625,0.0,-10.8984375,21.357421875,-8.173828124999998
18.10546875,12.041015625000002,-0.52734375,-10.8984375,21.533203125,-8.173828124999998
18.10546875,11.77734375,-0.703125,-10.986328124999998,22.1484375,-8.173828124999998
18.017578125,11.425781249999998,-1.0546875,-10.986328124999998,22.67578125,-8.173828124999998
17.9296875,11.337890625,-1.40625,-10.8984375,23.291015625,-8.173828124999998
17.75390625,10.986328124999998,-1.5820312499999998,-10.8984375,23.818359374999996,-8.173828124999998
17.666015625,10.722656249999998,-1.8457031250000002,-10.8984375,24.345703125,-8.173828124999998
17.490234375000004,10.283203125,-2.021484375,-10.8984375,24.873046875,-8.173828124999998
17.40234375,10.283203125,-2.2851562500000004,-10.986328124999998,25.400390625,-8.173828124999998
17.40234375,10.107421875000002,-2.373046875,-10.8984375,25.576171874999996,-8.173828124999998
17.314453125,10.01953125,-2.548828125,-10.810546875,25.751953125,-8.173828124999998
17.226562499999996,10.01953125,-2.548828125,-10.810546875,25.927734375000004,-8.173828124999998
17.226562499999996,10.1953125,-3.076171875,-10.810546875,26.103515625,-8.173828124999998
17.226562499999996,10.546874999999998,-3.6914062500000004,-10.986328124999998,26.3671875,-8.173828124999998
17.226562499999996,11.07421875,-4.306640624999999,-10.986328124999998,26.54296875,-8.173828124999998
17.40234375,11.513671875,-4.921875,-11.07421875,26.630859375,-8.173828124999998
17.578125,11.953125000000002,-5.537109375,-11.162109375000002,26.718749999999996,-8.173828124999998
17.666015625,12.392578125,-6.15234375,-11.337890625,26.806640625000004,-8.173828124999998
17.841796875,13.0078125,-6.767578125,-11.425781249999998,26.89453125,-8.173828124999998
18.017578125,13.447265625,-7.382812500000001,-11.513671875,26.982421875,-8.173828124999998
18.10546875,13.974609375,-8.0859375,-11.601562500000002,27.158203125,-8.173828124999998
18.281250000000004,14.414062499999998,-8.701171875,-11.689453125,27.24609375,-8.173828124999998
18.369140625,14.677734375,-8.876953125,-11.77734375,27.333984375,-8.0859375
18.369140625,14.853515625,-9.052734375,-11.77734375,27.333984375,-8.173828124999998
18.45703125,14.94140625,-9.052734375,-11.77734375,27.333984375,-8.173828124999998
18.193359375,15.029296875,-9.140625000000002,-11.77734375,27.421874999999996,-8.173828124999998
17.666015625,15.029296875,-9.31640625,-11.25,27.509765625,-8.173828124999998
17.138671875,15.205078124999998,-9.404296875,-10.810546875,27.685546875000004,-8.173828124999998
16.611328125,15.380859375,-9.404296875,-10.458984375,27.773437500000004,-8.0859375
16.083984375,15.556640625000002,-9.755859375,-10.1953125,27.861328125,-8.173828124999998
15.468749999999998,15.732421875,-9.84375,-9.755859375,27.94921875,-8.0859375
14.94140625,15.908203125,-9.84375,-9.4921875,27.94921875,-8.0859375
14.326171875,15.99609375,-9.84375,-9.228515625,27.94921875,-8.0859375
13.798828125,16.083984375,-10.107421875000002,-8.7890625,28.037109375,-8.0859375
13.18359375,16.259765625,-10.1953125,-8.4375,28.037109375,-8.0859375
12.744140625,16.347656249999996,-10.1953125,-8.173828124999998,28.125,-8.0859375
12.656249999999998,16.435546875,-10.1953125,-8.173828124999998,28.037109375,-8.0859375
12.568359375,16.347656249999996,-10.1953125,-8.0859375,28.037109375,-8.0859375
12.568359375,16.347656249999996,-9.931640625,-8.0859375,27.773437500000004,-8.0859375
12.48046875,16.435546875,-9.4921875,-8.0859375,26.982421875,-8.0859375
12.48046875,16.347656249999996,-8.876953125,-8.0859375,25.83984375,-8.173828124999998
12.48046875,16.347656249999996,-8.4375,-8.0859375,25.83984375,-8.0859375
12.48046875,16.347656249999996,-7.910156250000001,-8.173828124999998,24.873046875,-8.0859375
12.48046875,16.347656249999996,-7.470703125,-8.0859375,24.873046875,-8.0859375
12.568359375,16.347656249999996,-6.767578125,-7.998046875,23.994140625,-8.0859375
12.656249999999998,16.347656249999996,-5.976562500000001,-7.998046875,23.203125000000004,-8.0859375
12.656249999999998,16.347656249999996,-5.44921875,-7.998046875,23.115234375,-8.0859375
12.656249999999998,16.347656249999996,-5.009765625,-7.998046875,22.5,-8.0859375
12.656249999999998,16.347656249999996,-4.921875,-7.998046875,22.324218750000004,-8.0859375
13.0078125,16.347656249999996,-4.921875,-7.998046875,22.236328125,-8.0859375
13.710937499999998,16.083984375,-4.658203125,-8.349609375,22.236328125,-8.0859375
14.150390624999998,15.99609375,-4.658203125,-8.525390625,22.236328125,-8.0859375
14.853515625,15.820312500000002,-4.39453125,-8.876953125,22.1484375,-8.0859375
15.468749999999998,15.732421875,-4.39453125,-9.140625000000002,22.060546875000004,-8.0859375
16.083984375,15.556640625000002,-4.21875,-9.404296875,22.060546875000004,-8.0859375
16.611328125,15.468749999999998,-4.21875,-9.755859375,22.060546875000004,-8.0859375
17.314453125,15.205078124999998,-3.9550781250000004,-10.1953125,21.796875,-8.0859375
17.841796875,15.1171875,-3.8671874999999996,-10.546874999999998,21.796875,-8.173828124999998
18.45703125,14.853515625,-3.779296875,-10.986328124999998,21.796875,-8.0859375
18.720703125,14.765625000000002,-3.779296875,-11.07421875,21.796875,-8.0859375
18.80859375,14.765625000000002,-3.6914062500000004,-11.162109375000002,21.796875,-8.0859375
18.80859375,14.414062499999998,-3.6914062500000004,-11.162109375000002,21.884765625,-8.0859375
18.720703125,14.326171875,-3.6914062500000004,-11.162109375000002,22.236328125,-8.0859375
18.6328125,13.974609375,-3.9550781250000004,-11.162109375000002,22.851562499999996,-8.0859375
18.45703125,13.623046875,-4.21875,-11.162109375000002,23.37890625,-8.0859375
18.45703125,13.53515625,-4.39453125,-11.162109375000002,23.994140625,-8.0859375
18.193359375,13.095703125000002,-4.74609375,-11.162109375000002,24.521484375,-8.0859375
18.193359375,12.919921875,-5.09765625,-11.162109375000002,25.048828125000004,-8.0859375
18.017578125,12.48046875,-5.361328124999999,-11.162109375000002,25.6640625,-8.0859375
18.017578125,12.48046875,-5.44921875,-11.162109375000002,26.103515625,-8.0859375
17.841796875,12.3046875,-5.537109375,-11.162109375000002,26.279296875,-8.0859375
17.75390625,12.3046875,-5.712890624999999,-11.162109375000002,26.455078125,-8.0859375
17.226562499999996,12.392578125,-5.800781250000001,-10.986328124999998,26.54296875,-8.0859375
16.787109375,12.48046875,-5.800781250000001,-10.546874999999998,26.630859375,-8.0859375
16.259765625,12.656249999999998,-6.064453125,-10.1953125,26.718749999999996,-8.0859375
15.732421875,12.744140625,-6.240234375,-9.755859375,26.89453125,-8.0859375
15.292968749999998,12.919921875,-6.328124999999999,-9.4921875,26.982421875,-8.0859375
14.501953124999998,13.095703125000002,-6.416015625,-9.228515625,26.982421875,-8.0859375
13.886718750000002,13.271484375,-6.591796875,-8.96484375,27.158203125,-8.0859375
13.359374999999998,13.359374999999998,-6.591796875,-8.613281249999998,27.158203125,-8.0859375
12.83203125,13.53515625,-6.591796875,-8.26171875,27.158203125,-8.0859375
12.3046875,13.710937499999998,-6.767578125,-8.0859375,27.24609375,-8.0859375
12.041015625000002,13.710937499999998,-6.855468749999999,-7.822265625000001,27.333984375,-8.0859375
11.953125000000002,13.710937499999998,-6.767578125,-7.734374999999999,27.333984375,-8.0859375
11.953125000000002,13.798828125,-6.767578125,-7.734374999999999,27.24609375,-8.0859375
11.953125000000002,13.710937499999998,-6.328124999999999,-7.734374999999999,26.89453125,-8.0859375
11.953125000000002,13.798828125,-5.888671875,-7.734374999999999,25.751953125,-8.0859375
11.953125000000002,13.710937499999998,-5.361328124999999,-7.734374999999999,25.751953125,-8.0859375
11.953125000000002,13.710937499999998,-4.74609375,-7.734374999999999,24.697265624999996,-8.0859375
11.953125000000002,13.710937499999998,-4.21875,-7.646484374999999,24.697265624999996,-8.0859375
11.953125000000002,13.710937499999998,-3.6914062500000004,-7.646484374999999,23.818359374999996,-8.0859375
12.041015625000002,13.710937499999998,-2.9882812500000004,-7.646484374999999,22.851562499999996,-8.0859375
12.041015625000002,13.710937499999998,-2.4609375,-7.646484374999999,22.851562499999996,-8.0859375
12.12890625,13.710937499999998,-1.9335937499999998,-7.646484374999999,21.972656249999996,-8.0859375
12.041015625000002,13.710937499999998,-1.6699218749999998,-7.646484374999999,21.972656249999996,-8.0859375
12.12890625,13.710937499999998,-1.5820312499999998,-7.646484374999999,21.972656249999996,-8.0859375
12.12890625,14.0625,-1.6699218749999998,-7.646484374999999,21.972656249999996,-8.0859375
12.12890625,14.501953124999998,-2.373046875,-7.734374999999999,22.060546875000004,-8.0859375
12.3046875,15.029296875,-3.076171875,-7.822265625000001,22.060546875000004,-8.0859375
12.48046875,15.556640625000002,-3.6035156249999996,-7.910156250000001,22.060546875000004,-8.0859375
12.656249999999998,15.908203125,-4.130859375,-7.910156250000001,22.060546875000004,-8.0859375
12.744140625,16.171875,-4.21875,-7.998046875,22.060546875000004,-8.0859375
12.744140625,16.171875,-4.21875,-7.998046875,22.060546875000004,-8.0859375
12.48046875,16.171875,-4.21875,-7.822265625000001,22.060546875000004,-8.0859375
11.865234375,16.171875,-4.21875,-7.55859375,22.060546875000004,-8.0859375
11.425781249999998,16.171875,-4.306640624999999,-7.470703125,22.060546875000004,-8.0859375
10.722656249999998,16.083984375,-4.21875,-6.943359375000001,22.060546875000004,-8.0859375
10.107421875000002,15.99609375,-4.21875,-6.679687499999999,22.060546875000004,-8.0859375
9.4921875,15.732421875,-4.04296875,-6.328124999999999,22.060546875000004,-8.0859375
9.052734375,15.644531250000002,-3.9550781250000004,-5.976562500000001,22.060546875000004,-8.0859375
8.349609375,15.644531250000002,-3.6035156249999996,-5.625,22.060546875000004,-8.0859375
7.734374999999999,15.380859375,-3.4277343749999996,-5.273437499999999,22.060546875000004,-8.0859375
7.294921875000001,15.292968749999998,-3.251953125,-4.921875,22.060546875000004,-8.0859375
6.591796875,15.1171875,-2.9003906250000004,-4.570312500000001,22.060546875000004,-8.0859375
6.064453125,15.029296875,-2.724609375,-4.21875,22.060546875000004,-8.0859375
5.44921875,14.853515625,-2.548828125,-3.8671874999999996,22.060546875000004,-8.0859375
4.921875,14.589843750000002,-2.4609375,-3.6035156249999996,22.060546875000004,-8.0859375
4.658203125,14.589843750000002,-2.2851562500000004,-3.4277343749999996,22.060546875000004,-8.0859375
4.658203125,14.677734375,-2.2851562500000004,-3.3398437499999996,22.060546875000004,-8.0859375
4.570312500000001,14.23828125,-2.197265625,-3.3398437499999996,22.324218750000004,-8.173828124999998
4.570312500000001,13.974609375,-2.2851562500000004,-3.3398437499999996,22.763671875,-8.0859375
4.482421875,13.710937499999998,-2.2851562500000004,-3.251953125,23.37890625,-8.0859375
4.482421875,13.447265625,-2.6367187499999996,-3.251953125,23.994140625,-8.0859375
4.482421875,13.18359375,-2.9003906250000004,-3.251953125,24.609375,-8.0859375
4.482421875,12.919921875,-3.251953125,-3.1640624999999996,25.13671875,-8.0859375
4.39453125,12.656249999999998,-3.515625,-3.1640624999999996,25.751953125,-8.0859375
4.306640624999999,12.392578125,-3.779296875,-3.076171875,26.279296875,-8.0859375
4.306640624999999,12.3046875,-4.130859375,-3.076171875,26.806640625000004,-8.0859375
4.306640624999999,12.216796874999998,-4.130859375,-2.9882812500000004,26.982421875,-8.173828124999998
4.306640624999999,12.12890625,-4.130859375,-2.9882812500000004,26.982421875,-8.0859375
4.570312500000001,12.12890625,-4.130859375,-2.9882812500000004,26.982421875,-8.0859375
5.09765625,12.041015625000002,-4.130859375,-3.4277343749999996,26.982421875,-8.0859375
5.625,12.041015625000002,-4.130859375,-3.8671874999999996,26.982421875,-8.0859375
6.064453125,11.953125000000002,-4.130859375,-4.21875,26.982421875,-8.0859375
6.679687499999999,11.953125000000002,-4.130859375,-4.74609375,26.982421875,-8.173828124999998
7.382812500000001,11.865234375,-4.130859375,-4.74609375,26.982421875,-8.0859375
7.998046875,11.77734375,-4.130859375,-5.273437499999999,26.982421875,-8.0859375
8.525390625,11.601562500000002,-4.130859375,-5.44921875,26.982421875,-8.0859375
9.140625000000002,11.601562500000002,-4.130859375,-5.976562500000001,26.982421875,-8.0859375
9.66796875,11.513671875,-4.130859375,-6.240234375,26.982421875,-8.0859375
9.931640625,11.425781249999998,-4.130859375,-6.50390625,26.982421875,-8.0859375
10.01953125,11.425781249999998,-4.130859375,-6.50390625,26.982421875,-8.0859375
10.01953125,11.513671875,-3.8671874999999996,-6.50390625,26.89453125,-8.0859375
10.01953125,11.513671875,-3.6035156249999996,-6.50390625,26.54296875,-8.0859375
10.01953125,11.513671875,-3.1640624999999996,-6.50390625,26.015625,-8.0859375
10.1953125,11.601562500000002,-2.724609375,-6.50390625,24.873046875,-8.173828124999998
10.283203125,11.689453125,-2.373046875,-6.50390625,24.873046875,-8.0859375
10.283203125,11.689453125,-1.8457031250000002,-6.50390625,23.906250000000004,-8.0859375
10.37109375,11.865234375,-1.40625,-6.50390625,23.5546875,-8.0859375
10.37109375,12.041015625000002,-1.0546875,-6.50390625,22.939453124999996,-8.0859375
10.37109375,12.216796874999998,-0.52734375,-6.50390625,22.236328125,-8.0859375
10.458984375,12.216796874999998,-0.087890625,-6.50390625,22.060546875000004,-8.0859375
10.458984375,12.216796874999998,-0.087890625,-6.50390625,21.708984374999996,-8.0859375
10.458984375,12.392578125,-0.087890625,-6.50390625,21.62109375,-8.0859375
10.546874999999998,13.095703125000002,-0.3515625,-6.50390625,21.708984374999996,-8.0859375
10.634765625,13.53515625,-0.7910156249999999,-6.591796875,21.796875,-8.0859375
10.810546875,13.710937499999998,-0.87890625,-6.591796875,21.796875,-8.173828124999998
10.810546875,13.798828125,-1.1425781250000002,-6.679687499999999,21.796875,-8.0859375
10.810546875,13.798828125,-1.40625,-6.591796875,21.884765625,-8.173828124999998
10.810546875,13.53515625,-1.6699218749999998,-6.591796875,22.1484375,-8.0859375
10.810546875,13.271484375,-1.9335937499999998,-6.591796875,22.763671875,-8.173828124999998
10.722656249999998,13.095703125000002,-2.2851562500000004,-6.679687499999999,23.291015625,-8.0859375
10.634765625,12.83203125,-2.4609375,-6.591796875,23.994140625,-8.0859375
10.546874999999998,12.392578125,-2.8125,-6.591796875,24.609375,-8.173828124999998
10.458984375,12.12890625,-3.076171875,-6.591796875,25.048828125000004,-8.0859375
10.37109375,11.865234375,-3.4277343749999996,-6.591796875,25.576171874999996,-8.0859375
10.37109375,11.77734375,-3.6035156249999996,-6.591796875,26.191406250000004,-8.0859375
10.37109375,11.513671875,-3.6035156249999996,-6.591796875,26.455078125,-8.0859375
10.37109375,11.513671875,-3.6914062500000004,-6.50390625,26.54296875,-8.0859375
10.283203125,11.601562500000002,-3.9550781250000004,-6.50390625,26.718749999999996,-8.0859375
10.283203125,11.865234375,-4.570312500000001,-6.591796875,26.982421875,-8.0859375
10.283203125,12.392578125,-5.185546875,-6.591796875,27.158203125,-8.0859375
10.37109375,12.83203125,-5.800781250000001,-6.679687499999999,27.24609375,-8.0859375
10.458984375,13.447265625,-6.416015625,-6.767578125,27.421874999999996,-8.0859375
10.546874999999998,13.798828125,-6.943359375000001,-6.767578125,27.509765625,-8.0859375
10.546874999999998,13.974609375,-6.943359375000001,-6.855468749999999,27.509765625,-8.0859375
10.546874999999998,14.0625,-7.03125,-6.855468749999999,27.509765625,-8.0859375
10.283203125,14.0625,-7.207031249999999,-6.767578125,27.509765625,-8.0859375
9.755859375,14.150390624999998,-7.207031249999999,-6.240234375,27.509765625,-8.0859375
9.228515625,14.150390624999998,-7.207031249999999,-5.712890624999999,27.59765625,-8.0859375
8.701171875,14.23828125,-7.382812500000001,-5.44921875,27.685546875000004,-8.0859375
8.0859375,14.326171875,-7.470703125,-5.09765625,27.685546875000004,-8.0859375
7.470703125,14.501953124999998,-7.470703125,-4.833984375,27.685546875000004,-8.0859375
6.943359375000001,14.501953124999998,-7.470703125,-4.482421875,27.685546875000004,-8.0859375
6.240234375,14.589843750000002,-7.470703125,-3.9550781250000004,27.685546875000004,-8.0859375
5.800781250000001,14.589843750000002,-7.55859375,-3.779296875,27.685546875000004,-8.0859375
5.185546875,14.677734375,-7.55859375,-3.3398437499999996,27.685546875000004,-8.0859375
4.74609375,14.765625000000002,-7.55859375,-2.9003906250000004,27.685546875000004,-8.0859375
4.570312500000001,14.765625000000002,-7.734374999999999,-2.9003906250000004,27.773437500000004,-8.0859375
4.570312500000001,14.853515625,-7.734374999999999,-2.9003906250000004,27.861328125,-8.0859375
4.570312500000001,14.853515625,-7.646484374999999,-2.9003906250000004,27.773437500000004,-8.0859375
4.570312500000001,14.94140625,-7.382812500000001,-2.9003906250000004,27.24609375,-8.0859375
4.482421875,15.029296875,-7.119140625,-2.9882812500000004,26.3671875,-8.0859375
4.39453125,15.1171875,-6.679687499999999,-2.9882812500000004,25.48828125,-8.0859375
4.482421875,15.292968749999998,-6.15234375,-2.9882812500000004,25.312499999999996,-8.0859375
4.482421875,15.380859375,-5.625,-2.9882812500000004,24.78515625,-8.0859375
4.482421875,15.556640625000002,-5.185546875,-2.9882812500000004,23.73046875,-8.0859375
4.570312500000001,15.732421875,-4.570312500000001,-2.9882812500000004,23.5546875,-8.0859375
4.570312500000001,15.908203125,-4.21875,-2.9882812500000004,23.203125000000004,-8.0859375
4.658203125,15.820312500000002,-4.04296875,-2.9882812500000004,22.5,-8.0859375
4.570312500000001,15.908203125,-3.9550781250000004,-2.9882812500000004,22.5,-8.0859375
4.570312500000001,16.435546875,-4.04296875,-3.076171875,22.5,-8.0859375
4.658203125,16.962890625,-4.658203125,-3.076171875,22.587890625000004,-8.0859375
4.74609375,17.138671875,-4.74609375,-3.076171875,22.587890625000004,-8.0859375
4.74609375,17.314453125,-4.833984375,-3.076171875,22.587890625000004,-8.0859375
4.74609375,17.314453125,-5.273437499999999,-3.076171875,22.67578125,-8.0859375
4.74609375,17.05078125,-5.44921875,-3.076171875,23.02734375,-8.0859375
4.74609375,16.787109375,-5.800781250000001,-3.076171875,23.642578125,-8.0859375
4.658203125,16.435546875,-6.064453125,-3.076171875,24.169921875,-8.0859375
4.658203125,16.259765625,-6.240234375,-3.076171875,24.609375,-8.0859375
4.570312500000001,16.259765625,-6.328124999999999,-3.076171875,24.9609375,-8.0859375
4.658203125,16.083984375,-6.591796875,-3.076171875,25.13671875,-8.0859375
4.658203125,15.820312500000002,-6.767578125,-3.076171875,25.576171874999996,-8.0859375
4.570312500000001,15.468749999999998,-7.03125,-2.9882812500000004,26.103515625,-8.0859375
4.482421875,15.1171875,-7.294921875000001,-2.9882812500000004,26.806640625000004,-8.0859375
4.570312500000001,15.029296875,-7.470703125,-2.9882812500000004,27.24609375,-8.0859375
4.570312500000001,14.94140625,-7.55859375,-2.9882812500000004,27.421874999999996,-8.0859375
4.570312500000001,14.94140625,-7.646484374999999,-2.9882812500000004,27.421874999999996,-8.0859375
4.570312500000001,15.1171875,-8.26171875,-2.9882812500000004,27.685546875000004,-8.0859375
4.570312500000001,15.644531250000002,-8.876953125,-2.9882812500000004,28.037109375,-8.0859375
4.658203125,16.171875,-9.31640625,-3.076171875,28.125,-8.0859375
4.658203125,16.611328125,-10.01953125,-3.076171875,28.212890625,-8.0859375
4.74609375,17.138671875,-10.546874999999998,-3.1640624999999996,28.212890625,-8.0859375
4.74609375,17.40234375,-10.810546875,-3.1640624999999996,28.300781249999996,-8.0859375
4.833984375,17.490234375000004,-10.8984375,-3.1640624999999996,28.300781249999996,-8.0859375
5.09765625,17.490234375000004,-10.8984375,-3.251953125,28.300781249999996,-8.0859375
5.712890624999999,17.490234375000004,-10.8984375,-3.6035156249999996,28.300781249999996,-8.0859375
6.240234375,17.40234375,-10.8984375,-4.130859375,28.300781249999996,-8.0859375
6.679687499999999,17.40234375,-10.8984375,-4.570312500000001,28.300781249999996,-8.0859375
7.294921875000001,17.314453125,-10.8984375,-5.009765625,28.300781249999996,-8.0859375
7.822265625000001,17.138671875,-10.8984375,-5.185546875,28.300781249999996,-8.0859375
8.525390625,17.138671875,-10.8984375,-5.625,28.300781249999996,-8.0859375
9.140625000000002,17.05078125,-10.8984375,-5.976562500000001,28.300781249999996,-8.0859375
9.755859375,16.962890625,-10.8984375,-6.416015625,28.300781249999996,-8.0859375
10.283203125,16.875,-10.8984375,-6.679687499999999,28.300781249999996,-8.0859375
10.722656249999998,16.787109375,-10.810546875,-7.119140625,28.300781249999996,-8.0859375
10.8984375,16.69921875,-10.810546875,-7.207031249999999,28.300781249999996,-8.0859375
10.8984375,16.69921875,-10.546874999999998,-7.207031249999999,28.212890625,-8.0859375
10.986328124999998,16.787109375,-10.1953125,-7.207031249999999,27.773437500000004,-8.0859375
10.986328124999998,16.787109375,-9.84375,-7.207031249999999,27.24609375,-8.0859375
11.162109375000002,16.787109375,-9.404296875,-7.119140625,26.279296875,-8.0859375
11.162109375000002,16.787109375,-8.876953125,-7.119140625,25.6640625,-8.0859375
11.25,16.875,-8.4375,-7.119140625,25.400390625,-8.0859375
11.25,16.875,-7.910156250000001,-7.119140625,24.697265624999996,-8.0859375
11.337890625,16.962890625,-7.55859375,-7.119140625,24.345703125,-8.0859375
11.337890625,17.05078125,-6.943359375000001,-7.119140625,23.291015625,-8.0859375
11.425781249999998,17.226562499999996,-6.328124999999999,-7.119140625,23.203125000000004,-8.0859375
11.425781249999998,17.226562499999996,-6.15234375,-7.119140625,23.02734375,-8.0859375
11.425781249999998,17.226562499999996,-6.15234375,-7.119140625,22.5,-8.0859375
11.337890625,17.226562499999996,-5.800781250000001,-7.119140625,22.587890625000004,-8.0859375
10.634765625,17.226562499999996,-5.537109375,-6.679687499999999,22.587890625000004,-8.0859375
10.01953125,17.138671875,-5.361328124999999,-6.591796875,22.587890625000004,-8.0859375
9.4921875,16.875,-5.185546875,-6.240234375,22.587890625000004,-8.0859375
8.876953125,16.787109375,-4.921875,-5.888671875,22.587890625000004,-8.0859375
8.349609375,16.5234375,-4.570312500000001,-5.537109375,22.587890625000004,-8.0859375
7.734374999999999,16.347656249999996,-4.306640624999999,-5.185546875,22.5,-8.0859375
7.119140625,16.171875,-4.04296875,-4.833984375,22.5,-8.0859375
6.50390625,15.99609375,-3.8671874999999996,-4.39453125,22.5,-8.0859375
5.976562500000001,15.820312500000002,-3.6035156249999996,-4.130859375,22.5,-8.0859375
5.361328124999999,15.468749999999998,-3.251953125,-3.779296875,22.412109375,-8.0859375
4.833984375,15.380859375,-3.076171875,-3.4277343749999996,22.324218750000004,-8.0859375
4.21875,15.1171875,-2.548828125,-3.1640624999999996,22.324218750000004,-8.0859375
3.6035156249999996,14.853515625,-2.4609375,-2.9003906250000004,22.324218750000004,-8.0859375
3.3398437499999996,14.677734375,-2.2851562500000004,-2.548828125,22.236328125,-8.0859375
3.076171875,14.677734375,-2.021484375,-2.373046875,22.1484375,-8.0859375
3.076171875,14.414062499999998,-2.021484375,-2.373046875,22.236328125,-8.0859375
3.076171875,14.0625,-2.021484375,-2.2851562500000004,22.412109375,-8.0859375
2.9882812500000004,13.886718750000002,-2.197265625,-2.2851562500000004,22.939453124999996,-8.0859375
2.9003906250000004,13.53515625,-2.548828125,-2.2851562500000004,23.466796875,-8.0859375
2.9003906250000004,13.359374999999998,-2.8125,-2.197265625,24.169921875,-8.0859375
2.9003906250000004,13.0078125,-3.1640624999999996,-2.197265625,24.78515625,-8.0859375
2.9003906250000004,12.83203125,-3.515625,-2.197265625,25.312499999999996,-8.0859375
2.9003906250000004,12.568359375,-3.779296875,-2.109375,25.83984375,-8.0859375
2.9003906250000004,12.3046875,-4.04296875,-2.109375,26.3671875,-8.0859375
2.9003906250000004,12.3046875,-4.130859375,-2.021484375,26.718749999999996,-8.0859375
2.9003906250000004,12.3046875,-4.130859375,-1.9335937499999998,26.718749999999996,-8.0859375
2.9003906250000004,12.48046875,-4.74609375,-1.9335937499999998,26.982421875,-8.0859375
2.8125,12.83203125,-5.361328124999999,-1.9335937499999998,27.333984375,-8.0859375
2.9003906250000004,13.447265625,-5.976562500000001,-1.9335937499999998,27.509765625,-8.0859375
2.9003906250000004,13.886718750000002,-6.591796875,-1.9335937499999998,27.59765625,-8.0859375
2.9882812500000004,14.414062499999998,-7.294921875000001,-2.021484375,27.685546875000004,-8.0859375
2.9003906250000004,14.853515625,-7.822265625000001,-2.021484375,27.773437500000004,-8.0859375
2.9882812500000004,15.380859375,-8.525390625,-2.021484375,27.861328125,-8.0859375
2.9882812500000004,15.908203125,-9.052734375,-2.021484375,28.037109375,-8.0859375
3.076171875,16.435546875,-9.755859375,-2.109375,28.125,-8.0859375
3.076171875,16.962890625,-10.283203125,-2.109375,28.125,-7.998046875
3.1640624999999996,17.40234375,-10.810546875,-2.109375,28.212890625,-8.0859375
3.1640624999999996,17.578125,-10.810546875,-2.109375,28.300781249999996,-8.0859375
3.1640624999999996,17.578125,-10.810546875,-2.109375,28.300781249999996,-8.0859375
3.1640624999999996,17.578125,-10.634765625,-2.109375,28.125,-7.998046875
3.1640624999999996,17.490234375000004,-10.1953125,-2.109375,27.59765625,-8.0859375
3.1640624999999996,17.490234375000004,-9.66796875,-2.109375,26.3671875,-8.0859375
3.1640624999999996,17.490234375000004,-9.140625000000002,-2.109375,26.3671875,-8.0859375
3.1640624999999996,17.490234375000004,-8.525390625,-2.109375,25.400390625,-8.0859375
3.1640624999999996,17.490234375000004,-7.998046875,-2.109375,25.13671875,-8.0859375
3.1640624999999996,17.490234375000004,-7.55859375,-2.109375,24.521484375,-8.0859375
3.1640624999999996,17.490234375000004,-6.943359375000001,-2.109375,23.5546875,-8.0859375
3.1640624999999996,17.490234375000004,-6.591796875,-2.109375,23.642578125,-8.0859375
3.1640624999999996,17.490234375000004,-6.240234375,-2.109375,23.5546875,-8.0859375
3.251953125,17.490234375000004,-5.625,-2.109375,23.115234375,-8.0859375
3.251953125,17.40234375,-5.44921875,-2.109375,22.67578125,-8.0859375
3.251953125,16.787109375,-5.009765625,-2.109375,22.763671875,-8.0859375
3.1640624999999996,16.347656249999996,-4.482421875,-2.021484375,22.67578125,-8.0859375
3.1640624999999996,15.908203125,-3.8671874999999996,-2.021484375,22.587890625000004,-7.998046875
3.076171875,15.292968749999998,-3.1640624999999996,-2.021484375,21.884765625,-8.0859375
3.076171875,14.853515625,-2.724609375,-2.021484375,21.972656249999996,-8.0859375
3.076171875,14.765625000000002,-2.2851562500000004,-2.021484375,21.972656249999996,-8.0859375
3.076171875,14.677734375,-2.109375,-1.9335937499999998,21.972656249999996,-8.0859375
3.076171875,14.326171875,-2.109375,-1.9335937499999998,22.236328125,-8.0859375
3.076171875,14.0625,-2.197265625,-1.9335937499999998,22.763671875,-8.0859375
2.9882812500000004,13.798828125,-2.373046875,-1.9335937499999998,23.37890625,-8.0859375
2.9882812500000004,13.447265625,-2.8125,-1.9335937499999998,23.994140625,-8.0859375
2.9882812500000004,13.271484375,-3.076171875,-1.9335937499999998,24.521484375,-8.0859375
2.9003906250000004,12.919921875,-3.3398437499999996,-1.9335937499999998,25.048828125000004,-8.0859375
2.9003906250000004,12.744140625,-3.6035156249999996,-1.9335937499999998,25.576171874999996,-8.0859375
2.9003906250000004,12.48046875,-4.130859375,-1.9335937499999998,26.103515625,-8.0859375
2.9003906250000004,12.3046875,-4.130859375,-1.9335937499999998,26.718749999999996,-8.0859375
2.9003906250000004,12.216796874999998,-4.130859375,-1.9335937499999998,26.806640625000004,-8.0859375
2.8125,12.216796874999998,-4.130859375,-1.9335937499999998,26.89453125,-8.0859375
2.2851562500000004,12.216796874999998,-4.306640624999999,-1.6699218749999998,26.89453125,-8.0859375
1.8457031250000002,12.216796874999998,-4.306640624999999,-1.0546875,26.982421875,-8.0859375
1.3183593749999998,12.216796874999998,-4.306640624999999,-0.615234375,26.982421875,-8.0859375
0.7910156249999999,12.216796874999998,-4.306640624999999,-0.3515625,26.982421875,-8.0859375
0.263671875,12.216796874999998,-4.306640624999999,0.0,26.982421875,-8.0859375
-0.3515625,12.216796874999998,-4.306640624999999,0.0,27.158203125,-8.0859375
-0.9667968749999999,12.216796874999998,-4.306640624999999,0.52734375,27.158203125,-8.0859375
-1.5820312499999998,12.216796874999998,-4.306640624999999,1.0546875,27.158203125,-8.0859375
-2.109375,12.216796874999998,-4.306640624999999,1.40625,27.158203125,-8.0859375
-2.548828125,12.216796874999998,-4.306640624999999,1.40625,27.158203125,-8.0859375
-2.9003906250000004,12.216796874999998,-4.306640624999999,1.8457031250000002,27.158203125,-8.0859375
-2.9882812500000004,12.216796874999998,-4.306640624999999,1.8457031250000002,27.158203125,-8.0859375
-2.9882812500000004,12.3046875,-4.306640624999999,1.8457031250000002,27.158203125,-8.0859375
-2.9882812500000004,12.3046875,-4.21875,1.8457031250000002,26.89453125,-8.0859375
-2.9882812500000004,12.3046875,-3.779296875,1.8457031250000002,26.191406250000004,-7.998046875
-3.076171875,12.392578125,-3.4277343749999996,1.8457031250000002,25.224609375,-8.0859375
-3.1640624999999996,12.48046875,-3.076171875,1.8457031250000002,24.9609375,-7.998046875
-3.1640624999999996,12.568359375,-2.6367187499999996,1.8457031250000002,24.521484375,-8.0859375
-3.1640624999999996,12.656249999999998,-2.197265625,1.8457031250000002,23.466796875,-8.0859375
-3.1640624999999996,12.83203125,-1.6699218749999998,1.8457031250000002,23.37890625,-8.0859375
-3.251953125,13.0078125,-1.1425781250000002,1.8457031250000002,22.939453124999996,-7.998046875
-3.251953125,13.0078125,-0.87890625,1.8457031250000002,22.1484375,-8.0859375
-3.1640624999999996,13.095703125000002,-0.7910156249999999,1.8457031250000002,22.060546875000004,-8.0859375
-3.251953125,13.359374999999998,-0.7910156249999999,1.8457031250000002,22.060546875000004,-8.0859375
-3.251953125,14.0625,-1.0546875,1.8457031250000002,22.1484375,-7.998046875
-3.251953125,14.501953124999998,-1.5820312499999998,1.8457031250000002,22.1484375,-7.998046875
-3.251953125,14.589843750000002,-1.6699218749999998,1.8457031250000002,22.1484375,-7.998046875
-3.251953125,14.677734375,-1.6699218749999998,1.8457031250000002,22.1484375,-8.0859375
-3.251953125,14.677734375,-2.197265625,1.8457031250000002,22.324218750000004,-8.0859375
-3.251953125,14.326171875,-2.373046875,1.8457031250000002,22.67578125,-8.0859375
-3.1640624999999996,14.0625,-2.724609375,1.8457031250000002,23.37890625,-8.0859375
-3.1640624999999996,13.623046875,-3.076171875,1.8457031250000002,23.994140625,-7.998046875
-3.076171875,13.447265625,-3.251953125,1.8457031250000002,24.521484375,-8.0859375
-3.076171875,13.18359375,-3.6035156249999996,1.8457031250000002,25.048828125000004,-8.0859375
-3.076171875,12.83203125,-3.8671874999999996,1.8457031250000002,25.576171874999996,-8.0859375
-3.076171875,12.656249999999998,-4.21875,1.8457031250000002,26.103515625,-8.0859375
-2.9882812500000004,12.48046875,-4.21875,1.8457031250000002,26.630859375,-7.998046875
-2.9882812500000004,12.392578125,-4.21875,1.8457031250000002,26.718749999999996,-8.0859375
-2.9882812500000004,12.392578125,-4.482421875,1.8457031250000002,26.718749999999996,-7.998046875
-3.076171875,12.744140625,-5.09765625,1.9335937499999998,27.0703125,-7.998046875
-2.9882812500000004,13.18359375,-5.712890624999999,1.8457031250000002,27.421874999999996,-8.0859375
-2.9882812500000004,13.710937499999998,-6.328124999999999,1.9335937499999998,27.509765625,-8.0859375
-3.076171875,14.0625,-6.943359375000001,1.9335937499999998,27.59765625,-8.0859375
-3.076171875,14.501953124999998,-7.470703125,1.9335937499999998,27.685546875000004,-7.998046875
-3.076171875,14.853515625,-7.646484374999999,1.9335937499999998,27.773437500000004,-8.0859375
-3.076171875,14.94140625,-7.734374999999999,1.9335937499999998,27.861328125,-8.0859375
-3.076171875,14.94140625,-7.646484374999999,1.9335937499999998,27.773437500000004,-7.998046875
-3.076171875,14.94140625,-7.646484374999999,1.9335937499999998,27.685546875000004,-7.998046875
-3.076171875,14.94140625,-7.294921875000001,1.9335937499999998,27.333984375,-7.998046875
-3.076171875,14.853515625,-7.294921875000001,1.9335937499999998,27.0703125,-8.0859375
-3.076171875,14.853515625,-7.03125,1.9335937499999998,26.89453125,-7.998046875
-3.076171875,14.853515625,-6.416015625,1.9335937499999998,26.103515625,-8.0859375
-3.1640624999999996,14.853515625,-5.888671875,1.9335937499999998,25.83984375,-7.998046875
-3.1640624999999996,14.853515625,-5.361328124999999,1.9335937499999998,24.873046875,-8.0859375
-3.1640624999999996,14.853515625,-4.74609375,1.9335937499999998,24.873046875,-7.998046875
-3.1640624999999996,14.853515625,-4.21875,1.9335937499999998,23.906250000000004,-8.0859375
-3.1640624999999996,14.853515625,-3.515625,1.9335937499999998,23.906250000000004,-7.998046875
-3.1640624999999996,14.765625000000002,-2.9882812500000004,1.9335937499999998,23.37890625,-7.998046875
-3.1640624999999996,14.677734375,-2.548828125,1.9335937499999998,22.324218750000004,-8.0859375
-3.1640624999999996,14.677734375,-2.373046875,1.9335937499999998,22.324218750000004,-7.998046875
-3.1640624999999996,14.765625000000002,-2.2851562500000004,1.8457031250000002,22.324218750000004,-7.998046875
-3.251953125,15.1171875,-2.548828125,1.9335937499999998,22.324218750000004,-7.998046875
-3.1640624999999996,15.644531250000002,-3.251953125,1.9335937499999998,22.412109375,-7.998046875
-3.3398437499999996,16.171875,-3.779296875,1.9335937499999998,22.412109375,-7.998046875
-3.251953125,16.69921875,-4.482421875,1.9335937499999998,22.412109375,-8.0859375
-3.3398437499999996,17.05078125,-4.658203125,2.021484375,22.412109375,-7.998046875
-3.4277343749999996,17.314453125,-4.921875,2.021484375,22.412109375,-7.998046875
-3.3398437499999996,17.314453125,-5.185546875,2.021484375,22.587890625000004,-7.998046875
-3.251953125,17.138671875,-5.44921875,2.021484375,22.851562499999996,-7.998046875
-3.251953125,16.787109375,-5.800781250000001,1.9335937499999998,23.466796875,-8.0859375
-3.251953125,16.5234375,-6.064453125,1.9335937499999998,24.169921875,-8.0859375
-3.251953125,16.435546875,-6.328124999999999,1.9335937499999998,24.609375,-8.0859375
-3.1640624999999996,16.259765625,-6.416015625,1.9335937499999998,24.9609375,-7.998046875
-3.251953125,16.259765625,-6.50390625,1.9335937499999998,25.13671875,-8.0859375
-3.1640624999999996,15.908203125,-6.767578125,1.9335937499999998,25.48828125,-8.0859375
-3.1640624999999996,15.556640625000002,-7.03125,1.9335937499999998,25.927734375000004,-7.998046875
-3.1640624999999996,15.380859375,-7.294921875000001,1.9335937499999998,26.54296875,-7.998046875
-3.1640624999999996,15.1171875,-7.470703125,1.9335937499999998,27.158203125,-7.998046875
-3.1640624999999996,14.94140625,-7.646484374999999,1.9335937499999998,27.421874999999996,-8.0859375
-3.1640624999999996,15.029296875,-7.646484374999999,1.9335937499999998,27.509765625,-7.998046875
-2.8125,15.029296875,-7.646484374999999,1.8457031250000002,27.59765625,-7.998046875
-2.373046875,15.029296875,-7.734374999999999,1.4941406250000002,27.59765625,-8.0859375
-1.7578125,14.94140625,-7.734374999999999,1.1425781250000002,27.59765625,-8.0859375
-1.3183593749999998,15.029296875,-7.734374999999999,0.615234375,27.685546875000004,-8.0859375
-0.7910156249999999,14.94140625,-7.734374999999999,0.263671875,27.685546875000004,-8.0859375
-0.263671875,14.94140625,-7.734374999999999,0.087890625,27.773437500000004,-8.0859375
0.439453125,14.94140625,-7.734374999999999,-0.3515625,27.861328125,-8.0859375
1.0546875,14.94140625,-7.734374999999999,-0.615234375,27.861328125,-8.0859375
1.6699218749999998,14.94140625,-7.734374999999999,-1.0546875,27.861328125,-8.0859375
2.197265625,14.853515625,-7.734374999999999,-1.4941406250000002,27.861328125,-8.0859375
2.8125,14.853515625,-7.734374999999999,-1.7578125,27.861328125,-7.998046875
2.9003906250000004,14.853515625,-7.734374999999999,-2.021484375,27.861328125,-8.0859375
2.9882812500000004,14.853515625,-7.734374999999999,-2.021484375,27.861328125,-7.998046875
2.9882812500000004,14.853515625,-7.646484374999999,-2.021484375,27.773437500000004,-7.998046875
2.9882812500000004,14.853515625,-7.294921875000001,-2.021484375,27.509765625,-7.998046875
2.9882812500000004,14.853515625,-6.591796875,-2.021484375,26.191406250000004,-8.0859375
3.076171875,14.765625000000002,-6.15234375,-2.021484375,26.191406250000004,-8.0859375
3.076171875,14.765625000000002,-5.537109375,-2.021484375,25.400390625,-7.998046875
3.076171875,14.765625000000002,-5.009765625,-2.021484375,24.521484375,-8.0859375
3.1640624999999996,14.765625000000002,-4.39453125,-2.021484375,24.521484375,-7.998046875
3.1640624999999996,14.765625000000002,-3.779296875,-2.021484375,23.818359374999996,-8.0859375
3.1640624999999996,14.677734375,-3.1640624999999996,-2.021484375,22.67578125,-8.0859375
3.1640624999999996,14.677734375,-2.6367187499999996,-2.021484375,22.67578125,-7.998046875
3.1640624999999996,14.677734375,-2.4609375,-1.9335937499999998,22.587890625000004,-7.998046875
3.076171875,14.677734375,-2.373046875,-1.9335937499999998,22.412109375,-7.998046875
2.548828125,14.677734375,-2.373046875,-1.6699218749999998,22.412109375,-8.0859375
1.8457031250000002,14.677734375,-2.373046875,-1.4941406250000002,22.412109375,-7.998046875
1.40625,14.589843750000002,-2.373046875,-1.1425781250000002,22.412109375,-7.998046875
0.703125,14.677734375,-2.373046875,-0.7910156249999999,22.412109375,-7.998046875
0.087890625,14.677734375,-2.373046875,-0.439453125,22.412109375,-7.998046875
-0.439453125,14.677734375,-2.373046875,-0.17578125,22.412109375,-7.998046875
-1.0546875,14.677734375,-2.373046875,0.263671875,22.324218750000004,-7.998046875
-1.7578125,14.677734375,-2.373046875,0.615234375,22.324218750000004,-8.0859375
-2.2851562500000004,14.677734375,-2.373046875,0.9667968749999999,22.324218750000004,-7.998046875
-2.9003906250000004,14.589843750000002,-2.2851562500000004,1.40625,22.236328125,-8.0859375
-3.4277343749999996,14.677734375,-2.109375,1.6699218749999998,22.236328125,-7.998046875
-4.04296875,14.589843750000002,-2.109375,2.021484375,22.236328125,-7.998046875
-4.482421875,14.589843750000002,-2.109375,2.2851562500000004,22.236328125,-8.0859375
-4.74609375,14.589843750000002,-2.109375,2.2851562500000004,22.324218750000004,-7.998046875
-4.74609375,14.326171875,-2.109375,2.373046875,22.324218750000004,-8.0859375
-4.74609375,14.0625,-2.109375,2.373046875,22.587890625000004,-8.0859375
-4.658203125,13.710937499999998,-2.109375,2.373046875,23.02734375,-8.0859375
-4.658203125,13.53515625,-2.4609375,2.373046875,23.5546875,-8.0859375
-4.570312500000001,13.271484375,-2.8125,2.373046875,24.169921875,-8.0859375
-4.570312500000001,12.919921875,-3.076171875,2.4609375,24.697265624999996,-7.998046875
-4.570312500000001,12.744140625,-3.4277343749999996,2.4609375,25.312499999999996,-7.998046875
-4.570312500000001,12.392578125,-3.6914062500000004,2.4609375,25.751953125,-8.0859375
-4.570312500000001,12.3046875,-4.04296875,2.4609375,26.455078125,-7.998046875
-4.570312500000001,12.216796874999998,-3.9550781250000004,2.548828125,26.718749999999996,-7.998046875
-4.570312500000001,12.216796874999998,-4.130859375,2.548828125,26.718749999999996,-7.998046875
-4.570312500000001,12.12890625,-4.130859375,2.6367187499999996,26.806640625000004,-8.0859375
-5.185546875,12.12890625,-4.130859375,3.076171875,26.89453125,-8.0859375
-5.712890624999999,12.041015625000002,-4.130859375,3.6035156249999996,26.89453125,-7.998046875
-6.240234375,12.041015625000002,-4.130859375,4.130859375,26.89453125,-8.0859375
-6.767578125,11.865234375,-4.130859375,4.482421875,26.89453125,-7.998046875
-7.294921875000001,11.77734375,-4.130859375,4.833984375,26.89453125,-8.0859375
-7.910156250000001,11.689453125,-4.130859375,5.009765625,26.89453125,-7.998046875
-8.525390625,11.601562500000002,-4.130859375,5.537109375,26.89453125,-8.0859375
-9.052734375,11.689453125,-4.130859375,5.888671875,26.89453125,-8.0859375
-9.580078124999998,11.601562500000002,-4.130859375,6.15234375,26.89453125,-8.0859375
-10.01953125,11.513671875,-4.130859375,6.50390625,26.89453125,-8.0859375
-10.107421875000002,11.425781249999998,-4.130859375,6.416015625,26.89453125,-8.0859375
-10.107421875000002,11.513671875,-3.8671874999999996,6.416015625,26.89453125,-7.998046875
-10.1953125,11.513671875,-3.6035156249999996,6.416015625,26.806640625000004,-7.998046875
-10.283203125,11.513671875,-3.3398437499999996,6.416015625,26.3671875,-7.998046875
-10.37109375,11.513671875,-2.8125,6.416015625,25.48828125,-7.998046875
-10.37109375,11.513671875,-2.548828125,6.416015625,24.873046875,-7.998046875
-10.458984375,11.689453125,-2.109375,6.416015625,24.169921875,-7.998046875
-10.458984375,11.77734375,-1.5820312499999998,6.416015625,23.642578125,-7.998046875
-10.546874999999998,11.953125000000002,-1.1425781250000002,6.416015625,23.115234375,-7.998046875
-10.546874999999998,11.953125000000002,-0.615234375,6.416015625,22.67578125,-7.998046875
-10.634765625,12.12890625,-0.3515625,6.416015625,22.060546875000004,-7.998046875
-10.634765625,12.3046875,-0.087890625,6.416015625,21.796875,-7.998046875
-10.634765625,12.3046875,-0.087890625,6.416015625,21.62109375,-8.0859375
-10.722656249999998,12.83203125,-0.17578125,6.50390625,21.708984374999996,-7.998046875
-10.810546875,13.447265625,-0.7910156249999999,6.591796875,21.796875,-7.998046875
-10.8984375,13.623046875,-0.9667968749999999,6.591796875,21.708984374999996,-7.998046875
-10.8984375,13.798828125,-1.1425781250000002,6.591796875,21.708984374999996,-7.998046875
-10.8984375,13.886718750000002,-1.40625,6.591796875,21.796875,-7.998046875
-10.8984375,13.798828125,-1.5820312499999998,6.591796875,21.972656249999996,-7.998046875
-10.8984375,13.447265625,-1.8457031250000002,6.591796875,22.67578125,-7.998046875
-10.810546875,13.18359375,-2.109375,6.591796875,23.115234375,-8.0859375
-10.722656249999998,12.919921875,-2.373046875,6.50390625,23.73046875,-7.998046875
-10.722656249999998,12.568359375,-2.724609375,6.50390625,24.2578125,-7.998046875
-10.722656249999998,12.3046875,-3.076171875,6.50390625,24.78515625,-7.998046875
-10.634765625,11.953125000000002,-3.3398437499999996,6.50390625,25.400390625,-7.998046875
-10.458984375,11.77734375,-3.6035156249999996,6.50390625,25.927734375000004,-7.998046875
-10.37109375,11.689453125,-3.6035156249999996,6.50390625,26.191406250000004,-7.998046875
-10.37109375,11.601562500000002,-3.6914062500000004,6.416015625,26.279296875,-7.998046875
-10.37109375,11.601562500000002,-3.779296875,6.416015625,26.54296875,-7.998046875
-10.283203125,11.865234375,-4.39453125,6.50390625,26.718749999999996,-7.998046875
-10.283203125,12.3046875,-5.009765625,6.591796875,27.0703125,-7.998046875
-10.283203125,12.744140625,-5.625,6.591796875,27.24609375,-7.998046875
-10.458984375,13.271484375,-6.240234375,6.679687499999999,27.421874999999996,-7.998046875
-10.546874999999998,13.710937499999998,-6.855468749999999,6.767578125,27.509765625,-7.998046875
-10.634765625,14.23828125,-7.470703125,6.767578125,27.685546875000004,-7.998046875
-10.634765625,14.677734375,-8.0859375,6.855468749999999,27.773437500000004,-7.998046875
-10.810546875,15.1171875,-8.7890625,6.943359375000001,27.94921875,-7.998046875
-10.8984375,15.820312500000002,-9.404296875,6.943359375000001,28.037109375,-7.998046875
-10.986328124999998,16.259765625,-9.931640625,7.03125,28.125,-7.998046875
-11.07421875,16.611328125,-10.283203125,7.119140625,28.212890625,-7.998046875
-11.07421875,16.69921875,-10.37109375,7.119140625,28.212890625,-7.998046875
-11.07421875,16.69921875,-10.283203125,7.119140625,28.125,-7.998046875
-11.07421875,16.69921875,-10.01953125,7.119140625,27.773437500000004,-7.998046875
-11.07421875,16.69921875,-9.580078124999998,7.03125,27.0703125,-7.998046875
-11.162109375000002,16.69921875,-9.052734375,7.03125,26.103515625,-7.998046875
-11.162109375000002,16.69921875,-8.525390625,7.03125,25.751953125,-7.998046875
-11.162109375000002,16.69921875,-7.998046875,7.03125,25.13671875,-7.998046875
-11.162109375000002,16.69921875,-7.470703125,7.03125,24.609375,-7.998046875
-11.25,16.69921875,-6.855468749999999,6.943359375000001,23.73046875,-7.998046875
-11.25,16.69921875,-6.064453125,6.943359375000001,23.73046875,-7.998046875
-11.25,16.69921875,-5.625,6.943359375000001,22.939453124999996,-7.998046875
-11.25,16.611328125,-5.185546875,6.943359375000001,22.851562499999996,-7.998046875
-11.25,16.611328125,-5.09765625,6.943359375000001,22.412109375,-7.998046875
-11.25,16.611328125,-5.009765625,6.855468749999999,22.5,-7.998046875
-10.810546875,16.435546875,-4.74609375,6.679687499999999,22.5,-7.998046875
-10.1953125,16.171875,-4.570312500000001,6.591796875,22.412109375,-7.998046875
-9.580078124999998,16.171875,-4.306640624999999,6.240234375,22.412109375,-7.998046875
-9.052734375,15.908203125,-4.04296875,5.888671875,22.412109375,-7.998046875
-8.4375,15.820312500000002,-3.779296875,5.537109375,22.412109375,-7.998046875
-7.910156250000001,15.556640625000002,-3.4277343749999996,5.185546875,22.412109375,-7.998046875
-7.294921875000001,15.468749999999998,-3.3398437499999996,4.921875,22.412109375,-7.998046875
-6.679687499999999,15.205078124999998,-2.9003906250000004,4.570312500000001,22.412109375,-7.998046875
-6.15234375,15.1171875,-2.724609375,4.21875,22.236328125,-7.998046875
-5.537109375,14.853515625,-2.548828125,3.779296875,22.236328125,-7.998046875
-5.09765625,14.589843750000002,-2.373046875,3.4277343749999996,22.236328125,-7.998046875
-4.74609375,14.589843750000002,-2.109375,3.251953125,22.236328125,-7.998046875
-4.74609375,14.501953124999998,-2.109375,3.251953125,22.324218750000004,-7.998046875
-4.74609375,14.150390624999998,-2.109375,3.1640624999999996,22.324218750000004,-7.998046875
-4.74609375,13.886718750000002,-2.109375,3.1640624999999996,22.587890625000004,-7.998046875
-4.658203125,13.623046875,-2.197265625,3.1640624999999996,23.203125000000004,-7.998046875
-4.658203125,13.447265625,-2.548828125,3.076171875,23.73046875,-7.998046875
-4.658203125,13.095703125000002,-2.9003906250000004,3.076171875,24.433593749999996,-7.998046875
-4.570312500000001,12.83203125,-3.1640624999999996,3.076171875,24.9609375,-7.998046875
-4.570312500000001,12.656249999999998,-3.515625,2.9882812500000004,25.576171874999996,-7.998046875
-4.482421875,12.3046875,-3.779296875,2.9003906250000004,26.103515625,-7.998046875
-4.482421875,12.3046875,-4.130859375,2.9003906250000004,26.630859375,-7.998046875
-4.39453125,12.12890625,-4.130859375,2.9003906250000004,26.806640625000004,-7.998046875
-4.39453125,12.216796874999998,-4.21875,2.9003906250000004,26.806640625000004,-7.998046875
-4.39453125,12.48046875,-4.833984375,2.8125,27.0703125,-7.998046875
-4.306640624999999,12.919921875,-5.44921875,2.8125,27.24609375,-7.998046875
-4.306640624999999,13.447265625,-6.064453125,2.8125,27.421874999999996,-7.998046875
-4.39453125,14.0625,-6.679687499999999,2.8125,27.509765625,-7.998046875
-4.39453125,14.414062499999998,-7.294921875000001,2.9003906250000004,27.59765625,-7.998046875
-4.482421875,14.94140625,-7.998046875,2.9003906250000004,27.685546875000004,-7.998046875
-4.570312500000001,15.468749999999998,-8.701171875,2.9882812500000004,27.94921875,-7.998046875
-4.570312500000001,16.083984375,-9.228515625,2.9882812500000004,28.037109375,-7.998046875
-4.658203125,16.611328125,-9.84375,2.9882812500000004,28.125,-7.998046875
-4.74609375,17.05078125,-10.37109375,3.076171875,28.212890625,-7.998046875
-4.74609375,17.314453125,-10.722656249999998,3.076171875,28.212890625,-7.998046875
-4.74609375,17.490234375000004,-10.722656249999998,3.076171875,28.300781249999996,-7.998046875
-4.74609375,17.490234375000004,-10.722656249999998,3.076171875,28.212890625,-7.998046875
-4.74609375,17.490234375000004,-10.458984375,3.076171875,27.94921875,-7.998046875
-4.74609375,17.40234375,-10.37109375,3.076171875,27.59765625,-7.998046875
-4.74609375,17.40234375,-10.1953125,3.076171875,27.421874999999996,-7.998046875
-4.74609375,17.40234375,-10.01953125,3.076171875,27.0703125,-7.998046875
-4.74609375,17.40234375,-10.01953125,3.076171875,26.982421875,-7.998046875
-4.833984375,17.40234375,-9.755859375,3.076171875,26.630859375,-7.998046875
-4.74609375,17.40234375,-9.31640625,3.076171875,26.103515625,-7.998046875
-4.833984375,17.40234375,-8.525390625,2.9882812500000004,26.015625,-7.998046875
-4.833984375,17.40234375,-8.0859375,2.9882812500000004,25.48828125,-7.998046875
-4.921875,17.40234375,-7.646484374999999,2.9882812500000004,24.2578125,-7.998046875
-4.921875,17.40234375,-7.03125,2.9882812500000004,24.2578125,-7.998046875
-4.921875,17.40234375,-6.328124999999999,2.9882812500000004,23.642578125,-7.998046875
-4.921875,17.40234375,-5.800781250000001,2.9882812500000004,22.939453124999996,-7.998046875
-4.921875,17.40234375,-5.537109375,2.9882812500000004,22.851562499999996,-7.998046875
-4.921875,17.40234375,-5.44921875,2.9882812500000004,22.763671875,-7.998046875
-4.921875,17.666015625,-5.537109375,2.9882812500000004,22.67578125,-7.998046875
-4.921875,18.281250000000004,-6.328124999999999,3.076171875,22.763671875,-7.998046875
-5.009765625,18.80859375,-6.855468749999999,3.076171875,22.763671875,-7.998046875
-5.09765625,19.3359375,-7.470703125,3.1640624999999996,22.851562499999996,-7.998046875
-5.185546875,19.775390625,-7.822265625000001,3.1640624999999996,22.851562499999996,-7.998046875
-5.185546875,19.951171875,-7.998046875,3.1640624999999996,22.851562499999996,-7.998046875
-5.185546875,19.951171875,-8.26171875,3.1640624999999996,22.939453124999996,-7.998046875
-5.185546875,19.775390625,-8.525390625,3.1640624999999996,23.291015625,-7.998046875
-5.09765625,19.423828125,-8.7890625,3.1640624999999996,23.906250000000004,-7.998046875
-5.09765625,19.160156249999996,-9.228515625,3.1640624999999996,24.521484375,-7.998046875
-5.009765625,18.984375,-9.404296875,3.076171875,24.9609375,-7.998046875
-5.009765625,18.896484375,-9.4921875,3.076171875,25.312499999999996,-7.998046875
-5.009765625,18.80859375,-9.580078124999998,3.076171875,25.400390625,-7.998046875
-5.009765625,18.45703125,-9.84375,3.076171875,25.751953125,-7.998046875
-4.921875,18.193359375,-10.107421875000002,3.076171875,26.279296875,-7.998046875
-4.921875,17.841796875,-10.37109375,3.076171875,26.982421875,-7.998046875
-4.833984375,17.666015625,-10.634765625,3.076171875,27.59765625,-7.998046875
-4.833984375,17.666015625,-10.722656249999998,3.076171875,27.861328125,-7.998046875
-4.833984375,17.578125,-10.722656249999998,3.076171875,27.94921875,-7.998046875
-4.833984375,17.578125,-10.810546875,3.076171875,28.037109375,-7.998046875
-5.361328124999999,17.40234375,-10.810546875,3.3398437499999996,28.037109375,-7.998046875
-5.888671875,17.40234375,-10.810546875,3.9550781250000004,28.037109375,-7.998046875
-6.50390625,17.314453125,-10.810546875,4.39453125,28.037109375,-7.998046875
-7.03125,17.226562499999996,-10.810546875,4.74609375,28.037109375,-7.998046875
-7.55859375,17.226562499999996,-10.810546875,5.09765625,28.125,-7.998046875
-8.173828124999998,17.138671875,-10.810546875,5.185546875,28.125,-7.998046875
-8.876953125,16.962890625,-10.810546875,5.888671875,28.125,-7.998046875
-9.404296875,16.962890625,-10.810546875,6.240234375,28.125,-7.998046875
-10.01953125,16.875,-10.810546875,6.416015625,28.125,-7.998046875
-10.546874999999998,16.787109375,-10.810546875,6.591796875,28.125,-7.998046875
-10.986328124999998,16.69921875,-10.722656249999998,7.03125,28.125,-7.998046875
-11.07421875,16.69921875,-10.634765625,7.119140625,28.125,-7.998046875
-11.07421875,16.611328125,-10.37109375,7.119140625,28.037109375,-7.998046875
-11.162109375000002,16.69921875,-9.931640625,7.03125,27.861328125,-7.998046875
-11.337890625,16.69921875,-9.4921875,7.03125,27.158203125,-7.998046875
-11.25,16.69921875,-8.96484375,7.03125,26.103515625,-7.998046875
-11.337890625,16.69921875,-8.349609375,7.03125,26.015625,-7.998046875
-11.337890625,16.611328125,-7.822265625000001,7.03125,25.224609375,-7.998046875
-11.337890625,16.611328125,-7.294921875000001,7.03125,24.345703125,-7.998046875
-11.337890625,16.611328125,-6.679687499999999,6.943359375000001,24.169921875,-7.998046875
-11.337890625,16.611328125,-6.064453125,6.943359375000001,23.73046875,-7.998046875
-11.425781249999998,16.611328125,-5.800781250000001,6.943359375000001,23.37890625,-7.998046875
-11.337890625,16.435546875,-5.361328124999999,6.943359375000001,22.851562499999996,-7.998046875
-11.425781249999998,16.435546875,-5.09765625,6.943359375000001,22.763671875,-7.998046875
-11.337890625,16.259765625,-4.921875,6.943359375000001,22.587890625000004,-7.998046875
-11.425781249999998,15.820312500000002,-4.21875,6.943359375000001,21.972656249999996,-7.998046875
-11.601562500000002,15.292968749999998,-3.6914062500000004,7.03125,22.060546875000004,-7.998046875
-11.77734375,14.853515625,-3.076171875,7.03125,22.060546875000004,-7.998046875
-11.953125000000002,14.326171875,-2.548828125,7.119140625,22.060546875000004,-7.998046875
-12.216796874999998,13.710937499999998,-1.9335937499999998,7.119140625,22.060546875000004,-7.998046875
-12.216796874999998,13.623046875,-1.5820312499999998,7.119140625,21.884765625,-7.998046875
-12.3046875,13.623046875,-1.40625,7.119140625,21.884765625,-7.998046875
-12.3046875,13.53515625,-1.40625,7.119140625,21.972656249999996,-7.998046875
-12.3046875,13.359374999999998,-1.40625,7.119140625,21.972656249999996,-7.998046875
-12.3046875,13.0078125,-1.40625,7.119140625,22.1484375,-7.998046875
-12.216796874999998,12.83203125,-1.5820312499999998,7.119140625,22.763671875,-7.998046875
-12.216796874999998,12.48046875,-1.8457031250000002,7.119140625,23.291015625,-7.998046875
-12.12890625,12.216796874999998,-2.197265625,7.207031249999999,23.906250000000004,-7.998046875
-12.12890625,11.953125000000002,-2.4609375,7.207031249999999,24.521484375,-7.998046875
-12.041015625000002,11.689453125,-2.8125,7.207031249999999,25.048828125000004,-7.998046875
-11.953125000000002,11.425781249999998,-2.9882812500000004,7.207031249999999,25.576171874999996,-7.998046875
-11.865234375,11.25,-3.1640624999999996,7.207031249999999,25.927734375000004,-7.998046875
-11.865234375,11.162109375000002,-3.3398437499999996,7.207031249999999,26.191406250000004,-7.998046875
-11.865234375,11.162109375000002,-3.4277343749999996,7.207031249999999,26.3671875,-7.998046875
-11.77734375,11.25,-3.6914062500000004,7.207031249999999,26.54296875,-7.998046875
-11.77734375,11.689453125,-4.306640624999999,7.294921875000001,26.806640625000004,-7.998046875
-11.689453125,12.12890625,-4.921875,7.382812500000001,26.982421875,-7.998046875
-11.77734375,12.568359375,-5.625,7.470703125,27.158203125,-7.998046875
-11.865234375,13.18359375,-6.240234375,7.646484374999999,27.24609375,-7.998046875
-11.953125000000002,13.710937499999998,-6.855468749999999,7.734374999999999,27.421874999999996,-7.998046875
-12.12890625,14.0625,-7.470703125,7.734374999999999,27.509765625,-7.998046875
-12.216796874999998,14.677734375,-8.0859375,7.822265625000001,27.59765625,-7.998046875
-12.392578125,15.1171875,-8.7890625,7.910156250000001,27.773437500000004,-7.998046875
-12.392578125,15.732421875,-9.404296875,7.998046875,27.94921875,-7.998046875
-12.48046875,16.171875,-9.931640625,8.0859375,28.037109375,-7.998046875
-12.568359375,16.347656249999996,-10.01953125,8.0859375,28.125,-7.998046875
-12.656249999999998,16.347656249999996,-10.01953125,8.0859375,28.037109375,-7.998046875
-12.656249999999998,16.347656249999996,-10.01953125,8.0859375,27.94921875,-7.998046875
-12.656249999999998,16.347656249999996,-9.580078124999998,7.998046875,27.509765625,-7.998046875
-12.656249999999998,16.347656249999996,-9.140625000000002,7.998046875,26.3671875,-7.998046875
-12.656249999999998,16.347656249999996,-8.525390625,7.998046875,25.83984375,-7.998046875
-12.744140625,16.347656249999996,-7.910156250000001,7.998046875,25.400390625,-7.998046875
-12.744140625,16.347656249999996,-7.55859375,7.910156250000001,24.609375,-7.998046875
-12.744140625,16.347656249999996,-6.855468749999999,7.910156250000001,24.2578125,-7.998046875
-12.744140625,16.347656249999996,-6.240234375,7.910156250000001,23.466796875,-7.998046875
-12.744140625,16.347656249999996,-5.537109375,7.910156250000001,22.939453124999996,-7.998046875
-12.83203125,16.347656249999996,-5.185546875,7.910156250000001,22.763671875,-7.998046875
-12.83203125,16.347656249999996,-5.009765625,7.910156250000001,22.587890625000004,-7.998046875
-12.83203125,16.347656249999996,-4.921875,7.910156250000001,22.236328125,-7.998046875
-12.919921875,16.69921875,-5.009765625,7.910156250000001,22.324218750000004,-7.998046875
-13.095703125000002,17.40234375,-5.800781250000001,7.998046875,22.412109375,-7.998046875
-13.271484375,17.75390625,-6.328124999999999,8.0859375,22.412109375,-7.998046875
-13.359374999999998,18.281250000000004,-6.943359375000001,8.26171875,22.412109375,-7.998046875
-13.53515625,18.720703125,-7.207031249999999,8.26171875,22.412109375,-7.998046875
-13.623046875,18.896484375,-7.382812500000001,8.26171875,22.412109375,-7.998046875
-13.53515625,18.984375,-7.470703125,8.26171875,22.5,-7.998046875
-13.447265625,18.720703125,-7.822265625000001,8.26171875,22.763671875,-7.998046875
-13.359374999999998,18.369140625,-8.173828124999998,8.26171875,23.37890625,-7.998046875
-13.359374999999998,18.10546875,-8.4375,8.173828124999998,23.994140625,-7.998046875
-13.271484375,18.017578125,-8.701171875,8.173828124999998,24.521484375,-7.998046875
-13.271484375,17.9296875,-8.7890625,8.173828124999998,24.78515625,-7.998046875
-13.271484375,17.75390625,-8.876953125,8.173828124999998,24.9609375,-7.998046875
-13.18359375,17.490234375000004,-9.140625000000002,8.173828124999998,25.312499999999996,-7.998046875
-13.0078125,17.138671875,-9.404296875,8.0859375,25.83984375,-7.998046875
-12.919921875,16.962890625,-9.66796875,8.0859375,26.3671875,-7.998046875
-12.83203125,16.69921875,-9.84375,8.0859375,27.0703125,-7.998046875
-12.744140625,16.5234375,-10.01953125,8.0859375,27.421874999999996,-7.998046875
-12.656249999999998,16.435546875,-10.01953125,8.0859375,27.421874999999996,-7.998046875
-12.656249999999998,16.435546875,-10.107421875000002,8.0859375,27.59765625,-7.998046875
-12.744140625,16.347656249999996,-10.107421875000002,8.0859375,27.685546875000004,-7.998046875
-13.359374999999998,16.259765625,-10.107421875000002,8.525390625,27.685546875000004,-7.998046875
-14.0625,16.083984375,-10.1953125,9.140625000000002,27.685546875000004,-7.998046875
-14.414062499999998,15.99609375,-10.107421875000002,9.580078124999998,27.685546875000004,-7.998046875
-14.94140625,15.908203125,-10.107421875000002,9.84375,27.685546875000004,-7.998046875
-15.556640625000002,15.820312500000002,-10.107421875000002,10.1953125,27.685546875000004,-7.998046875
-16.171875,15.556640625000002,-10.01953125,10.458984375,27.685546875000004,-7.998046875
-16.69921875,15.380859375,-9.84375,10.634765625,27.685546875000004,-7.998046875
-17.40234375,15.292968749999998,-9.755859375,11.425781249999998,27.685546875000004,-7.998046875
-17.9296875,15.1171875,-9.580078124999998,11.337890625,27.685546875000004,-7.998046875
-18.369140625,14.853515625,-9.4921875,11.601562500000002,27.685546875000004,-7.998046875
-18.544921875,14.853515625,-9.404296875,11.77734375,27.685546875000004,-7.998046875
-18.544921875,14.853515625,-9.140625000000002,11.77734375,27.421874999999996,-7.998046875
-18.6328125,14.853515625,-8.613281249999998,11.77734375,27.158203125,-7.998046875
-18.720703125,14.765625000000002,-8.173828124999998,11.689453125,26.718749999999996,-7.998046875
-18.80859375,14.765625000000002,-7.734374999999999,11.689453125,25.576171874999996,-7.998046875
-18.720703125,14.677734375,-7.382812500000001,11.601562500000002,25.048828125000004,-7.998046875
-18.80859375,14.677734375,-6.679687499999999,11.601562500000002,24.697265624999996,-7.998046875
-18.80859375,14.677734375,-6.064453125,11.601562500000002,24.169921875,-7.998046875
-18.80859375,14.677734375,-5.537109375,11.513671875,23.466796875,-7.998046875
-18.80859375,14.677734375,-4.921875,11.513671875,22.763671875,-7.998046875
-18.80859375,14.677734375,-4.306640624999999,11.513671875,22.5,-7.998046875
-18.896484375,14.677734375,-3.8671874999999996,11.513671875,22.1484375,-7.998046875
-18.896484375,14.677734375,-3.6914062500000004,11.513671875,21.796875,-7.998046875
-18.984375,14.853515625,-3.6914062500000004,11.513671875,21.796875,-7.998046875
-19.160156249999996,15.380859375,-4.21875,11.601562500000002,21.884765625,-7.998046875
-19.3359375,15.908203125,-4.74609375,11.77734375,21.884765625,-7.998046875
-19.51171875,16.435546875,-5.44921875,11.865234375,21.972656249999996,-7.998046875
-19.6875,16.875,-5.976562500000001,11.953125000000002,21.972656249999996,-7.998046875
-19.775390625,17.138671875,-6.064453125,11.953125000000002,21.972656249999996,-7.998046875
-19.775390625,17.226562499999996,-6.240234375,11.953125000000002,21.972656249999996,-7.998046875
-19.775390625,17.226562499999996,-6.240234375,11.953125000000002,21.972656249999996,-7.998046875
-19.775390625,17.226562499999996,-6.240234375,11.953125000000002,21.972656249999996,-7.998046875
-19.775390625,17.314453125,-6.416015625,11.953125000000002,21.972656249999996,-7.998046875
-19.775390625,17.314453125,-6.416015625,11.953125000000002,21.884765625,-7.998046875
-19.775390625,17.314453125,-6.416015625,12.041015625000002,21.972656249999996,-7.998046875
-19.775390625,17.314453125,-6.416015625,11.953125000000002,21.972656249999996,-7.998046875
-19.775390625,17.314453125,-6.416015625,12.041015625000002,21.972656249999996,-7.998046875
-19.775390625,17.314453125,-6.50390625,11.953125000000002,21.884765625,-7.998046875
-19.423828125,17.314453125,-6.416015625,11.689453125,21.26953125,-7.998046875
-19.072265625,17.226562499999996,-6.15234375,11.601562500000002,20.0390625,-7.998046875
-18.193359375,16.875,-5.185546875,11.337890625,18.720703125,-7.998046875
-17.40234375,16.5234375,-4.482421875,10.8984375,16.5234375,-7.998046875
-16.69921875,16.259765625,-3.6914062500000004,10.546874999999998,15.1171875,-7.998046875
-15.908203125,15.908203125,-2.8125,10.107421875000002,13.53515625,-7.998046875
-15.205078124999998,15.556640625000002,-2.109375,9.580078124999998,11.601562500000002,-7.998046875
-14.414062499999998,15.292968749999998,-1.3183593749999998,9.052734375,9.755859375,-7.998046875
-13.623046875,15.1171875,-0.439453125,8.701171875,8.26171875,-7.998046875
-12.83203125,14.589843750000002,0.263671875,8.26171875,6.328124999999999,-7.998046875
-12.216796874999998,14.414062499999998,0.9667968749999999,7.822265625000001,4.658203125,-7.998046875
-11.425781249999998,13.974609375,2.021484375,7.382812500000001,2.9003906250000004,-7.998046875
-10.722656249999998,13.798828125,2.8125,6.943359375000001,1.1425781250000002,-7.998046875
-9.931640625,13.53515625,3.6035156249999996,6.50390625,-0.52734375,-7.998046875
-9.140625000000002,13.095703125000002,4.39453125,5.888671875,-2.2851562500000004,-7.998046875
-8.4375,12.83203125,5.185546875,5.44921875,-3.9550781250000004,-7.998046875
-7.55859375,12.656249999999998,6.15234375,5.009765625,-5.625,-7.998046875
-6.855468749999999,12.216796874999998,6.767578125,4.658203125,-7.382812500000001,-7.998046875
-6.15234375,12.041015625000002,7.55859375,4.21875,-9.052734375,-7.998046875
-5.361328124999999,11.601562500000002,8.4375,3.6914062500000004,-10.722656249999998,-7.998046875
-4.658203125,11.337890625,9.052734375,3.3398437499999996,-12.568359375,-7.998046875
-3.8671874999999996,11.07421875,10.01953125,2.8125,-14.326171875,-7.998046875
-3.1640624999999996,10.810546875,10.8984375,2.373046875,-15.908203125,-7.998046875
-2.373046875,10.458984375,11.601562500000002,1.9335937499999998,-17.75390625,-7.998046875
-1.6699218749999998,10.1953125,12.392578125,1.4941406250000002,-19.423828125,-7.998046875
-0.87890625,9.931640625,13.18359375,0.9667968749999999,-21.181640625000004,-7.998046875
-0.615234375,9.84375,13.53515625,0.7910156249999999,-22.236328125,-7.998046875
-0.263671875,9.755859375,13.886718750000002,0.52734375,-23.02734375,-7.998046875
0.0,9.4921875,14.326171875,0.439453125,-23.73046875,-7.998046875
0.087890625,9.404296875,14.414062499999998,0.3515625,-23.994140625,-7.998046875
0.087890625,9.4921875,14.414062499999998,0.3515625,-23.994140625,-7.998046875
0.087890625,9.4921875,14.414062499999998,0.3515625,-23.994140625,-7.998046875
0.087890625,9.4921875,14.414062499999998,0.263671875,-23.994140625,-7.998046875
0.087890625,9.4921875,14.326171875,0.263671875,-23.994140625,-7.998046875
0.087890625,9.4921875,14.326171875,0.263671875,-23.994140625,-7.998046875
0.087890625,9.4921875,14.326171875,0.263671875,-23.994140625,-7.998046875
0.087890625,9.4921875,14.326171875,0.263671875,-23.994140625,-7.998046875
0.087890625,9.4921875,14.414062499999998,0.263671875,-23.994140625,-7.998046875
0.087890625,9.4921875,14.414062499999998,0.263671875,-23.994140625,-7.998046875
0.087890625,9.4921875,14.326171875,0.263671875,-23.994140625,-7.998046875
0.087890625,9.4921875,14.414062499999998,0.263671875,-23.994140625,-7.998046875
