RAMEL-ESPOL/ARCHIE/matlab/data/joint_goals_square_t35_h35_p12.txt
Joint0,Joint1,Joint2,Joint3,Joint4,Joint5 
-0.00041003672265354715,9.57802235899399,14.248883080476514,-0.005085109191755161,-23.825059137114877,0.004629038707800645
-0.00041003672265354715,9.57802235899399,14.248883080476514,-0.005085109191755161,-23.825059137114877,0.004629038707800645
-0.00041003672265354715,9.57802235899399,14.248883080476514,-0.005085109191755161,-23.825059137114877,0.004629038707800645
-0.00041003672265354715,9.57802235899399,14.248883080476514,-0.005085109191755161,-23.825059137114877,0.004629038707800645
-0.00041003672265354715,9.57802235899399,14.248883080476514,-0.005085109191755161,-23.825059137114877,0.004629038707800645
-0.00041003672265354715,9.57802235899399,14.248883080476514,-0.005085109191755161,-23.825059137114877,0.004629038707800645
-0.00041003672265354715,9.57802235899399,14.248883080476514,-0.005085109191755161,-23.825059137114877,0.004629038707800645
-0.00041003672265354715,9.57802235899399,14.248883080476514,-0.005085109191755161,-23.825059137114877,0.004629038707800645
-0.00041003672265354715,9.57802235899399,14.248883080476514,-0.005085109191755161,-23.825059137114877,0.004629038707800645
-0.00041003672265354715,9.57802235899399,14.248883080476514,-0.005085109191755161,-23.825059137114877,0.004629038707800645
-0.00041003672265354715,9.57802235899399,14.248883080476514,-0.005085109191755161,-23.825059137114877,0.004629038707800645
-0.00041003672265354715,9.57802235899399,14.248883080476514,-0.005085109191755161,-23.825059137114877,0.004629038707800645
-0.00041003672265354715,9.57802235899399,14.248883080476514,-0.005085109191755161,-23.825059137114877,0.004629038707800645
-0.00041003672265354715,9.57802235899399,14.248883080476514,-0.005085109191755161,-23.825059137114877,0.004629038707800645
-0.00041003672265354715,9.57802235899399,14.248883080476514,-0.005085109191755161,-23.825059137114877,0.004629038707800645
-0.00040846142792876945,9.57802567303833,14.248875191209168,-0.005085102936923607,-23.825039157183426,0.0046306264761079696
0.01805296617009141,9.61677896852501,14.15652794084381,-0.005075541445191251,-23.591054541225486,0.023212378678057224
0.05899599039420536,9.702119336876365,13.952501820872044,-0.005506264587351192,-23.073311482457715,0.06424226375600402
0.10211088339119773,9.791094328136912,13.738793448724493,-0.006623657930451043,-22.52981763161486,0.1071927713747853
0.1453927593806282,9.87950431677892,13.525411630735855,-0.008418935001307864,-21.985934247473523,0.1500608560027853
0.18890094267021387,9.967468989668786,13.312057345270112,-0.010892713977804301,-21.440887106038666,0.19291702333700622
0.23251309387298147,10.054741131484066,13.099321975048982,-0.014035205462993585,-20.896177232318482,0.235652854217727
0.2761246891717066,10.141118585602605,12.88769835452791,-0.017831221045500195,-20.35306646976452,0.27817953311174315
0.320028949553717,10.227182919321274,12.675754406740921,-0.02230337400688312,-19.807870983221633,0.3207950020181249
0.3640442616520666,10.312575288106641,12.46436217437333,-0.027433117003538288,-19.26282035432423,0.3633341020068659
0.40810628421608697,10.397175158537655,12.253817335182202,-0.0332079293507916,-18.718673666258304,0.4057471702471984
0.45230408101086833,10.481156897538662,12.043682216621887,-0.039635348500439545,-18.17429531801628,0.4481321253115535
0.496449876819894,10.564169673112161,11.834834508302201,-0.04668227006543387,-17.631958686951688,0.49032134412071177
0.5409430239973723,10.646963846938457,11.625377758153245,-0.054411568422716675,-17.086729039171622,0.5327077541780785
0.5854004652045405,10.728825359677476,11.417108953614056,-0.06275650442269197,-16.543273143511968,0.5749375127226467
0.6300105894513857,10.810105278405638,11.209132901476277,-0.0717485388618324,-15.999252558983853,0.6172013767547069
0.6748955830981243,10.891021187025503,11.000878126613438,-0.08141520315468784,-15.453155751738826,0.6596256901803006
0.7197337258729152,10.970993603585455,10.793829113997047,-0.09168634166637182,-14.908867437326036,0.7019175759469386
0.7645813756398041,11.050130923141182,10.587709018634383,-0.10256891273804156,-14.365663700162363,0.7441420420251558
0.8096124088400509,11.128741034307868,10.381709998094081,-0.11410422005891904,-13.821408757908042,0.7864738972560288
0.8547688495580604,11.206720290887864,10.17609259093971,-0.12627922463103536,-13.27677856322825,0.8288694461148212
0.8997424919355141,11.283544112536777,9.97224428640839,-0.13900561738228784,-12.735452473298775,0.8710506654543373
0.9452014035851243,11.360351060644552,9.767132590335837,-0.15247478002443882,-12.189364971993394,0.913654954007271
0.9906169198860241,11.436241210949659,9.563142988863566,-0.16653551465960265,-11.644847780800863,0.9561975131978855
1.0361160267901872,11.511431062740682,9.359693162404968,-0.18122489329906538,-11.100345653694779,0.9988083130192912
1.081767959507433,11.586033692033007,9.156467807685727,-0.19656726565275098,-10.555004418536836,1.0415630952134114
1.1276729922796827,11.66020678454016,8.953020042468516,-0.21260201313698937,-10.007606250924118,1.0845667772967178
1.1738781942280807,11.734016043076451,8.749145151869849,-0.22935448850660778,-9.457574321948307,1.1278747351334175
1.2200120480097623,11.806866339996484,8.54647702603166,-0.246692843432645,-8.909305851549558,1.1711499257127866
1.2664404613080749,11.879333858186746,8.343402783787747,-0.2647576431225436,-8.358426810136152,1.2147468786051077
1.3129273292078705,11.951044817399156,8.1409535296311,-0.28346291947824437,-7.807717030772011,1.2584554387678317
1.3592761011868992,12.021702226758846,7.939971785985018,-0.3027273312659784,-7.259471912766057,1.3021016010647657
1.4058363804498057,12.091840998225797,7.738932602808518,-0.3226972419267836,-6.709527588483107,1.3460256887294337
1.4523130853011772,12.161016928933922,7.5391029057091545,-0.3432485379310221,-6.161342820173457,1.3899605376075763
1.4990733808598138,12.229774672433638,7.338899043593542,-0.36454783243542543,-5.610562368490379,1.434264785339543
1.5458552682442352,12.297724118266316,7.13944083545179,-0.38648250717014215,-5.0602504620108375,1.4787021972374375
1.5925360264016044,12.364692368720734,6.941239449770002,-0.4089943548144955,-4.511820290906233,1.5231668905912814
1.6393237335976472,12.430980831406524,6.743401880090869,-0.43218508097382546,-3.9627992309747393,1.5678680860205143
1.6863742145512344,12.496803281396817,6.545269445362061,-0.456140965487618,-3.411338749903718,1.6129673918168823
1.7332091511590022,12.561492013425836,6.34884839956474,-0.4806213465641006,-2.863018631190349,1.6580176680963317
1.7803494942390883,12.6257667587193,6.151947193381631,-0.505902602421674,-2.3117144290643417,1.7035317282449411
1.827460399477905,12.689165977756447,5.955962727910956,-0.5318134350835493,-1.761320578495355,1.7491991222852383
1.8744288312069168,12.751544392462854,5.7613523470140455,-0.5582910432052649,-1.2131283013953764,1.7949206246778546
1.9217186472788592,12.81351535988334,5.5661902393423635,-0.5856039297745759,-0.6617006950806442,1.8411604150645415
1.9688408325232558,12.874435975924628,5.372490179355444,-0.6134764171702005,-0.11271682049579339,1.8874529061762628
2.0160343138012187,12.934619438947696,5.179259799790548,-0.6420517973985552,0.4366336499561696,1.934043856354199
2.063085655879406,12.993797085241235,4.98736362109405,-0.6712036066008762,0.9838920868345931,1.9807337667098788
2.1105068842814387,13.052608342354667,4.794711390344158,-0.701258627693838,1.5350354213375481,2.028044481380426
2.157814732832467,13.110448537014571,4.603265152626725,-0.7319210238529201,2.084468044155557,2.075508032881831
2.2052573356306646,13.16762167658903,4.4120141366103445,-0.7633575210700623,2.6350957147239145,2.1233859021575494
2.2524719316005535,13.223694152298062,4.222411600828629,-0.7953314302833,3.1827329791919405,2.1713235679253784
2.299930934867726,13.279227484681334,4.0325541068796555,-0.828169195513923,3.732882684299876,2.2198134865820633
2.3474256825540696,13.333970990113341,3.8432762388911548,-0.8617391443630034,4.283146490278299,2.2686580228585225
2.394893665913949,13.387853060039905,3.654820910016853,-0.8960042171507152,4.832823190295311,2.317806061220165
2.442437413590843,13.440989355406535,3.4667759196595265,-0.9310468427338815,5.383122511412135,2.367377582966281
2.489965051281343,13.493276046454314,3.2794999234935274,-0.966808390598422,5.933003180791279,2.4172909872808432
2.5372842699531692,13.544507766618262,3.0937398306550454,-1.0031470302990049,6.480264070744849,2.467355428083889
2.5848468370774857,13.595172877056756,2.90771721597604,-1.0404190366847823,7.030151829731323,2.5180632840896844
2.632404326261042,13.645000508930215,2.722403385561928,-1.078444342211199,7.579814767137131,2.56916690599235
2.6799953938545977,13.694030387074541,2.5376428749839106,-1.117263908959266,8.129721232807187,2.6207227709663137
2.7276215419501346,13.742262067511781,2.353426061387374,-1.1568904919743066,8.679909789787105,2.6727483223527337
2.7751594533061357,13.78957175952057,2.1702236883697537,-1.197230475975758,9.228977301421866,2.7251233106199098
2.8227017761804802,13.836053398695157,1.987672018970638,-1.2383711935184722,9.778015141491252,2.777964148256797
2.8704475937431835,13.881895622795183,1.8050061689158667,-1.280501458367694,10.329342836461782,2.831511077889341
2.917999417170524,13.926715896056509,1.6237423758907126,-1.3232825206980847,10.878391194941152,2.885334697293801
2.965528903048625,13.970680968598401,1.4432172746230114,-1.3668754159559637,11.427162921266747,2.9396424937079066
3.0132271607063243,14.013962784409227,1.2627037078185785,-1.41147217586846,11.977884809527824,2.994672296862701
3.0607102320816595,14.05621324923502,1.0836495257132257,-1.4567257676873946,12.52614375598791,3.049997684157276
3.1083849058618327,14.097793842156111,0.9045161812008272,-1.50303713506791,13.07665667266469,3.106110116898138
3.155870681826893,14.138371333888946,0.7267295430262145,-1.5500512170520355,13.625049533995277,3.1625801141581107
3.2034571741753033,14.178194349422554,0.5491996028544744,-1.5980671557617723,14.174686370915474,3.219769147669373
3.2510799794798495,14.217203829061035,0.3721657466255968,-1.6470396241115284,14.724843126236072,3.2776217871078326
3.2987673802021495,14.255418773379889,0.1955212183721985,-1.6970169123976613,15.275866222758347,3.3361942290696174
3.346201920218494,14.292588190173833,0.020434776081544218,-1.7476775996947451,15.824105840733937,3.395113034212431
3.393801682977684,14.329040215493114,-0.15464175834429536,-1.7994832283171176,16.37441270767339,3.454916658841931
3.44126485007479,14.364541224443276,-0.32860096125005767,-1.8521242607222748,16.923316331924205,3.5152478608525892
3.488801757624687,14.399248170711605,-0.5022179422333389,-1.9058511096206678,17.47326752810235,3.576394805196516
3.536210376089635,14.433013116852152,-0.6747589141896791,-1.9604531625248185,18.02194708030347,3.638118913294389
3.5840911176566226,14.466252172830652,-0.8484052062426182,-2.016653898857621,18.576324732792504,3.7012337997970954
3.63126754040202,14.498152742858265,-1.0188974596443428,-2.0730858460934365,19.122795662021193,3.764207007515097
3.678698562496093,14.52937300395062,-1.1897122353600564,-2.130902987054605,19.672482002157814,3.828332107559847
3.726027313004114,14.559671656907783,-1.3595639716457952,-2.189698106629255,20.221266926934728,3.8931558448906136
3.773510713146818,14.589209145415559,-1.5293759940104992,-2.249816107026944,20.772147733176517,3.959057992077884
3.8207060601500844,14.617711199565635,-1.6975698712785605,-2.310716113466695,21.320004540316333,4.025447398905119
3.86626192304925,14.644410946817613,-1.8593669298546478,-2.3706086864936133,21.849146525491605,4.090395418320638
3.888579521807385,14.657199081776849,-1.9384324492323908,-2.4003542820982586,22.10848894684845,4.122531092224906
3.8989439693408046,14.663072597448178,-1.9751068232983573,-2.414259900487998,22.228956527150213,4.1375274257479076
3.886451649656417,14.553307355612793,-2.1087245266912458,-2.4109190467244703,22.474875836423244,4.135502253975715
3.859603164663757,14.315508549736933,-2.387158280374271,-2.4033489827754284,22.991755035317706,4.130584913250969
3.8323303084580016,14.064892492820901,-2.6684455317867046,-2.3959370410594643,23.52431016635477,4.1257818955751056
3.805343272358356,13.807610416346622,-2.945083261157297,-2.388888971572994,24.058869860496262,4.121229347648208
3.7788446779610596,13.545685676560765,-3.2148975806645206,-2.3822562614710496,24.59123218084706,4.116962665421033
3.7526931005552697,13.277853945429902,-3.479242127800579,-2.3760009095173005,25.124018549566305,4.11295939009038
3.7268758687594676,13.004047314055422,-3.73814623520763,-2.3701196353445315,25.657326591525585,4.109219498976019
3.7014448495255836,12.724909109057114,-3.990999730683104,-2.3646231515397775,26.189901708641624,4.105751744347699
3.6765701198174527,12.442535135050486,-4.236056677805913,-2.3595429330691906,26.717898425703382,4.102577415004948
3.6617296523551266,12.269547544056586,-4.3811186210343225,-2.356656154049608,27.036283185587173,4.100790296866214
3.655281564266128,12.193312409327367,-4.4438687513068835,-2.3554362285136947,27.175413553248642,4.100039378953141
3.6615554053841226,12.307375375026522,-4.606112631762081,-2.36049052697447,27.223297850955436,4.109251966091159
3.685671984335718,12.726587850919593,-5.134323744828019,-2.378337375913078,27.331214997972182,4.141191072705991
3.714173513733971,13.215346793844851,-5.746664652007132,-2.3993705845714617,27.45351167560539,4.178788248119929
3.743422986061986,13.709633050401381,-6.3620787527774665,-2.4208894519957136,27.573312476027017,4.217206000407122
3.7731375743336306,14.204440668961178,-6.974240833920233,-2.442681461549637,27.689310499882534,4.256064516945895
3.803626759799195,14.704696784466082,-7.589154852324995,-2.4649689839874394,27.802567955920473,4.295759945065735
3.8346573535767208,15.206327563590749,-8.201710354657344,-2.487576621934476,27.91205841007828,4.335979399828883
3.8662393070025387,15.709334687042523,-8.811855302478826,-2.5105074497876614,28.017727249087578,4.376728417716156
3.8987781008729656,16.219876824753143,-9.426930199317004,-2.5340500873765137,28.120736822988167,4.418519126713714
3.9320097187206935,16.73347096711313,-10.0413822376147,-2.5580070954009955,28.220028996815316,4.461000071223213
3.965823015302427,17.248199995701796,-10.652845096191571,-2.5822933281608558,28.315159270488248,4.504020125716683
4.000394667633721,17.76653956858646,-11.264179917774896,-2.607030367957544,28.40650417988343,4.547794429164629
4.035052505642348,18.278371337610555,-11.863471060849943,-2.631733956820372,28.49229817702333,4.591466752069592
4.0650270994109015,18.714929675583516,-12.371183335728801,-2.6530227752177584,28.562003000976194,4.6290692752812745
4.074773285319723,18.855681673304343,-12.534198639663021,-2.659929516080977,28.5837933837145,4.641262301355621
3.8292675572552786,18.873808530501332,-12.547901679373183,-2.499944928769555,28.59037782681267,4.363429084128272
3.297460542011728,18.902281035159792,-12.566658001475973,-2.153181077815888,28.60212102791232,3.7614766385372516
2.7213592376026194,18.928307459516418,-12.583796141725943,-1.7772953011079573,28.612886693180606,3.10931543788652
2.1454767552569587,18.949327315203657,-12.597628478088309,-1.4013441975395067,28.621567567157467,2.4573385214659464
1.5727043724903382,18.96529066406002,-12.608132889637751,-1.0272615372299212,28.628192635950374,1.8088341788653368
0.996929669515672,18.976375137854138,-12.615421914105589,-0.6510984326433307,28.63276971996163,1.1568939200610011
0.4223364353187702,18.98248396710435,-12.619441494746354,-0.2756310664125379,28.6353179771619,0.5062686930684572
-0.15325365298688856,18.983643996151645,-12.62020296824015,0.10051914357708928,28.63578471601821,-0.14549503257725857
-0.7276495047099072,18.979855620060203,-12.6177143346179,0.4758784010003901,28.63423221181844,-0.7959031647573932
-1.3031308685601943,18.971101605113837,-12.611955887917832,0.8518901118419641,28.63059086303988,-1.4475232253389194
-1.877010209480049,18.957426928856023,-12.602963147582846,1.226758121408557,28.624944761711273,-2.097300018499364
-2.4515947783213523,18.93877974331647,-12.590691750282872,1.6019420492548815,28.617212701354443,-2.747831268775087
-3.0274948168642326,18.915106511435702,-12.575110577802645,1.9778008821179995,28.60744145260931,-3.399796445191394
-3.5979230743177633,18.886727561836814,-12.556420890207216,2.3498605003984063,28.595726742356685,-4.045498044702355
-4.003651028812141,18.86354793600231,-12.541144485334442,2.614330962817816,28.586143060129825,-4.504715558495295
-4.075861504923613,18.860974631881874,-12.499703966754687,2.660366202890017,28.544020715393934,-4.584308354650629
-4.082777181313402,18.87677593381335,-12.112005280404636,2.6547656108087647,28.140635982285207,-4.570849552331141
-4.092168778215221,18.89262122276832,-11.58388007148446,2.647533095035348,27.59681636033384,-4.552920614508719
-4.1016447125103,18.90220124621425,-11.049175981598493,2.640656230594188,27.052678176671108,-4.535220834328806
-4.111198755915965,18.90550300600006,-10.50826189043988,2.6341343862864295,26.508603356502512,-4.517754308856709
-4.120792606242055,18.902552652472234,-9.963336385583704,2.62798592545134,25.966763955088958,-4.500581051756128
-4.130329637556062,18.89354867198537,-9.419953138830842,2.6222571986457237,25.432514087370983,-4.483856930527721
-4.139853339083036,18.878664132755887,-8.87571089415307,2.616904195092907,24.903280346892032,-4.467486592657602
-4.149353726759134,18.858090516064372,-8.331244803308989,2.6119175738914997,24.379506556793256,-4.4514708793628825
-4.1588439788547165,18.83196665017062,-7.785860627239953,2.6072764578757743,23.860360080448668,-4.435772245402322
-4.168319256549451,18.800461038164162,-7.239892942651974,2.602970425247671,23.346007180667605,-4.42038450607567
-4.1747514826407,18.776051611344627,-6.868469056535888,2.600228401264715,22.999064392219587,-4.410095243583797
-4.183264918150628,18.88658806112257,-6.971105878931089,2.6053646613055945,22.990794731582177,-4.418745188491281
-4.2150745063944495,19.32664255475596,-7.47529880076715,2.6263721479600135,23.053446105213073,-4.45571118532927
-4.253890678378626,19.855522262465605,-8.077154269219578,2.6519321727564047,23.124595555745103,-4.500621365164118
-4.293583538106088,20.38741642799864,-8.677903722505423,2.677985206861561,23.191570021447518,-4.546324393177217
-4.3342382649891755,20.923140809520923,-9.278367761199707,2.704581997561208,23.25436942498548,-4.592906927645338
-4.37053439455863,21.393924123590494,-9.802212471579256,2.7282531298219372,23.305686776210667,-4.634303744421521
-4.380294750843661,21.546988661035325,-9.97169311168917,2.7346659886166154,23.321628749830627,-4.645555167324973
-4.135787996848456,21.375816129535696,-9.775547110060726,2.581933666223003,23.307802879073993,-4.383752682023941
-3.633611335137858,21.01892197358289,-9.36636737889502,2.268208344186799,23.276372606049815,-3.8463079614127804
-3.1102707853226437,20.639193392675228,-8.930631253384853,1.9412426243529832,23.239221394113798,-3.286613063264541
-2.585256713529373,20.250046266271564,-8.483608219115947,1.613259929375949,23.197311177025593,-2.725593936904153
-2.061389211006037,19.853333233810783,-8.02731825683123,1.2860711810932703,23.150721988631286,-2.1663232883844223
-1.5498055041863326,19.457583943826663,-7.5714846809087115,0.9666774742590682,23.100485420618533,-1.6207303669465927
-1.0381308954699404,19.053290915069002,-7.10506696057902,0.6473964852506195,23.045412534439865,-1.0756583520779175
-0.5339544733020759,18.646399829316046,-6.634825369257833,0.3330075157220487,22.98627715101922,-0.539240459362423
-0.030428189802010314,18.231348225819673,-6.154231653109524,0.019282736444508,22.92224190851855,-0.004238764730679787
0.4427737107755737,17.83315643783835,-5.692226727884915,-0.2752691521788476,22.857386426668526,0.49782256105256456
0.6666405023499739,17.641966439178784,-5.470058059409903,-0.4145151325393374,22.825100260072837,0.7350869753462645
1.0379492459268942,17.320788334796656,-5.096318285159911,-0.645299137601089,22.769170820607542,1.1282163375498764
1.5335253121218104,16.884049403884084,-4.587029534272038,-0.9529760513298505,22.689893503275787,1.6521235576505262
2.027103982906212,16.439638271144656,-4.067455717025783,-1.2589608237821468,22.605428421905582,2.1729235708533583
2.513338246497332,15.992355942653111,-3.54310573067293,-1.5599091875705549,22.516693884704548,2.6849361347918186
2.9863989974012943,15.547880073947352,-3.0205793171016104,-1.8521971507548705,22.424916338991576,3.18201214238959
3.447818894044006,15.105223735897127,-2.4986875908495687,-2.1367673665640616,22.330043247519026,3.6657709546554393
3.820949808784518,14.7404943593043,-2.0675121591895502,-2.3664859951271926,22.249357412580288,4.056142825442469
3.8979371201839417,14.652388050161674,-1.9892171713742903,-2.4142455408804087,22.256030272313527,4.137673516572767
3.8787862002159397,14.486282478592072,-2.188389728292334,-2.4087383778770675,22.621771621642765,4.134092335672033
3.8512366939916225,14.23959601518883,-2.473645704291299,-2.401052697873654,23.154376090366487,4.1291030717257415
3.824184651222914,13.988207962991188,-2.752153098494591,-2.3937869148518875,23.684916539222865,4.124398924755697
3.797383722324482,13.729901695696944,-3.02634677182097,-2.3868739223394377,24.218050432767868,4.119938655019044
3.7707742984367885,13.464021865273555,-3.296706787980308,-2.380302290501725,24.754914609391065,4.115717333757203
3.744799547890981,13.195129325560849,-3.5586445070743067,-2.374178929685126,25.286349306031315,4.111805603047497
3.71904100853794,12.919047613646535,-3.8163008957598845,-2.3684020703032704,25.82068182685719,4.1081402938452785
3.693693755510518,12.637912123811672,-4.067624137244668,-2.363015927568088,26.353720533085763,4.104751523417029
3.6701225105986772,12.36778782724459,-4.2992020962722615,-2.358283010523633,26.855957620374948,4.101803435164034
3.6593838272660175,12.241877823594185,-4.403979969649173,-2.3562176269929753,27.08688769268841,4.100527732574049
3.6418491421772714,12.185404574413838,-4.451521653918399,-2.3471319672283237,27.191528742575983,4.085818490976641
3.3211280431437173,12.20354054669686,-4.465082627775191,-2.1406937107018083,27.199423701464912,3.7285916499764595
2.7887901988302737,12.229935358727193,-4.484804081681926,-1.7978656995163738,27.210863630511447,3.1355842219845647
2.2446161014144117,12.252146877365284,-4.501396056907204,-1.447223308788,27.22052606792184,2.5293151486041574
1.6999791091680951,12.269557861194677,-4.514397658449054,-1.0961245903424117,27.228106694476892,1.9224657474981202
1.154289553606195,12.282174148229645,-4.523812913835967,-0.7442268441724929,27.23357373437179,1.3143927563332851
0.6090547860956083,12.289959917552947,-4.5296249758355795,-0.39254140773217705,27.236970557363,0.7067950118285721
0.0637333401615659,12.29293121698057,-4.531843726725204,-0.04075691212407096,27.238272608573194,0.09908302897673575
-0.4792060603340952,12.291105450307315,-4.530482723925186,0.30949564438941324,27.237486785278968,-0.5059763306358758
-1.0247820108983623,12.284461577283043,-4.525522073741837,0.661414266996225,27.234572534790445,-1.113961000498143
-1.5701160649511101,12.273000741862104,-4.51696902191795,1.0131055027825255,27.2295953664499,-1.7216456465687697
-2.1130760650954064,12.256797334476136,-4.504872973696698,1.3631558877192145,27.222557649785198,-2.326639983501405
-2.658904058503356,12.23567916084651,-4.4890983283771275,1.7149041868171992,27.213355924386352,-2.9347693160060397
-3.2017189991676025,12.209868646510582,-4.469814695277015,2.0645266038119443,27.202153876524996,-3.5394653266931577
-3.5868222783464594,12.188641911277532,-4.453947590206907,2.3124341348950974,27.192937273018273,-3.9684159111721047
-3.6558560597608794,12.195132782198343,-4.421740830404858,2.356023309664263,27.151490866956088,-4.043468832841937
-3.6674219982399565,12.298180090226653,-4.127986404167661,2.355153091031424,26.754553549966417,-4.03801299514181
-3.6832523818455183,12.432983651229963,-3.7245552563591455,2.354252720380873,26.216129811936117,-4.030788626369044
-3.699236650278374,12.56196013064143,-3.315688840465045,2.3536729923258095,25.678092155378796,-4.02376717749172
-3.7154077189097054,12.685342030707202,-2.900594270980972,2.353410905670204,25.1394148381664,-4.016930114587674
-3.7317313839556587,12.802840133436579,-2.4801999628550813,2.353465189786458,24.601315966481536,-4.010287747340937
-3.74828737425484,12.914975240821137,-2.0524989505083546,2.3538355871834336,24.061266799390488,-4.003804456445403
-3.765015834139852,13.021281589876804,-1.6190832659193062,2.354520739119384,23.521325933200398,-3.99750082321522
-3.781876575704681,13.121510608827812,-1.18105243947156,2.3555161830115727,22.9828420607688,-3.9913868347347052
-3.7989046611386112,13.215883711964015,-0.7375548914084258,2.3568211069807132,22.444741789471024,-3.985444518821234
-3.812129284994197,13.284551829438547,-0.3923989875567583,2.3580355049044837,22.03073719977053,-3.98098341443834
-3.815702393585329,13.305379770025267,-0.3108954193343832,2.3585404646045975,21.92834904511954,-3.9801951552680563
-3.8291320239934836,13.527465867527946,-0.5851832348590846,2.367692597064617,21.979966947765465,-3.9966135015377753
-3.858008888917741,13.999818242659977,-1.1660430941652316,2.38733737674856,22.087213701508194,-4.031809171726192
-3.885537782951746,14.443692027950878,-1.708748996226345,2.4060213395131806,22.18483709852339,-4.065227028121824
-3.8970218827110674,14.627048358086515,-1.9320420360838444,2.413802995762473,22.224267602017058,-4.079129374835459
-3.8947440331181706,14.624197092245133,-2.023440982225965,2.4140201449101704,22.318527827812183,-4.081019225773121
-3.871432725459274,14.420472525431075,-2.265697408025401,2.4073648059128714,22.765071877506347,-4.076698227761065
-3.843947693096272,14.171811220899256,-2.549923154751178,2.3997770082326277,23.298618070653266,-4.0717820170212855
-3.816870271400793,13.91759150661492,-2.828289196461402,2.392586045241093,23.83184809083255,-4.067136661497578
-3.790217007166836,13.658085037875082,-3.1005321250496753,2.385794067675946,24.364226607669057,-4.062765675715219
-3.763826789262334,13.391774562413767,-3.3681937987622796,2.3793599146097453,24.898816622021148,-4.0586447529801735
-3.737937978809473,13.121168326215644,-3.628765737265447,2.373340118794503,25.430595938096612,-4.0548121025221295
-3.712230070975726,12.842982631474758,-3.885376265279431,2.367659852179729,25.965984108992135,-4.051222133256726
-3.686972337154885,12.560180102254245,-4.135238110117058,2.3623789860031073,26.49922511313229,-4.047914730112885
-3.665841764178617,12.316087274468183,-4.342465792947687,2.3582303897670287,26.951011062506318,-4.045320171076914
-3.6572552238048393,12.214938451794984,-4.426146188213923,2.356594840574048,27.13603372651862,-4.044314127773194
-3.6561521267577466,12.21008370785965,-4.4831378181988875,2.3571904238947634,27.197872756583376,-4.0459451688091725
-3.6741345490246275,12.52407206081728,-4.879505626478651,2.370510217680942,27.27944735877577,-4.0697921175463465
-3.702211476853607,13.008499774316409,-5.487986126481601,2.391256665296063,27.402237303389157,-4.10689639921908
-3.730996020479342,13.497970188421192,-6.099030591270824,2.412461838453933,27.52250889032465,-4.144774016486153
-3.7605149063325394,13.99262308690258,-6.712673605553718,2.434140263667808,27.64015515253883,-4.183449915296082
-3.7906048368001466,14.489466438584861,-7.325095422447702,2.4561672289160685,27.754355298237815,-4.22270101835996
-3.8215465547711718,14.992846628336725,-7.941528169552405,2.478742955710654,27.86598164248343,-4.262883356563829
-3.8529173821777043,15.495656607949073,-8.5531754224909,2.5015541946450437,27.97336377738627,-4.3034390074095805
-3.8850328616814007,16.002770592871734,-9.165899990132111,2.5248258768466054,28.077475186255725,-4.344767804986334
-3.917804446306214,16.512534665900116,-9.777597873904197,2.548488431704483,28.177869342615956,-4.386745702422328
-3.951468108071566,17.02831941236804,-10.39218457343914,2.572706166248465,28.275079418207746,-4.429663452467676
-3.9859194929417487,17.548190470014745,-11.007207280692391,2.597397338327964,28.368591176197747,-4.473375278625317
-4.020403684605496,18.060724211871168,-11.60917409093741,2.622017693538678,28.456371943734094,-4.5169184405878235
-4.054503988077165,18.56008502315361,-12.191473432157343,2.646271351044225,28.537665949337395,-4.5597724949474845
-4.073284301482425,18.832013419285783,-12.506818977012845,2.65958951058734,28.58017290859508,-4.583287939639056
-4.076998647151296,18.8638200909904,-12.435909165618119,2.659415292592898,28.47739576572218,-4.582060241648267
-4.0851334850568675,18.88135650755997,-11.979559165143419,2.6528976095364043,28.003643854260883,-4.566294573802604
-4.093433995415364,18.894270341078375,-11.512476802369386,2.646577460071023,27.52377991751229,-4.55051575809186
-4.096651655957566,18.897946744713792,-11.331032925951396,2.6442148058899932,27.338709598452233,-4.54448019544011
-4.102141447618321,18.902529052052788,-11.020982075453801,2.6402938827756484,27.024160041404194,-4.534284391334938
-4.105194995648161,18.904164684651406,-10.848265685086009,2.6381721346757425,26.84985364200519,-4.528667746591408
-4.107085052309483,18.90485339018411,-10.741267852706338,2.636879705318169,26.742195035583617,-4.52521038030083
-4.109336543366445,18.90535203164253,-10.613718228151269,2.635360803251112,26.6141797379509,-4.5211108221634015
-4.116160238856476,18.904749718965814,-10.226554728610596,2.630892561771784,26.227716488789262,-4.508809657654145
-4.125622781265071,18.898736824356437,-9.688225075042299,2.6250248314948763,25.695530765150718,-4.4920500853759116
-4.1350298890804265,18.886926035065898,-9.15143878511102,2.6195575474281214,25.170680268738206,-4.475719057402769
-4.144507735096233,18.869285862558307,-8.609047633918891,2.6144053322205747,24.64605018055434,-4.459583839761473
-4.153986819789395,18.846018715467814,-8.065064592235531,2.609597669017912,24.125450362472467,-4.443752464993523
-4.163497094093005,18.81717634702761,-7.518142158578095,2.605146172733815,23.607479180989504,-4.428197737969482
-4.172226915197003,18.785934594505456,-7.014545288215046,2.6013118506743913,23.135222852069525,-4.414135744800644
-4.1758957704110085,18.783716125936387,-6.852792643931073,2.6005102906786854,22.97569002882127,-4.410166529348228
-4.196874279331111,19.075550009442434,-7.187988320765158,2.6143794726240177,23.01807339205091,-4.434584919218205
-4.234094915732332,19.586843308785657,-7.771962986442102,2.6389273464397838,23.0890095392227,-4.477750979781625
-4.273248137167483,20.11597374573882,-8.371890534053696,2.664668605058431,23.157958065402486,-4.522943892670976
-4.313338465088291,20.64880910022922,-8.97146265583848,2.690940396061018,23.222788504824727,-4.568994657129977
-4.353927663313467,21.1793367780611,-9.563883571757012,2.7174516971578497,23.282737828378774,-4.6153918854237315
-4.38008774657439,21.516634716643786,-9.938163246556364,2.73449224131137,23.318459324561424,-4.645176371907367
-4.306980251084912,21.517900258516597,-9.937460476507782,2.688938844490567,23.319885987568455,-4.567171807418718
-3.8702667990586863,21.338618909792334,-9.727295633845198,2.4163774111152923,23.308083878088542,-4.100301931729802
-3.297518540610557,21.098104825727933,-9.446684119354728,2.058817497818255,23.28992496159896,-3.488268508293329
-2.723364985232226,20.850760769977658,-9.159553181565952,1.7003124224301682,23.268606363771696,-2.875062663684219
-2.147520670371022,20.596295323933223,-8.86553147830128,1.3407306903500833,23.244001964461958,-2.26041612964569
-1.5724963940096714,20.33568348382161,-8.565711441061257,0.9816868545609608,23.216214546090054,-1.647035625760381
-1.0060739118476962,20.072484978945106,-8.264109355668452,0.6280857842628872,23.18560706083462,-1.0432480436479892
-0.44525611619986644,19.805423679738226,-7.95917310492849,0.2780993605183508,23.15207635546844,-0.44587624335395826
0.11258873992680857,19.533263607106615,-7.649416186149992,-0.06987036975856692,23.11544473576411,0.14785464450457095
0.6677670909085632,19.25582380407957,-7.334574749969916,-0.41597612299934544,23.075741344564914,0.7382518794498572
1.2234914835134296,18.97139778753477,-7.012651400028331,-0.7621751205469763,23.032656947545483,1.3286940299166021
1.7723350435285696,18.683759338400602,-6.6878493615828685,-1.103800449503035,22.986756222294964,1.9112621776804557
2.322780117741334,18.3884149241988,-6.355026685661406,-1.4460914333315267,22.937308001332433,2.494929405712826
2.8685174742563584,18.08865753378575,-6.017829238362527,-1.785083093059185,22.884834919179053,3.0729709142577124
3.4103411820781098,17.78405902793518,-5.675696691768538,-2.121228843688079,22.82923531241207,3.646195109796224
3.9041320711227647,17.500265625820695,-5.357316993969488,-2.4271853035694706,22.775514539545014,4.167995160682363
4.078365349007008,17.394942951673645,-5.2473317766142795,-2.5351890476423278,22.763491067922075,4.352334582803865
4.061087183496027,17.254001733110822,-5.413289198030945,-2.5301931186582083,23.07083672680304,4.348729258853753
4.03146505965849,17.00503234075169,-5.696883943666187,-2.5218672501165185,23.604162298719107,4.342721427593554
4.002074312058363,16.74856839034141,-5.976966763715309,-2.513915632080493,24.14145827118867,4.336986346660976
3.973031667909525,16.485577061608307,-6.252296889165191,-2.5063732432623618,24.68051377525489,4.331551557050988
3.9499335857048044,16.269403901985218,-6.47013698474681,-2.500606901574218,25.11510628729286,4.327401990069506
3.9407202076541195,16.181400379807883,-6.556726233747787,-2.4983659128299616,25.289928972109053,4.325791063206236
3.932154254123809,16.098657450137924,-6.637067953055519,-2.496313216087244,25.453226789210646,4.324316512986831
3.9072634736772693,15.853088266313526,-6.8695857079155624,-2.4905205416949254,25.931929888923158,4.320161720073718
3.879574923882682,15.57071459973567,-7.126478044142504,-2.4843865334865196,26.47187552213798,4.315775334056161
3.8522871661108216,15.282637955168855,-7.377666222434888,-2.4786732703028593,27.011804045549447,4.311706665394265
3.827444412573183,15.011647319511816,-7.604478067387953,-2.473770064310527,27.51020538437972,4.30823259193656
3.816324618776215,14.887586710906476,-7.705383555058487,-2.471670377120607,27.73543784518519,4.306751309306307
3.792875590755746,14.835605405263232,-7.748829739242549,-2.4586726544877653,27.831779015381624,4.285116282660447
3.458244818404271,14.854705191439244,-7.762430777222637,-2.242051137282312,27.839928970652753,3.909653843254385
2.9147468208422467,14.88194753941804,-7.781814805466154,-1.890027400014172,27.851505007224656,3.299764277246818
2.3568867189109786,14.905059807101242,-7.798255875799929,-1.5284929960754658,27.861363408379326,2.6736835749297594
1.799315085176365,14.923260591425079,-7.811198480771022,-1.1669732462347135,27.869134861125644,2.047863516432483
1.243804496513577,14.936530173569729,-7.820628361761893,-0.8066587615154536,27.874775251696132,1.4243074981966135
0.685061208108243,14.944987921690824,-7.826640685059417,-0.44415693910083004,27.87839657819671,0.7970909828987629
0.12872842475334975,14.94854003284439,-7.829162723579679,-0.08316938534587223,27.879893125829355,0.17256108475353868
-0.42933831193378874,14.947224504009109,-7.828229864332196,0.27895313326792054,27.8793440537934,-0.45391781174231094
-0.9852115839384817,14.94105594675626,-7.823848385041897,0.6396214520314041,27.876723992622313,-1.0779231031615673
-1.5429014731318647,14.92999063023912,-7.815982243005436,1.0013951298211194,27.87198446260155,-1.7039417024264059
-2.099203843262194,14.914082985765454,-7.804675497469765,1.36215813691126,27.865213490344566,-2.328361481200533
-2.656476808341291,14.893262337248819,-7.789867227799901,1.7233954692303082,27.85632176387913,-2.9538146195486172
-3.216344248511122,14.867412470422659,-7.771478170580749,2.0861219693032806,27.845326744241323,-3.5821084831390095
-3.6736563763855905,14.842620028622244,-7.753831836438899,2.382230879285159,27.834781997921475,-4.095249217569187
-3.8118623254737574,14.834662809633196,-7.741666411083745,2.471536394492262,27.824780813226187,-4.249995330612482
-3.8163340449675465,14.841892744939484,-7.452258350737812,2.467719612242141,27.52822707583989,-4.240566842479418
-3.8243753916099243,14.850261785278818,-6.930217332931616,2.4611393172813503,26.99796470097464,-4.2238677810968515
-3.832582125826527,14.852779080133075,-6.395358031893282,2.454787810196506,26.460733946319653,-4.207151901892762
-3.840843828317894,14.849298625912452,-5.854848523185234,2.4487524451206784,25.923846964625685,-4.19064308029341
-3.849027652881775,14.840030960789822,-5.317442862833931,2.4431165492973075,25.39584523232135,-4.174591823439627
-3.85725778333846,14.824994796295853,-4.775049783608709,2.437781032883347,24.868621077858997,-4.158739816308944
-3.865511098554069,14.804283440387838,-4.229218755926349,2.4327540106624386,24.343630442590737,-4.143122756657765
-3.8736763826988043,14.778361162864034,-3.687375307559957,2.428089027047835,23.827833088498714,-4.12793600437042
-3.8819392289804853,14.74674606609533,-3.1372467447417005,2.42367061690078,23.309441215682604,-4.112823427312826
-3.8901764202874927,14.709953670505461,-2.587057772680175,2.4195591043951374,22.796162328788572,-4.098002779507083
-3.8973411279454955,14.673754727453868,-2.1071009527144198,2.4162139214461225,22.352504090836632,-4.085302555495159
-3.9000055840671917,14.674527650652047,-1.989778949745847,2.4158199816484,22.23440450358683,-4.08272994518464
-3.91850769783358,14.967299568101614,-2.3450232368012394,2.428338292771519,22.2960584021212,-4.1050717201467934
-3.9501655428328313,15.462091653533445,-2.942365545628595,2.449712819274874,22.397201231378943,-4.143166390059474
-3.9833494520328814,15.97262412245784,-3.5547057802357878,2.472057063039182,22.49752435338968,-4.18291988960006
-4.017351099899324,16.487397005594577,-4.167996840976911,2.494887665927692,22.594511343184315,-4.223467800030848
-4.051659519148396,16.99852881913902,-4.772825223788493,2.5178584994247193,22.686652722650997,-4.264194817191257
-4.07468038144007,17.336962814864805,-5.17102910066129,2.533234957807547,22.745373354401035,-4.29141901537971
-4.078888387088569,17.398439688463018,-5.243168999780561,2.536042441879226,22.75584409138541,-4.296386466964578
-4.078888387088569,17.398439688463018,-5.243168999780561,2.536042441879226,22.75584409138541,-4.296386466964578
-4.078888387088569,17.398439688463018,-5.243168999780561,2.536042441879226,22.75584409138541,-4.296386466964578
-4.078888387088569,17.398439688463018,-5.243168999780561,2.536042441879226,22.75584409138541,-4.296386466964578
-4.078888387088569,17.398439688463018,-5.243168999780561,2.536042441879226,22.75584409138541,-4.296386466964578
-4.078888387088569,17.398439688463018,-5.243168999780561,2.536042441879226,22.75584409138541,-4.296386466964578
-4.078804608592513,17.39827882006275,-5.242768134966179,2.53599018676957,22.7548860679502,-4.296298212808157
-3.991296349275921,17.23024866496178,-4.824057084051746,2.4814087141769976,21.754212062738482,-4.204115039686504
-3.9036383834170967,17.06193104884048,-4.404629714653592,2.426733865215205,20.751826134030722,-4.111774162318326
-3.816156549689376,16.893951635187598,-3.986045105359347,2.3721688750388754,19.751454310579483,-4.01961882650772
-3.7026570549925126,16.6760140616747,-3.4429707364492317,2.301375905238674,18.45356546174619,-3.9000559000985846
-3.5522877522269862,16.387280432832817,-2.7234810645265055,2.2075861527997906,16.734063169798056,-3.7416534866890347
-3.4020530426347193,16.098805244873606,-2.004635396375092,2.1138803500778223,15.016099977025364,-3.58339285676242
-3.251701286779396,15.810105308966156,-1.2852296832154417,2.0201015421624136,13.2967983374162,-3.42500892766365
-3.1015664855731178,15.521821961431206,-0.5668620584580978,1.9264580552363968,11.579977616514656,-3.2668535434831387
-2.9510660869078196,15.232836607043149,0.15325488342054625,1.8325865344328325,9.858976217395199,-3.1083130306973867
-2.800636913053175,14.943988015928351,0.8730310275784668,1.7387594386364722,8.13878928787099,-2.9498475477328454
-2.650242830974344,14.65520680675645,1.5926392639932339,1.6449542306117892,6.419003639644419,-2.7914190312360425
-2.4998848845139388,14.366494983875814,2.3120745980684365,1.5511715614340926,4.699631209259284,-2.633028580814321
-2.3497793014022763,14.078267739856212,3.030302419575236,1.4575462986922028,2.98314460296579,-2.47490397563336
-2.1992090892579994,13.789148332182299,3.750753406210106,1.3636312331704687,1.26134487310392,-2.3162899197549995
-2.0486559941859004,13.500061792083576,4.471122490778407,1.269726844069603,-0.46025911970059163,-2.1576938953863523
-1.8989406909270519,13.212583949145808,5.187482894414038,1.1763450103395139,-2.1722827997912417,-1.9999804198006874
-1.7483287123859512,12.923384343166145,5.908133725635511,1.0824038938888574,-3.8945601365432525,-1.841322366258344
-1.5980509397284282,12.634826467085942,6.627185442695329,0.9886712314677665,-5.61301576386238,-1.6830163727279899
-1.4478892728464092,12.346491533064219,7.345681614808212,0.8950109876303955,-7.330143699003543,-1.524832687639002
-1.2977144880349891,12.058131410474822,8.06424055381931,0.8013425617550125,-9.04742164022478,-1.3666351838274569
-1.1471187129035523,11.768962917689045,8.784813854682598,0.7074115518470689,-10.76951368782839,-1.2079941993221377
-0.9969955828828674,11.480701980737285,9.503125634946825,0.6137753445824413,-12.486200946447353,-1.0498511098316412
-0.8466176826139623,11.19195184328425,10.222656444354211,0.5199802296280797,-14.205801552522733,-0.891439639618213
-0.696115943145064,10.902963914334217,10.942779801733396,0.42610787252591253,-15.926818283992763,-0.7328977143997213
-0.5460137616461239,10.614743201966805,11.660991347144094,0.33248473146982793,-17.643265992181615,-0.574776692554288
-0.3956564787338037,10.326032653206903,12.380423506262806,0.23870247616656867,-19.362630834765046,-0.416386941129077
-0.275873419910797,10.096029609954941,12.953563582790608,0.16399026279081022,-20.732373464375343,-0.29020476661484956
-0.18871209509006678,9.928665625768636,13.370614615456532,0.10962518343728957,-21.72908020599124,-0.19838706211231402
-0.10131504310689293,9.76084900691703,13.788793559575462,0.05511307412617723,-22.728482533665204,-0.10632103730270437
-0.013961184999283149,9.59311532736358,14.20676582888253,0.0006279061044206425,-23.727390930951355,-0.01430051389536252
-0.005629079060347409,9.577116322650529,14.246633435223554,-0.004569073192117624,-23.82267018672536,-0.005523285663018464
-0.005629079060347409,9.577116322650529,14.246633435223554,-0.004569073192117624,-23.82267018672536,-0.005523285663018464
-0.005629079060347409,9.577116322650529,14.246633435223554,-0.004569073192117624,-23.82267018672536,-0.005523285663018464
-0.005629079060347409,9.577116322650529,14.246633435223554,-0.004569073192117624,-23.82267018672536,-0.005523285663018464
-0.005629079060347409,9.577116322650529,14.246633435223554,-0.004569073192117624,-23.82267018672536,-0.005523285663018464
-0.005629079060347409,9.577116322650529,14.246633435223554,-0.004569073192117624,-23.82267018672536,-0.005523285663018464
-0.005629079060347409,9.577116322650529,14.246633435223554,-0.004569073192117624,-23.82267018672536,-0.005523285663018464
-0.005629079060347409,9.577116322650529,14.246633435223554,-0.004569073192117624,-23.82267018672536,-0.005523285663018464
-0.005629079060347409,9.577116322650529,14.246633435223554,-0.004569073192117624,-23.82267018672536,-0.005523285663018464
-0.005629079060347409,9.577116322650529,14.246633435223554,-0.004569073192117624,-23.82267018672536,-0.005523285663018464
-0.005629079060347409,9.577116322650529,14.246633435223554,-0.004569073192117624,-23.82267018672536,-0.005523285663018464
-0.005629079060347409,9.577116322650529,14.246633435223554,-0.004569073192117624,-23.82267018672536,-0.005523285663018464
-0.005629079060347409,9.577116322650529,14.246633435223554,-0.004569073192117624,-23.82267018672536,-0.005523285663018464
