RAMEL-ESPOL/ARCHIE/matlab/data/joint_goals_square_t35_h35_p12.txt
Joint0,Joint1,Joint2,Joint3,Joint4,Joint5 
-0.0004939942830493319,9.573364674023992,14.253601374186658,0.002130563429938514,-23.8270885203224,-0.002586875702589649
-0.0004939942830493319,9.573364674023992,14.253601374186658,0.002130563429938514,-23.8270885203224,-0.002586875702589649
-0.0004939942830493319,9.573364674023992,14.253601374186658,0.002130563429938514,-23.8270885203224,-0.002586875702589649
-0.0004939942830493319,9.573364674023992,14.253601374186658,0.002130563429938514,-23.8270885203224,-0.002586875702589649
-0.0004939942830493319,9.573364674023992,14.253601374186658,0.002130563429938514,-23.8270885203224,-0.002586875702589649
-0.0004939942830493319,9.573364674023992,14.253601374186658,0.002130563429938514,-23.8270885203224,-0.002586875702589649
-0.0004939942830493319,9.573364674023992,14.253601374186658,0.002130563429938514,-23.8270885203224,-0.002586875702589649
-0.0004939942830493319,9.573364674023992,14.253601374186658,0.002130563429938514,-23.8270885203224,-0.002586875702589649
-0.0004939942830493319,9.573364674023992,14.253601374186658,0.002130563429938514,-23.8270885203224,-0.002586875702589649
-0.0004939942830493319,9.573364674023992,14.253601374186658,0.002130563429938514,-23.8270885203224,-0.002586875702589649
-0.0004939942830493319,9.573364674023992,14.253601374186658,0.002130563429938514,-23.8270885203224,-0.002586875702589649
-0.0004939942830493319,9.573364674023992,14.253601374186658,0.002130563429938514,-23.8270885203224,-0.002586875702589649
-0.0004939942830493319,9.573364674023992,14.253601374186658,0.002130563429938514,-23.8270885203224,-0.002586875702589649
-0.0004939942830493319,9.573364674023992,14.253601374186658,0.002130563429938514,-23.8270885203224,-0.002586875702589649
-0.0004939942830493319,9.573364674023992,14.253601374186658,0.002130563429938514,-23.8270885203224,-0.002586875702589649
-0.0004939942830493319,9.573364674023992,14.253601374186658,0.002130563429938514,-23.8270885203224,-0.002586875702589649
-0.0004936407977769935,9.573365412537262,14.253599585156806,0.002130564243601622,-23.82708401277883,-0.0025865190133694182
0.017679398427560424,9.611250096949961,14.161730846863364,0.0021106826310855285,-23.59550617308057,0.0157262380083529
0.05843310562308486,9.69560611055772,13.956485443580897,0.0016199584873948817,-23.07733141830756,0.05661583949793204
0.10152937827862409,9.783914887693362,13.740587420917727,0.00043931013393965043,-22.53105426471846,0.09960120249402481
0.14446794447191252,9.870995170414368,13.526627748835319,-0.0014024231782322153,-21.988444756074745,0.142184000403836
0.18769311922141715,9.957754649219561,13.312375372313383,-0.003916465530390468,-21.443844080067507,0.18481873262525794
0.23091703340339878,10.043616771284785,13.099247029220313,-0.007082411503106339,-20.900845435732045,0.22723368650452336
0.27436928981484665,10.129040462072881,12.886098542297319,-0.01091246200147476,-20.3565281304237,0.2696666909939129
0.3178613422699185,10.213656287955278,12.673844846787647,-0.015386759925884376,-19.81322093339545,0.3119456069680252
0.36163348932437167,10.297931170863569,12.461305544502615,-0.020528299915634173,-19.26789211289466,0.3543155734973087
0.40552476963559775,10.381551980563907,12.24925779234628,-0.026318547081321055,-18.72252163646244,0.39663173289269255
0.44993523789765066,10.465270288223405,12.035773263267444,-0.03281611092898912,-18.172124903333668,0.4392894829347349
0.4944279289651824,10.548252672054923,11.822955729018371,-0.03996241615546159,-17.622101900126253,0.4818790953983636
0.5388944609893779,10.630303440824562,11.61130760285867,-0.047734062307095225,-17.073751715158718,0.5243094941217717
0.583583909902188,10.711884222339942,11.399632702391287,-0.05617195381901267,-16.523969233924085,0.566830210940734
0.6282421163011037,10.792532890950316,11.18912456133218,-0.06522581374279189,-15.975848339902942,0.6092111106511582
0.6731680071999281,10.872789564822838,10.978365657862897,-0.07495526359412419,-15.42568965205818,0.6517473436658808
0.7181270968929827,10.952233591623294,10.768450011374616,-0.08531019134967381,-14.876337391996897,0.6942280646621803
0.7633252508960493,11.03122761191022,10.558409696840926,-0.09633842948267275,-14.325247948994894,0.7368590572516319
0.8083452653327866,11.109047116714777,10.350170329560274,-0.10793470424358857,-13.777472632870143,0.7792584495280598
0.8537035561622153,11.18658638081549,10.141333536191636,-0.12023090033507518,-13.226696672222749,0.8219239767575851
0.8989506237071295,11.263076495376058,9.933961678562943,-0.13310572661722367,-12.678350065561554,0.8644439561833959
0.9444901033349248,11.339200389103393,9.726196461289762,-0.146674033445471,-12.12751165641078,0.9072089271784454
0.9900678801610863,11.414529446133757,9.519193771017697,-0.1608634393561129,-11.57723127851746,0.9499913077678238
1.0356283188050854,11.488976386053924,9.313193594766908,-0.17565411301226036,-11.028146801392278,0.9927501036658798
1.081321607223925,11.562788442404743,9.10750735521317,-0.19109451914986827,-10.478418005130436,1.035637397381181
1.1271719986682243,11.636001500300715,8.902021914425777,-0.2071964038358208,-9.927728827438445,1.078687113156343
1.1728653579122874,11.708118637912545,8.698132749492832,-0.22384750135913264,-9.379819542301526,1.1216152811776638
1.2187068701056318,11.779626144242911,8.494465894232746,-0.24115731264476092,-8.830998440794248,1.1647195322699593
1.2648678590155427,11.85078255901021,8.290261975476458,-0.2591985803367453,-8.279195921997095,1.2081725134237418
1.3108473884710445,11.92081596612929,8.087729493058168,-0.2777773295115786,-7.73037276496531,1.2515137917207764
1.3569803222507322,11.990241002478589,7.885381520940959,-0.2970277601574023,-7.180500633504489,1.2950698551459023
1.4030068303054575,12.058669016482009,7.684348243074613,-0.31684213058560123,-6.632647797744691,1.3386062979004045
1.4494329170125202,12.126847717423969,7.482417095376708,-0.33744422446458067,-6.080768768734647,1.3826134539127801
1.495624532665078,12.193844813599588,7.28234007977435,-0.3585563382872966,-5.5323754129388245,1.4265016604672516
1.5420350538077134,12.260321392368477,7.0821429814790315,-0.3803861553583818,-4.982056100466778,1.4707125605802214
1.5884493302395175,12.325966205017586,6.882750038661466,-0.4028379857072965,-4.432338539090425,1.5150529642219028
1.6348355376401191,12.39073764409604,6.68428783423813,-0.425897358912093,-3.8835713493848925,1.5595033210928673
1.6813321213055796,12.454829394324074,6.486156933067563,-0.4496364878073701,-3.334090897473029,1.6042076702436743
1.7278080723598925,12.518060901722194,6.288908888030194,-0.47399233298432203,-2.785420125371448,1.649051519964674
1.7744324486417502,12.58066102167309,6.091820668266022,-0.4990584626238317,-2.235538859911177,1.6942097947828594
1.821237672094471,12.642666557355959,5.894754976453182,-0.5248617722200093,-1.6840439667997555,1.739727021080213
1.8677853375065165,12.70350077160169,5.6995473392800875,-0.5511620306425218,-1.1360738385818114,1.7851876972039464
1.9145389253933838,12.76377251613036,5.504244681716163,-0.5782235015520708,-0.5861458375678309,1.831055598734667
1.9613775098571533,12.823319828400042,5.309351333900991,-0.6059859383249752,-0.03566125755460017,1.8772255743966508
2.008068220834813,12.88184985005722,5.115826996923199,-0.6343140639562924,0.5126688825000687,1.9234792626973038
2.054974113042979,12.939817272761323,4.922160960081146,-0.663433997593259,1.0631321126394067,1.9701886237240531
2.10181946066215,12.996878415243922,4.729488057007344,-0.6931826469047114,1.6125151140319438,2.0170922296681884
2.1487260397170074,13.053182671332141,4.537300299338377,-0.7236425042978194,2.162270176679266,2.0643241115309037
2.195614699895409,13.108634867663923,4.345916022198351,-0.7547685607326589,2.7114930159697446,2.1118171631074283
2.242586667929636,13.163353740575433,4.154916848484114,-0.7866353402575054,3.261392250611932,2.159686950386
2.2894957697368015,13.217169112415155,3.9648910774546113,-0.8191503682723993,3.8102797078426462,2.207797293358343
2.3364523843085947,13.270208634527188,3.775384759319242,-0.8523963538052841,4.359470129592023,2.256274003734158
2.383473940692393,13.322489288455763,3.586323993212338,-0.8863952535213168,4.909189235718379,2.3051492829429896
2.4305018946310737,13.373944465432377,3.397939634740963,-0.9211136571591205,5.458774693194723,2.3543762395579475
2.477592481475757,13.424633963672841,3.2100020998168306,-0.956602507167743,6.008905622372723,2.4040280252458053
2.524590064073525,13.474391053263718,3.0231261638670786,-0.9927520285255442,6.557786086609347,2.453953912867898
2.571667880543617,13.523399430956976,2.8366170993687274,-1.0297037501224193,7.107461301015991,2.5043517458127598
2.618742010126822,13.571569398234843,2.6508037134533295,-1.067402722654416,7.656972748682226,2.5551469241521407
2.666028722200141,13.619116421705964,2.4648315296996364,-1.1060366346347683,8.208865875851755,2.6065901173062223
2.713084936104166,13.665594894843398,2.2804377145312706,-1.145253088109906,8.757990773643881,2.6582139957749327
2.7602010996296804,13.711295759464722,2.0964754482595653,-1.1853002629408786,9.307758389630626,2.7103499992882973
2.8071218852709774,13.755974136643955,1.91393411808517,-1.2259686765174636,9.855210462762795,2.762729141877109
2.8543517238683167,13.80010659324809,1.7308489494940864,-1.2677096747312204,10.406253101626472,2.8159320378665735
2.9014080633071453,13.843237609215578,1.5490889368997616,-1.3101121301363945,10.955276684207382,2.869433409815014
2.9485316970263553,13.885589695277417,1.367717417435754,-1.353402600191682,11.505110981075099,2.923521968333358
2.9956257858139006,13.927073687874403,1.1871036493550302,-1.3975059315881935,12.054646273981467,2.978104145705811
3.042855172621351,13.967830561999998,1.0066135992006735,-1.4425929116242997,12.605826358907693,3.033390357239046
3.090079332390885,14.007734294761931,0.8267828836371313,-1.4885468464400131,13.15703150802817,3.0892362686938077
3.137567600266007,14.047003840892469,0.6465873540709832,-1.5356519274249878,13.711426188982887,3.145983792106168
3.1850672575219896,14.085421156318672,0.4669877536090462,-1.583680699239123,14.266080985178801,3.2033552948238593
3.232566002106037,14.122974265385567,0.2880271714647255,-1.6326371568987301,14.820872155471212,3.2613559324283665
3.2800367074294923,14.159640651417659,0.1098037375234686,-1.6825092750432598,15.375502424109133,3.319972354572357
3.3277267407965754,14.195604128504804,-0.06861080343517933,-1.7335802937187241,15.932882666860197,3.3795350655642613
3.375219941230791,14.2305482004967,-0.2456623671643701,-1.7854234338842594,16.488168593199493,3.439546368598853
3.4224502056890636,14.264434591478969,-0.42111662230359054,-1.837971149977609,17.040603490011314,3.499934741341866
3.470013310918046,14.297686646940583,-0.5971884818600042,-1.891908016202919,17.59717552446451,3.5614862382041728
3.5173330992684373,14.329896713937352,-0.7717461802776757,-1.9466038576847497,18.151162210025394,3.623480709183163
3.5648899325134162,14.361389357863725,-0.9465645252086613,-2.0026350801842674,18.70820614680969,3.6865716750354602
3.6121571978066176,14.391814746554882,-1.1197113247073558,-2.0594013756023366,19.26215712449648,3.750083999041656
3.6595455873538896,14.421439281752786,-1.2926967664139408,-2.1174129854325905,19.817845149193147,3.8145908016788255
3.7067953376779514,14.45009824839006,-1.4645752774381697,-2.1763749708093867,20.37224228186674,3.8797643818389185
3.754119216760572,14.477919578168327,-1.636124277202803,-2.2365751968091594,20.92786250803151,3.9459237334301673
3.8014040415429307,14.504832834777943,-1.806934974227822,-2.2978964295214066,21.483395369028184,4.012939643341215
3.847585790928134,14.530261243672069,-1.973187072470154,-2.358942201280401,22.026343879109742,4.079299185092593
3.87395365297886,14.544398843079492,-2.067856470155941,-2.3943186625147614,22.3365177051171,4.117600517208142
3.8853399463992266,14.550418046003752,-2.108680177862501,-2.409713925049543,22.4704982319962,4.134234443856092
3.876666082825011,14.467641024503058,-2.210372553528021,-2.4081298485388234,22.662426446467677,4.133688264126841
3.850869629562416,14.23626157848512,-2.477413182861303,-2.400945170965741,23.16146620435603,4.129024731693655
3.823722561657279,13.98384799218454,-2.756874719375409,-2.393658235166469,23.693988514728435,4.12430713571013
3.7969092202807686,13.725257469071368,-3.0311652231562207,-2.386747114971847,24.227503696516763,4.119848405714285
3.7739769691847806,13.496543687661562,-3.2642532747650996,-2.381070418007559,24.689843808677413,4.116201022507112
3.7644404531613778,13.399330245885647,-3.36074813935145,-2.3787751135754465,24.883774834686957,4.114730954836663
3.7577271832697514,13.330144364920173,-3.428515536841263,-2.377182789852619,25.020884496419416,4.113712944909751
3.7356746693238074,13.098430195650083,-3.650150923981586,-2.3720912136501684,25.474745400275314,4.1104692166977275
3.710144673657935,12.821471450423983,-3.904755275936584,-2.3664703073867144,26.006895894349434,4.1069126987783
3.6848798901079225,12.53791083986673,-4.1544530412406795,-2.361207493672612,26.540730618924197,4.103612730635558
3.6607491809969956,12.257996474916284,-4.3906722113532926,-2.3564700094440365,27.0574099364188,4.1006745618654135
3.6489271891001542,12.117540775757556,-4.505538356199882,-2.354255392314841,27.312997462498483,4.099314250205913
3.6432396490131187,12.049698399522331,-4.563592945256969,-2.3532682749182525,27.43901974936924,4.098793614261693
3.6556728407200856,12.268241657346149,-4.840337030115465,-2.362529962448982,27.49666403556093,4.115374608486218
3.682053613636952,12.7272742254008,-5.4191681718016795,-2.3821409435127805,27.61527681856714,4.150452741368226
3.7105700827459676,13.21650421055074,-6.032412844896689,-2.4032774787708413,27.73800221724559,4.188214223561267
3.7397644459586905,13.710094303254019,-6.647269240187963,-2.4248493408885574,27.85794054187903,4.226706978680288
3.7694113432011256,14.204039742816084,-7.258672116275737,-2.446685794912963,27.97404112835184,4.265626189804703
3.7997736277961294,14.702518493624503,-7.871713313115048,-2.4689760265051692,28.087205365746087,4.305308866293332
3.830876950104347,15.205653600100574,-8.486412630167921,-2.491733336398343,28.197328242602577,4.34577794203861
3.862606281402213,15.711327240227847,-9.100074068162883,-2.5148682758485186,28.30383635747526,4.386873883841762
3.895002651332852,16.219971124847827,-9.713132882469349,-2.5384056875239973,28.406730812506776,4.428640579637039
3.9281209331699567,16.73219885789655,-10.326226506363174,-2.5623799343236864,28.506032282971965,4.471138628354356
3.9619862533426877,17.248131461292623,-10.939387570738205,-2.586803314320357,28.60165056767015,4.5143893551706205
3.996343236373976,17.763698999575965,-11.547717203234898,-2.611486662975526,28.69276834990359,4.558057786321456
4.0309746384709415,18.275627943804707,-12.14738523803696,-2.636270868897646,28.77883908661222,4.601863313245608
4.055752076400603,18.637248889037302,-12.568350953770421,-2.653943801744279,28.83698352578088,4.633075471441354
4.040071445491427,18.711677696047225,-12.65409042783906,-2.643996976595721,28.849004204464254,4.615890026747066
3.68408516249034,18.73244680215094,-12.667828499278349,-2.411385144350873,28.857621362204604,4.211759857762603
3.1236001024172473,18.761241699108428,-12.686859203093169,-2.0449292172422338,28.869522795136163,3.5754047105505977
2.5487677047796247,18.785827960694323,-12.703103511919364,-1.668857689444644,28.879725371055237,2.9226877498766846
1.9777717035477334,18.805302131085753,-12.715961212802085,-1.2951016580975254,28.887784527351013,2.274265907692413
1.4037793863032844,18.819919307042984,-12.725612397510558,-0.91923387944356,28.89386629391943,1.622395165126053
0.831998734130248,18.829542166868766,-12.731961389463061,-0.5447075916054613,28.897845082519524,0.9730025412377018
0.2559846187890795,18.83425946510094,-12.735076462266514,-0.1673441107986466,28.899820429105294,0.3187821459430409
-0.3172123196469571,18.833995589504852,-12.734900803554824,0.20819254476214424,28.899694807498694,-0.33224460006388934
-0.8898791876728649,18.82879438085073,-12.731471062830238,0.5833589765428019,28.897551023854444,-0.9826620571940506
-1.4632886673578107,18.81863751490464,-12.724766420051763,0.9589423222005586,28.893318607935853,-1.633901241995548
-2.0351826356954543,18.803571445696814,-12.714823284297767,1.3334237593053844,28.88708329989221,-2.2833853154907455
-2.6087163263659403,18.783502635653637,-12.70156930792942,1.7088212051317286,28.87874626131297,-2.9346822469526175
-3.181195262716865,18.758509384412548,-12.685059988529307,2.0833324483656304,28.868408556535577,-3.5847208076806005
-3.731370625543093,18.72980692151577,-12.66608992963936,2.44302561460838,28.856545075100826,-4.209363479592637
-4.037519228649773,18.71184270988465,-12.654209690753213,2.6430666302590295,28.849111710293695,-4.556914668976789
-4.062984042965276,18.716228615814718,-12.539271341531204,2.656647342691812,28.728746472168954,-4.579480057592034
-4.071166200439333,18.736523221621454,-12.078835988688091,2.6498910618950746,28.248155291453696,-4.563402206418325
-4.080475511383454,18.753556973895634,-11.553203028664829,2.642607250077121,27.705640384082592,-4.545486167184754
-4.089929468578069,18.764411508916563,-11.01753933886601,2.6356334713704226,27.15926999092857,-4.527684553068102
-4.099420751904095,18.76893519502981,-10.477936662002602,2.629045094765681,26.61528593062052,-4.510193178411892
-4.1089668355287134,18.767200630206716,-9.933438681739625,2.6228205173862316,26.072659758771177,-4.492968278554988
-4.1184614902331065,18.75937634011014,-9.390164741916832,2.617014602764854,25.537341045316616,-4.476185505772418
-4.127922981301188,18.745675142269434,-8.847150560697935,2.6115973651986497,25.008153283169342,-4.45979264471985
-4.137371017145071,18.726253792183424,-8.303332550599322,2.606541922456157,24.483876681349148,-4.443738650736214
-4.146837993607284,18.701179117130884,-7.7568981013515526,2.6018190007132103,23.962632451342323,-4.427954934816751
-4.155892961978508,18.672060821938885,-7.232862497435529,2.597611870937606,23.467821417819476,-4.413129286269
-4.16024448273137,18.65631572384461,-6.9805603279896316,2.595695073567744,23.23131400213741,-4.40609556577974
-4.176123239203445,18.878621117834925,-7.235887010037718,2.606221298723476,23.2635957879795,-4.424633860079283
-4.2115449041933735,19.369504267092893,-7.798325083442448,2.6296818267589246,23.333491692539372,-4.46592974091535
-4.250152599818077,19.8960972020327,-8.397373581910243,2.6551731532453346,23.404126784435935,-4.51073193201842
-4.289907151214704,20.429418599940245,-8.999521315258955,2.681335841528879,23.4710652854145,-4.556642055317239
-4.330536814905233,20.965435811967154,-9.600081098106418,2.707985196341107,23.53366458781897,-4.603333201467409
-4.360349136818187,21.35309794241348,-10.031521722854553,2.727482458541478,23.576008300828114,-4.637447938601398
-4.346561706184426,21.4134717386183,-10.097959360208554,2.7190080999715835,23.58270857515545,-4.62302784202886
-4.008456704449232,21.17549503967982,-9.824721741990023,2.507365288793456,23.56261515883725,-4.259953577936598
-3.4898651959176497,20.804115188069215,-9.3980437219164,2.1827095879688305,23.52816180786564,-3.703380998294355
-2.967034024008609,20.421715576832696,-8.958296555466946,1.8553987862733199,23.48890042130917,-3.1426893641241005
-2.4448984109315237,20.031609144212272,-8.50918325015139,1.5285710135104902,23.445022632523646,-2.583232240006524
-1.9263595406883303,19.63584175454598,-8.052957941108923,1.204090639861409,23.396690993872962,-2.0281711284483297
-1.4158890293900284,19.23788105945047,-7.59352816691432,0.8848009219956472,23.344340572539927,-1.4823344216114793
-0.9106871938276389,18.83564078719013,-7.128399717574887,0.5689926927546838,23.287727560558878,-0.9427663063562851
-0.4046368746358468,18.424125263791623,-6.651689260177247,0.25288760605383115,23.226080955761926,-0.4029884615253692
0.09417132384075759,18.009834661316173,-6.1708230302315155,-0.05841722438411037,23.160326172388125,0.1283174917636945
0.5234901176813297,17.646180944552533,-5.7479030764969385,-0.3260968580443606,23.099639808826897,0.5849604414190306
0.7202457376031597,17.477284714428002,-5.551207745446672,-0.4486879377780835,23.07054779759058,0.7940305751698478
1.1559801668365421,17.098137482010326,-5.108992297896334,-0.7199553670848418,23.00312468523048,1.2565235057451736
1.6510004739529467,16.658671423200985,-4.595238011556156,-1.0277344477189096,22.921452328291505,1.7810494226751274
2.143895969651687,16.211594296618486,-4.071219242955141,-1.3337245795484982,22.83458637897061,2.3023044942106
2.6225898735515947,15.768049728281232,-3.5499205973540926,-1.6304036937120874,22.74474552193252,2.8074910099145605
3.0929228415930368,15.323007685254922,-3.02538883233756,-1.9213885803193647,22.65106788847264,3.3027837135513725
3.548804796713281,14.882624057360719,-2.5048383424127225,-2.2028898293191332,22.554915964531588,3.781748944706429
3.8532263983519486,14.583477158767003,-2.1503558774413665,-2.3905485708773755,22.487692790325937,4.100941527201891
3.8820382831871107,14.51480050647449,-2.1546088656580817,-2.4096602756862397,22.559381186353818,4.134686091144643
3.8591870093142617,14.31174126859814,-2.391479392046409,-2.4032375609141603,22.99986094760712,4.130514756836409
3.8318535777376477,14.060417054241327,-2.6733630045399086,-2.3958138161429874,23.533721963061566,4.125704265402153
3.8049007241943995,13.803301600889263,-2.949618643044974,-2.3887795937937697,24.067732047597758,4.121160897094417
3.779128701059662,13.548532645473438,-3.2120283753745196,-2.3823295540872067,24.58551689462466,4.117011727682859
3.7660113689201937,13.41542109709184,-3.3448820033014366,-2.379153577800429,24.851788742309477,4.114976165787672
3.759522923633881,13.348703569029118,-3.410412075210448,-2.3776098547418614,24.98418756936694,4.11398883814151
3.7431517640275502,13.17775718209286,-3.5751846390977917,-2.373796439413543,25.320286698342915,4.111556479444949
3.7176303600341636,12.903655646298747,-3.830340589074946,-2.368090401636275,25.850132836344596,4.107937715782581
3.692357060976183,12.622824937910327,-4.080806634361554,-2.3627362722532195,26.38200760394564,4.104570768939826
3.6673278202640063,12.335198556355202,-4.326508448841141,-2.3577358844153076,26.91590330389507,4.101459025900587
3.65054204777998,12.13685296831131,-4.489887507080731,-2.354556621380773,27.2780057422786,4.09950157948514
3.643811433604774,12.056068036133988,-4.555066454844293,-2.3533221102343425,27.424120464794033,4.098746784468443
3.4838959030815766,12.057303484606848,-4.5684410540936735,-2.250480208225794,27.442629416460992,3.920803490075328
3.0042586915894933,12.082671627040925,-4.587457484493446,-1.940974420120208,27.4536790571617,3.3850338465546073
2.459627800102784,12.106910985791513,-4.605620173913646,-1.5893295459998376,27.464249384874947,2.7765814283140453
1.9179451262128087,12.126213288705358,-4.620078027903091,-1.2394146182505843,27.47267370456729,2.1713503595341304
1.3747702364146366,12.140763499490445,-4.630969587472782,-0.8883999264785464,27.47899731830088,1.5643940734110195
0.8316377583888797,12.150509866811655,-4.638266667328564,-0.537315954752035,27.48325892463494,0.957446314380216
0.28801537124220317,12.155459425948616,-4.6419726034995845,-0.18585626778684036,27.4854279269642,0.34992648423609285
-0.25433326077182855,12.155608359767786,-4.6420844219810045,0.1648002160705657,27.485492727784003,-0.2561786587318985
-0.7980043733957145,12.150956926137319,-4.638601767543626,0.5162931794445071,27.48344861844368,-0.8637544522449963
-1.342717642400731,12.141474687442148,-4.631505386288189,0.8684040076025134,27.479320006084947,-1.4724708589546118
-1.8862890832448813,12.127196611191552,-4.62081680155615,1.2196818121845192,27.473100846756278,-2.079871776640073
-2.4288451015590784,12.108140192378688,-4.60654244741918,1.5701681101261318,27.46476941905543,-2.6860825084684437
-2.9711739014228247,12.084287834559996,-4.588673093251182,1.9203386507221685,27.454385120741012,-3.291968129923704
-3.454434945165389,12.058976972019865,-4.569701874289695,2.2321949918099095,27.44336845393194,-3.831790701468691
-3.6433155941025497,12.048193436278352,-4.561103337623367,2.3540212780679783,27.438072677942678,-4.042731658209457
-3.6501969655698416,12.111786492784676,-4.386454046111523,2.3533979733054036,27.199751142962622,-4.039390606749102
-3.6652639036748367,12.24615199534511,-4.0029526614289255,2.352261825926925,26.68170815024364,-4.032267602152911
-3.681110588006696,12.380408390313733,-3.598051012032749,2.35139539150478,26.142360991779533,-4.0250503415538965
-3.6970798246188896,12.508570855172986,-3.188504511578389,2.350850524116724,25.604457581645928,-4.018048960158286
-3.713222455702796,12.631042780392443,-2.7730641374418945,2.350622406850902,25.066344949649967,-4.011236032730733
-3.729620230961432,12.74835879983622,-2.349665077405374,2.3507106739796773,24.52542265355606,-4.004575016956336
-3.7460648884277186,12.859028473745058,-1.9237408845160635,2.3511113523044624,23.98861738022165,-3.9981454544847574
-3.762709036526878,12.964118025181879,-1.4914026162207983,2.3518237426477646,23.45097208399014,-3.9918813111117055
-3.7795964408310456,13.063823553345923,-1.05155583791777,2.3528507922245447,22.91119567998215,-3.9857640420295732
-3.7953209752841586,13.150568549956326,-0.6409984169845256,2.354073104083722,22.413681616946093,-3.9802738427680406
-3.8019202223025994,13.185260932260906,-0.46842683066764945,2.3546604096113377,22.206327999845904,-3.978026645375594
-3.807099111038837,13.259408545723462,-0.5258056481367966,2.357579377557217,22.18936575258882,-3.9827334786972632
-3.830409904869453,13.64512840670495,-1.0021508176722393,2.373516902229441,22.278975512117263,-4.011320686915456
-3.860783175357039,14.140819877347383,-1.6109434949480856,2.3942362080882535,22.39074627123663,-4.048425015796708
-3.880284487161891,14.455074696408506,-1.9949357324799706,2.407511194735099,22.459625172917097,-4.072163361260945
-3.886037438326596,14.54886236788062,-2.114046911754018,2.411513206349564,22.48469019943241,-4.0793891736506644
-3.871461666313355,14.420727868906061,-2.2654015764396647,2.4073748627642377,22.764531000718513,-4.076703132132095
-3.8445414122947703,14.177279913094637,-2.5438048289472515,2.3999398060949324,23.287027864192094,-4.071885751524266
-3.8173607651451267,13.922278282082331,-2.8232664187667837,2.3927156671082668,23.822137908201444,-4.067218665625965
-3.7907603024722616,13.663466760377261,-3.0950054605916484,2.385931551288645,24.35331644310439,-4.062852391906245
-3.7696948001924273,13.451809802729693,-3.308853796861016,2.380766946585944,24.779315429326243,-4.059542438529207
-3.761489321541844,13.367725047248236,-3.3918086861828205,2.3788063020836647,24.946546500924953,-4.058289718077031
-3.753056282863451,13.280335675755842,-3.4768546719661386,2.3768216701524,25.11917807607248,-4.057024119334139
-3.7295896817215164,13.031878769556739,-3.7123431182602777,2.3714644421866393,25.60366664956976,-4.0536219446001445
-3.704111213001665,12.753116400100042,-3.965948342589789,2.365931374884031,26.13661930640822,-4.050134499043811
-3.6790041367542785,12.46896085671296,-4.2135741356275735,2.360778535705774,26.668972256835115,-4.046917956267399
-3.656410066581896,12.204918530568934,-4.434367617352511,2.356436767970715,27.15429480582314,-4.0442162902334005
-3.6467075577910824,12.089091928280205,-4.528520660670009,2.354637837015611,27.364492255623187,-4.04311621564086
-3.6443595107928806,12.066744589194611,-4.58521455944909,2.3548078919413777,27.44356241659403,-4.044154086735445
-3.6614721412323576,12.367016328892547,-4.9651783860705745,2.3675511557323197,27.522488024796424,-4.066964683335073
-3.689044626813466,12.84523378565632,-5.567384330227861,2.3880348489126026,27.645235613457924,-4.103593799677195
-3.7177546136130126,13.336043015923924,-6.18168480775417,2.4092994256372315,27.767427032514462,-4.141572972307125
-3.7469417154626563,13.827771106282484,-6.793291825061017,2.4308499608215492,27.885976472708123,-4.180016838473633
-3.7769455313360476,14.325887581125851,-7.408901288226222,2.4529323966034795,28.00209434324565,-4.219363624799414
-3.8074120355791385,14.824274361860535,-8.020851294091448,2.4752813410337464,28.11425254002265,-4.259140036149906
-3.8386657709316023,15.32801975598757,-8.635300441719302,2.4981300640514545,28.223505888672353,-4.299760980167295
-3.870438573902866,15.832567844758175,-9.246595803479197,2.521277456066066,28.328769296319717,-4.340868589982399
-3.903047289178745,16.342707101239167,-9.860438949413464,2.5449490168028026,28.430940503786427,-4.382862971224083
-3.936309738792879,16.8553062677259,-10.472941517694304,2.569006591351536,28.529270344604257,-4.425498463696542
-3.970404845616391,17.372851944509907,-11.086961058558071,2.593573613877969,28.62412067143294,-4.468993333457817
-4.004908894369662,17.888732884372796,-11.694592195270799,2.618339756864334,28.714217004983105,-4.51279816960879
-4.03883850557445,18.388542931566032,-12.279074106829825,2.6426000200866167,28.79725195043455,-4.555668528542559
-4.058814689756342,18.67942992973327,-12.61732122486725,2.6568400355235777,28.843643439780152,-4.580814426561056
-4.0624529244440115,18.714740732563367,-12.568976194845625,2.6570813197932694,28.759909838400862,-4.580512923668246
-4.070094241027153,18.73415344413019,-12.139111321296078,2.6507409161013205,28.310762321263578,-4.565469128683088
-4.079366216797497,18.751862468312083,-11.615803656391648,2.6434372081083986,27.76989756384433,-4.547579296632089
-4.085365245722028,18.75997262999478,-11.276249627443368,2.6389322487704456,27.422328365540995,-4.536209534461069
-4.0894818857200885,18.764042082774825,-11.042811070131002,2.6359384956588268,27.18488408702668,-4.5284977301173654
-4.093033594396198,18.76658575960743,-10.841130538881957,2.6334182995741977,26.980713935438143,-4.52190205184523
-4.096103323897462,18.768069485462977,-10.666614870143485,2.631286215101438,26.80476058146574,-4.516243823471896
-4.097892691178181,18.768630860507763,-10.564802134013982,2.630062911796617,26.702413020956897,-4.512963492262851
-4.101668057361097,18.76908671941169,-10.34978204355792,2.6275285153630175,26.486992407309696,-4.506085036593043
-4.110314659202229,18.766454161173517,-9.856291520318203,2.6219579325811453,25.99625777008017,-4.490544692254032
-4.119723104855688,18.757882721342355,-9.317723349290384,2.616256142237676,25.466390045151275,-4.4739608183170425
-4.12915862977707,18.743453023084484,-8.775989088732967,2.6109013566023602,24.939209683230647,-4.457655631762573
-4.138602416846617,18.72330097528161,-8.23221471088997,2.6058936146381906,24.41570671979101,-4.441649235455269
-4.1480249583309385,18.697654970150005,-7.688482424110191,2.601272848898375,23.8977313078813,-4.426012563843022
-4.156872136035762,18.66862774896803,-7.176320623945167,2.597196950046494,23.414700097056468,-4.411557236240612
-4.160709555516264,18.662586702400585,-6.9871345643165,2.5960088292064394,23.231572753556954,-4.406611767423492
-4.179986816234189,18.932479654479806,-7.297782633662671,2.608801871410934,23.27142887372429,-4.429152775131817
-4.216349443549638,19.435459302465738,-7.87359682056462,2.6328768340736275,23.342558958004673,-4.471522579281806
-4.255264216273606,19.965121024027596,-8.475560934272016,2.6585602351194764,23.413024736935164,-4.516653323532862
-4.295146803813202,20.499000899115238,-9.077742026529949,2.684795856115628,23.47943026884865,-4.562682096833368
-4.335372248295542,21.02858384539985,-9.670524009473466,2.7111690577892755,23.540703638144464,-4.608880546770966
-4.36227599788231,21.37794280332358,-10.059086538182875,2.7287592001694723,23.578611630139854,-4.639654490776259
-4.318608626185296,21.407804573407095,-10.090879268273463,2.7015604099618757,23.582571472379566,-4.593087217621955
-3.912089460634738,21.240781848985367,-9.894643566787856,2.44733269362157,23.5712928070537,-4.157196926640481
-3.3498444708662616,21.00468572420225,-9.618520889261607,2.0956269505117073,23.553143236648157,-3.5545847580065786
-2.777615802584083,20.758230993596353,-9.331728421104465,1.7376091274024765,23.531592458645125,-2.9416015491561027
-2.2030454199948672,20.504393010173334,-9.037732868180901,1.3781047789928123,23.506763700351023,-2.3264754553216354
-1.6308602309377445,20.24513897956609,-8.738765884497292,1.0201196218141526,23.478768701300304,-1.714302933430227
-1.0661477691176768,19.98281989728697,-8.437467756289916,0.6668810634280233,23.44794229262177,-1.110542770799045
-0.5063956952152306,19.71635426635978,-8.132508810285012,0.3168613522460861,23.41416067182002,-0.5125317806775743
0.04952916926291957,19.445226254757227,-7.823226014745739,-0.0306057625713469,23.37736779464141,0.08091689251440784
0.6044962656963029,19.167987566545005,-7.507901654411895,-0.3772683651099755,23.337320309526564,0.6728323526219111
1.1583303978087423,18.884628378957586,-7.186474028031816,-0.7229777542594348,23.294046741147564,1.263003697393146
1.7052024805067707,18.598137699495677,-6.862258286943332,-1.0640541679660964,23.247975805493468,1.845189204574408
2.255059625042431,18.30323183540043,-6.5292102082376795,-1.4066597940210444,23.198235804698037,2.4299456259666288
2.798520654938543,18.00485826660981,-6.192852013739386,-1.7449081642106794,23.14563550635353,3.007262268973391
3.3405022983218893,17.700314768850667,-5.850063089566933,-2.0818231701123158,23.089698791021846,3.582334807591728
3.848251799768111,17.408539222966798,-5.522052479746114,-2.39704457439662,23.03407148974294,4.120437371481564
4.0644117947730765,17.281360893078503,-5.38138537044799,-2.531146503228239,23.011483478669533,4.349415524742601
4.0496472457718635,17.15896066871365,-5.522957179018241,-2.5269413554547207,23.275836170532962,4.346380873762942
4.020791270984982,16.912996850825653,-5.798759313507954,-2.5189431280104344,23.79834156628375,4.340610176957782
3.991558941903774,16.65446290207659,-6.076828379021514,-2.5111478764595434,24.335687467985025,4.334989464445024
3.96301598857719,16.392614721285568,-6.346885274127743,-2.5038470839589055,24.868311764608325,4.329731189383127
3.9464357588033616,16.23611312385346,-6.503031275364119,-2.499752044449363,25.18137430937998,4.326785561933096
3.9389564105444848,16.164435075792337,-6.57328222020859,-2.497940746164952,25.323489792547143,4.3254837730094255
3.924407194096967,16.023049932313803,-6.709589778436809,-2.4944825698620074,25.601544020248753,4.323000606781567
3.897175940581281,15.751350752149303,-6.963400559937,-2.4882472987109403,26.12772616199928,4.318532528020649
3.869688314519564,15.467480710567635,-7.217723147636669,-2.4822777201550963,26.66659127595641,4.314269577830046
3.842591174318951,15.177875070312705,-7.466410119386424,-2.4767250776114493,27.20554076452189,4.310322260532496
3.8170653582034504,14.895904335035395,-7.698674199202201,-2.471808312051309,27.720388744905105,4.306846692290955
3.805037557703059,14.759878346336361,-7.807397159765024,-2.4696005874132156,27.96542469398991,4.3052938680806925
3.7909345112441555,14.69351524710104,-7.860422551313588,-2.463196918301816,28.085305538111776,4.295268506646235
3.499527187841296,14.71031287632131,-7.872421945307734,-2.2741191738595186,28.092491693652466,3.9673609222823276
2.9657025834319213,14.737580705051665,-7.891889469056439,-1.9275700967960745,28.10413874518323,3.3666028199176363
2.4090805598004295,14.76119772991128,-7.9087390671342375,-1.5660074692775623,28.114206048052004,2.7401074360820323
1.8547574778286382,14.77984432284541,-7.922040590752589,-1.205763339594153,28.12218749518274,2.1161356085675602
1.2982512976451002,14.793679518641172,-7.931904110708022,-0.8439641968172316,28.128088736451353,1.4896543253839871
0.7425595228645441,14.80261860621237,-7.938277814269414,-0.4825996237433781,28.131919577167718,0.8640552348660925
0.18586699705208581,14.806692381834065,-7.941183375532089,-0.12052954877857608,28.133674407326584,0.2373091784981935
-0.3671560824851712,14.805902255345412,-7.94061808538581,0.23916680887431346,28.133315581386167,-0.385311508234231
-0.924256936110986,14.800233293621048,-7.936578974548864,0.6014892838537574,28.13090178930247,-1.0125123525998545
-1.4799501379377604,14.789702967022267,-7.929073433134681,0.9628287952749206,28.126408918752666,-1.638103233717113
-2.03513054604138,14.774313281381907,-7.918096979803863,1.3237247705448476,28.119808097968352,-2.263076385265257
-2.5905284030658993,14.754042855233337,-7.903639101830223,1.684615347003918,28.111157625549488,-2.888238670844079
-3.145179059558214,14.728923765658186,-7.885714803977204,2.0448316656759324,28.100442990908306,-3.5124893166747126
-3.6301605231982723,14.702957287242171,-7.867176123050087,2.359614795654479,28.089370102809802,-4.058258579364012
-3.799407402157448,14.693153466626148,-7.856088537334642,2.469323371515806,28.080992639176532,-4.248499772583643
-3.8035080496432685,14.701355515414372,-7.590039821289857,2.465714334381504,27.806820822575997,-4.239737765883755
-3.8114458912024283,14.712747488913067,-7.07346462697402,2.4590037705210746,27.27900273702972,-4.223026424739917
-3.8196084997715833,14.718405615159996,-6.540151331753874,2.4524711155349386,26.740179673223096,-4.206173059270283
-3.8278179030510584,14.718035578097235,-6.001678900160748,2.44626415016159,26.20222166553872,-4.1895472439398285
-3.835990703764774,14.711760264259542,-5.463568690514442,2.440434092127292,25.670525937470444,-4.173304565881369
-3.8441341220258702,14.69977159681947,-4.925422501459122,2.434959797137268,25.144502758399035,-4.157413775163094
-3.852331907110501,14.682044093696328,-4.381747869662201,2.429775224841921,24.61868671699311,-4.141700110258347
-3.8605120821238974,14.6588153007986,-3.8373539849455804,2.4249174376398486,24.097648476916568,-4.126291371432752
-3.8687251541052268,14.630045305480435,-3.288921904296583,2.4203470583863105,23.578109972646974,-4.111081488270284
-3.876927579539506,14.595979874991906,-2.739397290114394,2.4160798402550023,23.062770613162833,-4.096141001356073
-3.884203363998834,14.561393308246078,-2.250480230382141,2.412535839802488,22.608543542213514,-4.083088575151135
-3.8874164700164933,14.569252837379386,-2.134070585981498,2.4123541794133696,22.484252369795723,-4.080820338977978
-3.906798480547796,14.877456611418747,-2.508636090480438,2.4255183318028934,22.54975629806376,-4.104325091673783
-3.9384546029330805,15.374535022467398,-3.109628859725495,2.4469725453191953,22.6522625248068,-4.1425782000048486
-3.9716662419795177,15.887867152573062,-3.726222253989974,2.4694191053303975,22.754037014628043,-4.182531621898958
-4.005315473069389,16.39969758784394,-4.336896637588392,2.4920969110502234,22.85136475813341,-4.22282734039415
-4.039313509189903,16.908652200828946,-4.940048978148938,2.514944014584178,22.94402053463996,-4.2633557673847395
-4.061019725961004,17.22941405691492,-5.318074766412892,2.529496371909666,23.000294741173775,-4.289135526557171
-4.064620842775952,17.28232006356661,-5.380269417790538,2.5319080536436074,23.009418792597348,-4.293405310376831
-4.064620842775952,17.28232006356661,-5.380269417790538,2.5319080536436074,23.009418792597348,-4.293405310376831
-4.064620842775952,17.28232006356661,-5.380269417790538,2.5319080536436074,23.009418792597348,-4.293405310376831
-4.064620842775952,17.28232006356661,-5.380269417790538,2.5319080536436074,23.009418792597348,-4.293405310376831
-4.064620842775952,17.28232006356661,-5.380269417790538,2.5319080536436074,23.009418792597348,-4.293405310376831
-4.064620842775952,17.28232006356661,-5.380269417790538,2.5319080536436074,23.009418792597348,-4.293405310376831
-4.064601804772378,17.282284001866163,-5.380177549477745,2.5318962037304042,23.00919966875308,-4.293385214933119
-3.9773694887326134,17.1170489425248,-4.9592360539538785,2.4775997871115925,22.005172100345753,-4.201307697978991
-3.8902831867203407,16.952090462295317,-4.538999152391187,2.423394254683743,21.002825125961767,-4.109384305203866
-3.8029362875082326,16.786638360026046,-4.1175047332019,2.36902651752748,19.997478726768662,-4.01718584071019
-3.6904329055844167,16.573534961741725,-3.5746171430464897,2.2990005137105443,18.7025859379646,-3.898433610725093
-3.541514751628982,16.291454866624047,-2.8560092545653677,2.206308693793913,16.98856596468516,-3.74124399948792
-3.3920319587106813,16.008305234931267,-2.1346766881179815,2.1132654230187145,15.26804710302752,-3.5834583871809995
-3.242557948467777,15.72517223934258,-1.4133865026674997,2.0202276188850545,13.547629328313604,-3.4256820453712917
-3.0931416340201716,15.442148530868955,-0.6923747295699321,1.9272257266138892,11.827875621363692,-3.267966603991734
-2.9440862479971255,15.15980849138817,0.0268953753281866,1.834448488702474,10.112276132769209,-3.110632138317515
-2.794852934103969,14.87713142173885,0.7470240751500655,1.7415605023184488,8.39462872781885,-2.9531098620104888
-2.645465736597583,14.594162866443874,1.467895343795403,1.6485767334405728,6.675210151391884,-2.7954251548332376
-2.496325717417257,14.31166251521854,2.187573847890215,1.555746816919027,4.958636551057987,-2.638001355167579
-2.3466777008847486,14.028199917701421,2.909703704589858,1.4626007052403707,3.236215996643041,-2.480041342124451
-2.196976346138594,13.744636287180741,3.6320909460345163,1.3694213940090558,1.513181529410206,-2.3220250282687998
-2.047645996331858,13.46177541254187,4.3526878948315,1.2764730091095506,-0.2055827406743416,-2.1644003263197247
-1.8988108469472798,13.179852544307685,5.070895242896205,1.1838328541144196,-1.9186473469381284,-2.0072983300299385
-1.7496082857395898,12.897233726256387,5.790875544945339,1.0909640092675914,-3.6359407942565825,-1.849808514524665
-1.5996386300418346,12.613161881284096,6.514557478643332,0.9976176982257858,-5.362063355033947,-1.6915089973042363
-1.451046641741891,12.331699607678983,7.231591447446011,0.9051288951167014,-7.072329222898699,-1.5346636681523815
-1.3015914542911475,12.048602266138255,7.952790803091191,0.8121028069412031,-8.792530350811274,-1.376907194621346
-1.1517801167338653,11.764830306673117,8.675708769055154,0.7188550385966878,-10.516830699536612,-1.2187747891081988
-1.0025655008151055,11.482188654642517,9.395747241382642,0.625978690479923,-12.234262894314634,-1.0612722493292472
-0.8534795661616945,11.199790750083968,10.11516475938104,0.5331824380422779,-13.95021399190514,-0.9039055382423413
-0.7035698950782193,10.915832527697319,10.838557235978847,0.4398734635032216,-15.675646141042055,-0.7456693374003956
-0.5546281943194831,10.633707830331097,11.557278750086876,0.34716698724017947,-17.38993713360352,-0.5884548714846053
-0.4054687788820493,10.351170738803088,12.277050851254943,0.25432499781601486,-19.106733981212557,-0.4310105982229935
-0.27759294339174734,10.108948908352843,12.894118560521234,0.17473064615286588,-20.578560822389793,-0.2960320725466367
-0.19093354495463277,9.944799066948702,13.312295429317063,0.12079083330492754,-21.575994216830384,-0.204559295127882
-0.10358198264595131,9.779338131862946,13.73381235038334,0.0664201936757542,-22.58139428738894,-0.11235590853224632
-0.016746666997366527,9.614855068870797,14.152838111624616,0.012370883858824979,-23.580852455882212,-0.020697442818636676
0.00471474359903974,9.574202961779774,14.256400629308827,-0.0009874418611828704,-23.82786925967633,0.0019560127785903138
0.00471474359903974,9.574202961779774,14.256400629308827,-0.0009874418611828704,-23.82786925967633,0.0019560127785903138
0.00471474359903974,9.574202961779774,14.256400629308827,-0.0009874418611828704,-23.82786925967633,0.0019560127785903138
0.00471474359903974,9.574202961779774,14.256400629308827,-0.0009874418611828704,-23.82786925967633,0.0019560127785903138
0.00471474359903974,9.574202961779774,14.256400629308827,-0.0009874418611828704,-23.82786925967633,0.0019560127785903138
0.00471474359903974,9.574202961779774,14.256400629308827,-0.0009874418611828704,-23.82786925967633,0.0019560127785903138
0.00471474359903974,9.574202961779774,14.256400629308827,-0.0009874418611828704,-23.82786925967633,0.0019560127785903138
0.00471474359903974,9.574202961779774,14.256400629308827,-0.0009874418611828704,-23.82786925967633,0.0019560127785903138
0.00471474359903974,9.574202961779774,14.256400629308827,-0.0009874418611828704,-23.82786925967633,0.0019560127785903138
0.00471474359903974,9.574202961779774,14.256400629308827,-0.0009874418611828704,-23.82786925967633,0.0019560127785903138
0.00471474359903974,9.574202961779774,14.256400629308827,-0.0009874418611828704,-23.82786925967633,0.0019560127785903138
0.00471474359903974,9.574202961779774,14.256400629308827,-0.0009874418611828704,-23.82786925967633,0.0019560127785903138
0.00471474359903974,9.574202961779774,14.256400629308827,-0.0009874418611828704,-23.82786925967633,0.0019560127785903138
