RAMEL-ESPOL/ARCHIE/matlab/data/joint_goals_square_t35_h35_p12.txt
Joint0,Joint1,Joint2,Joint3,Joint4,Joint5 
0.0027152055327555207,9.582515601255345,14.251579325121543,0.001575306648473424,-23.828678672754034,0.002321409919246614
0.0027152055327555207,9.582515601255345,14.251579325121543,0.001575306648473424,-23.828678672754034,0.002321409919246614
0.0027152055327555207,9.582515601255345,14.251579325121543,0.001575306648473424,-23.828678672754034,0.002321409919246614
0.0027152055327555207,9.582515601255345,14.251579325121543,0.001575306648473424,-23.828678672754034,0.002321409919246614
0.0027152055327555207,9.582515601255345,14.251579325121543,0.001575306648473424,-23.828678672754034,0.002321409919246614
0.0027152055327555207,9.582515601255345,14.251579325121543,0.001575306648473424,-23.828678672754034,0.002321409919246614
0.0027152055327555207,9.582515601255345,14.251579325121543,0.001575306648473424,-23.828678672754034,0.002321409919246614
0.0027152055327555207,9.582515601255345,14.251579325121543,0.001575306648473424,-23.828678672754034,0.002321409919246614
0.0027152055327555207,9.582515601255345,14.251579325121543,0.001575306648473424,-23.828678672754034,0.002321409919246614
0.0027152055327555207,9.582515601255345,14.251579325121543,0.001575306648473424,-23.828678672754034,0.002321409919246614
0.0027152055327555207,9.582515601255345,14.251579325121543,0.001575306648473424,-23.828678672754034,0.002321409919246614
0.0027152055327555207,9.582515601255345,14.251579325121543,0.001575306648473424,-23.828678672754034,0.002321409919246614
0.0027152055327555207,9.582515601255345,14.251579325121543,0.001575306648473424,-23.828678672754034,0.002321409919246614
0.0027152055327555207,9.582515601255345,14.251579325121543,0.001575306648473424,-23.828678672754034,0.002321409919246614
0.0027152055327555207,9.582515601255345,14.251579325121543,0.001575306648473424,-23.828678672754034,0.002321409919246614
0.0027161099603909777,9.582517432158216,14.251574559633655,0.0015753081140222006,-23.828666889809284,0.0023223218860891387
0.02052308359620896,9.618483301872953,14.157853940335897,0.0015449168149486304,-23.59681977227097,0.020253768362159107
0.06093389472612674,9.699495881339137,13.945943174041618,0.0010389625148426304,-23.071720227934374,0.0607736157622855
0.10329657615127781,9.783524275497706,13.724936276472148,-0.00013372954673359478,-22.522781061126985,0.10300414263706222
0.14590189712829837,9.867117862589264,13.503816928495144,-0.0019655632339989496,-21.972218748391054,0.14523703100428909
0.1886265632834015,9.9500329108725,13.28321728361653,-0.0044492477895760225,-21.421595094352785,0.18736181137356347
0.2312560886954932,10.03186176004508,13.064224218098136,-0.007563174455323667,-20.873626510339285,0.22918114783635726
0.27428301486902606,10.113549418801954,12.844298193247294,-0.011340761292514405,-20.32194862171002,0.27119010739193533
0.3178078853138554,10.195267229311776,12.622939312670718,-0.015801833240444655,-19.765268302058875,0.3134946529653275
0.3613741182887815,10.276149552474468,12.402469962395609,-0.02090294031411452,-19.209403749651898,0.3556613566339606
0.40477636283622026,10.355827188217104,12.183905100766284,-0.026609354155457128,-18.656923802329207,0.39750569862043206
0.4484991941255906,10.43519275423202,11.964791213892726,-0.03298057624194698,-18.101622473721772,0.4395072448966686
0.49253291770238683,10.514216659240978,11.745181393512599,-0.040021566665493384,-17.54360626871856,0.4816665325344124
0.5363146454400713,10.591894203995345,11.527867020059068,-0.04763684768801032,-16.98996812089415,0.5234571684810686
0.5801729498210024,10.66882053306728,11.311193675148717,-0.05587370015960348,-16.43650461413672,0.5652060587602953
0.6242586091947899,10.745257585009274,11.09441007871421,-0.06476087599870925,-15.881284148603736,0.6070678996701008
0.6684681054898285,10.821021582638036,10.878020920962934,-0.07427934439351835,-15.325583855482215,0.6489553677069908
0.7128589806085125,10.896207972333604,10.661738928172518,-0.08444274848028512,-14.768652429868155,0.6909341318187378
0.7569743468323878,10.970051541193191,10.44777148572385,-0.09513989397044158,-14.21618063866823,0.7325841880370563
0.8013814689313826,11.04350688273241,10.233352699545417,-0.10650437591644367,-13.661027634762693,0.7744527469075321
0.8459525312586826,11.116354236867522,10.019099990368547,-0.11850884443452589,-13.104769661573322,0.816430020336268
0.8904453288286656,11.18820030393074,9.806166058499295,-0.13108620559396988,-12.550396225248614,0.8582992175981901
0.9350609655850508,11.259373238258778,9.593576072390475,-0.14429106295414182,-11.995367800182047,0.9002608668445397
0.9797074962866259,11.32972636500044,9.38175954078424,-0.15809647552951864,-11.440798266635314,0.9422395910730206
1.0246150176090434,11.399618097896063,9.16962064747456,-0.17257689945647753,-10.88380365925541,0.984462837292565
1.0692740405717702,11.468259091310703,8.959553973108209,-0.18756626110860497,-10.330670509181003,1.0264626076213854
1.1142546132787483,11.536527357210835,8.748867818259798,-0.20325549248793867,-9.774307414566904,1.0687860709546557
1.1591178906936725,11.60375444085572,8.53961191201948,-0.2194942199957105,-9.220115618049464,1.1110313917998222
1.2042331035605505,11.670493289382412,8.330056152086458,-0.23641757980614447,-8.663505488842945,1.1535573620672972
1.249169190730921,11.73610723244071,8.122193659110389,-0.2538646350646659,-8.109766066575464,1.1959686277620867
1.2944551233006347,11.801366871583618,7.913571234696465,-0.2720436475592534,-7.552351902369034,1.238775676798012
1.3394458354309993,11.865343764516508,7.707151489336527,-0.2906967275903967,-6.9991742597519915,1.2813796937284097
1.3847008580453823,11.928837149397749,7.500355844152434,-0.31005542733124025,-6.4433232239159635,1.3243213046002984
1.430295931026661,11.991938408744868,7.29284476553209,-0.3301647495780583,-5.883850610989495,1.3676851588538734
1.4751822617723405,12.053208824344019,7.089371519434179,-0.3505556826868598,-5.3335904467014,1.4104833636408087
1.5204633678024138,12.114165681039063,6.884915684346428,-0.3717245056254952,-4.7789812577959445,1.4537778039513296
1.565996379798089,12.174600149956017,6.680130366514263,-0.39361888972729714,-4.221755569948449,1.4974454509707362
1.611328381176106,12.23391139724728,6.477044771143723,-0.4160239122624691,-3.667429405349143,1.5410631610133827
1.6566187337639342,12.292316305450266,6.274929795837534,-0.43901566675121106,-3.1140236255519644,1.5847941246110837
1.702175822189939,12.350207542923151,6.072406487854183,-0.46275778700855086,-2.5577464075534024,1.6289483951324106
1.7477496935066719,12.407260630861202,5.8705849553731015,-0.4871286612153231,-2.0016269939698996,1.6732965290054582
1.7932103915581072,12.463316682908749,5.670030071287996,-0.5120599932194815,-1.4472240063466704,1.7177227908677566
1.8386589595122749,12.518504663446254,5.470285070693912,-0.5376081719713062,-0.8932782525205998,1.7623365042821457
1.8841404825952517,12.572879431788996,5.271144700481117,-0.5638028289017356,-0.3392152049830881,1.8071935116166469
1.9298561207036846,12.626674472110256,5.071727351883026,-0.5907696181609998,0.21743831123656895,1.8525057472195785
1.9754257080804405,12.679440372151525,4.873686252776283,-0.618290675487239,0.7720772542791284,1.8979088081032847
2.0211996443512477,12.73158146749302,4.675492945304717,-0.6465837967103587,1.32899060451564,1.943764247211469
2.06666907649154,12.7825210256941,4.479341483944732,-0.6753375926970702,1.882012136822692,1.989573502731535
2.112364385100198,12.832855413361793,4.282935339889247,-0.7048914002380413,2.437617014997416,2.035882464444693
2.1581125518432818,12.882385984593244,4.08701832571331,-0.7351453556573443,2.993723766383148,2.082530720841518
2.2037462557526193,12.930932952573814,3.8922993398477748,-0.7659938576380941,3.5483221769294735,2.129359684002203
2.24949037300702,12.978735180487993,3.6978126820834802,-0.7975955972231557,4.104168481409872,2.1766128993703453
2.295105937505652,13.025542875553002,3.504568053335304,-0.8297921746220964,4.65838191378697,2.2240562923339366
2.340755285073921,13.07152451895794,3.3118699239427496,-0.8627035584874182,5.212957680906944,2.271870892311064
2.3864132312067743,13.116652653695567,3.119820078243119,-0.8963204506194106,5.767612199678285,2.320044207636772
2.4321758497403034,13.161017983467195,2.9280116288260842,-0.9307245446093855,6.323534811592203,2.36869264289676
2.477803795090625,13.204388185514704,2.7374419305165585,-0.96574391204253,6.877840005583579,2.4175753350742477
2.5235406441452626,13.246994213734114,2.547088105409699,-1.0015740745159405,7.4335087346935635,2.4669671787449037
2.569260066076464,13.288714354913695,2.3574731215860774,-1.0381278652984045,7.989028019684503,2.516747482745769
2.6153292697859873,13.32987260422487,2.1670765892318036,-1.0757171580089668,8.548882214444653,2.5673356124937987
2.6605031951364677,13.369370570734787,1.9810278531752192,-1.113323053127996,9.097960316263961,2.6173717817455215
2.706332027993374,13.40856873883133,1.7929329602861452,-1.1522410331269688,9.655124771971174,2.6685850767902513
2.751951543173954,13.446713251293586,1.6063442839780782,-1.191759827120428,10.209891520576326,2.7200321427916396
2.797782421392218,13.48415375664345,1.4195371605471343,-1.2322559272991456,10.767397319293712,2.7722037566449997
2.843899432450109,13.52093476993254,1.2322133850332366,-1.2738210695409264,11.328575550642098,2.8252099227145737
2.8898216265598196,13.55666763272924,1.0463247101129862,-1.316037536544414,11.887595267109567,2.878516783394109
2.9358824916127575,13.591611051270585,0.860516306934762,-1.359224227594386,12.44853656354493,2.932528367033955
2.9820530719503653,13.625733244138948,0.6749065734928722,-1.403375307902332,13.011069543126935,2.9872335615336603
3.0278619297207126,13.658690414005699,0.4913821634101949,-1.448047974673151,13.569468727803358,3.042087974362789
3.0739230135856137,13.690924628828034,0.30747790735327934,-1.4938535374249378,14.13123749159448,3.0978440946603425
3.119774894683447,13.722108849567464,0.12503384755991426,-1.540350512802298,14.69076876248364,3.1539639417035366
3.1657788956160546,13.752487422240504,-0.057391844264228664,-1.5879205953234243,15.252491354635056,3.210909041761358
3.2117759408522866,13.78194778683881,-0.23916823779971552,-1.6364213350678056,15.814484579288232,3.2685065810685514
3.257493852236402,13.810320833263715,-0.41922816573259447,-1.6855752283787655,16.373439418360466,3.326431057733981
3.3032814183042314,13.83782588645365,-0.5989520919406472,-1.7357696656178863,16.933637277541813,3.3851417974630653
3.349070042438549,13.864416143036143,-0.7780717699022064,-1.7869513284122567,17.494259297282465,3.4445751763801353
3.3951984099825654,13.890274412357998,-0.9579076305438328,-1.8395305301064828,18.059476496545997,3.5052026172391035
3.440653393041029,13.914838995716792,-1.1345185956680692,-1.8923627237165195,18.616889400822327,3.565708519776044
3.486225179718991,13.938550005213129,-1.3109879235427109,-1.9463694283813233,19.176198812897823,3.6271553249231507
3.5319220133704508,13.961400498033242,-1.4873446772083958,-2.0015915245055753,19.737528539118532,3.6895859522294168
3.5777889587485183,13.98339987998272,-1.6637587234734506,-2.058117904209357,20.301455929587146,3.753096601555618
3.623195822151292,14.004250693540577,-1.837813561613527,-2.115186042375594,20.860246666069877,3.816833733549367
3.668579638932934,14.02416416478173,-2.0111953260210242,-2.17335299805652,21.41928920769994,3.8814249501946603
3.7140018473078578,14.04316245911697,-2.184139812679757,-2.2327244890801903,21.97935894096174,3.946986921945478
3.759581183492923,14.06128474753728,-2.3570966004023557,-2.293490861221247,22.541941858942852,4.0137269550207835
3.802948819466369,14.077647765622018,-2.521116971171933,-2.352441089852954,23.077778024507644,4.078141512170312
3.8244264363079923,14.08543246262561,-2.602151188634755,-2.3820529720228945,23.343352679166486,4.11038092447993
3.834597717789681,14.089045174691783,-2.640481759593212,-2.396174144358644,23.469170430149113,4.125728345505057
3.822844942360295,13.975528005202419,-2.7658853727265855,-2.393430182027459,23.711340012440736,4.124155741410483
3.7970096551693344,13.726239666254095,-3.030145844540357,-2.3867751892645184,24.225499775663277,4.119862507073432
3.770673752575231,13.463007952764997,-3.2977110283031372,-2.3802737401349363,24.756914537918497,4.115686494511545
3.744553664576648,13.19254699728482,-3.56110200809646,-2.374118109005871,25.2913742573624,4.111754354458355
3.7189001612506103,12.917518991531455,-3.817692828587832,-2.368367066374819,25.823585040299704,4.1081056764586
3.6934838763180724,12.635550642535318,-4.069685890279544,-2.362968376301498,26.358127968743,4.104709276440451
3.668381590280045,12.347503129766075,-4.316211648138916,-2.3579400759629565,26.89327061401362,4.101578659155309
3.643720475559692,12.05497059428669,-4.555945244981198,-2.353305515313168,27.42609120755413,4.0987300366975985
3.619636865056619,11.759871636864192,-4.787533023760125,-2.3490829281077485,27.953314621659278,4.0961754900797525
3.604852148190221,11.573979948520611,-4.928384307638645,-2.3466442708516917,28.28038466006901,4.094723105667061
3.5985890752608665,11.494126587114541,-4.9877356618149875,-2.3456472831282893,28.41972736943749,4.0941351858471275
3.60625691019313,11.633218733046625,-5.174496543124073,-2.3516945625442864,28.467043788419325,4.105014184758418
3.630357205388096,12.061197575876706,-5.719774736146875,-2.370013590442865,28.583256859487637,4.13774913771704
3.6583508497808763,12.551594938194151,-6.341019798589089,-2.3912312489838685,28.712835646629646,4.175621870317181
3.6867944564717243,13.04269579237288,-6.959324622264114,-2.4127226470973837,28.838742472898698,4.2139394880452645
3.7159400470765434,13.538641895767078,-7.579815138479286,-2.434673661351342,28.961949575605228,4.253033320299433
3.7455761058366908,14.035617171793824,-8.197624541157067,-2.456920233747396,29.081415466370682,4.29261109497911
3.775937135688715,14.537336786771705,-8.817279143196998,-2.4796334687993102,29.197939985539424,4.332977159283364
3.806993560171281,15.043026727100738,-9.437693708683405,-2.502785428235754,29.311212708721854,4.374081455245453
3.8380370073590333,15.541140464936024,-10.04472474009555,-2.525845098956707,29.418669529629685,4.414982314379848
3.8698638518194923,16.04441656841378,-10.653904329215049,-2.549400743190938,29.523066211233466,4.456724070438678
3.901942036202207,16.544312334455615,-11.2548499756947,-2.5730542255649396,29.622587733850523,4.498601638756323
3.934668638041279,17.046937760308804,-11.854894634712421,-2.5970945141838793,29.718437781722333,4.54112731474943
3.9683192265064062,17.55622651672241,-12.458596859477323,-2.6217173547177612,29.811227358129827,4.58464695003064
3.9962731184465476,17.97366282014162,-12.950179279736107,-2.6420976691945173,29.884016513152627,4.620641418226898
4.004781119146018,18.09971955907286,-13.098051036038884,-2.648287240710699,29.90541709621989,4.631568428680628
3.7411479800463376,18.11740180741183,-13.110891388378645,-2.4742442696724956,29.912337641881866,4.328643378124309
3.2102775669396446,18.14578477708416,-13.12991389795581,-2.1235720593049834,29.92418509196439,3.7185494345383976
2.646158252222318,18.171173320528844,-13.146924597348937,-1.750699536099011,29.93482588339161,3.0701635640707674
2.0813209747941817,18.19167888051064,-13.160657935652651,-1.3771481912988317,29.943430558179124,2.4208818656055713
1.5142610948249864,18.20732665814292,-13.171130927522468,-1.0019651580997149,29.94997359063427,1.7689889521385398
0.9482019464415996,18.21802058141859,-13.178289806323333,-0.627326815019838,29.954474037722676,1.1182063040700214
0.3810442153802474,18.22380273228428,-13.182157209041655,-0.2518881570680839,29.956883801196483,0.46613509565143585
-0.18491584974844671,18.224654989877653,-13.182729725709716,0.12278804374403235,29.957257321917243,-0.18456943704630652
-0.7482959581845532,18.220623288075668,-13.180030615906869,0.4957408778753786,29.95555002292888,-0.8323024321430637
-1.3160810031307268,18.211633809618615,-13.174017420769609,0.8715531325078938,29.95179607662646,-1.4850803574964697
-1.881349474054028,18.19776544513003,-13.164733480507495,1.2455958084686836,29.945966332537385,-2.134928956998924
-2.4505166585435165,18.178837653430232,-13.152062984546296,1.6220737799748821,29.93805270112968,-2.789209933337849
-3.0148793085009524,18.15514171269433,-13.136189613090261,1.9951816180504478,29.92811735374579,-3.4379011816795098
-3.5716789204849175,18.126944978751947,-13.11729573580204,2.363065306714663,29.916340246088566,-4.077822318450544
-3.942504634043119,18.1055038798688,-13.102920240161598,2.6079270720847174,29.90738131834557,-4.503955675188465
-4.00582970277469,18.104945598000402,-13.057870146346334,2.6485137525175704,29.860048878884125,-4.574281710668867
-4.012511224406073,18.132097182872617,-12.677854413110309,2.642208054597266,29.4530082179334,-4.560305357942492
-4.021407886081879,18.16263216991412,-12.170130082888534,2.634194828759268,28.91491172444125,-4.542056865737179
-4.030397517730137,18.187107509029687,-11.655162933666784,2.626526735444013,28.375627291173373,-4.524020265313023
-4.03942335166629,18.205381632139293,-11.136226930113972,2.6192451637648158,27.83856961657275,-4.506300425302511
-4.048554126226457,18.217596398927146,-10.609388668080177,2.6122886307637674,27.29966474804726,-4.488754241113822
-4.057879544843092,18.22371501971842,-10.069443604422599,2.6055933640332327,26.753746383990112,-4.471210873846601
-4.06724305599263,18.22355063932729,-9.525449015002021,2.5992718034467686,26.2100562818431,-4.4539620640732895
-4.076534959058216,18.217289252439798,-8.98384888985194,2.5933813741350993,25.674851103500355,-4.437191870036594
-4.085878305739536,18.205014330233706,-8.437535248752134,2.5878290636531416,25.140941449127165,-4.420661734378649
-4.09507314976337,18.187220398177907,-7.898280661516656,2.582715232319896,24.619602928785294,-4.4047059924949306
-4.101181070495884,18.172333011727343,-7.539201631279775,2.5795043962128212,24.27548985621136,-4.394271236601012
-4.110321151555804,18.297926903614442,-7.666329080356013,2.5852692910949933,24.276617228470542,-4.404191317902822
-4.141514538852214,18.74212394320631,-8.180158065551048,2.606266968048328,24.344789538443166,-4.441261002982815
-4.178796144335006,19.265163126867897,-8.781106142698315,2.6312857839174595,24.420942833612795,-4.485370165412869
-4.216880477063117,19.79090135347212,-9.380692975333957,2.6567571196985753,24.492985635230173,-4.5302125397824655
-4.2561519386324385,20.324253221746268,-9.984376839128144,2.6829318535094338,24.561442457877696,-4.576227294451124
-4.290429640084027,20.782725508622523,-10.49960497489127,2.7057036073724836,24.61655076829278,-4.616206733598926
-4.297121832515538,20.924550702525583,-10.65817524092863,2.7102747315623823,24.632966251650675,-4.624312287904194
-4.028252356549066,20.73364381377848,-10.437264851755053,2.5405248270752265,24.61512517464387,-4.332087160326517
-3.5246747099234312,20.370447658973085,-10.016747243136685,2.2225785042990336,24.578435515127257,-3.7850752359094173
-3.008796131651673,19.990595814253865,-9.576550164740206,1.8968848648524272,24.53636246757498,-3.225158848778425
-2.4914866847450217,19.601572279755537,-9.125230174078661,1.5703566485639582,24.489480622521103,-2.6642119900581207
-1.9804194954067567,19.209044401310923,-8.669263766300464,1.2478859121827028,24.43841311486216,-2.1106076993083684
-1.4770152023167977,18.814219094058696,-8.209969162096266,0.9304132338668132,24.383355445440735,-1.5659223248515146
-0.9772527430060016,18.41399678047423,-7.743653212053293,0.6154455311755468,24.323887133972573,-1.0258458258371903
-0.47931755921859104,18.006832034355817,-7.268413937658562,0.30188436447212097,24.259724151899945,-0.48847018397952946
0.013355164507968215,17.595481389190713,-6.787369794256944,-0.008064204327631243,24.191263915248204,0.042447528262900436
0.3402694780586345,17.317752401287372,-6.462035098278049,-0.21354739016671254,24.143050871626986,0.3942853954011339
0.5886499263135889,17.10413884618222,-6.2114857538744435,-0.369551465964176,24.104855736341346,0.6613317354425686
1.0634594031879283,16.68941417479358,-5.724236579454512,-0.6674864348086359,24.02810562510926,1.1711697691900116
1.55222437119969,16.25354001063581,-5.210926290281565,-0.9737387532772237,23.943796722879785,1.69502421237482
2.0382019035273102,15.810875415850507,-4.68829017788047,-1.2777602940420318,23.85448944612588,2.214852966738913
2.5149114832359625,15.367391768693642,-4.163279784455745,-1.5754514128351476,23.761333840113643,2.7236622427679804
2.9791908728419636,14.92639083912433,-3.639761159001795,-1.8648327779425322,23.665172803236352,3.2180858077417684
3.4309326204524737,14.488440483541225,-3.118386388195986,-2.14583694573274,23.566287946945994,3.698024732660411
3.776527652952068,14.147336129697042,-2.7112585964537312,-2.360418528365509,23.48700913273123,4.064401600406422
3.8328840862008517,14.070047710275924,-2.662786868888449,-2.396098641961077,23.513510820642104,4.125891549630147
3.812899552433415,13.880572018120812,-2.867841202015567,-2.3908470618381363,23.908515271858942,4.122497556794441
3.786300153848614,13.620302154471641,-3.139209565124193,-2.384106962926217,24.440780565947954,4.118156357336671
3.759977005178383,13.353375584509235,-3.405850082804339,-2.377727624385348,24.974963171740537,4.114067365494189
3.734117699479324,13.081785728642197,-3.6657695068382568,-2.371753309019752,25.50707213848291,4.110260974238226
3.7084670868303142,12.80291486765561,-3.921434217289546,-2.3661249205841544,26.042197568026083,4.106701586149568
3.6833174104475948,12.52003443428208,-4.169842964753301,-2.360905542084476,26.57406015643997,4.1034309911552045
3.6584240486754163,12.230523671592504,-4.4133338977586,-2.3560423387125566,27.107624500694772,4.10041780615274
3.6338779980385723,11.935493136419185,-4.650921557630058,-2.351553633910721,27.640792598518495,4.097675340291481
3.611561959495633,11.658779981335082,-4.864606617586379,-2.3477469882645123,28.13168644584467,4.095388139595649
3.6019111541076194,11.536549309084629,-4.9562948148555375,-2.3461841117562896,28.345818362196727,4.094462023012569
3.572921945963251,11.491212090738411,-4.992150219458097,-2.3291209130798114,28.428119864379926,4.065517208940025
3.226634299882993,11.51072895084298,-5.006958930347219,-2.10366502757588,28.436746650299575,3.674350139573976
2.6956487442671775,11.536774969016138,-5.02670663926167,-1.7577710336826236,28.448208181934444,3.074459860938336
2.158623064432097,11.558352044304259,-5.043062482248326,-1.4077515719959512,28.4577373592401,2.4676620946194623
1.620612576980933,11.575171721278855,-5.055808003862447,-1.0569343856815534,28.465171144236372,1.8596816865610433
1.0843781478833776,11.587164634283722,-5.064890109807693,-0.7071582167558681,28.470444136974038,1.253654158935775
0.5470997587057453,11.594411051993687,-5.070379680890526,-0.35662374942625363,28.47365381401864,0.6464138767139853
0.009729136005455746,11.596884534874844,-5.072254215832467,-0.0059895172602964205,28.474754940197407,0.039051585129230224
-0.5266396908679395,11.59459398101481,-5.0705209568987035,0.34399194210753864,28.47375118487155,-0.5671788552639961
-1.0645238863875117,11.587519624181233,-5.065160658410825,0.6949232743147647,28.47060240534768,-1.1751060216595912
-1.6009688464622955,11.575697770637502,-5.056207093891826,1.0448400100081885,28.465389488227817,-1.7813712551840724
-2.1383344444873456,11.559077823914068,-5.043615800140396,1.3952422212885272,28.45806037637335,-2.388625425952147
-2.67459022735509,11.537716345601579,-5.0274225496632425,1.7447651860766338,28.448611092201155,-2.994556903581536
-3.205576344358546,11.511857073157278,-5.00781564026591,2.0906666112498495,28.437215729557984,-3.5944490627563073
-3.5513923306590365,11.492490767540296,-4.993124338161456,2.3158225089408764,28.428674928958106,-3.98508822914271
-3.6002327896924666,11.508449373985412,-4.944704826597331,2.346173224940742,28.362380000758236,-4.03722636314893
-3.6123931228389976,11.630596628403103,-4.635647252881281,2.3446220160927314,27.931042121899615,-4.03089812312158
-3.6277015186073633,11.77782804460126,-4.2449989380137,2.3429797237720402,27.392991204101474,-4.023195344956855
-3.643206037712663,11.919697889012006,-3.847643145389768,2.3416568682638026,26.853588158471002,-4.0156808713110035
-3.658854033136689,12.055678618044153,-3.4449734322479335,2.3406562841781513,26.314754730398192,-4.008376404184073
-3.6746468191301362,12.185774454849552,-3.0370094491307427,2.339974645798463,25.776506394123622,-4.0012761333982825
-3.690632093143805,12.31034328568613,-2.6225667393609404,2.339608141300768,25.237300283620666,-3.994354593128547
-3.7067958473482783,12.429222537329041,-2.20205282738543,2.339556365100737,24.697706703039515,-3.987614597406626
-3.7230489549428385,12.541774831462165,-1.7778455127022794,2.339815863001501,24.16074200747595,-3.9810875592717716
-3.739506675259165,12.648802911449858,-1.3469929775745453,2.340385549579779,23.622650245801335,-3.9747220445751963
-3.750923566524753,12.719047284022842,-1.047382738707173,2.340956391647976,23.2526471864268,-3.9704441857521573
-3.7542213348827635,12.742016490287508,-0.9747827693460374,2.3413355757586998,23.157025855797887,-3.969707337217505
-3.7676784031824937,12.970280496337423,-1.259206665194269,2.3506960979184606,23.212599535987813,-3.9865285806958277
-3.79571728870818,13.4407593081484,-1.8429062143273585,2.370163692149726,23.324593622191628,-4.021469834662284
-3.822577231993731,13.885115479615882,-2.391055624462048,2.3887673002608985,23.427205161717318,-4.05480789078159
-3.833714297894235,14.067583612611486,-2.615258165314714,2.3964679472548496,23.468447699189024,-4.068593010987678
-3.829020363955677,14.032815510871554,-2.703598106631246,2.395779580047739,23.59164050917261,-4.069192070577975
-3.805408268963455,13.807134129808894,-2.945592759454031,2.389632203723258,24.05987616990617,-4.06522778214592
-3.778906945652443,13.54510736885288,-3.215488457759918,2.383002957060788,24.5924220006215,-4.060969710619082
-3.7526781114691263,13.276391079134344,-3.4806627096916967,2.376733919703502,25.12692447309193,-4.05696415282547
-3.7269141840706475,13.00304889583235,-3.7390777967437865,2.370869886019652,25.65927784840272,-4.053241731868044
-3.701407503283272,12.722970591453048,-3.99272587161868,2.3653625094632886,26.193589412212248,-4.0497737081411245
-3.6762525846509644,12.437233711335805,-4.240565867092098,2.360232920897614,26.727738452787964,-4.046575450063511
-3.6514695683637464,12.146180929273227,-4.4823176268492695,2.3554837318945974,27.26110178637045,-4.043650351690894
-3.6271183434896472,11.850686559628441,-4.717332742152244,2.3511232019589596,27.79215546943615,-4.04100495909038
-3.607601631040954,11.606795025899034,-4.903800864209459,2.3478886774218912,28.222938544216124,-4.039056217948179
-3.600337101337681,11.514409719895454,-4.972730699006912,2.346725280053067,28.384413891469727,-4.038370836921793
-3.601703656775382,11.548835402293445,-5.066653446098317,2.3489325350787613,28.443805445210582,-4.042684113348247
-3.6220017356116876,11.910550868244124,-5.528176633033797,2.3643729567067187,28.542699669909876,-4.070283255552772
-3.649723945662615,12.398379512620119,-6.147341274157495,2.3854054060046015,28.672781519962527,-4.107839110822916
-3.6780424516179675,12.889534500580705,-6.766912787956334,2.4068238248295613,28.79990916532423,-4.1460401670537514
-3.707033420140851,13.385081350197353,-7.388121833952939,2.4286808899672336,28.92424379124231,-4.184980010608684
-3.7365205325484054,13.881795761405664,-8.006837572791722,2.4508390143935594,29.04488647902794,-4.224413462043584
-3.766682867192519,14.38249025563504,-8.626478336158899,2.4734280157378725,29.162434327217028,-4.2645715627643614
-3.7974001859485083,14.884951939376911,-9.244213769363444,2.4963528201224903,29.276274960376938,-4.305285256084368
-3.828477329950067,15.385889950538418,-9.855972271614444,2.519463912531901,29.385636387874477,-4.346289638545881
-3.8599925614354746,15.886515184685408,-10.463234204169469,2.542816106101989,29.490784096641406,-4.387682836441122
-3.891998105439847,16.387563322524326,-11.066869739734928,2.566444171968942,29.591849746228956,-4.4295271079542085
-3.9247409930495647,16.89271061250719,-11.671231295611479,2.5905253007506537,29.689497257443694,-4.472136371318274
-3.957900556397177,17.396848867771087,-12.270148449937816,2.614818739509132,29.782679265102605,-4.515084905255202
-3.9895259644823673,17.870900851054163,-12.829444747089381,2.6378999900282647,29.866391061043576,-4.555858123125262
-4.004301299119038,18.090169898995494,-13.086867237219314,2.6486540087496087,29.90382534684706,-4.5748448471438525
-4.007729738715396,18.11304774032074,-12.949777326325933,2.6466766564600013,29.74387056115627,-4.570259416418561
-4.0158600350722224,18.144344081635424,-12.486827142202381,2.639123078123481,29.24977633327059,-4.553365488953162
-4.0247865293002185,18.172579841391528,-11.976669624071468,2.6312453168697227,28.71154396580391,-4.535208584965846
-4.0337801944485285,18.194691112566915,-11.460755689432306,2.62373196462483,28.17367451092733,-4.517311864440337
-4.042617810253192,18.21036655460208,-10.95197921780239,2.616747860001614,27.649369704256948,-4.500096899817037
-4.046958029024197,18.215910862763643,-10.70147463396255,2.6134582572409113,27.39339098420224,-4.491772397048956
-4.052092730500518,18.22066645787435,-10.40458181332246,2.609682925410826,27.09182387738736,-4.48203133980464
-4.055172048072406,18.222591107710695,-10.226260167680893,2.607478330985183,26.911625475006595,-4.476244181300799
-4.057689606084169,18.223652956937205,-10.080319703847616,2.6057085831425613,26.76466184325659,-4.471542671427852
-4.059462641439098,18.224126172219773,-9.97745820924057,2.6044796748870276,26.661354122302466,-4.468247505658816
-4.06461876698169,18.2242237579848,-9.677956235066164,2.6009868885205916,26.36183187989139,-4.458738675405462
-4.0736489861533665,18.219872500742444,-9.152110090237633,2.595154110562799,25.840468328619878,-4.442343149943427
-4.082869517852114,18.209616406623674,-8.613828986297527,2.5895985412690488,25.31256959452608,-4.42596467963823
-4.09211790554618,18.193554979642634,-8.071957435032736,2.5843428197688243,24.78688387220454,-4.409816537919124
-4.099925738227115,18.17559788990183,-7.613246629032415,2.5801733997685266,24.346231485783182,-4.396420453329763
-4.104324660091929,18.211787010670143,-7.566315813344299,2.5812431146143275,24.2630011695648,-4.39705346090787
-4.129788307223915,18.575805572860652,-7.988137609453097,2.5983975171537406,24.31961483335461,-4.427348944404023
-4.166702191027431,19.0963663197014,-8.587647097918154,2.6231960773486627,24.396829091148817,-4.471090146980341
-4.204624762278075,19.622597054593342,-9.189233001695289,2.6485868867751696,24.4703900994876,-4.515811370145711
-4.243492751396483,20.15323581828402,-9.79130930836292,2.6745214977468494,24.539975885926367,-4.561424849917491
-4.280995088938182,20.657134268772143,-10.35880463627782,2.6994599236753465,24.60177377053364,-4.60522550349001
-4.300302756984308,20.913541210071067,-10.645983241646958,2.7122668823155247,24.63161454835722,-4.627696397576167
-4.132632032598303,20.858006173605812,-10.579176459038074,2.606565619231643,24.628019694112215,-4.445820681121153
-3.6334801618730994,20.64914516204591,-10.332308930389935,2.2917386859822093,24.611035396978302,-3.9043078217069436
-3.0696315698380774,20.40747419732521,-10.048064054508298,1.9360388369779453,24.588954702130106,-3.2929292739061515
-2.5038258008162795,20.15873830265174,-9.756928670605383,1.5790780023052495,24.563619684429458,-2.679805384214924
-1.938718328550663,19.903973243612672,-9.460084252457817,1.222577756331739,24.535143513606155,-2.067840821440209
-1.3756854825562037,19.643726043230007,-9.158111388568342,0.8674536813585914,24.503525237261567,-1.4585603011589294
-0.8226292960723245,19.38173491821757,-8.855263583174382,0.5187338374657026,24.4692509314709,-0.8605351798646246
-0.27112252728121083,19.114082112108598,-8.546927741198541,0.171148905387899,24.43180555763918,-0.26467838685376155
0.27593763931286847,18.8421559579902,-8.23464504129679,-0.17343675692286614,24.391439307300903,0.3258617345786668
0.8230168849087913,18.56368441983726,-7.915741188668169,-0.5177913940334398,24.347764849868046,0.9158705474298705
1.3672521793951722,18.280042251793084,-7.591731323486637,-0.860069632999337,24.300969158294322,1.502226553742058
1.9082913908112915,17.991385977091195,-7.262726442247011,-1.2000098377109292,24.25106941278738,2.08452099934096
2.4491541365439633,17.696025812105418,-6.926736628630903,-1.5394673907671332,24.197748704834165,2.665969265503902
2.984779562183833,17.396681252461523,-6.586786490663649,-1.8752266907075616,24.141482992831627,3.241098819785915
3.518939754275092,17.091222576381107,-6.240381644764707,-2.209610325022749,24.08183457264624,3.813922780422776
3.9392116767933185,16.84592567278846,-5.962503732497008,-2.472361488731702,24.032442142836683,4.2640889869568745
4.005313939458803,16.777297749490444,-5.946178247399889,-2.5147838790533763,24.081874122889396,4.3376092295427355
3.9826325355253696,16.573577658736372,-6.161462414435287,-2.50883844444543,24.501452739461623,4.333324072262578
3.9538779184422865,16.306755129357573,-6.433028236990268,-2.501584031625644,25.04056368285649,4.328101700364083
3.925512814212828,16.033874111601385,-6.699262865328333,-2.4947497552483298,25.58038592171015,4.323191167197441
3.897628394760359,15.755930237508547,-6.959212664842839,-2.4883558096246743,26.11896807070406,4.318609050171894
3.8700691332057464,15.47146912558038,-7.214227770894656,-2.482365671283716,26.65911861931045,4.314331210195972
3.8430871905890394,15.18325357960541,-7.461891215242231,-2.4768312446482694,27.195651792226663,4.310396564066332
3.8163093235927392,14.887401646113306,-7.7055360372367705,-2.4716750924282462,27.735791759021325,4.306751954956006
3.790029664982004,14.587237640987757,-7.942389325900097,-2.4669541427602333,28.273434331040086,4.30343952358855
3.7658630463199914,14.302356327975925,-8.158063115193421,-2.4629213892827937,28.774559102369935,4.300635511495274
3.754974055013908,14.17115366104847,-8.254531087976625,-2.461204065071581,29.002484723159252,4.2994507325848135
3.7333571062360105,14.115686932611027,-8.296265678348535,-2.4493728346347052,29.100519103188493,4.2796387561605975
3.408711554328491,14.134336310905438,-8.309755979312254,-2.236675059799205,29.10859290589656,3.9100629909496485
2.872633282478254,14.161399846176165,-8.329317472030407,-1.8852594006481567,29.12025912844515,3.2997103921453963
2.324555431494458,14.184276692341847,-8.34584877586434,-1.5257689875547786,29.130157790486663,2.675612474645103
1.7736445713460185,14.202397691252074,-8.358938787580465,-1.164246496509744,29.138006069731908,2.048217789019727
1.2246308974592868,14.215602483096754,-8.368471327181739,-0.8038362121255501,29.14369884859927,1.4229282216724144
0.6754404084474004,14.223971441203306,-8.374514757759655,-0.44321910528812064,29.147332594605402,0.7974017661877869
0.12598692037753018,14.227502328304274,-8.377061366361048,-0.0823792304140288,29.148840395062937,0.17155413181024023
-0.4209541221174784,14.22620937488197,-8.376129802977712,0.2768204144330158,29.148291724273307,-0.45143447880703547
-0.9718016542470403,14.220058481371805,-8.371691416198686,0.6385543561529483,29.145640552335603,-1.0788600586479862
-1.521050440851326,14.20907697830239,-8.363760829528475,0.9991645526117413,29.140867457861205,-1.7044355834614824
-2.0698405181871875,14.1932654186506,-8.352344011738559,1.3593619983264336,29.13403891004779,-2.329442263273625
-2.619119999118284,14.172587738977617,-8.337404157375666,1.71972436958717,29.125078637633237,-2.954943530588125
-3.166686777418518,14.147135416317312,-8.319010995966003,2.0787713643963115,29.11409381434015,-3.5784155661413646
-3.616810339456844,14.122585361332334,-8.301260678278444,2.37374948871474,29.103499293406255,-4.090865814914679
-3.750595530159122,14.115036704821193,-8.288953790703768,2.4612234855633695,29.093141613505768,-4.242820372797039
-3.7549305783970492,14.13015157029589,-8.004894752700988,2.4569572223815985,28.79405811638945,-4.233074589751056
-3.762656332996414,14.152385616770497,-7.496955571165559,2.449648586053145,28.26404197820955,-4.215975658691434
-3.7705691530696046,14.16902522404539,-6.974510236141438,2.442542197590074,27.725112788630355,-4.198807761578174
-3.7785652461116013,14.17966822710186,-6.444356161856508,2.435737060573997,27.1844680623388,-4.181798793279523
-3.786553237866271,14.184237368934818,-5.912577591045199,2.429302973987013,26.64826772329451,-4.165133294469759
-3.7946059792705915,14.182840652369206,-5.374357828589685,2.4231723045208517,26.111588596262262,-4.148648543751163
-3.8027105541963198,14.175478607153552,-4.830568463075496,2.417350291132616,25.575301631099716,-4.13236411180739
-3.8108551784001956,14.162189635765994,-4.282018282871027,2.4118393524543285,25.04017715105374,-4.116295488574933
-3.8189834146885127,14.14316540825341,-3.73255104813713,2.406667816865063,24.509866488309545,-4.100542523927214
-3.8271034012975442,14.118535014667861,-3.1816754154328613,2.4018182624542703,23.98374955977169,-4.0850759573532684
-3.833741815714803,14.094304591005798,-2.729885945851974,2.3980816041606032,23.556292650668205,-4.072624058654941
-3.837666668832674,14.132104859539908,-2.694414376773088,2.3991955711382396,23.48292399879864,-4.073472032314437
-3.8593515345864056,14.483759018448671,-3.1246846972824946,2.4141621450825586,23.560578494165906,-4.100234485006264
-3.890703879327803,14.985520852321729,-3.7352781290920554,2.435749692670162,23.668012277049023,-4.138782325093959
-3.9228776463298503,15.492466398048103,-4.348171085815769,2.4578396679295573,23.7725161525872,-4.17816353159673
-3.955743575330586,16.002252344733964,-4.960417267317339,2.480338860431475,23.873492312187935,-4.2182102671432
-3.987649094144428,16.489585615460683,-5.5418562735639565,2.5021168547036563,23.966148200651205,-4.2569138952612375
-4.004220148246269,16.73983457601259,-5.838964875194658,2.5134031555047756,24.012251278579534,-4.2769494282873355
-4.008561721736942,16.805081105033274,-5.916265315788288,2.5163573460273727,24.02410657283814,-4.28219125468823
-4.008561721736942,16.805081105033274,-5.916265315788288,2.5163573460273727,24.02410657283814,-4.28219125468823
-4.008561721736942,16.805081105033274,-5.916265315788288,2.5163573460273727,24.02410657283814,-4.28219125468823
-4.008561721736942,16.805081105033274,-5.916265315788288,2.5163573460273727,24.02410657283814,-4.28219125468823
-4.008561721736942,16.805081105033274,-5.916265315788288,2.5163573460273727,24.02410657283814,-4.28219125468823
-4.008561721736942,16.805081105033274,-5.916265315788288,2.5163573460273727,24.02410657283814,-4.28219125468823
-4.008500036918033,16.804969774086608,-5.915954636749023,2.516318519567636,24.023369407530716,-4.282125210252442
-3.9238208727663597,16.652137818431996,-5.489463292040749,2.4630186604508006,23.011409849595243,-4.191461288101338
-3.8392661702063386,16.499530495467692,-5.063598805097544,2.4097971415651998,22.00093767168448,-4.100930623950232
-3.7546559107945146,16.34682290152887,-4.637454502964016,2.3565406533644944,20.989801560824514,-4.01034047642872
-3.6487294045010845,16.155642989980755,-4.103949731608266,2.2898670162456174,19.723925337833588,-3.8969275416585534
-3.5048980746175515,15.89605110984445,-3.379535196961541,2.1993348328427644,18.005066980357274,-3.742930833895906
-3.3607578943096845,15.635901805519698,-2.653565119884665,2.1086082487951954,16.282517701483613,-3.588603447493376
-3.216918478924697,15.3762953323839,-1.9291098621578022,2.018070976111022,14.563562718106951,-3.434598082780914
-3.072811717649102,15.116206343912632,-1.2033081019054392,1.9273654271047145,12.841412813854701,-3.2803064773236805
-2.9295408530156255,14.857626011316986,-0.4817163818265451,1.8371860190175746,11.12925230433624,-3.1269098460770053
-2.784809663318167,14.59641003230636,0.24723034708466765,1.74608743416535,9.399640159329946,-2.971949680290959
-2.6416193140981457,14.33797501678159,0.9684165467820368,1.6559587051352944,7.6884418504073775,-2.818639254939802
-2.497949829723839,14.078675241154547,1.6920159374726662,1.5655283926345338,5.971517629995505,-2.6648158312287404
-2.354126510643736,13.819097819200097,2.4163901252600275,1.475001251495602,4.252755005739742,-2.5108277004385497
-2.210165066253059,13.559271103791325,3.1414599888967554,1.3843871697300374,2.532341712991575,-2.3566916822367334
-2.066487080374163,13.299955984347589,3.865102197890576,1.29395150610186,0.8153158952279489,-2.202859156171415
-1.9226220864736467,13.040303346200714,4.589686283241008,1.203398133456288,-0.9039447645630524,-2.0488264051642986
-1.7786593162733115,12.780474237923698,5.314762824392204,1.1127832171823921,-2.624373901418428,-1.8946889674503171
-1.6350975955886522,12.52136895802181,6.037819457234803,1.0224207347025536,-4.340010290321469,-1.7409809237015723
-1.4907546280675983,12.260853656149921,6.764810883448839,0.9315665096939305,-6.064982980676184,-1.5864364179604915
-1.3474413753014562,12.002196819950624,7.4866160937278465,0.8413604211178896,-7.77765005017813,-1.4329944027708046
-1.2034042751250182,11.742233558299217,8.212067001959515,0.7506987191052101,-9.498967468472179,-1.2787773817586845
-1.0596261201488915,11.482737650119795,8.936213718212048,0.6602000057430896,-11.217190358459748,-1.124837607076492
-0.9159281891769272,11.223386533065433,9.659956381782248,0.5697517880154324,-12.93445453034232,-0.9709837262849743
-0.7716470308337654,10.962982786587709,10.386636502616048,0.4789364677421922,-14.658688569235819,-0.8165053981278216
-0.6281214221968879,10.703942682989112,11.109511255110947,0.3885967153764081,-16.373893400597215,-0.6628360186706014
-0.48418275289564566,10.444157072868679,11.834466410736368,0.29799696900338596,-18.094034519314523,-0.5087243852032853
-0.34040287768177846,10.184658059943231,12.558621791062462,0.2074971728668886,-19.812277967027725,-0.35478276870437087
-0.24430338860106465,10.011214297233112,13.042632240792463,0.14700898453253566,-20.960716280775802,-0.2518913823278019
-0.15983837934893935,9.858768855928743,13.46804498237565,0.09384392157351971,-21.97011657753237,-0.1614567506206387
-0.07537812360614869,9.706331993926437,13.893433782643298,0.04068185063007673,-22.97946006740788,-0.07102720838034238
-0.004715393062429512,9.578797394251508,14.249330575818647,-0.003795602832325895,-23.823916035766924,0.004629659105088737
-0.004715393062429512,9.578797394251508,14.249330575818647,-0.003795602832325895,-23.823916035766924,0.004629659105088737
-0.004715393062429512,9.578797394251508,14.249330575818647,-0.003795602832325895,-23.823916035766924,0.004629659105088737
-0.004715393062429512,9.578797394251508,14.249330575818647,-0.003795602832325895,-23.823916035766924,0.004629659105088737
-0.004715393062429512,9.578797394251508,14.249330575818647,-0.003795602832325895,-23.823916035766924,0.004629659105088737
-0.004715393062429512,9.578797394251508,14.249330575818647,-0.003795602832325895,-23.823916035766924,0.004629659105088737
-0.004715393062429512,9.578797394251508,14.249330575818647,-0.003795602832325895,-23.823916035766924,0.004629659105088737
-0.004715393062429512,9.578797394251508,14.249330575818647,-0.003795602832325895,-23.823916035766924,0.004629659105088737
-0.004715393062429512,9.578797394251508,14.249330575818647,-0.003795602832325895,-23.823916035766924,0.004629659105088737
-0.004715393062429512,9.578797394251508,14.249330575818647,-0.003795602832325895,-23.823916035766924,0.004629659105088737
-0.004715393062429512,9.578797394251508,14.249330575818647,-0.003795602832325895,-23.823916035766924,0.004629659105088737
-0.004715393062429512,9.578797394251508,14.249330575818647,-0.003795602832325895,-23.823916035766924,0.004629659105088737
-0.004715393062429512,9.578797394251508,14.249330575818647,-0.003795602832325895,-23.823916035766924,0.004629659105088737
-0.004715393062429512,9.578797394251508,14.249330575818647,-0.003795602832325895,-23.823916035766924,0.004629659105088737
