RAMEL-ESPOL/ARCHIE/matlab/data/joint_goals_espol_t5_h20_p21.txt
Joint0,Joint1,Joint2,Joint3,Joint4,Joint5 
-0.004906321811715795,0.004570357525002154,0.004734372228915591,0.0013381276159888716,0.004707201880471581,0.0022046901644712925
-0.004906321811715795,0.004570357525002154,0.004734372228915591,0.0013381276159888716,0.004707201880471581,0.0022046901644712925
-0.004906321811715795,0.004570357525002154,0.004734372228915591,0.0013381276159888716,0.004707201880471581,0.0022046901644712925
-0.004906321811715795,0.004570357525002154,0.004734372228915591,0.0013381276159888716,0.004707201880471581,0.0022046901644712925
-0.004906321811715795,0.004570357525002154,0.004734372228915591,0.0013381276159888716,0.004707201880471581,0.0022046901644712925
-0.004906321811715795,0.004570357525002154,0.004734372228915591,0.0013381276159888716,0.004707201880471581,0.0022046901644712925
-0.004906321811715795,0.004570357525002154,0.004734372228915591,0.0013381276159888716,0.004707201880471581,0.0022046901644712925
-0.004906321811715795,0.004570357525002154,0.004734372228915591,0.0013381276159888716,0.004707201880471581,0.0022046901644712925
-0.004906321811715795,0.004570357525002154,0.004734372228915591,0.0013381276159888716,0.004707201880471581,0.0022046901644712925
-0.004906321811715795,0.004570357525002154,0.004734372228915591,0.0013381276159888716,0.004707201880471581,0.0022046901644712925
-0.004906321811715795,0.004570357525002154,0.004734372228915591,0.0013381276159888716,0.004707201880471581,0.0022046901644712925
-0.004906321811715795,0.004570357525002154,0.004734372228915591,0.0013381276159888716,0.004707201880471581,0.0022046901644712925
-0.004906321811715795,0.004570357525002154,0.004734372228915591,0.0013381276159888716,0.004707201880471581,0.0022046901644712925
-0.004906321811715795,0.004570357525002154,0.004734372228915591,0.0013381276159888716,0.004707201880471581,0.0022046901644712925
-0.004906321811715795,0.004570357525002154,0.004734372228915591,0.0013381276159888716,0.004707201880471581,0.0022046901644712925
-0.004906321811715795,0.004570357525002154,0.004734372228915591,0.0013381276159888716,0.004707201880471581,0.0022046901644712925
-0.004906321811715795,0.004570357525002154,0.004734372228915591,0.0013381276159888716,0.004707201880471581,0.0022046901644712925
-0.004906321811715795,0.004570357525002154,0.004734372228915591,0.0013381276159888716,0.004707201880471581,0.0022046901644712925
-0.004906321811715795,0.004570357525002154,0.004734372228915591,0.0013381276159888716,0.004707201880471581,0.0022046901644712925
-0.004906321811715795,0.004570357525002154,0.004734372228915591,0.0013381276159888716,0.004707201880471581,0.0022046901644712925
-0.004906321811715795,0.004570357525002154,0.004734372228915591,0.0013381276159888716,0.004707201880471581,0.0022046901644712925
-0.004906321811715795,0.004570357525002154,0.004734372228915591,0.0013381276159888716,0.004707201880471581,0.0022046901644712925
-0.004906321811715795,0.004570357525002154,0.004734372228915591,0.0013381276159888716,0.004707201880471581,0.0022046901644712925
-0.004906321811715795,0.004570357525002154,0.004734372228915591,0.0013381276159888716,0.004707201880471581,0.0022046901644712925
-0.004892292103536325,0.004597286684960764,0.004702967568929336,0.001338124540914475,0.004717877598410271,0.002218745987476718
0.10970719017635192,0.22378276443601844,-0.2505833548426961,0.0012120502083765553,0.09131008732769479,0.11703103123254155
0.35579928269646444,0.6892443518161738,-0.7905369787847045,0.0002642050231009379,0.27319167098115227,0.3635788897546963
0.6188568851914286,1.1791011128640778,-1.3556030836455317,-0.0017534948621534294,0.46165528728878613,0.6271273958756577
0.8884437835988639,1.6730973763341535,-1.9221356971078374,-0.00487647706986595,0.6486386040585277,0.8972281220830103
1.163673691873561,2.1692957226620004,-2.487850553899834,-0.00914406404732292,0.8333402338405874,1.1730003672580303
1.4450982611613858,2.6684007335403974,-3.0535017558681417,-0.014611649729783537,1.015966222517187,1.4550042231919684
1.73419216733787,3.172657324125471,-3.62155503111476,-0.021365857554508618,1.197253840705341,1.7447251298182864
2.028681236371481,3.677770725925972,-4.18711490564494,-0.02940616919926487,1.3755942191325665,2.03989164042072
2.3303669075579734,4.186531629833909,-4.753264622414438,-0.03883080190179794,1.5519222846142926,2.3423169233357064
2.639244995351697,4.698565646952885,-5.319522536011605,-0.04969825043231462,1.7260350554439805,2.652004726524121
2.955340274593301,5.213552993948567,-5.885477254131138,-0.06206744971165515,1.8977568108705476,2.9689878088662427
3.2799146964560713,5.733145196489941,-6.45287374933934,-0.07605222207144793,2.0675588519059147,3.2945398674544415
3.61153170006799,6.254652720890658,-7.018715971582901,-0.09165336563894466,2.234492521639562,3.62722805329155
3.9522984955118763,6.780983659633033,-7.586099812755608,-0.10903524984426992,2.3994177474085583,3.969174467939519
4.300686379731769,7.309354380785717,-8.151964157994092,-0.12818772703423903,2.561389565041605,4.31885319026216
4.658314452627972,7.841806780755508,-8.718445313558517,-0.14926662986108843,2.7209697288526526,4.677897145695121
5.024580723970687,8.376997487871316,-9.284057082487871,-0.17230825184741513,2.8776841139126894,5.045709853450046
5.400220094803743,8.915559941457511,-9.849421489291663,-0.19742980826649617,3.0316548288616394,5.423036871689955
5.7861544832147604,9.458317980887134,-10.415342005664458,-0.22477238158485044,3.1830390673380893,5.810812055701509
6.183289613372592,10.005985168116304,-10.982487054731457,-0.2544887578494727,3.331941932179602,6.209953513427803
6.590165474411655,10.556021871206692,-11.548172296668955,-0.2865534432877605,3.4775982855249765,6.619001139422888
7.009713797933534,11.11181950367552,-12.115824924248308,-0.3212879706273449,3.620823341716369,7.040909579241499
7.438824255245275,11.668705827114117,-12.680628598800737,-0.3585223115556826,3.760344564247943,7.47255748489579
7.882326441269916,12.232341213691193,-13.248271996028441,-0.39877112634921047,3.89750138923974,7.91880943683146
8.337570394270234,12.798677087451665,-13.81461177079661,-0.4419002120939842,4.031213403543931,8.377005531787432
8.801506886841963,13.363481398791636,-14.37544089438708,-0.4876907081170376,4.160476554510919,8.844079913593145
9.269908308313687,13.92146909171265,-14.925639277748102,-0.535750027229149,4.284180735144887,9.315775632625547
9.742970388436223,14.47289482213942,-15.465637302503458,-0.586098308879049,4.402535011533573,9.792286751441676
10.218587841974646,15.015395713034254,-15.993319263210498,-0.6385002830772507,4.51520520663276,10.271488352700038
10.701003438164543,15.553820854681742,-16.51357357866564,-0.6934235848003569,4.623343907742186,10.757651187457428
11.186847798582724,16.084386255454525,-17.022903820408416,-0.7504889569658824,4.726324295088707,11.247375578421488
11.674482555629625,16.60545593892144,-17.519947549323163,-0.8094810673245957,4.824014397966672,11.73900397772151
12.175563430390293,17.129287024309924,-18.016507021537784,-0.8718389235370231,4.918791145402038,12.244284082480826
12.68620819793366,17.651359387823884,-18.508340289588464,-0.9371470550224766,5.009839645899289,12.7592992491689
13.204726705660189,18.1696848226141,-18.993677089290216,-1.005225915392799,5.096880168324851,13.282340772121474
13.724307321106393,18.677487381331446,-19.466350471398716,-1.0751730969639173,5.178926059028841,13.806531066846357
14.242688190003777,19.172883712218972,-19.9248517328349,-1.146631473349785,5.255902485757041,14.329579719880353
14.759484758721802,19.655900901877914,-20.369456153958044,-1.2194848959563958,5.3280536362298125,14.851090092027103
15.27872499465689,20.13056965612277,-20.80408585169083,-1.2942567147622346,5.396179594943345,15.375119276191846
15.674879009789917,20.485723999759642,-21.12783270987898,-1.3523357300736236,5.445359154415665,15.774958048377622
15.71322676461111,20.507647250519533,-21.276457958057968,-1.3585579733781945,5.5806406827974095,15.816783527722084
15.698379827828806,20.446198465360403,-21.697366295193017,-1.3584714892100194,6.063214146885139,15.813363061280041
15.681582299315592,20.370042386714882,-22.170800861955193,-1.358500298060941,6.6130483892377825,15.809584674367477
15.664788872907712,20.286728854333507,-22.641123899282636,-1.358666734461253,7.166927206369774,15.805908868159362
15.64876114678875,20.20038928815192,-23.087155637681512,-1.3589571828876257,7.69952846006427,15.80250000300917
15.640604770928348,20.1538503740082,-23.31305286710144,-1.3591553992833632,7.972081136980206,15.800803965895001
15.637311373127806,20.1345561718554,-23.404056595755115,-1.359245209644793,8.082426026922198,15.800126724023647
15.697323986002335,20.109712508541964,-23.423091297264243,-1.3644772829716556,8.124868125460686,15.861681005290222
16.14349741326701,19.973317037863783,-23.339317461119034,-1.402410058116331,8.166721186405177,16.312788510301072
16.726891058258353,19.78858353637292,-23.225465167097678,-1.4519004147165404,8.223076689756306,16.902763204477615
17.307131561471053,19.59759191078397,-23.10728422718325,-1.5009973160810117,8.280940788434622,17.489698370873935
17.889943635674133,19.398385557560488,-22.983508349375704,-1.5501811408759953,8.340858406005632,18.079388307662246
18.474348650153416,19.191131528629036,-22.85417627656163,-1.5993636586603732,8.402723239558911,18.670848104423214
19.052903037759133,18.978458765467877,-22.720869324802386,-1.6479098576319386,8.465671363406358,19.256551035200395
19.62298672382888,18.761520969624726,-22.584274851800867,-1.6956124521144962,8.529385718839475,19.83383167913807
-0.0018154353811514633,0.0028261661075192897,-0.001676797377985351,-0.005008714434211542,0.0025733760518851243,-0.004982416284916289
-0.0018154353811514633,0.0028261661075192897,-0.001676797377985351,-0.005008714434211542,0.0025733760518851243,-0.004982416284916289
-0.0018154353811514633,0.0028261661075192897,-0.001676797377985351,-0.005008714434211542,0.0025733760518851243,-0.004982416284916289
-0.0018154353811514633,0.0028261661075192897,-0.001676797377985351,-0.005008714434211542,0.0025733760518851243,-0.004982416284916289
-0.0018154353811514633,0.0028261661075192897,-0.001676797377985351,-0.005008714434211542,0.0025733760518851243,-0.004982416284916289
-0.0018154353811514633,0.0028261661075192897,-0.001676797377985351,-0.005008714434211542,0.0025733760518851243,-0.004982416284916289
-0.0018154353811514633,0.0028261661075192897,-0.001676797377985351,-0.005008714434211542,0.0025733760518851243,-0.004982416284916289
-0.0018154353811514633,0.0028261661075192897,-0.001676797377985351,-0.005008714434211542,0.0025733760518851243,-0.004982416284916289
-0.0018154353811514633,0.0028261661075192897,-0.001676797377985351,-0.005008714434211542,0.0025733760518851243,-0.004982416284916289
-0.0018154353811514633,0.0028261661075192897,-0.001676797377985351,-0.005008714434211542,0.0025733760518851243,-0.004982416284916289
-0.0018154353811514633,0.0028261661075192897,-0.001676797377985351,-0.005008714434211542,0.0025733760518851243,-0.004982416284916289
-0.0018154353811514633,0.0028261661075192897,-0.001676797377985351,-0.005008714434211542,0.0025733760518851243,-0.004982416284916289
-0.0018154353811514633,0.0028261661075192897,-0.001676797377985351,-0.005008714434211542,0.0025733760518851243,-0.004982416284916289
-0.0018154353811514633,0.0028261661075192897,-0.001676797377985351,-0.005008714434211542,0.0025733760518851243,-0.004982416284916289
-0.0018154353811514633,0.0028261661075192897,-0.001676797377985351,-0.005008714434211542,0.0025733760518851243,-0.004982416284916289
-0.0018154353811514633,0.0028261661075192897,-0.001676797377985351,-0.005008714434211542,0.0025733760518851243,-0.004982416284916289
-0.0018154353811514633,0.0028261661075192897,-0.001676797377985351,-0.005008714434211542,0.0025733760518851243,-0.004982416284916289
-0.0018154353811514633,0.0028261661075192897,-0.001676797377985351,-0.005008714434211542,0.0025733760518851243,-0.004982416284916289
-0.0018154353811514633,0.0028261661075192897,-0.001676797377985351,-0.005008714434211542,0.0025733760518851243,-0.004982416284916289
-0.0018154353811514633,0.0028261661075192897,-0.001676797377985351,-0.005008714434211542,0.0025733760518851243,-0.004982416284916289
-0.0018154353811514633,0.0028261661075192897,-0.001676797377985351,-0.005008714434211542,0.0025733760518851243,-0.004982416284916289
-0.0018154353811514633,0.0028261661075192897,-0.001676797377985351,-0.005008714434211542,0.0025733760518851243,-0.004982416284916289
-0.0018154353811514633,0.0028261661075192897,-0.001676797377985351,-0.005008714434211542,0.0025733760518851243,-0.004982416284916289
-0.00180187876397861,0.0028521942821836507,-0.0017071419839766167,-0.005008707130258669,0.0025836959704901878,-0.004968821270096688
0.11219131035819066,0.22094131379509507,-0.2556398984323816,-0.005047660624649573,0.08875590488874266,0.10934627473105152
0.35790693741881136,0.685839272318401,-0.7947813736429158,-0.005808988423970561,0.2704507041679738,0.35575149169934994
0.621477787121805,1.1768045238488474,-1.3609563397534268,-0.0076371941913323015,0.45937490889588517,0.6200612245764107
0.8915977925408172,1.6719146818412063,-1.9285870863071555,-0.010575130632328759,0.6468080324773553,0.8909445704660138
1.1680143474806386,2.170363346988549,-2.4966748746594787,-0.014673882526334028,0.8323656715567133,1.1681554471709805
1.4495258960110535,2.669714484811094,-3.0624031153638565,-0.019959941820114215,1.0150930816088184,1.4504960837928051
1.736610642874866,3.170585334841119,-3.6264497241561178,-0.026481684341723075,1.1951855263586981,1.7384532531916521
2.0318491930891747,3.6771215575717497,-4.193414016561268,-0.034354415952078776,1.3740576730466547,2.034623018906488
2.3334494117087106,4.185865340654276,-4.759349739847718,-0.043590986215360984,1.550405646738867,2.337215396948472
2.6431549771394334,4.699387412115327,-5.327050777452962,-0.05430413117270389,1.725046540499844,2.6479876488591363
2.9618459769810475,5.218671331861248,-5.897501632354848,-0.0665985858192054,1.8982049909389265,2.9678313912723238
3.2827676470200204,5.732496108664613,-6.458381028322513,-0.08025193995872462,2.06613176669449,3.2899742514955115
3.614275248136372,6.253965693245521,-7.023979691439935,-0.0956662627251736,2.2330836262014038,3.6228103645210057
3.9552884958073804,6.780809029865287,-7.591708898401998,-0.11288016617930152,2.398199337097213,3.9652642316201607
4.302785582780842,7.307968422136402,-8.156070749456017,-0.13180445015955386,2.5598333762936414,4.314308919757052
4.66158052769533,7.842293877799595,-8.724333392661032,-0.1527739933942503,2.7200075699493733,4.674787904740133
5.028114278408207,8.37799050503775,-9.290258988147333,-0.1756596841378596,2.8768959181411975,5.043133582356959
5.403277463669121,8.915987028448862,-9.854806893531219,-0.20057865455797227,3.0307320971632445,5.4202477714786355
5.789878275367829,9.459796543613555,-10.421596523552727,-0.22779949858736948,3.182436778255713,5.8089610380075225
6.1873768777286955,10.008064370849775,-10.9891277068642,-0.25737829814169755,3.331525719553168,6.208738796794928
6.599262382587556,10.564899767285164,-11.561538189350463,-0.28968483405253037,3.4789804911819093,6.623099047667607
7.013134375070692,11.113211535735042,-12.121284340632009,-0.32380120223001213,3.620278516144882,7.03957145121049
7.442421150544557,11.670434473109227,-12.686188904400879,-0.36089312260311807,3.7599131503938388,7.471672961234314
7.887260905100663,12.235857236149313,-13.255379879571393,-0.4011104767056318,3.897528280015612,7.919551783095411
8.343069349901963,12.80295626366848,-13.822219664790063,-0.4441478770543042,4.0314362877514975,8.378598711530561
8.80713023685332,13.367962308119054,-14.382982708009862,-0.48981186043807995,4.160759516965308,8.846080713087352
9.276210403540967,13.926796940793007,-14.933748380527055,-0.5378096111714576,4.284663196401,9.318740077937807
9.749357727822836,14.478349169912878,-15.473601926176386,-0.5880434891382668,4.403054473257333,9.795614424572879
10.223866591073323,15.019623688635468,-15.999830456425258,-0.6402048497590458,4.515485038844852,10.273972000378176
10.70501231735046,15.556697724508686,-16.518528299054143,-0.6948662564539767,4.623377927514889,10.759126547103172
11.190297429541232,16.08673783808259,-17.02711137839316,-0.7517516868523277,4.726289336046727,11.248555920434574
11.679721724413,16.609788270985323,-17.5257994068425,-0.8108545001269836,4.824380078766792,11.742254856074378
12.182209195613558,17.13512035445251,-18.023524246446843,-0.8732916511604835,4.919448040210965,12.249222298970142
12.694049936014919,17.6584147372016,-18.516243429460644,-0.9386669463817121,5.010721963778676,12.765713035639154
13.21157412109151,18.175742253118898,-19.00038211480801,-1.0065359468231008,5.097608052669374,13.288019153605312
13.728499588090118,18.68098532011246,-19.470424413741362,-1.0760473677763365,5.179266089201966,13.809793154653097
14.247754036343055,19.17726846288317,-19.929505336302395,-1.1475517071855128,5.256411921378533,14.333982297548921
14.764721796976648,19.66048511189823,-20.37405500565824,-1.2203633954665232,5.328622107659306,14.855919137069757
15.281700578025516,20.13314465380853,-20.806614910233165,-1.294747188971636,5.396494799996928,15.377915547090588
15.676157822597135,20.486850130142415,-21.12887396055897,-1.3525298522336622,5.445508247221448,15.77622939157512
15.713173179201991,20.507435210452602,-21.27798113205108,-1.3585574745477518,5.582376679068917,15.816771049767977
15.698214006801663,20.445481032516145,-21.702054246695727,-1.3584711154870543,6.068621941749529,15.81332528337535
15.681482434912276,20.36956857884275,-22.173606702370805,-1.3585008710480544,6.6163294816968135,15.809562505793854
15.66474152493357,20.28648371580049,-22.642445652173237,-1.358667399589417,7.168494778623176,15.80589865168463
15.648674188854885,20.19990224236948,-23.08956779532066,-1.358959117773304,7.702428907297623,15.802481783674036
15.640559025893719,20.153584349035196,-23.31431771297504,-1.359156607140858,7.9736126601525,15.800794528850412
15.637301287222531,20.13449664929934,-23.404335101467648,-1.3592454919021348,8.082764198612153,15.800124656284334
15.699213510448581,20.109143599827085,-23.422742372540213,-1.3646380714698974,8.125043117090158,15.863591250241996
16.14775116452762,19.971996436825982,-23.338505162491177,-1.4027713612266293,8.167125406773875,16.317089709879767
16.728835140186145,19.78795575597928,-23.22507749825965,-1.452065123621089,8.223267553963005,16.904729465963005
17.3136066990605,19.595419737069665,-23.105937399574895,-1.5015444879845472,8.281596555893634,17.496249063845497
17.896176942462358,19.39621453546574,-22.982156495570106,-1.5507064443361875,8.341508940784928,18.085696024485664
18.48278807598546,19.188083106580596,-22.85226974627962,-1.6000728889695095,8.40362957688459,18.6793905849509
19.05726570961442,18.976826250475753,-22.71984372247415,-1.648275435984258,8.466152827773598,19.26096818539943
19.62609511787617,18.760318019611073,-22.5835156928013,-1.6958721755145816,8.529737573204114,19.836979742387214
20.033987684290363,18.60052265720689,-22.48249885823499,-1.7299161543014316,8.57632528756956,20.25012021355149
20.285803734327732,18.49995990828269,-22.4187527649065,-1.7508967642717954,8.60549492135006,20.505217352819866
20.821159587134254,18.281271292837502,-22.279662838816684,-1.7954061413656925,8.66853012496865,21.04765449164058
21.39051578541016,18.04131070368331,-22.126309901103994,-1.8425975241582138,8.737066673474521,21.624701306754584
21.961628051452383,17.792861623881887,-21.966721593013872,-1.8897806850009569,8.807330286944687,22.203695206826723
22.515886054007854,17.544217611243774,-21.806177491547444,-1.935413179220044,8.876905457765648,22.765769911062428
22.83485582431451,17.397726573419263,-21.71120494098564,-1.9616093517506306,8.917579195277812,23.089307663344027
22.81875095736634,17.35558854509208,-21.496452284815092,-1.9593841758960393,8.745615337743756,23.06708625337595
22.766104965587505,17.25408050899271,-20.965822284081717,-1.9529143339000867,8.318536886189225,22.999192541809702
22.710634444176367,17.14211017605844,-20.401301386278888,-1.9462262411319013,7.868132521704291,22.927746669092276
22.65558173202139,17.025890285784147,-19.835459728046366,-1.9397178210126214,7.420633817705768,22.856926382447245
22.60103419070549,16.905727573353605,-19.26926093661615,-1.933394829497965,6.9766945506897535,22.78683763331667
22.546323431897576,16.78018926825148,-18.695742799086002,-1.927177395191771,6.530811111879927,22.71661664831316
22.49230129586482,16.651292477045157,-18.123837836944617,-1.9211594629436837,6.089866445620376,22.647351588314237
22.439033511878584,16.519379613338135,-17.55438724505456,-1.9153425889943825,5.654357152046813,22.57911995718267
22.385970330998514,16.383206422032774,-16.981584348181535,-1.9096627636246872,5.2197419824552584,22.51121198672603
22.333071959162165,16.24270544765502,-16.40497607289126,-1.9041138281154861,4.7856369594137185,22.443572374953252
22.291746433087354,16.129632079883528,-15.950582608774873,-1.899857123723048,4.445876966419132,22.390768125668924
22.27825843957086,16.092096608331893,-15.80152151449245,-1.8984826122514615,4.334859759090446,22.373540446242053
22.26684253164656,16.059912575437526,-15.665638047761991,-1.897302213646207,4.231595418819626,22.358654494345746
22.357916344122895,16.300188885154338,-15.841945433686723,-1.9045062756255084,4.164640400932382,22.4477930968919
22.567124358920328,16.845798123815356,-16.23926532734587,-1.9210387661691992,4.009450186088389,22.652446762085113
22.792404749736892,17.423661790995837,-16.65550087777915,-1.938817071532121,3.8403265685836754,22.872656894010554
22.977386581430203,17.89084444682643,-16.988586975323358,-1.9533970844686537,3.700025405256076,23.053349968699848
23.051668416284834,18.076626892873044,-17.120195213072407,-1.9592474336952077,3.6433470082092443,23.125878390017938
23.058749147148344,18.09798522467004,-17.258283724127768,-1.960074152236439,3.7597667626811138,23.136969460936992
23.037901030012804,18.056766425982094,-17.6943249419485,-1.9595383726182718,4.237460515468004,23.132447010389345
23.01433484844165,18.00393280382122,-18.184354663883635,-1.9591054751110806,4.780812166084703,23.127441618754712
22.990860766606648,17.944604497915638,-18.669407072651477,-1.95886021595358,5.325677097992119,23.12257417255843
22.96736982762108,17.878414123522873,-19.151699985660095,-1.9588046345297339,5.8746426708985595,23.117827758063882
22.944082947549838,17.805940466222694,-19.626685363779824,-1.9589412242205797,6.422577450046892,23.113251864046443
22.920852874043433,17.72671437264274,-20.097368385925986,-1.9592720433140622,6.972958712179553,23.108821841600758
22.89778055849839,17.641049666888062,-20.56169542951491,-1.959797534176338,7.523416887948126,23.10456162447254
22.874772225040182,17.548570905414785,-21.021546129788003,-1.9605217694680765,8.07620888149444,23.100458571675873
22.854675068381813,17.46193047662359,-21.420565227118946,-1.9613218502801792,8.562270205818598,23.096998799845714
22.847315121931576,17.428814880051835,-21.566067616676005,-1.9616546585446062,8.741034806335385,23.095761715160325
22.843170540043637,17.409837276277987,-21.64785529899586,-1.961851559504707,8.841882527342337,23.095072282881098
22.849352001495856,17.41967165741736,-21.72701323584449,-1.9627509871712947,8.910945847756423,23.10371933625247
22.994607506542476,17.797432220361973,-21.99541641457283,-1.973947126586219,8.796676988089198,23.246434306992107
23.220965335052686,18.378522886346403,-22.40438522184241,-1.9913620322527255,8.616846137189764,23.468681309971835
23.45501465231627,18.96984599046203,-22.815720736303973,-2.009328555178074,8.428816958543788,23.698290133298055
23.691625568066218,19.558053443376497,-23.220076295844514,-2.0274519964995346,8.236762594037549,23.930220867419106
23.932987178708018,20.148384448996413,-23.621091409111422,-2.0458999401299267,8.039004193975607,24.166615746578977
24.178409198663765,20.738863392186346,-24.017422545360823,-2.0646192205121245,7.836193974865953,24.40679354711854
24.429098397940887,21.332083256399944,-24.41080202905684,-2.0837014248829324,7.627424362131231,24.65192976281904
24.685642782379364,21.929025167662417,-24.801829396003782,-2.103190506201109,7.412287542400881,24.90259203788157
24.9459294426639,22.524461461781765,-25.187081811849126,-2.1229255612176927,7.192659704398251,25.156710650714846
25.210545371375222,23.11952018527,-25.56734023180518,-2.1429510876404114,6.968168563802593,25.414855440848818
25.47996426506557,23.71499627317991,-25.943140718730177,-2.16330272962317,6.73853341025653,25.67748431647883
25.753502456570384,24.309127086574605,-26.313410519646876,-2.183928710658589,6.504464961745851,25.943927127004986
25.990479608180845,24.815539032657625,-26.62534341769311,-2.2017691142207534,6.301065101129558,26.17459798719563
26.093730351430985,25.03381427015616,-26.758756733985013,-2.209534098637453,6.212293858849991,26.275055906764212
26.08213682725518,25.127660457447607,-26.81454342378484,-2.2084634479480565,6.174709916268764,26.26193250305604
25.670030707413847,25.332336328345587,-26.926421369533077,-2.175621804492884,6.097742744554742,25.84435305575915
25.08124724715625,25.617514268124665,-27.081433160783828,-2.1285375208352146,5.989780209448529,25.24798915418506
24.487389691790458,25.896645484166942,-27.232180420318084,-2.080856614199724,5.883295963227085,24.646767539739766
23.886231273846604,26.17065439630534,-27.379223178168196,-2.032398003617582,5.777990176415257,24.038438313281745
23.28802505877021,26.43491127066888,-27.520151664377273,-1.983980328437143,5.675679534120458,23.43337669952894
22.68216423754834,26.69414876040538,-27.657570889859773,-1.9347663178398675,5.574654280404197,22.82084975204052
22.07761057167981,26.944529850891307,-27.78951207739667,-1.8854751572439483,5.476438732115323,22.209918324356636
21.470143009140347,27.18789992939774,-27.917022951913065,-1.8357660424160573,5.380372519304581,21.596312356715348
20.856528651068746,27.425493907809443,-28.040806544287562,-1.7853659653448553,5.285988621334767,20.976767841660852
20.244306188351135,27.654426849309434,-28.159429959756398,-1.734913787947979,5.194545443010532,20.35889062297482
19.6266667631851,27.87728258622324,-28.274292466910733,-1.6838422110082716,5.105034509322229,19.73580644894387
19.00640733295257,28.09301059022231,-28.384907497837435,-1.6323836910799132,5.017923570247281,19.110335335076822
18.40987445535341,28.292956511880046,-28.486924277489685,-1.5827292450302763,4.936750996285892,18.509027037688803
18.077351262470714,28.401246433981466,-28.54197618150318,-1.5549898921917165,4.892642600493031,18.17393926240075
18.02710905773325,28.320983391963214,-28.37494607098053,-1.550613606355657,4.80726956007862,18.121174786297736
17.937248468888182,28.04055236324381,-27.827419470938903,-1.5425520744702248,4.542697479671211,18.02381248242911
17.845499382459032,27.750407213647584,-27.261321399277882,-1.534350754049173,4.2693081480888635,17.924393806617868
17.75106913348603,27.44766653106576,-26.671059370572976,-1.5259417331521656,3.9844116642835448,17.82205808792262
17.657763944407346,27.14434140796589,-26.080061816237226,-1.5176654876665376,3.6993192310497505,17.720928884369883
17.565938501363828,26.841669916654595,-25.490724467822517,-1.5095528672312941,3.4151792709452113,17.62139012302828
17.475352052793422,26.538952336876278,-24.901668277774498,-1.5015819258734728,3.131319663833369,17.523180386851344
17.386380490922424,26.237550212166095,-24.315525800622297,-1.49378497620993,2.849001738153218,17.426706834281582
17.29722543926226,25.931380327322913,-23.720458796672183,-1.4860044139572353,2.5625197378746587,17.33001875262234
17.209165138874013,25.62480460880111,-23.12494027954133,-1.4783520792879106,2.275950315065526,17.234501552467226
17.121762993553606,25.31633539692126,-22.52607110368511,-1.4707898558839574,1.9878941156611738,17.139681062919102
17.03758066578117,25.015200705133566,-21.94174608504167,-1.4635379910189827,1.7069500338306727,17.048336445183537
16.98540441308052,24.82653418939242,-21.575803896034156,-1.4590592706575563,1.5310610813111112,16.991712049058737
16.96124431073237,24.73864063072547,-21.40536151134135,-1.4569896200924828,1.4491529468315854,16.96548983275952
16.953966519980774,24.688380956508624,-21.31036744704344,-1.4563542469073685,1.4046178175678845,16.95708678124837
17.27515826499796,24.59248461514969,-21.2572129762372,-1.4831482583292657,1.4391220868944303,17.278816616488594
17.860688283416284,24.412389177530816,-21.15706870675778,-1.5318784999867552,1.503667933396826,17.865471574671606
18.465922542802204,24.218990700408657,-21.049063072737802,-1.5820883396617473,1.5726111965183924,18.47206892072301
19.07368793330879,24.01727116793579,-20.935897562519067,-1.6323392148463811,1.644110350730868,19.081413771184813
19.526816388844175,23.861910107913904,-20.848378716857223,-1.6696865849534894,1.6988600364260777,19.535874383106517
19.593144064381587,23.83435522594847,-20.91375837300118,-1.6752195717030485,1.7898219040971555,19.604829405532968
19.573922100902088,23.813377960677393,-21.35292213065143,-1.6741132632631504,2.2503275090462087,19.599082412660024
19.55117751835474,23.782159180410254,-21.87007687737527,-1.6729484121186955,2.79913087697238,19.59237469870693
19.52856407596918,23.744099851807114,-22.381523972505796,-1.6719485475602192,3.3490629180128466,19.5858104840129
19.506182012469395,23.69938222713907,-22.885008038572284,-1.6711179306298756,3.897684078152843,19.57942215414017
19.483896086691704,23.647734165934533,-23.38357612836174,-1.6704518394723373,4.448316043958182,19.573174621697582
19.461787380845067,23.589317992149613,-23.875409078800097,-1.6699536481928074,4.998975768366375,19.567094493726586
19.439897924101338,23.52428030946857,-24.359589374557885,-1.669623988693084,5.5485983210976615,19.561196190554078
19.418885830041933,23.45496240055697,-24.821711419705753,-1.6694645767135634,6.080424727065384,19.555653760886617
19.407909921693776,23.416022484548147,-25.062055408907,-1.669443794642922,6.359909731597137,19.552807037787204
19.39555917746454,23.36993098463535,-25.331630110911266,-1.6694726132309448,6.675801574254613,19.549644788391777
19.390382618473634,23.349889146645232,-25.444338525191657,-1.669501340088574,6.808646191211305,19.54833260807736
19.385982137540772,23.332514089339767,-25.540019570818448,-1.669533549924301,6.921782413774432,19.547223375678655
19.478044556800892,23.292990510193018,-25.549013657205187,-1.6773226345615115,6.967593074506135,19.641283685729782
19.96010139198693,23.11302508700661,-25.445938303043405,-1.7174163018297668,7.03018281832269,20.128651283250075
20.555013362165845,22.883835916268758,-25.314072904434504,-1.7667548952074987,7.109392358238405,20.7303071090055
21.147824519963613,22.6475605624986,-25.177428624525554,-1.8157598925791116,7.190462508170481,21.330050949300617
21.73976741210084,22.403654966589556,-25.035622471615802,-1.864530274710202,7.273521240925705,21.92913228145505
22.28642811655868,22.17122710255008,-24.899779607458107,-1.9094217797852622,7.352073589093647,22.48258035259504
22.550857844649443,22.056291773708097,-24.832345749314232,-1.9310826016178053,7.390668777408167,22.750369148039876
22.952472923417282,21.87857810613342,-24.7277495262973,-1.9639179487534548,7.450112384367891,23.157159872303442
23.527686883511205,21.617350182994695,-24.573260513879816,-2.0108057487586795,7.5368651704141385,23.73996874348049
24.08400806713573,21.357097100994388,-24.41847116691364,-2.05599279472994,7.622550577691582,24.30384174792455
24.37955882562049,21.215648990293772,-24.3337687329895,-2.0799325956178913,7.668610085233727,24.603481822180903
24.34035990255514,21.13481957848978,-24.091656863071467,-2.076017988740909,7.508853446283265,24.558117220133123
24.252765891334995,20.951219759234544,-23.546478363616565,-2.067330131992331,7.150674803433007,24.456781642947643
24.160800680649203,20.75400002741128,-22.967831146455836,-2.0582973698642606,6.772802850373661,24.350440778713885
24.070226845471645,20.55525873392047,-22.39155452054149,-2.049489858310173,6.39875511358856,24.245757623258886
23.980118561288336,20.3530583907265,-21.811837079348088,-2.0408147578645357,6.024693807743743,24.141657752485443
23.890186556492296,20.146751930282772,-21.22676736135052,-2.032243260770462,5.649365830551171,24.037803632426456
23.801325680051065,19.938438157428315,-20.642181231410206,-2.0238589058689613,5.276474392105262,23.935224957431103
23.713595619859,19.728374074208077,-20.058591130691333,-2.0156642883862603,4.906273203233337,23.83398646317454
23.62726712510602,19.517349506244486,-19.477957207620886,-2.0076812850168877,4.539922932459792,23.734396436148526
23.54059868285374,19.301136561538286,-18.888561634585137,-1.9997476021860565,4.169999664494997,23.634442611526033
23.455945482061598,19.0856866291139,-18.306488293993276,-1.9920767800972963,3.806547724681603,23.536837812960126
23.400745119699938,18.942902357939115,-17.923476601080008,-1.9871166990842895,3.5683819189381323,23.473204036973076
23.379561527352525,18.887623026284754,-17.775759618312527,-1.9852220326316294,3.4767340862581104,23.448786388474765
23.365435950382285,18.850112340691446,-17.66296008269526,-1.983933335269949,3.4019796375125493,23.432034193985512
23.48110455307459,19.130745779456024,-17.85782845945778,-1.9930226189258353,3.3122531727234215,23.54482439495746
23.713560998358744,19.687560834920788,-18.241245434443993,-2.0112724522629195,3.130841030831416,23.771374064302186
23.961765500878016,20.27176399189284,-18.63892483374512,-2.030734954725512,2.9356823885973093,24.013095951931348
24.213142223216757,20.85283987472224,-19.029826753582995,-2.050422367145977,2.7366813266130574,24.257727713166386
24.455889353501863,21.40411439841585,-19.3964145576636,-2.0694121576246443,2.5433925025860176,24.493795103005745
24.577378503440823,21.67645775395686,-19.575991146682686,-2.078908352308982,2.4462918493187056,24.611881369357157
24.62158628683087,21.804445192779266,-19.65970747241951,-2.082346680944823,2.400446020993201,24.65446061309185
24.2780692395421,21.876208102491873,-19.6975073015108,-2.055019293990796,2.3789018988685746,24.30988570624765
23.691151936662504,21.993653764517315,-19.758923236513674,-2.008164493930773,2.343708181950646,23.721285555901932
23.092149606265924,22.106848205677597,-19.81753788208224,-1.9601349439574225,2.3098941056835187,23.120723335727618
22.491913353686925,22.213575829500165,-19.872215169204605,-1.9117985460846287,2.2781444124326025,22.519078287282365
21.893383939140826,22.313372320640998,-19.922744409386443,-1.8633893533270742,2.248584952228331,21.91929694280702
21.28760385326453,22.407697089690394,-19.96989060584525,-1.8142012646370633,2.220861549259559,21.31239029885179
20.681322266465777,22.495415843964548,-20.01309744184223,-1.7647753684931329,2.1952966317210674,20.705121551878054
20.073517223928608,22.576689586443404,-20.05246581866138,-1.7150325855239499,2.171857614873076,20.096461784194194
19.467693367656448,22.651099434654608,-20.087816617900714,-1.6652651647415957,2.150676575091541,19.489914373333757
18.855994176477665,22.719583591463397,-20.119606439636158,-1.6148246636295913,2.131469544321826,18.87761227381968
18.243515695476646,22.781505064296546,-20.147552855724328,-1.5641470978605605,2.1144892813591225,18.264644611153514
17.63217933348824,22.8367062948553,-20.17160026176213,-1.5133902013655418,2.099755963839624,17.6529316265579
17.018545327558524,22.885509408852986,-20.191902684286823,-1.462273408701367,2.0871907047188847,17.039025242003266
16.403255327333454,22.92782381759066,-20.208423231176223,-1.4108486276590724,2.0767960542877413,16.423564882131227
15.79092882928111,22.96338250401403,-20.221081952424207,-1.359519309409536,2.0686986238252234,15.811158230485077
15.177993146544916,22.992448293520184,-20.229988546533587,-1.3079866908460038,2.062805800989603,15.198227999958288
14.564437924757584,23.01501931993035,-20.235147074193076,-1.256255081396658,2.059120665238667,14.584757369460855
13.951224403473176,23.031067005553528,-20.23655386100582,-1.204406692433508,2.057616952537094,13.97170305794166
13.340529744029373,23.040595961426888,-20.23424750307239,-1.1526413023956177,2.0583401987205816,13.361229786188762
12.726026710367272,23.043689732943207,-20.22819258483683,-1.1004231753133848,2.061270714533482,12.74700829214139
12.11398639687667,23.040299821638037,-20.218439849795434,-1.0482904775437218,2.066381414541424,12.13530015610654
11.500812441648348,23.03042580719754,-20.20493713180346,-0.9959397727651226,2.0736606392811496,11.522505457568755
10.884519154634873,23.013971671222084,-20.187605445412927,-0.9432128716551887,2.0832097629429422,10.90663019232663
10.271349370941653,22.991096508962983,-20.16660660834775,-0.8906461367711033,2.0948969105180306,10.2939075333389
9.660126558934161,22.961828312939854,-20.141933974888794,-0.8381457721288335,2.108712190027083,9.683154523165651
9.047741730844653,22.926016821656344,-20.113448618680998,-0.785448620806312,2.124685813636919,9.071258360822238
8.43303196854951,22.883529432760643,-20.08105402727734,-0.7324640394993915,2.1429209421598747,8.457048763678616
7.821182591966561,22.834712181215924,-20.045000312725126,-0.6796425032077867,2.1632246825343566,7.845700626921855
7.207906645218923,22.779224888548526,-20.005021413490685,-0.6266200048239728,2.185725161703831,7.232923559104446
6.593783586657376,22.71705900342037,-19.961103097580484,-0.5734520248982352,2.2104061843632925,6.619289578391239
6.119569387918437,22.664514365889154,-19.924503895188582,-0.5323502994608333,2.230901545034035,6.14544142799069
6.036408867360539,22.651313843982738,-19.987242120881795,-0.5251652493390526,2.307605081655739,6.063013458993856
6.030804904049788,22.626696783047137,-20.400707667494103,-0.524855910901292,2.7457205969570064,6.061429115815153
6.023863789759497,22.59003054934704,-20.910385275146304,-0.5245169772413769,3.292105051105708,6.059494767563513
6.01700940074548,22.546980185354208,-21.410992476263008,-0.5242312958101575,3.835802554968921,6.057616648698233
6.010209137180834,22.497404970912278,-21.90494084856683,-0.5239971112461692,4.379365594013092,6.055786586409389
6.003458714666974,22.441285110330643,-22.39255059423136,-0.5238142909371021,4.923134187363971,6.054004423657756
5.996671259439108,22.37776813398212,-22.880049416310737,-0.5236815535266658,5.474189002178947,6.052248947085072
5.989948520758463,22.307698794166924,-23.36008998896408,-0.5236018358282233,6.02433736868185,6.050548101159174
5.983282527678915,22.231035929460695,-23.833259962337742,-0.5235749502280747,6.57420814121053,6.048900722421835
5.9768262227380955,22.14981909083254,-24.288814292371715,-0.5235997123085675,7.111015858237829,6.0473441066493825
5.973300844762537,22.10252737861965,-24.536409146310884,-0.5236348023399137,7.405922298299371,6.046510963024357
5.9722680483894575,22.088274272201144,-24.60878840194706,-0.52364801084753,7.492560471293687,6.0462691947674685
6.259497756416128,22.05556846751137,-24.59183894302626,-0.5487714597641618,7.505631347613619,6.335830832860282
6.836532907114216,21.986017781970506,-24.550909919299155,-0.5992016449588764,7.528477985513434,6.917551484694441
7.439095288546216,21.906721269605473,-24.504169669525293,-0.6518073874859167,7.554462218729043,7.525077090680125
8.038155686816557,21.821097090013225,-24.453608643592723,-0.7040464656297741,7.582443634119857,8.129149179713226
8.640102145149406,21.72820524972646,-24.398649108543175,-0.7564711335360825,7.612710467385913,8.736215131227484
9.242569453130077,21.62830938643707,-24.339418199695068,-0.8088673683857617,7.645124458646944,9.343898227824573
9.847013772007765,21.521085727460814,-24.27570231389868,-0.8613613192313729,7.679829070092076,9.953669839750694
10.44715905235556,21.40763822557735,-24.208126106870967,-0.9134012385389426,7.7164124363717255,10.559205834397337
11.04799678921978,21.28703584151443,-24.136105267511766,-0.9654158515760967,7.7551497842192605,11.165547345827523
11.648488673901442,21.159425044443665,-24.059690740552167,-1.0173067769309119,7.795935046091868,11.77165492217862
12.251930269476542,21.024007622795814,-23.978373720445756,-1.069360370286492,7.839054037926855,12.38085583740963
12.847495572781941,20.883238675734603,-23.89359054025221,-1.1206358996376002,7.883664648536894,12.982227371616982
13.263125014227187,20.7807765931059,-23.831716921907674,-1.1563592129255864,7.91599911562335,13.401983452801861
13.519293315097542,20.715885059455893,-23.792460257865073,-1.178351274813661,7.936417699037321,13.660726587772453
13.81855624914235,20.638269543434085,-23.744626704998325,-1.2040154895514597,7.959981555232808,13.96301235683676
13.808597867573093,20.607986207539664,-23.50557518119382,-1.202559703864163,7.751468370906558,13.948549005638181
13.786678232004926,20.537598357731643,-22.9760959097196,-1.1994174497767478,7.292937011585184,13.916759778967796
13.763917234372373,20.45910603941507,-22.421460803083477,-1.1962438712758916,6.81737401923241,13.883815286403717
13.741173221800008,20.375202212755205,-21.86227493915794,-1.1931622068173413,6.342669586864647,13.850958232674106
13.718569974216821,20.286426294324738,-21.30158395207068,-1.1901870662766916,5.8713268426681875,13.81836360711468
13.69618363587144,20.193227926821304,-20.74134358486535,-1.1873252888637527,5.4048500336853555,13.786136756829034
13.673989264885629,20.095667262110215,-20.181012336763384,-1.1845703716585205,4.942638214594371,13.754237336661237
13.651722087484384,19.992640168366133,-19.61389133825137,-1.181887864584652,4.479103358605647,13.72228148706159
13.629705284475314,19.885718954664164,-19.048215691604145,-1.1793149044096995,4.020900194554544,13.69072962779508
13.608116805977787,19.776011933814782,-18.488728126068686,-1.1768679360112704,3.571658780942084,13.659832071738405
13.595565138762957,19.710017078291518,-18.161224104048166,-1.1754795645580507,3.3104624363796047,13.641885453361438
13.59111882607417,19.686249506486963,-18.044815362913177,-1.1749937707011664,3.2179319712031433,13.635530974847274
13.642927006080031,19.908048522440495,-18.191191845256807,-1.1793026163868603,3.141461224368573,13.68583397137513
13.773267558570488,20.460354430897,-18.56381360310355,-1.1901560429060893,2.959121265031459,13.812546343918543
13.903266180158017,21.002504366511616,-18.925486465113355,-1.2009820400405502,2.7759720408418307,13.938831080378415
13.959998475870853,21.236429661001257,-19.08029039658905,-1.205707068603445,2.695677239166286,13.993913376202517
13.959203600544727,21.243248858187904,-19.25997210045583,-1.2058162239028554,2.8685181613206217,13.99676080005205
13.944878948039728,21.208701072402256,-19.72809800872266,-1.2051784352310007,3.371381814311732,13.993017667385338
13.929440226415696,21.164927108299565,-20.229916968526855,-1.2045997568836406,3.9171786576490373,13.989052420548276
13.91415283501939,21.11476359561136,-20.723993700519138,-1.2041402689260516,4.46161995410028,13.985200386352338
13.898973859626125,21.058103749864635,-21.2117354999232,-1.20379835847257,5.006220330802203,13.981452823795715
13.883710775586739,20.994103607169766,-21.699282399025837,-1.203572110420807,5.557966266606064,13.977766098916753
13.868660854960353,20.923956062936995,-22.177121113495065,-1.2034672405676243,6.106147679393213,13.974215114335665
13.853708294173124,20.84719606592923,-22.648962853817032,-1.2034821827609794,6.654942321371014,13.970774123489958
13.83877207340824,20.763345038384877,-23.117341318150093,-1.2036186585320041,7.207363483432793,13.967427746586882
13.826214891151409,20.687193025430254,-23.50879406596261,-1.2038297239580649,7.675128562093522,13.964687870394238
13.821980391237437,20.660331710742458,-23.64031378321911,-1.2039211042125266,7.8335634815893425,13.963779577412605
13.819131839322438,20.641923805504206,-23.728648391606225,-1.2039883767774333,7.94034219503594,13.963173097585402
13.845439990411608,20.754881547104944,-23.82293549419266,-1.2061804281197266,7.921123058645834,13.989294787265532
13.961690374028777,21.255199230729765,-24.153358496617805,-1.215609172745159,7.7488124075970415,14.102831487924421
14.106604299284488,21.869819602603805,-24.554590708861138,-1.227355772587151,7.532386525524951,14.244247520511403
14.253370518220727,22.48228657906552,-24.949312340964248,-1.2392458500043644,7.31153518127867,14.387344003837338
14.402749220710138,23.09557013709346,-25.339484825337674,-1.2513419807576562,7.085232419120019,14.532859634674502
14.554178609179298,23.70714397837011,-25.723541407729506,-1.263599699484153,6.85444837661704,14.680244477558018
14.705887002171787,24.309870457179233,-26.097158661853385,-1.275876746308635,6.622034797784221,14.827774551969203
14.800676402796233,24.681503342213574,-26.325122812044267,-1.283546488122866,6.476285442614317,14.919890567152802
14.78923870603725,24.785942397651315,-26.38830846120418,-1.2824724648280998,6.435298851382839,14.907457755610164
14.382079336317187,24.894352157796142,-26.448161562121093,-1.2478075557597457,6.395747341793967,14.496907884666216
13.772041038920863,25.05064801944509,-26.53419393892301,-1.1957690027226509,6.338513447898403,13.881929383769988
13.162663630641795,25.199497963541045,-26.61584420030677,-1.1436703865725846,6.283774268645987,13.267778709708393
12.546798966321422,25.34261204100765,-26.694084483313336,-1.0909036249473147,6.230900413586239,12.647250798714744
11.925763318674099,25.47955041611265,-26.768712853061167,-1.0375841908346892,6.180143790088846,12.021662803048828
11.303866189282223,25.60931939054855,-26.83921895089872,-0.9840851501540021,6.131869623130416,11.39535429859032
10.684377259877188,25.73132663560072,-26.90531727869991,-0.9306934178916173,6.086328097831096,10.771610466347479
10.06144631691601,25.846762846313446,-26.967682617262774,-0.8769106092142064,6.043070270556322,10.144536899939457
9.440373172323094,25.954679528022606,-27.02583921264144,-0.8231980876583141,6.0025390624680455,9.519456018092747
8.818435776641019,26.05561628642895,-27.080103947579047,-0.769326479418167,5.964524222133362,8.893623362753939
8.194305932016928,26.149781715407567,-27.13061166844494,-0.7151870520061138,5.928936738265693,8.265698144636419
7.568397768515309,26.237096503685617,-27.177350073389825,-0.660817815955624,5.895889061155555,7.636085636850846
6.940808141678064,26.31752818314827,-27.22032088501875,-0.6062333467136661,5.8653800101523,7.004878695508408
6.483488310623324,26.371671498602588,-27.249202208465107,-0.5664176550263907,5.844806771380799,6.544979614040781
6.421115545369581,26.36131681023488,-27.158096976222033,-0.5609076463798877,5.764674804285065,6.481496207791315
6.411376345720243,26.275135002669845,-26.694075664772665,-0.5596990101637701,5.386948716343806,6.467997696116685
6.399677975221648,26.16679048713137,-26.132331224456834,-0.558281721351028,4.933684636872678,6.45180905914337
6.388078823250676,26.05419340484526,-25.570586434062797,-0.5569131415738501,4.484671213406855,6.435783629395943
6.37647081135601,25.936382108776954,-25.003611133893205,-0.5555796420539908,4.035641196643809,6.419770399731368
6.365031298308346,25.815286440756815,-24.440114897490822,-0.5543004522642936,3.593372286364994,6.404012207322192
6.353603450356585,25.68938523958801,-23.872430426065268,-0.5530568512522416,3.151720165835294,6.388291188011049
6.34230409989554,25.56007496815241,-23.30639452189966,-0.5518606037923731,2.715123847044632,6.37276643536591
6.331020420568057,25.426172560184128,-22.73638931204998,-0.5506988462414693,2.2791498277564526,6.357281346164971
6.31980842092552,25.288411568485568,-22.16524164147269,-0.5495767177057954,1.8458907711004093,6.34191139067764
6.310092047617877,25.165239549235114,-21.66639611045197,-0.5486301068604362,1.470327586078727,6.328604326183004
6.3062577337093675,25.11566633684568,-21.468537154062,-0.548263124088315,1.3220853112282542,6.3233560869191185
6.317685335139223,25.21453354581942,-21.510480041580216,-0.549241004474631,1.2650543140914439,6.33421710883762
6.374003166647635,25.7057710425202,-21.80608151049224,-0.5540820598381675,1.0688859804143345,6.38853573522275
6.444486534383048,26.310324013294398,-22.165471475764395,-0.5601482810530666,0.8230505078991018,6.456467239128601
6.491978449764737,26.711395726007517,-22.401230524735396,-0.5642406028885198,0.6572808040781353,6.502209177613951
6.497270401489152,26.765187295772883,-22.517134834074138,-0.5647061913258574,0.7193385017405095,6.508098763699472
6.49045939538281,26.755279340964726,-22.96094870022121,-0.5641897311018209,1.1731052378943234,6.505776047269969
6.48225376206361,26.736871677060332,-23.493389216115215,-0.5636155527482198,1.7240073447005346,6.503008844365971
6.4741032538586785,26.711422763397167,-24.01976656332284,-0.5630983327052783,2.2758869612111545,6.500295817450981
6.4660631316625565,26.679148509448403,-24.536530264113726,-0.5626412092014552,2.8249773353952192,6.497656328240487
6.458051927410037,26.639731708983273,-25.04892241322301,-0.5622394723329347,3.3768382953572846,6.495064758485108
6.450177567179361,26.593753397630117,-25.550059050160378,-0.561898200092748,3.9240041416215874,6.4925569084454855
6.442302893808461,26.540423872586434,-26.048673741890635,-0.5616114438047272,4.475999026649279,6.490090190492209
6.434673241919492,26.481574073405337,-26.52929082477408,-0.5613869954666136,5.015514770009917,6.487741610433442
6.430202066269198,26.443734546419627,-26.8097854256008,-0.5612804477052591,5.333877422652988,6.486385042683158
6.42599323979264,26.40581362652349,-27.073025317869885,-0.5611973484649702,5.635065010082723,6.48512188801507
6.423584723195634,26.38309762486644,-27.223313752358337,-0.5611573967187876,5.808084734734291,6.484405213181293
6.428707962410887,26.428837035048346,-27.28239389974188,-0.5616166584555963,5.8213746065724195,6.489685622582234
6.477263697643076,26.86227912964987,-27.53550590905224,-0.565664498979582,5.640575350826328,6.536695477368649
6.548602078588934,27.489903111371284,-27.897701725424145,-0.5716160875640088,5.374451876735334,6.605711189967083
6.6212492211469565,28.118054824763384,-28.255126635174534,-0.5776828907363266,5.103009672870987,6.6759316200158425
6.69612169612568,28.75413968279052,-28.6119248315604,-0.583942526838596,4.822977953433776,6.748239900454096
6.772693515677853,29.393092247245963,-28.965158261401854,-0.5903522131363059,4.536488724431543,6.822124824741895
6.8505612479945075,30.031169923500787,-29.312768360706702,-0.5968792833896333,4.245229595833039,6.897195133743412
6.92137139598377,30.601438985405448,-29.619120127285406,-0.602823072916372,3.9805851202897333,6.965405983303637
6.9600154867622654,30.81043495371941,-29.730453065852654,-0.6061033799818978,3.882519782972282,7.003099946912696
7.3036280388122075,30.76923069734923,-29.710705869377943,-0.6359035582650047,3.9002533821972136,7.347659036104588
7.920200595035746,30.690196881817556,-29.67277282110133,-0.6893240297632172,3.9342244622053633,7.96600838985034
8.568498324568377,30.600001767064057,-29.629392843724716,-0.7454153899006831,3.9729227475350317,8.616290590761764
9.219013027458772,30.502136730969717,-29.582212261077252,-0.8016107898569057,4.014795965071194,9.268927657381619
9.86612815204216,30.397420358046144,-29.531606790007796,-0.8574212238011726,4.059536166791579,9.918290218449362
10.515800374293304,30.284842468752363,-29.477057565800045,-0.9133533177121721,4.107522254981205,10.570366771411312
11.163393837096443,30.16513540020431,-29.418886284366653,-0.9689994671921913,4.158387440383565,11.220516305457458
11.813237963528298,30.037435456445575,-29.35664708607113,-1.0247294530778746,4.212535497665707,11.873089948454341
12.461133384151596,29.9024905921008,-29.290666602018486,-1.0801750883656849,4.269590715690375,12.523882578207981
13.107500193307148,29.760197969971724,-29.220856022598394,-1.1353642062989977,4.329537306709856,13.173326981354748
13.754208546252881,29.61009485959379,-29.146955782602806,-1.19045654801739,4.39260182414541,13.823304762097829
14.390594829438326,29.45475244695959,-29.07019343892668,-1.244538233535935,4.457644634289625,14.46310573838317
14.939782762843047,29.31454293684269,-29.000661773110785,-1.291100549549928,4.516155772693833,15.015404508856554
15.18765758632031,29.24937378691082,-28.96826047042735,-1.3120783806287528,4.5432573103120575,15.264738275587153
15.668862735847336,29.1194964440996,-28.90354181459773,-1.3527482604976702,4.597210424511426,15.748862349742987
15.9835766174075,29.032134117037746,-28.859895035877933,-1.3793015533494384,4.633411906341141,16.0655534462926
15.952432675979942,28.910927873746285,-28.629651171354695,-1.3764740716699309,4.5251550698517375,16.031687973388053
15.871854251683935,28.6235271882923,-28.08102883462681,-1.3692204696860537,4.265939660068082,15.944618537400094
15.786448070321695,28.31489573697479,-27.49196366446127,-1.3615593461624025,3.9876213289094857,15.852319318768517
15.701855959272581,28.0050449464448,-26.90065443748346,-1.3539993880671706,3.7082469031352687,15.760885730209667
15.61883758117497,27.696840254024135,-26.312564364275723,-1.3466079919365026,3.4303959157694996,15.671138622220266
15.536535260375024,27.38717453742076,-25.721759984495034,-1.3393083435899886,3.151263495272078,15.582150544956038
15.455673994271736,27.078844724328356,-25.133573209202048,-1.3321643473443316,2.873367368238524,15.49470512038797
15.375247970206933,26.768065387892996,-24.540778998718434,-1.3250868766652182,2.5932926723720233,15.407714301016284
15.295669482954422,26.45643466318351,-23.946422849088624,-1.3181122581752873,2.312477065823602,15.321623528827669
15.216746563582744,26.14322380312275,-23.34911186953999,-1.311223591805435,2.030261295517783,15.23622468873854
15.138937429101595,25.83029665623632,-22.75239739173466,-1.3044606461627022,1.748322233859405,15.152013257938622
15.063864224363638,25.5243904021994,-22.169121333063526,-1.297963028041977,1.4727267843201004,15.070745267976912
15.01673938658308,25.330329292590683,-21.799126610865283,-1.293898481088981,1.2979024905876617,15.019722613979999
14.994975353589362,25.240166188983583,-21.62722888766795,-1.2920250589732165,1.2166790311790747,14.996155939779182
14.814591015013427,25.208263382358812,-21.592726585505712,-1.2768263456419724,1.2181186348002773,14.816076947406893
14.278866041239384,25.138393557982035,-21.543139930708854,-1.2316267969449732,1.250109324266471,14.281861424162043
13.658744957902961,25.05132547154544,-21.482224232786773,-1.179173344197572,1.289286501798775,13.663488430196901
13.040461196645705,24.95786378784347,-21.41768601469067,-1.1267385459153594,1.3306317315516858,13.046941221243532
12.42039292079651,24.85741591323505,-21.349091375796387,-1.074016487161667,1.3743476013365363,12.428600058587453
11.803010973354112,24.750680681632858,-21.27689759310639,-1.0214032887371032,1.420161850268371,11.81291669793476
11.181939248850137,24.636485651591162,-21.200284743081486,-0.9683562055777336,1.4685132155775311,11.193524447177953
10.563914536666047,24.51600548027062,-21.120014067917452,-0.9154564073205808,1.5188693936590518,10.577134270783723
9.942495401324573,24.387917628410204,-21.03517202728942,-0.8621548590195321,1.5717154964772542,9.957312928087118
9.324832806882158,24.253646460213332,-20.946675284579978,-0.8090783532013843,1.6264883248772994,9.341187918763861
8.705212021234946,24.11191169326578,-20.85364108209945,-0.7557383228477563,1.6836421553040122,8.723050241236525
8.087290089568038,23.963476274789485,-20.756533946692624,-0.7024554273690751,1.742827309713766,8.106540706517332
7.479360936814296,23.810461572581914,-20.656695222658925,-0.6499530697792562,1.8031735547608503,7.499928983748917
6.870037806302904,23.65007167169944,-20.552252688742655,-0.5972531613674199,1.865721764162673,6.891845535028815
6.271390690494191,23.485574193995813,-20.445294509934868,-0.5454111202803265,1.9292292136848754,6.294334630851159
5.669801540720972,23.313278919593827,-20.33337249100873,-0.49325198853642654,1.9950554400119591,5.693797079147446
5.069003917864538,23.13413442201367,-20.217057990888105,-0.44110448254744217,2.062785740315159,5.09395282683599
4.481203529497362,22.95193608487875,-20.098764296453734,-0.3900342288165151,2.1309283330145643,4.506982655482364
4.104715644930459,22.831600467942195,-20.020618588859744,-0.3573006596538653,2.1755759970458195,4.130973436559531
4.086075142570106,22.817748561477337,-20.173365477845888,-0.35571975322720384,2.342287736404341,4.113378039341215
4.081746649247617,22.78899590771802,-20.642962789004358,-0.3554828670342858,2.8406549414827276,4.112146963295153
4.077058741550268,22.7513377236936,-21.14899026250365,-0.3552578920124307,3.384359198848838,4.1108338684825085
4.072408957529762,22.707147487823725,-21.648219700848188,-0.35506790082266376,3.9277972445130924,4.1095533481421445
4.067787484159561,22.656331750834948,-22.141709602969676,-0.3549125391720277,4.472121063658993,4.108303417228968
4.063150150805631,22.598282325937866,-22.63413282356179,-0.35479098806998177,5.022611868301645,4.1070732621655655
4.058553067109365,22.533605463183402,-23.119497034112875,-0.3547052823050997,5.572670857212212,4.105878825192564
4.054019257611165,22.46271382267515,-23.595408405249717,-0.3546555385542711,6.119491450462601,4.104726498844996
4.049472250969226,22.384376267475666,-24.069881927055263,-0.35464123834182504,6.672320069375933,4.103597705478617
4.045368956190024,22.307329767879263,-24.495577904674278,-0.3546597113528507,7.175078295422005,4.102603278244114
4.043746150732822,22.275168640695174,-24.66327685740538,-0.3546753982178595,7.374944581877522,4.102216563754697
4.044604891452194,22.285284877055847,-24.727726429862884,-0.35479437108779865,7.429271555335194,4.103421162017613
4.069876149734544,22.65931277078984,-24.96678840398196,-0.35690119546688254,7.294151261122473,4.128034583761778
4.111623473851712,23.269377442347373,-25.352661306113813,-0.3603820669786156,7.069702495637726,4.168665416359844
4.155062732694173,23.894049781398454,-25.742594239322255,-0.3640049757406289,6.8346930686401715,4.21090439706573
4.199287095014837,24.519673417451237,-26.127899828889124,-0.36769478801847044,6.59409738770562,4.2538673950024615
4.244379683048844,25.14710555954727,-26.509103710262274,-0.37145894091091164,6.347583203674752,4.29763394565274
4.290398589185478,25.776793916078223,-26.886459614138765,-0.37530282444694535,6.0949560002040775,4.342259066527599
4.337347234633104,26.408413348967642,-27.25975429965382,-0.37922730116444026,5.836327473413153,4.387744674866984
4.385172507433443,27.040901701712343,-27.628358713798725,-0.38322853445210203,5.5721308923657515,4.434038015760573
4.4339018075981524,27.674291261074504,-27.992303584463322,-0.38730944560715047,5.302364340273519,4.481164389977845
4.483809334040338,28.31172295655977,-28.353367267693585,-0.3914936963335232,5.025663219162135,4.529387411499452
4.534651237624688,28.949658205448788,-28.70952425764073,-0.3957615783731413,4.743542012535844,4.578469903284121
4.586419941513004,29.58767277443677,-29.06056544168474,-0.400113183030358,4.45621569392315,4.628403362701573
4.638914854506761,30.22304192428901,-29.405056657484025,-0.40453236181099617,4.164976028417936,4.678993420970569
4.687656153262303,30.802787811876456,-29.71498287577651,-0.4086417919611866,3.8948170262048745,4.725927579444304
4.706922255605634,31.029214454862135,-29.833043999122037,-0.41026700498032914,3.78631650416624,4.7444563596693055
4.694543619905469,30.87560834709948,-29.560303159050186,-0.40913393427386996,3.667273416823993,4.731200561861017
4.66939490327443,30.560840442924203,-29.000736957205895,-0.40683708343218533,3.4226605592279444,4.704264636302201
4.643293452451138,30.230244760473024,-28.41208782318056,-0.4044606626754998,3.164798512846587,4.6763008479447965
4.6174785838292935,29.89926813853705,-27.821816177458057,-0.4021180217013256,2.905691730798144,4.648636471519739
4.591916770860922,29.567503685263027,-27.229217465753692,-0.399806112704466,2.6450428284557,4.6212356241237
4.5666627913138775,29.2356921031685,-26.63563660043562,-0.39752987088822755,2.383455652718404,4.594157076410946
4.541621284525081,28.90260188709286,-26.038889872435316,-0.39528069755259876,2.1199787187928103,4.567298607804789
4.5169973052273376,28.571011374573867,-25.443979601401075,-0.39307694892886796,1.8568345759910077,4.54088023113444
4.492714363355185,28.239975330839503,-24.849240827917463,-0.3909116507271321,1.5933040898731876,4.514820021528867
4.468697796693242,27.908525403199082,-24.25295656698317,-0.38877808498540106,1.3286391930142503,4.48903791894898
4.445053579580168,27.57818459931087,-23.657890794900386,-0.38668558335532305,1.064080143147506,4.46364777142859
4.421714603129096,27.248087983727405,-23.06251098011476,-0.38462809902918105,0.7989598534884965,4.438577617087282
4.4038482456800505,26.99263126998677,-22.601251092371758,-0.38305858456912084,0.5932808075325972,4.4193806382330045
4.391525367234563,26.83468982262551,-22.46255737820031,-0.3819889854111365,0.6126102389895521,4.407222019647607
4.3508478131349,26.32578030694189,-22.1639575034328,-0.3784711085498252,0.8231847574772827,4.368051837449898
4.302463618889483,25.709870072110995,-21.797994501611566,-0.3742926426042556,1.0734440177132005,4.321425604323509
4.254762996826583,25.091104008749504,-21.42525889361947,-0.37017922275872756,1.3197788649696256,4.275419911857064
4.207870663780881,24.471321590131314,-21.04678526796632,-0.36614104458550106,1.5613837677947147,4.230155798302013
4.161943064862479,23.852925418040645,-20.664019869960974,-0.36219098752292184,1.7973015564106445,4.185785408061628
4.117406158295695,23.24221390313762,-20.28094913137202,-0.3583650268346668,2.025217817197247,4.142722145474501
4.089381917819448,22.852223888579047,-20.03368354970448,-0.35595973141696813,2.1681141615113306,4.115606365370874
4.0862330785382115,22.818691666203502,-20.156123012061666,-0.35572371280200227,2.3241023855465626,4.113428789054364
4.081988859507052,22.790759621234493,-20.616673794688634,-0.35549017394935617,2.8126021204963982,4.112220802273587
4.077293381858974,22.75339068498935,-21.12364892129399,-0.3552631373903876,3.3569648171384436,4.110904391993419
4.072628666176939,22.7093977585925,-21.624607554841074,-0.35507088825786276,3.9019348114116736,4.109618563242731
4.067999274140112,22.658821902396888,-22.11906408843747,-0.3549136688749647,4.446985416220331,4.108365300445092
4.063372196840402,22.601236672349817,-22.610522595378722,-0.35479074754377316,4.996047276222927,4.1071366108699445
4.058786635346177,22.53707908399473,-23.094802877680895,-0.354703507602463,5.544503021950271,4.105943802456916
4.054229798481494,22.46618065101236,-23.573262427399868,-0.3546517743094437,6.093878679965267,4.104784236893759
4.049714322874748,22.38875123232777,-24.04458127183006,-0.35463577064896096,6.642644367994418,4.103661804903591
4.045502603673856,22.309957720065977,-24.481632046668437,-0.3546532971702854,7.158504823819219,4.102639900714508
4.043703729695119,22.274338556519634,-24.667535256333124,-0.354670528174427,7.3800340773778075,4.1022110690813065
4.022872417948059,22.26659205232186,-24.715643032351842,-0.3528891216323252,7.436016122887009,4.081571536681902
3.6309910205441147,22.294043798473627,-24.73170691082657,-0.31851457767797864,7.426929223256222,3.686668916274535
3.028675022396271,22.330730066585833,-24.75315953265365,-0.2656568749251489,7.4147739307582565,3.079740601924187
2.422275865453194,22.360940052199634,-24.770812266595286,-0.21241529501141074,7.404754917867399,2.468730424001059
1.8109775852963563,22.384577613466735,-24.784616516774925,-0.1587227923929732,7.396910381281499,1.8528103470842792
1.2045508032208834,22.40127199408038,-24.79435874658547,-0.10544495121167907,7.391337479607156,1.2418171385907473
0.5960420507076417,22.411274084164152,-24.800196075693886,-0.05197190425963117,7.388018463682132,0.6287405903539516
-0.012051127885983389,22.414516803826945,-24.802088805755048,0.0014698092315159849,7.386946774870852,0.016089248984979865
-0.6235316491674073,22.410972270642695,-24.80002151557117,0.055209230510445746,7.388132422639963,-0.5999749422207983
-1.2297488372924725,22.400717672788222,-24.79403517870329,0.1084775953442077,7.391517886692494,-1.2107449195214495
-1.8392305308050823,22.383642892484197,-24.78406914790485,0.1620255468813489,7.397199682091636,-1.824815392705117
-2.4467372986451754,22.3598631188895,-24.770183080716958,0.21538452386633533,7.405104760004202,-2.4369160116332935
-3.0550534751414475,22.329278251832392,-24.7523123333175,0.268793972112845,7.415261265073297,-3.049858697238639
-3.6532340666685266,22.2925785383386,-24.73085033444535,0.321285080715892,7.427410692503826,-3.6526229117503095
-4.02636797861589,22.26635378541893,-24.7155043213539,0.35401403627721245,7.4360917446962125,-4.028634404051699
-4.041410042147284,22.240396693040914,-24.54528633654779,0.35521723336329625,7.29174089675637,-4.042888427656444
-4.035103666814287,22.164066507029577,-24.039518561315358,0.35433460507615283,6.862350487918851,-4.033859958186134
-4.0281642467060665,22.074832044304376,-23.47824171548173,0.35338851995976156,6.390359865370814,-4.023943516613292
-4.021288928077263,21.981033048790948,-22.917205186518142,0.35247679097303475,5.9231734564048555,-4.014136684876931
-4.014462649949519,21.882621797822594,-22.355250889376883,0.35159645255177296,5.459681017580809,-4.0044166218204165
-4.007727196678457,21.780383818962356,-21.795917223796227,0.35075183196117543,5.002635118856135,-3.994841439331963
-4.000961355562881,21.67256883206445,-21.229150889788578,0.3499271255399041,4.543733641209417,-3.985237751924985
-3.9942396150121673,21.56039589339844,-20.66115067672388,0.3491310935079212,4.087955771873962,-3.9757104124694185
-3.987625485675727,21.445110340135702,-20.097394029477268,0.3483702494640369,3.6395331590771427,-3.9663481757757975
-3.9810022896250996,21.324799964872845,-19.52798641874663,0.3476304748164774,3.190484341673811,-3.9569848227584274
-3.975909203019491,21.228978009560855,-19.086767457948422,0.34707654390557363,2.845124481954433,-3.949792107493675
-3.9750221337864646,21.20963804549184,-18.969466442363593,0.34697031703777576,2.7471705833796918,-3.948310960869756
-3.9964911790596935,21.523338544188103,-19.175566200663596,0.348808273557007,2.6394417397879866,-3.9691326074349425
-4.036937498851963,22.106747116621264,-19.55527012147371,0.35227297104009375,2.4354939836040206,-4.00833437765312
-4.074942074850627,22.646098904881534,-19.902159851257156,0.3555311930880739,2.2428013945833087,-4.045140495965089
-4.08759890042562,22.825166364170073,-20.03392218515312,0.35662093355606633,2.195418714788137,-4.057497856961706
-4.084544599310959,22.806640713390532,-20.366311601906474,0.35644534258901717,2.546345975882325,-4.056628410955946
-4.079850651380826,22.772604114903206,-20.87494805919889,0.35620248470569965,3.0890377105789657,-4.055309237335159
-4.075177192862388,22.731888506360928,-21.378682995842635,0.35599381307513117,3.6335067772833183,-4.054017338567832
-4.070538952274204,22.6845963470041,-21.875924176606762,0.3558201439774628,4.178058421066134,-4.052757589053398
-4.065939493566494,22.630781395452665,-22.366300924819008,0.3556815833081909,4.722268190987908,-4.0515316164161135
-4.061323400744002,22.569694341834797,-22.855685772376972,0.35557703533265816,5.2727581435576,-4.050325715788044
-4.056746752404617,22.501978230135368,-23.33809765413814,0.3555083613991696,5.822903947368321,-4.049155609631754
-4.0522254186000355,22.427937286392183,-23.811892917639153,0.3554755924705471,6.370757661214516,-4.048025831926932
-4.04769832480213,22.346535270634714,-24.283458806213975,0.355478622516579,6.923743002628883,-4.046921986071172
-4.044569765930765,22.28594995575045,-24.607657959202726,0.355502172552178,7.308539465142745,-4.04617584797768
-4.043620481762708,22.266857517189603,-24.705751717763224,0.35551284510514725,7.425729292510868,-4.0459522316193794
-4.052995375391993,22.405630550461343,-24.804853491980914,0.35630268607313853,7.38600068908611,-4.0551490994772506
-4.088518656603128,22.92876245312511,-25.137837562482552,0.35926415758834124,7.195635192925084,-4.089736213677725
-4.131667675373942,23.554795344600933,-25.53147417843398,0.36286206857043085,6.962972132917954,-4.13171229724466
-4.1752657891492015,24.17711884143456,-25.917575616042868,0.3664986018425938,6.726477845576861,-4.174086305354167
-4.219915600529437,24.804064759909327,-26.301331282930477,0.37022450086400666,6.48300602130168,-4.217442887794009
-4.265429687438974,25.43259567616892,-26.680837512206757,0.37402465585793643,6.233691419689729,-4.261598508292615
-4.311771538928382,26.06188495117236,-27.055598065877625,0.37789656554018713,5.978864512195877,-4.306516529763925
-4.34507027681553,26.507560213275372,-27.317880013572363,0.3806805871830624,5.795255070015637,-4.33876743908666
-4.2627705570005405,26.581513055129097,-27.360794229675726,0.3734709577707919,5.764758980029566,-4.255851691190377
-3.7844113124739756,26.61526168540257,-27.37869121359153,0.3316626102968121,5.751852463085219,-3.7750207212977234
-3.156110173125115,26.65346106362528,-27.398931630805272,0.27671898372408393,5.7372312653095765,-3.1435157988367743
-2.5268343887489686,26.6847615491864,-27.415503322236848,0.2216608107409863,5.725241255235807,-2.5110723796209813
-1.8995876990262976,26.709047044811992,-27.428352840011875,0.16675675032699275,5.715933334285876,-1.880701097161107
-1.2694292382163597,26.726502881491598,-27.437581318473264,0.11158109949636683,5.709210458286819,-1.2474291216145867
-0.6407345038469616,26.73699821869886,-27.44313025431492,0.05652101455082845,5.7051883363644285,-0.6156439813722389
-0.013690560724904538,26.74058338484718,-27.445025802569095,0.0015994568438421784,5.703818789497809,0.014473881657899632
0.6171434690911731,26.737256083838716,-27.443267666202402,-0.05365432219741395,5.705103487817081,0.6484001948855531
1.2452708869206286,26.727028046356416,-27.437858045335183,-0.10866330575415437,5.709006042891755,1.2796146975516403
1.8724282327221382,26.709932497494158,-27.42881821579147,-0.1635778564619788,5.715573923601284,1.9098703208280496
2.500181959080227,26.685921909202175,-27.416115550491227,-0.21852751374338433,5.724790745469999,2.5407495036137746
3.1313445534045043,26.654810536559207,-27.39964556334495,-0.2737524678278077,5.736722792526424,3.17508717688381
3.7582209224524488,26.616974666034096,-27.37959642401408,-0.32857037717251464,5.75118842789207,3.805158578759609
4.254285994325192,26.582127656424543,-27.361118331757947,-0.37192765983560455,5.764526479820475,4.303785125338817
4.34740288297833,26.542604621999054,-27.29384825145801,-0.3800429082336142,5.7361693809208285,4.3971794278918
4.3304057622907886,26.317668581359808,-26.85226649307979,-0.37841716424352223,5.519641049681273,4.3786595849028
4.308023708032121,26.01788728013755,-26.26401064029566,-0.3762844334240112,5.231320353384351,4.354270106746196
4.2857609727452735,25.715580527872056,-25.67108965774465,-0.3741723400343062,4.940858345686568,4.330007854835015
4.2636636319828956,25.411360544505225,-25.074702300511472,-0.3720852606326848,4.648841262898057,4.305922849458277
4.241921610420992,25.107895706618763,-24.480073196713718,-0.37004099053037537,4.357824093533015,4.282221955465484
4.220430049959581,24.80380214104193,-23.884482803435272,-0.3680294717648011,4.066471910198185,4.258790748021871
4.199271671896314,24.500325774275627,-23.290364035480813,-0.36605825991867924,3.775971175718267,4.235719297747119
4.178330254757919,24.19586745771573,-22.694579631582748,-0.36411635984432844,3.4847845847618744,4.212880756621391
4.157651996498481,23.891147706818046,-22.098534358883853,-0.36220793247254723,3.1935961064303786,4.190325377110804
4.137150903964039,23.58493725328162,-21.49981937134399,-0.3603249446174225,2.9012267557033344,4.167959221225973
4.116909866393503,23.27851353821946,-20.90092811689733,-0.3584749116136569,2.6088920153707593,4.145872584485572
4.098993252138194,23.003806203283364,-20.364224869771352,-0.3568450097451227,2.347013097433576,4.126318619275238
4.091112365087382,22.88192156770803,-20.12615485911102,-0.35613039505104255,2.2308790192312546,4.11771636772952
4.071288647488468,22.82717856723924,-20.017665551700787,-0.3543928977005494,2.1772568033947786,4.097568017929372
3.7109909663352614,22.851410580795488,-20.031672887208174,-0.32303856060808794,2.169165918842795,3.737391757349802
3.1135691968274166,22.88661923921928,-20.05201175952719,-0.2710224427667606,2.1573999926172784,3.140202472797391
2.4986637708597006,22.916396753861587,-20.069200793464475,-0.21745456847112254,2.147440234045622,2.52557109793748
1.8849172997245829,22.9395962397137,-20.08258484560871,-0.16396362759049743,2.1396757935683572,1.9121264705155658
1.2747828035700086,22.956209510958207,-20.092162021907043,-0.11076908645127088,2.1340832617947285,1.3023149625335257
0.6603037934716613,22.966455427619433,-20.098068997642137,-0.05718418670744094,2.1306544617863183,0.6881739301087872
0.04800398723910836,22.97019289428415,-20.10022386606428,-0.0037828891266941628,2.1294078059887656,0.07621840130543846
-0.5652302464307217,22.967462626039225,-20.09865104608455,0.04970048955471029,2.130330425921325,-0.5366704523231199
-1.1784461607258514,22.95825026110491,-20.093338430101436,0.10317623434625686,2.133395583916754,-1.1495463572199476
-1.7937137437766042,22.942493617005393,-20.08425410857434,0.15682019050327167,2.138684274424626,-1.764487117111823
-2.407248199066259,22.920273908363132,-20.07143777493536,0.21029601914058826,2.1461350502254244,-2.37771592591704
-3.019729531053829,22.89159989562572,-20.054888884866017,0.2636572658550418,2.15574051745753,-2.989919213628027
-3.6331881421431067,22.85636047972235,-20.034532879899388,0.31707304050906854,2.167501036027904,-3.6031331257375965
-4.246596405775313,22.814588421423345,-20.010385960908092,0.3704515667338498,2.1814605297444496,-4.216337830386955
-4.856908866621616,22.76651817816016,-19.98257006620889,0.4235206754071566,2.1975012482962106,-4.826495152138424
-5.472939904191525,22.711388844852415,-19.950632277822123,0.4770407148758587,2.215866995853749,-5.442424396312831
-5.951333688779101,22.663979885746652,-19.92313537226623,0.5185671565036308,2.231634892052896,-5.920781487576715
-6.036715219620723,22.651563118739393,-19.982614302903436,0.5259967060822647,2.302723653092161,-6.00678721616862
-6.031145872458168,22.62714316529114,-20.393824742525698,0.5256890926030033,2.738386768844735,-6.005218153706741
-6.024237953876116,22.590734496526238,-20.901446181247923,0.5253513953536965,3.282457318375293,-6.00329977732647
-6.017373889504631,22.547709802401528,-21.403141012023998,0.5250649329313699,3.8272168621683065,-6.001425690675552
-6.010569742751909,22.498178495159316,-21.897743990655837,0.5248303750945912,4.371390646418281,-5.999601301264416
-6.003802726703373,22.441974677790967,-22.386916041611478,0.5246470338906699,4.916805620979871,-5.997821558850254
-5.997053722329456,22.378875600388227,-22.872017761559757,0.524514985625763,5.465045237379194,-5.996082820069172
-5.990347969341783,22.309062928862808,-23.35121649537595,0.5244352873219097,6.014095024076584,-5.994392936234632
-5.983676282605759,22.232412806232322,-23.825159560389814,0.5244082437048818,6.564726203276343,-5.992750817102012
-5.977162885468563,22.150513513624762,-24.28508673304038,0.524433427892908,7.106589563453293,-5.991187205582141
-5.973597206384824,22.102667868810304,-24.535687770583,0.524469288199892,7.40505635892654,-5.990348448302114
-5.972558839053887,22.08832953046516,-24.608506880180705,0.5244827107419179,7.49221965254401,-5.990106543333685
-6.252266358516178,22.056433028158455,-24.592348709567897,0.548948830734317,7.505344512505385,-6.272088519714154
-6.825911752268535,21.987389755192,-24.55171946172823,0.5990835331826933,7.528025623608531,-6.8503910064238465
-7.428098909515221,21.908268216808043,-24.50508402519508,0.6516575807933587,7.553954102118782,-7.457537058847983
-8.029299392792295,21.822454031739202,-24.45441259401519,0.7040843367390518,7.581999287786296,-8.063765922754571
-8.633707601050338,21.729273695443243,-24.399284025912443,0.75672429724422,7.612361685400159,-8.673313575612486
-9.236744295353732,21.62935715754724,-24.340042390367675,0.809170764806351,7.644783643874221,-9.281570433395727
-9.8360034206188,21.52315366393116,-24.276935044645608,0.8612155190923388,7.679160187281021,-9.886109916390627
-10.438736001055652,21.4093339687323,-24.209140095804113,0.913481164744676,7.715866234144256,-10.49425491603494
-11.040006333365925,21.288744698320514,-24.137129938492265,0.9655344667226268,7.754601940514609,-11.101031642765196
-11.64042430551851,21.161250982700984,-24.060791770825112,1.0174239181700655,7.795383445403472,-11.707060568350501
-12.241623849441675,21.02644672588462,-23.979843704628593,1.0692819762472066,7.838279543263463,-12.31399944657587
-12.839570599430349,20.885227780956804,-23.89479375853257,1.1207641337224918,7.883036525966907,-12.917773921893685
-13.259411913754656,20.781778976709017,-23.832326429152864,1.1568502118363375,7.91568430534017,-13.34178294951917
-13.513922843608812,20.717332481511338,-23.793340112384307,1.1787003661000146,7.935963872814673,-13.598851706489892
-13.818875972771393,20.638359362344136,-23.745358061316686,1.2048547304143609,7.960619799034794,-13.906898733384352
-13.809080678236212,20.60858912768975,-23.510273297963014,1.2034224890061553,7.755556058514678,-13.892671369820652
-13.787240730617757,20.53852451662127,-22.982860609750222,1.2002905336978429,7.29876592975024,-13.860995419650248
-13.764530481592566,20.460294635218382,-22.42962585294952,1.1971226140874223,6.824339482074245,-13.828121839184048
-13.741748428723144,20.376341404021918,-21.86967286150777,1.194034362576653,6.348918217794914,-13.795207298712924
-13.719077188552328,20.28737787309325,-21.307453331118566,1.1910490656546417,5.876236185976878,-13.76251227882647
-13.696643865817606,20.194050249318806,-20.746182852084043,1.1881803212380369,5.408859625996088,-13.730215640111028
-13.674487959932577,20.096725152201763,-20.1869682234031,1.1854292487105125,4.947527809737829,-13.69836941008874
-13.652201550978468,19.993679826512757,-19.619508187867492,1.1827434617101888,4.483672551337075,-13.666383855165858
-13.63024460045882,19.887124900282892,-19.055525405226785,1.1801764872164417,4.026794387655132,-13.63491568147512
-13.608800024327373,19.778247339674373,-18.499943693804866,1.1777444970243445,3.580625705161481,-13.60422188194704
-13.595857475622207,19.710240846091057,-18.162331753664105,1.1763123432749099,3.3113427760376393,-13.585715188564832
-13.591395915699216,19.68639751874288,-18.045545924442518,1.1758248410858967,3.218511339326931,-13.579338583158457
-13.641850923007775,19.902387372881144,-18.18735433448784,1.1800202667435002,3.14330926000088,-13.628312335974597
-13.771268186267243,20.45090600388434,-18.557478413947436,1.1907967241493753,2.9622780363418606,-13.754127100659833
-13.901969412089908,20.996116130557045,-18.921252049150137,1.2016811393079627,2.7781552960301017,-13.881094382385987
-13.959729987939765,21.23431360912506,-19.078897369925794,1.2064917719095714,2.6964085159383817,-13.937174779919546
-13.959595125294204,21.243565788199906,-19.25526076861934,1.2066508638101785,2.8634855703485176,-13.940562361131963
-13.945306898140332,21.209159700946355,-19.722360831304176,1.2060139973504387,3.365181247884993,-13.936834775044257
-13.929958512260034,21.165725994734316,-20.221431200261506,1.2054375523415901,3.9078881089015067,-13.93289893946793
-13.914694410553738,21.11574557519243,-20.714951416741922,1.204977271197045,4.451589553522237,-13.929058703493343
-13.899414698639479,21.058797131041292,-21.206118575456156,1.2046319557492897,4.999905268446412,-13.925292429886996
-13.88422717743295,20.995192702225115,-21.69143578657799,1.204405868736189,5.549024878860921,-13.921630180783112
-13.869151811438572,20.925014697067127,-22.17026915171495,1.2042997396521107,6.098231796183883,-13.918079264490764
-13.854112500394637,20.847868518558304,-22.64502291012199,1.2043142100653534,6.65032581671148,-13.914624737324374
-13.839296293674689,20.76475429448099,-23.10981187698396,1.2044489932068798,7.1984191983077155,-13.911311536763812
-13.826623752779243,20.687956235968308,-23.505009468412904,1.2046615232694007,7.670576691435861,-13.908551891183102
-13.822325966566174,20.660698247819866,-23.638539752829562,1.2047543433796615,7.831419672914692,-13.907632036617722
-13.819440339404963,20.642048800843554,-23.728052144703188,1.2048226318366213,7.939618192752064,-13.907019085936282
-13.844404020104436,20.749139079575272,-23.81912665744384,1.2069076294160643,7.923081609636102,-13.931841864875288
-13.960155978438214,21.2474028870523,-24.148239570040683,1.2162958397752621,7.751525356858627,-14.044891612882738
-14.104112632216308,21.85812359349939,-24.547007278948062,1.2279647359835142,7.536555161714752,-14.18537386476085
-14.251531926522494,22.473486334554728,-24.94368062733897,1.2399076028350318,7.31474644620029,-14.32910755567815
-14.400256800131995,23.084252739391744,-25.332334293915444,1.2519506525018431,7.089456489662865,-14.473986661523567
-14.553170254302968,23.70196046990784,-25.720311091335216,1.2643283370721214,6.856427183808791,-14.622815927655912
-14.7087292284797,24.319946772283195,-26.103367593790747,1.2769167691819039,6.618109024292334,-14.774088228863247
-14.866978321305371,24.938118594780796,-26.481471927095342,1.2897207103862063,6.374560541308047,-14.927843720681706
-15.028059273077687,25.556747435934042,-26.85481370954072,1.3027528401679314,6.125694971230937,-15.08421679962175
-15.192648396493857,26.178076013560442,-27.224739779901455,1.316069150914795,5.870599343804979,-15.24385982817154
-15.360280368498772,26.7999809421527,-27.58997836434985,1.3296333462271384,5.610133537716433,-15.406317182801436
-15.531414775927054,27.42380997737152,-27.95132324824183,1.3434840428985089,5.343730952133914,-15.572030154333085
-15.706213744388188,28.049744970839185,-28.308863637710584,1.3576358844832428,5.071292753211825,-15.741151031549236
-15.874507965254212,28.641914587595405,-28.642514605503955,1.3712666312002624,4.808841633548599,-15.903848057987574
-15.961476924208048,28.943985754894094,-28.81099867340215,1.3783130424864884,4.673207243903358,-15.987875616810573
-15.978241582371977,29.001255830133406,-28.802105063786392,1.3795927847056344,4.6066594708649005,-16.00309339639628
-15.914260557296307,28.774269925333464,-28.368782624336845,1.373825014251363,4.401919239427535,-15.933961001928244
-15.828221696804405,28.465411736878803,-27.77924202061033,1.3660931652881556,4.123373394866966,-15.840983152531773
-15.743536766659782,28.157276955749335,-27.191167318506874,1.3585109400642112,3.8455251479609562,-15.749454608427312
-15.659606034889014,27.847744462761796,-26.60050554938812,1.351024294665905,3.5664578844476265,-15.65872683880725
-15.577182321400242,27.539664479611556,-26.012690849059897,1.343699948307627,3.288737467398154,-15.569613357358993
-15.495511554319094,27.2302945852464,-25.42248614496025,1.3364704464508468,3.009888113987938,-15.481298636564818
-15.415016361660019,26.921288813176673,-24.83304304903892,1.3293729119371933,2.7313974992810115,-15.39423936136967
-15.334652689834224,26.608645370857285,-24.236724983214398,1.3223153228154005,2.449656337217435,-15.307305833933002
-15.255744013766947,26.297542428024396,-23.64340534091628,1.3154137868494056,2.16932831011547,-15.221929317053652
-15.177461183547388,25.984779946456914,-23.046977617031928,1.3085953954621659,1.8875271851635491,-15.137212455536284
-15.100334554784567,25.672524162227113,-22.451569702460194,1.3019061034052668,1.606202316665613,-15.053728872456706
-15.033947908312125,25.400409458783617,-21.932743783209766,1.2961714404152886,1.3610565069333733,-14.981855497611487
-15.004708393866204,25.27956077730901,-21.702340093929273,1.293652576323999,1.2521887971278027,-14.950194822522548
-14.964942175045715,25.224710326288072,-21.604773983882502,1.2902826893697468,1.2103788212299185,-14.909544714599766
-14.572747769863764,25.143426772570834,-21.550234179508827,1.257231968216957,1.2458179185109277,-14.518729287379601
-13.966220852955823,25.012261905318383,-21.462656802912925,1.2060045169604539,1.3024083895133916,-13.91430884427186
-13.355657235421592,24.873470706584282,-21.370467204889376,1.1543004105089043,1.3615530885988492,-13.30582720287217
-12.740740134282023,24.726776068112976,-21.27345634987044,1.1020957479505902,1.4233139314134033,-12.6929603982869
-12.12918300078209,24.573928394045684,-21.172743328850466,1.050051075354692,1.4868764505965513,-12.083383592026246
-11.515144969150823,24.413414633696405,-21.06729713778488,0.9976749867506458,1.5528898649211476,-11.471277603708016
-10.900181244510195,24.245501495626556,-20.957250774250753,0.9451048906077488,1.621157916189639,-10.85817975610217
-10.287578686136515,24.07102592288362,-20.843104743617584,0.8926292711703699,1.6912602623431279,-10.247354079643864
-9.674875986405628,23.88924678244957,-20.724332241884813,0.8400410635032095,1.7635106825055862,-9.636350982081089
-9.065643524776975,23.70119027945999,-20.601550649329536,0.7876542479608483,1.837420919729445,-9.028718705782511
-8.46623855871136,23.50896571368451,-20.476084097321806,0.7360240037671302,1.9121327914394004,-8.430793842734815
-7.867566886036921,23.30974879209458,-20.34603311634046,0.684377462566069,1.9886758704145744,-7.833493995637605
-7.265696897695635,23.102095449363894,-20.210405689253804,0.632374783183338,2.0676051276663676,-7.2329021697157145
-6.672941336457704,22.890257702909516,-20.071920041888315,0.5810886404062455,2.1472233867521777,-6.641293656320381
-6.170021358517331,22.704744924597883,-19.95050567915028,0.5375237611725973,2.216223227807535,-6.139255227224694
-6.037119688730985,22.653177620137164,-19.95253291286576,0.5260169346627408,2.271047786473122,-6.006905990969135
-6.032108651910238,22.631688083651024,-20.32271956597419,0.5257367000189009,2.662753429320904,-6.005492113562546
-6.0252133573887185,22.596303649406185,-20.829802607557543,0.5253927534565715,3.2052612956854745,-6.003572902110802
-6.018346490872759,22.55424011041069,-21.332098946900132,0.5250991507305304,3.7496612327243857,-6.001693460362529
-6.011534710101867,22.50563969190119,-21.827655809599932,0.5248572395420515,4.293858080853003,-5.999862245046074
-6.004720831960548,22.4500261751473,-22.320611057981875,0.5246655722480732,4.842466247642315,-5.998065284190801
-5.997943015349832,22.387612488026033,-22.80816913732729,0.5245260613450695,5.392477023383502,-5.9963142090571
-5.991252183601182,22.31891060267665,-23.28668679304054,0.5244396110758137,5.939734885456164,-5.994623023497759
-5.984564159276111,22.24304693473346,-23.76218277025952,0.524405405541496,6.491132641299517,-5.992971575715021
-5.9779927962037975,22.161355441414365,-24.226580396146908,0.5244239571301436,7.0372590093541945,-5.991388808971857
-5.97394741419783,22.107475648697,-24.51105973597645,0.524461680630709,7.375640971971681,-5.990434924540231
-5.9727261701561405,22.090665322997598,-24.596726473131287,0.5244770738409397,7.478124911460892,-5.990150116003679
-5.983421819966572,22.197472313179478,-24.681388529458903,0.5253854460167131,7.455883097202526,-6.000722107659386
-6.0333906752448,22.69611464240834,-25.000337968227026,0.5295385219901255,7.275738617988976,-6.0493936986993955
-6.09663594561862,23.318131294805013,-25.393497373122557,0.5347955596582,7.046304759416175,-6.110945899710236
-6.161239469027777,23.94324000645405,-25.783379488361646,0.540166659581954,6.8104833600434125,-6.17376236868992
-6.22717394475061,24.570794690856147,-26.16954382762597,0.5456502430802661,6.568479907514657,-6.237814412172372
-6.29385362722806,25.194989421585163,-26.548460729953238,0.5511982987985069,6.322575828017426,-6.302531721424511
-6.362030477299827,25.822603160026084,-26.924277722818122,0.5568741410228213,6.0701323122012205,-6.368642690519247
-6.431969599183105,26.455586055555138,-27.298086930627385,0.5627007053904203,5.81028835433012,-6.436401677899748
-6.50306272392876,27.088029400699188,-27.66637198675397,0.5686282068061742,5.545441698149016,-6.505217164912896
-6.575258621011295,27.719238290201826,-28.028784563742626,0.5746532351955365,5.27593908376479,-6.575038288062425
-6.64902671882201,28.352987632958,-28.387509612298658,0.5808159114284075,5.000185555770005,-6.646317270854267
-6.7248310681883705,28.992732603249767,-28.744433223871944,0.5871561210125316,4.7166068861349135,-6.719499628938335
-6.801720879986183,29.630037195264475,-29.094839846729474,0.5935954388642128,4.428932534878509,-6.793665267989329
-6.879829878082161,30.265794720339585,-29.439304219183636,0.6001460639192678,4.136842210729621,-6.868942094347993
-6.938997503775739,30.739748304017034,-29.692811720844894,0.6051147070285943,3.9157865836985604,-6.925921972910446
-7.034824461680752,30.80166913181365,-29.72625563871593,0.6134030371420687,3.886294161383714,-7.021646140408244
-7.517883088090343,30.742544256116346,-29.697907762062318,0.6552847314418467,3.9117311015842233,-7.506053641128722
-8.166833301070413,30.656780902048602,-29.656714642305875,0.7114827775970122,3.9485713267105047,-8.156915479747223
-8.81662936032529,30.56358638646026,-29.61185390904772,0.7676716585942588,3.9885268610605524,-8.808748830433553
-9.46303199823916,30.46355875460623,-29.563586731252773,0.8234769251513328,4.031291763976854,-9.457309418432482
-10.111083805536701,30.355899605090517,-29.511508380858,0.879331735892553,4.0772497959734215,-10.107666677629128
-10.762000367619395,30.24026788740641,-29.455420766103863,0.9353318605671535,4.126491868422589,-10.76105103025828
-11.409182958668485,30.11778536320037,-29.39583434749835,0.9909006700455913,4.178485094208054,-11.410847913154726
-12.056238982492184,29.98777555582148,-29.332394778363554,1.046348232116103,4.233554303310452,-12.060687055034798
-12.705261283887696,29.849712307266124,-29.264805823722003,1.1018447147848047,4.291862389369112,-12.712680396027897
-13.352150420370565,29.704391552757887,-29.193416059942383,1.1570298384454636,4.353011965566559,-13.362719483623644
-13.989179434453893,29.553691345043347,-29.119121376881225,1.2112492225300964,4.416248320156255,-14.003042121725308
-14.408656758158859,29.45030078684719,-29.067993613254423,1.2468800662023811,4.459509163360245,-14.424796671751206
-14.695510687153968,29.37768440620296,-29.03200777727115,1.2712118102659915,4.489833158403443,-14.713258898377925
-15.2850538263913,29.223522933531292,-28.955402542149162,1.3211295463037165,4.554044358964504,-15.306241285250513
-15.827588451129747,29.07575186496667,-28.881702806656556,1.366953350912023,4.615351236214092,-15.85210586040412
-15.983131922039442,29.01849056943716,-28.835005227021085,1.3800507771895314,4.62218640967664,-16.008363987193142
-15.927167266591733,28.82022064037215,-28.456496536187466,1.3750038227480976,4.443344739482071,-15.947894225231332
-15.841887830449124,28.514728721580056,-27.873368261391686,1.367335924171147,4.167827889275061,-15.855739074793041
-15.756739799141698,28.205570162108515,-27.283326876490143,1.3597077878645878,3.8890499872927817,-15.763712185412299
-15.672786556171719,27.896609004431582,-26.693743401078066,1.3522147229468309,3.6104919871418595,-15.672962322852749
-15.590292524882967,27.588921966408872,-26.106667134442205,1.3448796956495004,3.333120493212589,-15.583775146732773
-15.508645751916712,27.280305694472776,-25.517889382879837,1.3376478265119627,3.054945581714888,-15.4954888118607
-15.427537756293109,26.96960574142845,-24.92520445689271,1.3304917864749697,2.774923784218415,-15.407769267643742
-15.347329962552955,26.65822299249261,-24.331281501699355,1.3234434287011139,2.4943148882959925,-15.321006935176523
-15.268186998366323,26.346854598635552,-23.737446623450836,1.3165169030534494,2.213744256183406,-15.235379599461586
-15.189777764582736,26.034244609466285,-23.141301239114448,1.3096829952094506,1.9320775232387852,-15.150528698284333
-15.112537104909205,25.7221834692961,-22.546256509002273,1.3029793004552657,1.6509253938654331,-15.06692451650951
-15.044586018136037,25.44420531247746,-22.016244779537633,1.2971057113418336,1.40049534423268,-14.99335983245801
-15.014379140650782,25.319578996298514,-21.778636431326404,1.2945019903207635,1.2882238354449198,-14.96065268296782
-14.996904270587196,25.247182135959264,-21.64061045944319,1.2929978045938377,1.2230051185902417,-14.941730002523915
-15.021705745848488,25.080337644081578,-21.518486237077163,1.295108286700855,1.267155228277297,-14.967492240940636
-15.121779043554103,24.55446598696082,-21.20033837491374,1.3036460543741273,1.472561420232055,-15.072096389854787
-15.235545597150239,23.946364469756606,-20.827844154905634,1.313369171240536,1.7055145930962388,-15.191076134024973
-15.346917646720039,23.340201303780695,-20.451606715793517,1.322905395274956,1.9328221071684875,-15.307611940430776
-15.456468149261003,22.73318772530497,-20.069884402061707,1.332302834338933,2.1555187704083347,-15.422295604294263
-15.564181666466478,22.125664973713405,-19.682850949675622,1.3415592762555293,2.3734384483262194,-15.535103791602667
-15.66981991330148,21.519278997194796,-19.291538756919202,1.3506532340132178,2.585974328201931,-15.645779737093346
-15.762569565431981,20.97802800771685,-18.93801886423323,1.3586504542146993,2.771462685834973,-15.742982176349544
-15.799377490523147,20.760892270973162,-18.795067699545104,1.3618274423257375,2.8447534790148516,-15.781564074826152
-15.79188490370481,20.744759608112496,-19.01695306120364,1.3614905681537983,3.082882253403843,-15.779730296006893
-15.775707816273139,20.70750321999358,-19.488163613802165,1.3608347590257135,3.59158987952248,-15.775632785009167
-15.75847694940585,20.661258639623153,-19.987301564467977,1.3602598603206004,4.137227738188818,-15.771346890947871
-15.741409003387743,20.608645959763617,-20.47885701999017,1.359818847247011,4.681647685466031,-15.76718568666203
-15.724423379440996,20.5494262381456,-20.96516173154181,1.359509772939709,5.2274215780434705,-15.763132173517462
-15.707434578010583,20.483210740151286,-21.448631214457098,1.3593332078234774,5.7773548789123055,-15.759169903224516
-15.69062012830025,20.41065696308277,-21.924203665856574,1.3592921543147791,6.325725659648412,-15.755343527840957
-15.673839103548902,20.33114654714507,-22.39586461549961,1.3593870660438139,6.877139830021532,-15.751623932235608
-15.65715707642904,20.244932759670164,-22.861750078532726,1.3596193717268241,7.429479151106388,-15.74802928390117
-15.64418753763619,20.17287174097405,-23.221856396671406,1.3598973086854151,7.861832200574993,-15.745308730850496
-15.640171533813374,20.14965325261949,-23.33298572886037,1.3600009412395708,7.996237357011987,-15.744479880143308
-15.637147920284939,20.13188811655538,-23.416535583101574,1.360084496918785,8.097595461234018,-15.743860150565496
-15.672666412266013,20.26659110876582,-23.527435119302677,1.3630128764945864,8.072956476834719,-15.779095673626237
-15.808168935136548,20.781196510444445,-23.870913945445547,1.373910457689398,7.898648895289787,-15.911550788491752
-15.971710689532486,21.393129209743762,-24.274629853315485,1.3870519922314022,7.6865594463131055,-16.07128386369122
-16.13495851478745,21.994205685654073,-24.66621275198458,1.400159158905416,7.4731637591331355,-16.23059073420104
-16.30412288661259,22.6070371454943,-25.060411030848023,1.413731457198692,7.250448702311907,-16.395528437901056
-16.47664936236954,23.221795071082166,-25.450763176974903,1.4275645635501963,7.021839768168729,-16.563598356221828
-16.651022937569408,23.832875783054536,-25.833762861199176,1.4415380432317308,6.789469428830173,-16.733321930197103
-16.82945696803879,24.447776285737053,-26.21413781165246,1.4558303217929685,6.550511898396759,-16.906850088268698
-17.010182805475928,25.06010890558529,-26.58795184896099,1.4703008209683404,6.307460344526647,-17.0824589894622
-17.196387954965743,25.680267364770092,-26.961517533202116,1.4852058779346293,6.056150831949073,-17.26324053307189
-17.384946777358326,26.2974380922478,-27.328294101873766,1.5002964873459343,5.800932449433942,-17.446154864795822
-17.577885320641357,26.917953115792443,-27.692072459960613,1.515736098735091,5.539209707072377,-17.633163665467265
-17.77400102477121,27.53758246117484,-28.050375201983336,1.531429828461545,5.272763356491693,-17.823096799389667
-17.962468180798737,28.1227636551261,-28.384240343643135,1.546512654812434,5.016478307595432,-18.005479343937537
-18.057667127706434,28.40767339660313,-28.545247144009508,1.5541392320064693,4.890046076970654,-18.097636081879678
-18.313781624273325,28.324572875302888,-28.50302064986328,1.5755123306633092,4.923915370619234,-18.355715361532685
-18.8887833397834,28.133109363461056,-28.405413123602933,1.6233967970226597,5.001695174745685,-18.93527926189946
-19.511275303970677,27.918123089699257,-28.29528522315597,1.6750762765037173,5.088605242223896,-19.56295104555953
-20.12876312075969,27.69683560712746,-28.181344188707342,1.7261715599259164,5.1775900392362315,-20.185831197046724
-20.7486157873381,27.46653791110109,-28.062128605548747,1.77728588393663,5.2696540450569875,-20.81136330062373
-21.367974293889343,27.228139237307698,-27.93804227201511,1.828183841092178,5.364437266184165,-21.436659665302304
-21.975380473400143,26.986173045093903,-27.81138940549004,1.8779221565215711,5.460060854579513,-22.050155549574644
-22.5442380514135,26.752115927751937,-27.688194407857125,1.9243408029894613,5.552001705991204,-22.624960854035816
-22.81711610039221,26.637248369900657,-27.627485230615108,1.9465469463368277,5.5968895275036115,-22.90078295609179
-23.22416487483268,26.46275423638855,-27.534957314884284,1.979607087426136,5.664872929542501,-23.31231913813549
-23.8190078603346,26.200889840605207,-27.39539669793231,2.027767294218709,5.766317625144602,-23.91394727575727
-24.370484850260407,25.950729694532022,-27.261283501838168,2.0722518723151073,5.862576565288383,-24.4719597870208
-24.58753857806835,25.846281551280835,-27.198090530009367,2.089697017220945,5.895928586932501,-24.69146370731471
-24.532043470487864,25.726901590221246,-26.882338449065177,2.0845530692506586,5.701706950906803,-24.62854508025103
-24.433916001561307,25.51252323105568,-26.319192962854984,2.0755144598561164,5.356729983111707,-24.517320616374
-24.334323415575646,25.290609623116378,-25.741233805864827,2.066415480582188,5.004515065083494,-24.404471735035532
-24.23584152367502,25.06682935802107,-25.163254040442315,2.0574920405675834,4.654087547909756,-24.29291475592095
-24.13752865536062,24.839077718144946,-24.579729579484507,2.0486576070949853,4.302064479728406,-24.18157979180603
-24.040519254098392,24.610029170519567,-23.997415323323445,2.040012769726246,3.9524834144173884,-24.071748373329115
-23.944126903680935,24.378139047575438,-23.412259043910858,2.031494554962893,3.602863356642317,-23.962640079214825
-23.848882540728418,24.144749305535836,-22.827537083260964,2.023148316589508,3.255119057718962,-23.85485279594158
-23.754927802152256,23.910316753798583,-22.244243786180718,2.014984204305504,2.909783316179699,-23.7485436214694
-23.661284528999765,23.672453321967915,-21.656345293425773,2.0069159441429782,2.56324744078425,-23.642602948004726
-23.57146111589703,23.440292978619905,-21.0861740359958,1.999241825769998,2.228579748722887,-23.54099664856478
-23.523720239471597,23.315288399481723,-20.78059620535946,1.9951891495729321,2.04977814928984,-23.486997594958805
-23.497995593653346,23.247463322627205,-20.61520125268326,1.9930129592334098,1.95316139682952,-23.457901910317382
-23.49073668011707,23.226031161851406,-20.535814174609936,1.9923645526849076,1.8954936283469828,-23.4486348795747
-23.645414142408598,23.580729007851186,-20.76050940205024,2.004584398861743,1.760183889587064,-23.598583661412203
-23.900553765267542,24.157058975554257,-21.122016206333612,2.0247294253175947,1.5365384403214921,-23.845785220703853
-24.16660377088871,24.746713930247726,-21.48730253984075,2.045721415015532,1.3028799472572967,-24.10337965323176
-24.437979968470948,25.336592507952318,-21.848117312256058,2.0671193403815167,1.064245479087715,-24.365949864518726
-24.69365271796909,25.881926427614772,-22.17760417782534,2.087266593143094,0.8392941564959406,-24.613164332333028
-24.811367833406564,26.12968314330107,-22.326006812182808,2.0965387724598052,0.7357198774399732,-24.726933753797915
-24.866477466774054,26.244964475600288,-22.394784885378392,2.1008788296032903,0.687234730231689,-24.780185242841643
-24.866477466774054,26.244964475600288,-22.394784885378392,2.1008788296032903,0.687234730231689,-24.780185242841643
