RAMEL-ESPOL/ARCHIE/matlab/data/joint_goals_square_t35_h35_p12.txt
Joint0,Joint1,Joint2,Joint3,Joint4,Joint5 
-0.002863420424746498,9.580960628302666,14.249448284854875,0.00033068383397022433,-23.8243116551553,0.00494530447815196
-0.002863420424746498,9.580960628302666,14.249448284854875,0.00033068383397022433,-23.8243116551553,0.00494530447815196
-0.002863420424746498,9.580960628302666,14.249448284854875,0.00033068383397022433,-23.8243116551553,0.00494530447815196
-0.002863420424746498,9.580960628302666,14.249448284854875,0.00033068383397022433,-23.8243116551553,0.00494530447815196
-0.002863420424746498,9.580960628302666,14.249448284854875,0.00033068383397022433,-23.8243116551553,0.00494530447815196
-0.002863420424746498,9.580960628302666,14.249448284854875,0.00033068383397022433,-23.8243116551553,0.00494530447815196
-0.002863420424746498,9.580960628302666,14.249448284854875,0.00033068383397022433,-23.8243116551553,0.00494530447815196
-0.002863420424746498,9.580960628302666,14.249448284854875,0.00033068383397022433,-23.8243116551553,0.00494530447815196
-0.002863420424746498,9.580960628302666,14.249448284854875,0.00033068383397022433,-23.8243116551553,0.00494530447815196
-0.002863420424746498,9.580960628302666,14.249448284854875,0.00033068383397022433,-23.8243116551553,0.00494530447815196
-0.002863420424746498,9.580960628302666,14.249448284854875,0.00033068383397022433,-23.8243116551553,0.00494530447815196
-0.002863420424746498,9.580960628302666,14.249448284854875,0.00033068383397022433,-23.8243116551553,0.00494530447815196
-0.002863420424746498,9.580960628302666,14.249448284854875,0.00033068383397022433,-23.8243116551553,0.00494530447815196
-0.002863420424746498,9.580960628302666,14.249448284854875,0.00033068383397022433,-23.8243116551553,0.00494530447815196
-0.002863420424746498,9.580960628302666,14.249448284854875,0.00033068383397022433,-23.8243116551553,0.00494530447815196
-0.002863420424746498,9.580960628302666,14.249448284854875,0.00033068383397022433,-23.8243116551553,0.00494530447815196
-0.0028629943698041207,9.580961523543388,14.249446152880369,0.000330684811857805,-23.82430625624513,0.004945733262059012
0.015394418177079575,9.619241562813922,14.158193298417759,0.0003104425461821753,-23.593113553394517,0.023294949317180652
0.05652786443009915,9.70487905805302,13.953382244701084,-0.00018786745417498913,-23.07342188683824,0.06445545204607028
0.09977383579744999,9.79401840421199,13.739197507562771,-0.0013783421009739164,-22.52875801973618,0.10747373878196353
0.14308448370248267,9.882381396366732,13.525846117427413,-0.003244011834348018,-21.98499198542052,0.1503084650530673
0.18649582738828493,9.970047129980324,13.313135129119312,-0.0057793548510345245,-21.44162961971028,0.19300886816549664
0.23008134180090567,10.057165855344387,13.100693833130505,-0.00898456964693915,-20.897716654927333,0.23565968386794642
0.2738735740118918,10.143800917200148,12.888357435889036,-0.012860792872923391,-20.35281900834048,0.27830425749777743
0.31786071251264,10.229926485057002,12.676178004828845,-0.017406465703411353,-19.80705711491457,0.32094238147140564
0.36170204469517503,10.314883332265433,12.465781211545544,-0.022578549797023863,-19.264614172178895,0.36325717902472165
0.40581974229119006,10.39949469866722,12.25512668515961,-0.02842122518855653,-18.72022770209114,0.4056687720152335
0.4500437223851282,10.483431670759636,12.045021843969225,-0.03491224928424305,-18.175970992371813,0.4480246389901606
0.4943353387911183,10.566624156315198,11.835638448478681,-0.0420421115688282,-17.632284574775017,0.4902997687982117
0.5388070340383073,10.649284175309223,11.626436087728083,-0.04982703291795182,-17.087757317154885,0.5326129840515016
0.5832519418098365,10.73103060443571,11.418376116334562,-0.05822728391885037,-16.54488764143547,0.5747792170591268
0.6279264620567966,10.812336658626638,11.210248606629703,-0.0672892665139097,-16.000512188531808,0.6170531589620589
0.6727983276337006,10.893138576636332,11.002202056865096,-0.07700934466160392,-15.455002718743307,0.6594148392709639
0.7177465047215962,10.973217611309815,10.794790904009771,-0.08736136635455413,-14.909802979014177,0.7017610718223954
0.7626511813606573,11.052366161254367,10.588553731110123,-0.09831324161610973,-14.366329337923114,0.743990632475834
0.8076141725714888,11.13076977742982,10.383008513709381,-0.10988533139475636,-13.823312841481414,0.7862107765090828
0.8527598505515497,11.208644779622125,10.177579905169644,-0.1221101177647899,-13.279224213497779,0.8285491946849699
0.8981169486991466,11.286035694185928,9.972135417967262,-0.13499925435313775,-12.733695937176401,0.8710434996315944
0.9434520563849516,11.362544815640058,9.76772433723815,-0.14848648045580054,-12.189506889063658,0.9134859765751733
0.9889322661521107,11.438456300356906,9.563583586473316,-0.1626206134469018,-11.64462101999876,0.9560440631917485
1.0343223015512548,11.51338128538766,9.360757831871208,-0.17732662820067113,-11.10182516348658,0.9985085275217896
1.0801244915391417,11.588145284770329,9.156999223978673,-0.19277096083817113,-10.555089387693634,1.0413602179110402
1.1263979213522606,11.66282532113718,8.952058613661857,-0.20898876502868402,-10.003703578241375,1.0846656070407545
1.1725618783040064,11.736479172223449,8.748506063256276,-0.22578159932138975,-9.454565629283183,1.1278924801003416
1.2188194885763899,11.809436009418949,8.545433332040037,-0.24322135313866344,-8.905226309809906,1.1712420765046343
1.2652142928771268,11.881762627109902,8.342644120637607,-0.26132767941345825,-8.355143397104442,1.2147664848353834
1.3115141719691363,11.953100353351282,8.141142636001447,-0.2800097455282906,-7.807038856150782,1.2582589345683017
1.358001937589514,12.023886492308714,7.939689443783473,-0.2993828128709108,-7.25753643794355,1.3019961894891907
1.4045666291128698,12.093948773791372,7.738761848050805,-0.31940555161199435,-6.707924434181677,1.3458853716149877
1.451285378974146,12.163400722919429,7.538022678514128,-0.3401156953232333,-6.1572683466926925,1.3900107536830042
1.4978807314573452,12.231832640766296,7.338654462059471,-0.3613911117270436,-5.608809737207063,1.4341212888581152
1.5447166075999443,12.299779216758495,7.1390930588523,-0.3834009312429921,-5.058238725905951,1.478572864063091
1.5914994664324156,12.36681274627693,6.94058432239415,-0.40601192214447573,-4.508981727134822,1.523098554472992
1.6384556469485503,12.433257310848234,6.7421613766989195,-0.429337214731586,-3.9583558183624237,1.5679253378971558
1.6852360431454196,12.49862190323271,6.5452899107404185,-0.45320489350262966,-3.4104269854673728,1.612730951087337
1.7322909599897953,12.563535747000769,6.348068246160957,-0.47784868029233135,-2.85989553526535,1.6579583141386562
1.7794816786206187,12.627799127155335,6.15107929054678,-0.5032065313834129,-2.308365269908246,1.7034874556853057
1.826534927786095,12.69104231937976,5.955454977203343,-0.5291342079410607,-1.759003260629094,1.749066038192725
1.8735230819659965,12.753370180462037,5.760880832237353,-0.5556703848674228,-1.2109347296360042,1.7947743223184234
1.920605773011461,12.81499575139359,5.566688295021937,-0.5829090827129663,-0.6622724383213983,1.840779180558114
1.9678167058712444,12.875959183921344,5.372735766532079,-0.6108780418976109,-0.11260168614193808,1.8871265598389941
2.0150474095373934,12.936118268467082,5.179464614081255,-0.6395200732230284,0.4368375773993473,1.933722689902417
2.062538540323574,12.995773801434082,4.985889087143628,-0.6689913625141909,0.9888659915829309,1.9808189600536406
2.10981702141917,13.054331706426208,4.793931156342918,-0.6990040889523383,1.5380086213439852,2.027958611032025
2.1571382008488684,13.112114099335157,4.6025427036129685,-0.729721742178628,2.0872579611678805,2.075406986446247
2.204403766017508,13.16900246443806,4.41211398389497,-0.761085615179703,2.635497028508777,2.123077629506522
2.251887858794182,13.22532356135191,4.221537372245334,-0.793286924179343,3.185927570987955,2.171260939178753
2.299318443721211,13.280751314487711,4.031901773571474,-0.8261509692473842,3.735417933325282,2.2196950578690022
2.346712496644555,13.335308728134526,3.843130698398173,-0.8596940390472997,4.28418892555692,2.2684092693378566
2.394179984801872,13.389122087800782,3.6547806160928826,-0.8940016981544774,4.833536484466907,2.3175300078891476
2.441769002074952,13.442241331199662,3.466658877851878,-0.9291204515463993,5.38403835111535,2.367122401359837
2.489199721619142,13.494355476289854,3.279864809789747,-0.9648506730305995,5.93248031492687,2.416907928522503
2.537002712712128,13.546042179370534,3.092307703545091,-1.0016051668516956,6.48501832205348,2.4674597993781275
2.5844765392101676,13.596541987610797,2.9067349557388718,-1.038854231599061,7.033566520386674,2.518050806071384
2.632011339782676,13.646277040743303,2.721610069497417,-1.0769065638556066,7.582656284793611,2.569107675046664
2.6795834309888913,13.695219891922454,2.5370220298955117,-1.1157549575370855,8.132035142310896,2.6206207714079626
2.7272566871585524,13.743432387589412,2.352720744406489,-1.1554648418813134,8.682461605392163,2.6726760165057213
2.774775221354769,13.790656791401462,2.1696892599115625,-1.1958321029288947,9.231002645681109,2.7250084658784406
2.82251203314454,13.837261752066562,1.9864871934272532,-1.2371859567129366,9.78198499683669,2.7780453577988378
2.870017631385984,13.882808223600334,1.804834527854049,-1.279147933744104,10.330241410345819,2.8313029421988043
2.9178012545287806,13.927782450635016,1.6227804059662876,-1.3221809644473415,10.881669619404379,2.8853692040329126
2.9652702766395183,13.971626867067696,1.4425774404554332,-1.365762596180325,11.429451090726882,2.939589571288934
3.013075115275462,14.014940802693197,1.2617525249683847,-1.4105033788908408,11.981111876918181,2.994724405130375
3.060546708051191,14.057116933003725,1.0828323112716356,-1.455790542462547,12.528951131203673,3.0500195033634063
3.1081323515537647,14.09855734832277,0.9041223931659532,-1.5020587023467997,13.078150530601128,3.1060099273302977
3.155717087889351,14.139157740249045,0.7260528357588768,-1.5492136084922763,13.627403175999573,3.1625806930343137
3.203331073196064,14.1789417048551,0.5485075841524679,-1.5973010382124422,14.177076792572809,3.2197870032334284
3.250873026015609,14.217824413825392,0.3718596975066437,-1.6462329972201675,14.726021406745573,3.2775255443920797
3.2986926307081403,14.256084719524207,0.1948104743667138,-1.6963918937726459,15.278294756502076,3.336245081928706
3.3461621424842534,14.293220730768956,0.019679186629668298,-1.7471339579245038,15.82666575319865,3.395193601763075
3.3936767969384536,14.3295480140096,-0.1550015913899867,-1.798890082322464,16.375717726437966,3.454876449182764
3.441435721765841,14.365209222374164,-0.32996146726479475,-1.8519043986324097,16.92777204216407,3.5155715953149382
3.488867804590593,14.399778211280719,-0.5031129085143451,-1.9055592949433513,17.476245241978898,3.576573467604058
3.536342496040722,14.43352974895322,-0.6758129621115643,-1.960283424811419,18.025426087079424,3.638373485291945
3.5838248805444057,14.466435596156673,-0.8479365018785444,-2.0160584950557534,18.57492927590184,3.700950676223694
3.6313562119156186,14.498520534705866,-1.0196346529715812,-2.0729561531094385,19.125250844436938,3.764384955969409
3.6786866606047095,14.529617724439497,-1.1900104211622973,-2.1306941589069273,19.673514962289378,3.8283638032788527
3.726045709961142,14.559880205359976,-1.3598955977466405,-2.189569299302377,20.222396200460597,3.8932184098711633
3.7735519788002603,14.589376397876237,-1.5297146553467929,-2.2497591007247326,20.773288679403326,3.959142377852529
3.820999152188699,14.61797332642603,-1.6987307596065127,-2.3110298778739526,21.32381833775528,4.025878956448451
3.8663173139444287,14.644479595252523,-1.8596126572917555,-2.370653697108148,21.849962086236733,4.090481785779037
3.8886441462910613,14.657247571878063,-1.9386769903059766,-2.4004316759553856,22.109295149503712,4.122626648225248
3.8989758037003703,14.663090827264025,-1.9752197638119255,-2.4143025025443725,22.22932774503971,4.137573601667362
3.886285583781341,14.55186326213138,-2.1104510737439246,-2.4108714049220863,22.478050491350864,4.135471277067873
3.859482292625782,14.31441840482565,-2.38840852974524,-2.4033155014361767,22.994098329567247,4.130563187840453
3.8322291545736484,14.063945593425018,-2.6694857045507203,-2.395910084542703,23.526299646241824,4.125764453347511
3.805335468926761,13.80753464848295,-2.9451629896498326,-2.3888869757956632,24.059025540856563,4.121228060884658
3.778659925783935,13.543826196856022,-3.2167719917813815,-2.3822110511840537,24.594970398934745,4.11693365354253
3.7525421587134637,13.27628032718101,-3.480761897928135,-2.375965671073352,25.127115444218813,4.112936906852679
3.7266812550086237,13.001946999274129,-3.7400896389644243,-2.370076442459934,25.66137479320107,4.10919213555336
3.7012534621750577,12.722772361555933,-3.9928940417823493,-2.364582925215162,26.193937138816928,4.105726481314912
3.676380051726754,12.440340928804023,-4.23792000825291,-2.3595052794300675,26.721960266465906,4.102554020512145
3.6617054658451655,12.269262785253996,-4.381354306657752,-2.3566515395663634,27.036804174625942,4.100787451301424
3.655267499531736,12.193145398721793,-4.444005432715721,-2.3554335905898096,27.17571756111971,4.100037758062043
3.661648297859218,12.309000328642561,-4.608165470030861,-2.360559357183395,27.223721580418694,4.109375215082656
3.6858671490588684,12.729958936756727,-5.138560089452618,-2.378481616503086,27.332071481715893,4.141449065738268
3.7143726345651262,13.218736593673063,-5.750898423809371,-2.3995173062264947,27.45434664081682,4.179050352458276
3.7434930167650684,13.71080768160717,-6.363536535975574,-2.4209408914140096,27.573592440588335,4.217297778880233
3.7732957616002065,14.207055717779133,-6.977465852521444,-2.4427972885362084,27.6899132263575,4.256270933995562
3.8037658575311863,14.70696236146991,-7.591930672524921,-2.465070497589702,27.803071790000832,4.295940643767803
3.8347241824634866,15.207399988828346,-8.20301561764752,-2.4876252290406993,27.91228814904879,4.336065824998642
3.8664396262544805,15.712501145332695,-8.815683029167076,-2.5106526401603486,28.01837916969947,4.376986284005491
3.898900518383335,16.221783316785825,-9.429219171346444,-2.534138502370316,28.12111355390402,4.418675989607047
3.9320662023227215,16.734337427700723,-10.042415246538793,-2.5580477410525413,28.22019287508683,4.461072107659329
3.9660241313275293,17.25123861508958,-10.656441975011832,-2.5824375102479586,28.315707960998225,4.504275397718845
4.000481756034507,17.767835513294624,-11.265702867965627,-2.6070925638485654,28.40672701418552,4.547904436156787
4.03539769409207,18.283430782683332,-11.869373374581397,-2.6319795247957956,28.49312440376804,4.591900672182845
4.0650804374492155,18.7157016054069,-12.372078297591438,-2.653060594640549,28.562123446979307,4.629136049789486
4.074776556743614,18.85572882436112,-12.534253194830203,-2.659931832945797,28.583800628670303,4.641266391135971
3.8286026731814053,18.873846856678632,-12.547926942398314,-2.4995115467069593,28.590393694090995,4.362676550018843
3.2918173116123475,18.902560108096136,-12.566841010044925,-2.14949995724159,28.60222972974184,3.7550884699414344
2.7180374141005466,18.92844279669471,-12.583885278000404,-1.7751272826029187,28.612943046993713,3.1055548610698547
2.1442897653098676,18.949365427955268,-12.597653578924982,-1.4005691166109118,28.621583525842375,2.455994636414551
1.5691333188847425,18.965374535559146,-12.608188107339846,-1.0249288278279882,28.62822775412992,1.804790835949126
0.9945423844469541,18.976410642580177,-12.615445295969037,-0.6495385870266612,28.632784687943733,1.1541907812424204
0.4196429367192937,18.982500835012022,-12.619452618968898,-0.27387088702932594,28.635325223228552,0.5032187481650496
-0.15629274894017842,18.98363686912236,-12.620198321860613,0.10250522383758673,28.63578207713958,-0.14893632716758795
-0.7303467156110738,18.97982607609311,-12.617694943071921,0.4776409021547903,28.634220256438105,-0.7989572831840537
-1.3050436551046252,18.971064209394427,-12.611931453841542,0.8531398392824019,28.63057670058935,-1.4496890671627432
-1.8820187921481015,18.957285827265334,-12.602870644106918,1.2300294334416675,28.62488901487543,-2.1029709030087607
-2.4540946852554715,18.93868778015743,-12.590631521055066,1.6035742345968997,28.617177082524016,-2.750661577887796
-3.0321662529380102,18.914894269307254,-12.57497114500412,1.9808490364487175,28.60735631680096,-3.4050847245120313
-3.6009969233815964,18.886560756381897,-12.556308594984174,2.3518625411687153,28.595637992889134,-4.048976332240425
-4.005040684404336,18.8634643343789,-12.541089658133739,2.6152368226491305,28.586110847435997,-4.506288470959998
-4.0758885005019785,18.86104313685916,-12.498194273490338,2.660344176576554,28.54244490206699,-4.584255584577224
-4.082801830367081,18.87682601227389,-12.11062334532893,2.6547463577956427,28.1392063013243,-4.570802165524832
-4.092213253006209,18.892681102792178,-11.581376462827993,2.6475001343473306,27.594255499280866,-4.55283683048193
-4.101712907581981,18.902247216578964,-11.045323111391903,2.640608522875552,27.048782292302747,-4.535095022939657
-4.111252826149383,18.90550383180049,-10.505197371739964,2.6340989097900573,26.505540721573407,-4.517656695005415
-4.1208631238639,18.902508132554637,-9.95932643928354,2.6279424650015017,25.962801433816917,-4.5004563221646166
-4.130388482620515,18.893474925912294,-9.416597150138166,2.62222327437049,25.429234555213206,-4.483754947697984
-4.139920299498321,18.8785393327661,-8.871880676077431,2.6168680882796695,24.89957771118722,-4.467372787068455
-4.149402441897348,18.857970591324907,-8.328450865407312,2.611893168500769,24.376835068382544,-4.45138971391186
-4.1588639342301335,18.831906119019973,-7.784714167734323,2.6072673176365906,23.85927631534984,-4.435739707022581
-4.168357891441409,18.800321847668375,-7.23766579581163,2.602953789697024,23.343921589369906,-4.420322493722738
-4.174768226690907,18.77598512181586,-6.867503261886023,2.600221716033072,22.99816719997269,-4.410068780449652
-4.183430712839912,18.888897017327537,-6.973759591634156,2.6054745327406486,22.99113368996172,-4.418938323259368
-4.215215281365561,19.328576031274345,-7.477507324729619,2.6264652301956644,23.05371648220897,-4.4558745327419915
-4.254093503843891,19.85826280989749,-8.080261599529443,2.652065758360182,23.124954692279232,-4.500855560668359
-4.293907678122205,20.391723470430062,-8.682750021489628,2.6781978555268573,23.192095793820194,-4.546696794891961
-4.334559559306219,20.92733836961927,-9.283054361905027,2.7047920822269074,23.25484500532046,-4.593274244724357
-4.370600939253139,21.39478048909975,-9.803162261012185,2.7282967084558996,23.305778921768688,-4.634379564806881
-4.380097500459103,21.54685132112751,-9.971535976348905,2.7345430286121597,23.32162012945249,-4.645344027865177
-4.133869361821748,21.3744664346745,-9.774000480679017,2.5807353561028186,23.307692851554428,-4.381698712428591
-3.6292797365732166,21.015811695183686,-9.362800269600205,2.2655023032513024,23.27608601898023,-3.841673737086925
-3.106664559588923,20.636548597205152,-8.927595053817923,1.9389897710714368,23.23895169814292,-3.2827578831693693
-2.5817493137650613,20.24741832148803,-8.480587876280913,1.611069098390066,23.197017853313252,-2.721847593928914
-2.0590389378551452,19.851534494908844,-8.025248231902513,1.2846035701897422,23.150504706585995,-2.1638152977600646
-1.5453398929851525,19.454092587532973,-7.567460467917455,0.9638900827205114,23.1000290297194,-1.6159701877600785
-1.0360977143110022,19.051667454136197,-7.103192720560526,0.646128101886749,23.045186692021172,-1.0734934684379966
-0.5303929467845419,18.64349501787222,-6.6314654328934015,0.33078737831267907,22.985844554096985,-0.535453328083774
-0.029280513552800178,18.23039237512802,-6.153124055443768,0.018567744141937348,22.92209320645169,-0.0030197011200725162
0.44562751517126004,17.830731119778644,-5.689410201883999,-0.27704504579372796,22.856984803891706,0.500848922112191
0.6678138784640305,17.640959585966478,-5.46888777544716,-0.41524515267043655,22.824931369586537,0.7363307732865825
1.0411235666872227,17.31802100655288,-5.093095621423967,-0.6472717375946679,22.7686838113401,1.1315760101151975
1.5354036085885672,16.88237662760925,-4.585076797088448,-0.9541419025721938,22.689586230043457,1.6541082884359781
2.0298962194395576,16.437097036112494,-4.064481069898853,-1.260691133768982,22.6049383797925,2.1758679420670592
2.5144490785360705,15.991323536829158,-3.541894170949143,-1.5605969587408302,22.51648871132962,2.6861059275574655
2.9885513617336317,15.545836943644309,-3.0181744185120567,-1.8535267988359825,22.424490436798017,3.184272819714924
3.449765748593862,15.103336696086192,-2.496459879310689,-2.137967993549018,22.329635537947812,3.6678114215253035
3.82212008710646,14.739341125194343,-2.066147562776658,-2.3672069926843577,22.249102695346792,4.05736767804195
3.897839679603682,14.651552558444616,-1.990234652468709,-2.4142183570137656,22.257889161916616,4.1376569284019835
3.878717564712871,14.485677917680526,-2.189104636236755,-2.408720057704741,22.623096299981043,4.134081535351587
3.85114828562545,14.238788122993121,-2.4745608891464137,-2.4010296710914347,23.15610483753088,4.129089256683199
3.8240459853515656,13.98689402069115,-2.753578600658744,-2.3937515949666994,23.68766283074137,4.124377219287012
3.7971372701406567,13.72748089770563,-3.028861816865896,-2.3868129082584577,24.22299563559761,4.1199005071704375
3.770656996634907,13.462826870581313,-3.297896380916452,-2.3802751860111515,24.757305491919247,4.115701116920595
3.7446028758038263,13.193055919344653,-3.560622122014541,-2.374134893816741,25.290408438986933,4.111778722951346
3.7189652175341377,12.918219656262712,-3.8170579106254166,-2.368386726125221,25.82227209506027,4.108131771229402
3.6935010239743136,12.635736294310481,-4.069528353610417,-2.3629773494265827,26.357808524262552,4.104728559954336
3.6700310651232697,12.36672139296301,-4.30009831552088,-2.358266409851454,26.857925894594743,4.101794359640654
3.659346678435164,12.241437439074298,-4.404343664345617,-2.3562118101376606,27.087696162620656,4.100525364043324
3.6406998081217132,12.185472609142025,-4.451573017708717,-2.346393485403918,27.19156230750757,4.08454021698049
3.317623463442482,12.203729711506567,-4.465224536052198,-2.138438597866473,27.19951004878174,3.724689785479739
2.784359236213822,12.230135692261467,-4.484954338005838,-1.7950123354881369,27.21095550358696,3.130649624650017
2.2407177900131474,12.252288918814711,-4.5015026859551375,-1.4447117040119384,27.22059237171775,2.5249733014725777
1.695011699714999,12.26969461295583,-4.51450028080246,-1.092922556341475,27.22817053396947,1.9169320951319155
1.1529534995050574,12.282199282457153,-4.523832118784607,-0.7433657972691062,27.233588342671684,1.312905112505673
0.6059654196132843,12.289990502794755,-4.52964834629844,-0.3905491084697099,27.236988365547898,0.7033533455671178
0.06193700293831064,12.292933058231526,-4.531845710287247,-0.03959851672981401,27.23827844513484,0.09708219051345687
-0.4830312380539874,12.291075009365528,-4.5304569378689505,0.3119621814596319,27.23744811096034,-0.510239288696873
-1.028953878857186,12.284392153888673,-4.525471135554187,0.6641049707069053,27.23454954688091,-1.1186092279799804
-1.5743805493097665,12.272892571279616,-4.516889246237231,1.015855409071319,27.229556340524926,-1.7263969125855074
-2.117932544205601,12.256629893009213,-4.504745102041759,1.3662846670148265,27.22246134162816,-2.3320509946559267
-2.6621505359781388,12.235539495864101,-4.488994959137216,1.716996233905094,27.213303161816118,-2.9383858745400344
-3.203361560869925,12.209783385593104,-4.469751889106273,2.0655847765738575,27.202124401798315,-3.5412948865070897
-3.5870263542349816,12.188630211715491,-4.453939719421881,2.3125661022288027,27.192939430357615,-3.968643212212592
-3.655900175665527,12.195533122385184,-4.420624373317983,2.356020309209046,27.149980038345845,-4.043447813534557
-3.667538984225838,12.299202574632128,-4.125013167476073,2.3551458732382224,26.75056292823647,-4.037958661292234
-3.683314014820676,12.433494255861678,-3.7229839236181226,2.3542505280271686,26.214053612636828,-4.030761114774074
-3.699327939705751,12.56267658776503,-3.313351986659004,2.3536712556299406,25.67504420313992,-4.023727898732786
-3.7155047359053963,12.686060984273684,-2.8981021716079507,2.353410945435841,25.136209050912502,-4.01688993844024
-3.7318316969152447,12.80354039962355,-2.477614855043977,2.353467146607299,24.598035794351354,-4.0102477679822615
-3.7484913063177148,12.916312924368091,-2.0472251899277443,2.353842731194213,24.054659190704907,-4.00372618945503
-3.7650856319738115,13.021710467435806,-1.6172748426666426,2.3545248835549355,23.51909419401273,-3.9974750705991715
-3.781972017745248,13.12205831713255,-1.1785721980701618,2.355523313433243,22.97981931532571,-3.991352928219456
-3.7989392799538515,13.216068567417068,-0.7366547030569479,2.3568246962428345,22.443662757586647,-3.985432698077493
-3.8121851257848647,13.284833514308254,-0.3909429112311167,2.3580416193758356,22.029005154355684,-3.980964870616925
-3.815717642068225,13.305632187421526,-0.3112083521081241,2.3585514576478186,21.928415382364463,-3.980213748013271
-3.8293454236748725,13.530981845975342,-0.589520365401082,2.3678385426066777,21.980785293921745,-3.996874070043245
-3.858151109533974,14.0021265090012,-1.168873823305277,2.387434613479081,22.087736420089776,-4.031982084757803
-3.8856112909036713,14.444868538973116,-1.7101842465396235,2.40607178077453,22.18509908457733,-4.065316029505389
-3.897085201790326,14.6280558219563,-1.933268276974365,2.4138464900278187,22.22449006777893,-4.079205907381253
-3.894680727650555,14.623652462377636,-2.024101966884103,2.414002433982169,22.319741458089364,-4.08100730910989
-3.871323615508033,14.419503616937694,-2.2668305408314957,2.407334752541894,22.767183027497722,-4.076678327440157
-3.8438692145834774,14.171087556567713,-2.5507340468620674,2.399756391338777,23.300160983544956,-4.071768278057222
-3.8166909005759373,13.915875649367472,-2.8301289712104083,2.3925400222076836,23.83541445528511,-4.067106590321487
-3.7899828427440605,13.655763150213348,-3.102917299482697,2.3857363306711394,24.368945656328712,-4.062728215211878
-3.7636980711684886,13.390452216991036,-3.36949606569638,2.379329897561886,24.90145071762851,-4.058625200234297
-3.737758738530874,13.119261401769451,-3.6305640418112275,2.3733001256534707,25.43431179360007,-4.05478635444056
-3.7121337803308543,12.841922111625621,-3.8863347272353765,2.367639802159257,25.96801178050519,-4.051209149862073
-3.6868785888735967,12.559111968439087,-4.136162621169796,2.362360614505371,26.50122637097468,-4.047902927578567
-3.6657602212389135,12.315132459410615,-4.3432619232134595,2.3582146345669384,26.952764358952372,-4.045310485214564
-3.65724768592737,12.214849271537046,-4.42621950247939,2.356593378409692,27.136196901757195,-4.044313259160988
-3.656190524621426,12.210757489550135,-4.483990085910186,2.3572188547804944,27.198050038235397,-4.045996172010066
-3.674392490552814,12.528554489720158,-4.885152806339671,2.370701055305044,27.280601053034932,-4.07013371666703
-3.70234167979685,13.010730112951796,-5.490779072428792,2.3913526928417146,27.40279454784662,-4.107068113197604
-3.7312448270804905,13.502170030755858,-6.10425707109118,2.412644808184498,27.523524746087443,-4.145100722045181
-3.7608069151981507,13.997480303167013,-6.718679926552718,2.434354332641634,27.64129143335647,-4.1838316784105745
-3.7908952623880507,14.494226960289943,-7.330944481570776,2.4563794502595897,27.755431002216397,-4.223079046438153
-3.8216264530781827,14.994137140643575,-7.943103418886375,2.4788011190584944,27.86626319639325,-4.262986900391789
-3.853162543342736,15.499556569200925,-8.557903426783874,2.501732116490912,27.97418092315437,-4.303755230129216
-3.8852049808962064,16.005468362040563,-9.169148530532691,2.5249503444604846,28.078018408355412,-4.344988807510934
-3.9180470749418226,16.516280327980066,-9.782076752457963,2.5486632653967782,28.17859163398742,-4.387055771594522
-3.951713670933736,17.03205332416283,-10.396617816992835,2.5728824589564643,28.275767610683907,-4.4299757839519
-3.9861457221789394,17.5515786120519,-11.011201143425644,2.5975591343465894,28.369186604099795,-4.473661643496223
-4.020616491541968,18.063863299023094,-11.612847459888618,2.622169301127139,28.45689650633579,-4.517186513697003
-4.054491707656629,18.55990666698968,-12.191266259303433,2.6462626003496243,28.537638238032027,-4.559757113313737
-4.0733147702438455,18.832452997004395,-12.507327802179935,2.6596110623535765,28.580241188048028,-4.583326056187751
-4.077030162678804,18.86389756713271,-12.434143472608975,2.659389358784655,28.47555363922388,-4.581998551171995
-4.085156554286776,18.881399275492853,-11.97826250207533,2.652879544400914,28.00230530954968,-4.5662502828662825
-4.093489450057391,18.89434012781002,-11.509351046267255,2.6465362749683394,27.520585753874705,-4.550411334373445
-4.096666091875094,18.897961682380515,-11.330217933632698,2.6442042618786537,27.337880402959623,-4.544453196421474
-4.102148627111816,18.90253364468239,-11.020575688074686,2.6402888001069424,27.023749681237437,-4.534271126433723
-4.105209355603969,18.904170848117946,-10.847452508027462,2.6381622095565644,26.849035026432837,-4.5286414091620895
-4.107091645480783,18.904855344180554,-10.74089397058763,2.6368751799311028,26.741819808332327,-4.525198331688915
-4.109333041376644,18.90535153406948,-10.613916187219075,2.6353631021220822,26.614378655427103,-4.521117167773481
-4.116211417057521,18.904733214832653,-10.223647109244968,2.630859767247009,26.22482660879697,-4.5087180796971325
-4.125669779918239,18.898692132076352,-9.6855466696973,2.624996575742014,25.69289820126716,-4.491967674806633
-4.135073708366978,18.88685772289601,-9.148934213444157,2.619532862290893,25.16824509155576,-4.475643714595169
-4.144566858063288,18.86915810002174,-8.605658856319543,2.6143742381364357,24.642790416090943,-4.459484144513363
-4.154065753853019,18.845801706398642,-8.060527973089325,2.6095590061903664,24.121132211169577,-4.443621868607771
-4.163556906593293,18.816977356462047,-7.51469440236071,2.6051188443177287,23.604231203798868,-4.428100472066189
-4.172255163922647,18.7858262326074,-7.012912449751145,2.601299724008369,23.133698788730644,-4.414090479514705
-4.175920528644065,18.78406256225908,-6.853191426514986,2.6005265515567535,22.9757413205493,-4.410195322100898
-4.196984691513859,19.077079182654792,-7.1897410894689155,2.6144522806629262,23.018291925877918,-4.434713197210656
-4.234321522529093,19.58993170184428,-7.775477766796227,2.639076447045378,23.089425363400082,-4.478013109359095
-4.273418447592147,20.118256530580496,-8.374468960830882,2.6647802711914834,23.158245735828597,-4.523139931034946
-4.313724812196535,20.65390115393747,-8.97717038739283,2.6911930335830188,23.223385843493915,-4.569437288322135
-4.354225278577122,21.183194423256015,-9.568174492588254,2.717645640482961,23.283156897117678,-4.615731182581228
-4.3801883979587055,21.517925776847107,-9.939592258334583,2.7345576114989885,23.318592514398063,-4.645290718872833
-4.306132583069151,21.517555621882877,-9.937055642601598,2.6884097516486687,23.31986491564959,-4.566265374641394
-3.867886202589588,21.337631940743176,-9.726141107881581,2.4148913205987346,23.308014982108087,-4.097757334038703
-3.2933215785705774,21.09631929503088,-9.444606381715197,2.0561969626013057,23.289780555460272,-3.483784792769708
-2.71961572298525,20.849124644678216,-9.157658515566043,1.6979711286782078,23.268457080570904,-2.8710594589473866
-2.1456115170419663,20.595441082229655,-8.864546635653374,1.3395384506150185,23.243915416744954,-2.2583788810614314
-1.569019431537523,20.334087662608535,-8.563879319579522,0.9795159251276511,23.216036840319806,-1.6433279229343982
-1.0033452366622773,20.071201416292165,-8.262641220181438,0.6263825084374963,23.18545195371574,-1.0403403568276737
-0.44385623309766736,19.804748859511975,-7.958403882757057,0.27722584677296747,23.151988640746616,-0.4443856517616587
0.11436389951927027,19.532386964597464,-7.648420000940259,-0.07097745105818555,23.11532325174755,0.14974328899016068
0.6720324104713283,19.253666571930534,-7.3321300702466665,-0.4186343658734758,23.07542382094537,0.742785833505613
1.2269734899498896,18.969593905506283,-7.010612252494762,-0.7643434859944628,23.032376415559572,1.3323918382026891
1.7750075757029447,18.682342217818288,-6.686250863343934,-1.1054632521915688,22.986524710088794,1.914097559473193
2.3264213445284074,18.386438292354597,-6.35280131478369,-1.4483545879639812,22.936969795430922,2.498788403728651
2.8702834399845254,18.087676029392398,-6.016725755643907,-1.7861790870060659,22.884656903960124,3.074839842518528
3.4152468744782905,17.781268983503097,-5.672564986753324,-2.1242704056612047,22.828716443559955,3.6513820688405914
3.906051291319738,17.49915110942116,-5.356067274411697,-2.428373721353565,22.775300135397416,4.1700221033664
4.078350341763074,17.39482194263824,-5.247476087964386,-2.535184662421342,22.76375675409448,4.35233141322111
4.060880180716544,17.252294032144665,-5.415275127472634,-2.5301338868663064,23.07453567635229,4.348686510246494
4.03137510528679,17.00426211232371,-5.697743254943946,-2.521842429434598,23.605794117766663,4.342703516403795
4.001946602427441,16.747433106658576,-5.978180739292126,-2.513881766317487,24.143810748687393,4.336961926814983
3.9729246417685062,16.484589667881444,-6.253308625395223,-2.5063460506474273,24.68251557498375,4.331531972242245
3.949887969992578,16.268970739516952,-6.4705661302059925,-2.500595720698654,25.115969711715987,4.327393946208206
3.94070121864721,16.181217907618613,-6.556904501541772,-2.4983613297685485,25.290290161807576,4.325787766048699
3.9321027529205246,16.098157218101285,-6.63755049648665,-2.4963009658857773,25.454210821114714,4.32430771248152
3.907000741757375,15.850455196605854,-6.872032341110105,-2.49046077347384,25.937016046319464,4.320118903419273
3.8794155483443085,15.56906060704587,-7.127951018338954,-2.4843521940893685,26.475006359648937,4.315750821578618
3.852261331483445,15.282360448739585,-7.377903026163436,-2.4786680230355382,27.012318957673937,4.311702934106398
3.8273740208564537,15.010867346076571,-7.605118045389941,-2.4737565867091993,27.51162700181406,4.3082230665544
3.8162306232861165,14.886530725904194,-7.7062348368285605,-2.471652879696465,27.737347335647186,4.30673897979459
3.7921442490982584,14.835649092294316,-7.7488608510933705,-2.4581993297567233,27.83179762215582,4.2842957371948405
3.456844641841304,14.854781273304308,-7.762484942884179,-2.241144536161149,27.839961424806148,3.9080827380781513
2.911145641015444,14.882112711476363,-7.781932354690772,-1.887694230013625,27.851575659588192,3.295722960172235
2.354146066722465,14.905161273840271,-7.798328072930127,-1.5267164022034252,27.861406984060483,2.6706076142831225
1.7962179102493505,14.923347896954562,-7.811260582817451,-1.1649646875534851,27.869172395048803,2.0443870977982823
1.2381779091449936,14.936639940728076,-7.820706447883499,-0.8030087332402072,27.874822669350053,1.4179915404524437
0.681922046576659,14.94502161892988,-7.826664655192142,-0.44212013066831035,27.878411150880066,0.7935670575973649
0.12645612732995928,14.94854449671174,-7.829165918853169,-0.08169490955543293,27.879895212916658,0.17001023060016582
-0.4318062988095424,14.947207954707652,-7.828218137614572,0.280554546633318,27.879337245586818,-0.4566883270369488
-0.9890779593305284,14.940995926366789,-7.823805782476159,0.6421298881531878,27.876698776037397,-1.0822632931308358
-1.5460024980613436,14.929915511676882,-7.81592887492628,1.0034065050850898,27.871952612264014,-1.707422565541746
-2.1056028374068103,14.913871918883114,-7.804525494615901,1.3663071186290578,27.86512401792877,-2.3355437197790367
-2.6607971149461824,14.893081648436404,-7.789738754970779,1.726195321476294,27.856245160100812,-2.958663242822912
-3.2188708791766274,14.867284435891849,-7.771387086842226,2.08775842462702,27.845272476960215,-3.5849437317370745
-3.6743831673315457,14.842578016453084,-7.7538019299571515,2.3827013419108503,27.8347641628854,-4.096064685957856
-3.811867910729081,14.83467305228037,-7.741305358131234,2.4715315519236922,27.82440960223776,-4.2499834872195175
-3.8163862072448675,14.841965895740474,-7.448878518081086,2.467675773950022,27.52477504429117,-4.240457480855716
-3.8244350351100653,14.850302097466301,-6.926337750255675,2.461091829185227,26.994045862091138,-4.223745109994478
-3.832649626213552,14.85277469104637,-6.39095015492422,2.4547370692116357,26.456331616390262,-4.2070157533191015
-3.840904225969295,14.849251404603834,-5.850889616575949,2.4487096076530133,25.919936279458906,-4.1905235285519655
-3.849070519315364,14.839967267255927,-5.314622775136061,2.443087910151434,25.39308951884555,-4.174508521126485
-3.8573179841453777,14.824863902744038,-4.7710752309851685,2.437743208002536,24.86477835291602,-4.158624908246171
-3.8655373535839734,14.804208708025907,-4.227479375520005,2.4327385203300453,24.341966177090573,-4.143073508097438
-3.873741591702531,14.778132688785277,-3.68304083071063,2.428052978322286,23.8237280380236,-4.127815746380393
-3.8820048438718127,14.746473733761457,-3.1328710382522647,2.423636714274552,23.305338771110552,-4.112704413561549
-3.8902271796952252,14.709710694452545,-2.5836619300330432,2.419534662694417,22.79301015514819,-4.097912193926912
-3.8973534653876953,14.673689123986533,-2.1062733692985995,2.4162083373041847,22.3517422587529,-4.085280831679393
-3.9000468368835226,14.675183329168833,-1.9905759740430544,2.4158479113011366,22.234544006075183,-4.082779821230454
-3.91864738983637,14.969499909180152,-2.3476880940870144,2.4284327315599143,22.296516705864768,-4.105240184294621
-3.950212697771269,15.462822890711507,-2.9432454773092545,2.449744611992436,22.39734780127965,-4.143223007044267
-3.983565695402248,15.975924259343046,-3.558650692231759,2.4722024631086077,22.498159400525534,-4.18317835235794
-4.017537648373259,16.490198358107392,-4.17132285895126,2.495012742375769,22.595027558298206,-4.223689749919821
-4.051778176845805,17.00028255227968,-4.7748933843938905,2.517937829347443,22.68696173215271,-4.264335354108504
-4.074762080403955,17.33815750038752,-5.172431555595352,2.5332894722245483,22.74557737029586,-4.29151548438748
-4.078888386823393,17.398439687532978,-5.2431689962064665,2.5360424392848495,22.755844067120755,-4.296386466507244
-4.078888386823393,17.398439687532978,-5.2431689962064665,2.5360424392848495,22.755844067120755,-4.296386466507244
-4.078888386823393,17.398439687532978,-5.2431689962064665,2.5360424392848495,22.755844067120755,-4.296386466507244
-4.078888386823393,17.398439687532978,-5.2431689962064665,2.5360424392848495,22.755844067120755,-4.296386466507244
-4.078888386823393,17.398439687532978,-5.2431689962064665,2.5360424392848495,22.755844067120755,-4.296386466507244
-4.078888386823393,17.398439687532978,-5.2431689962064665,2.5360424392848495,22.755844067120755,-4.296386466507244
-4.078816083516282,17.398300821087716,-5.24282309975652,2.535997427827503,22.75501741584682,-4.296310169212892
-3.991096222036371,17.22982518934677,-4.823174401961763,2.481388600635862,21.752107063078313,-4.203744720146081
-3.9035760938741113,17.06173316738705,-4.4044812212556606,2.426904114751241,20.75148028222483,-4.111390037534322
-3.8162356302235887,16.893986210861833,-3.9866475491844153,2.372531476606783,19.752907624528934,-4.019224943984035
-3.702557899947413,16.67565564011029,-3.4428173301913554,2.3017629251811598,18.453218242332273,-3.8992677304820513
-3.552089828374849,16.386665176749432,-2.7229834267876676,2.2080910385668906,16.732901039416976,-3.740487901372068
-3.4017599597524617,16.097940147338733,-2.0038106813828014,2.114505188351861,15.01416392528861,-3.58185390945254
-3.2510885847681674,15.808559217438733,-1.283004181687345,2.0207067379162256,13.291522333199216,-3.4228595465837697
-3.101347264857012,15.520964560491716,-0.5666470323868328,1.9274872808341004,11.579514158055074,-3.264846614420081
-2.9508741778824175,15.231964464500221,0.15321086452180815,1.8338122719483392,9.859139613523702,-3.1060614928605497
-2.8007879503953617,14.943707374658741,0.8712180393997022,1.7403780972653007,8.143188073983138,-2.947684600652794
-2.6503399284035756,14.654755418720619,1.5909560263219578,1.6467186922495372,6.423100100022289,-2.788925928649275
-2.499647285289384,14.365333641040424,2.3118642719944957,1.5529070016239301,4.700215347178902,-2.6299091228130673
-2.3496468097510697,14.077241247238058,3.0294612125991507,1.4595262106703133,2.985244218638905,-2.471622719435431
-2.1993907486637894,13.788657973307755,3.7482808653808353,1.365986308349662,1.2673509537805012,-2.313066612130819
-2.048853434174166,13.499534521316981,4.46844602443729,1.2722713154829648,-0.45375791064909815,-2.154213715170475
-1.898325057503809,13.210428235390104,5.188568425284228,1.1785618867361776,-2.1747645880560404,-1.9953702497486685
-1.7477594239764895,12.921250393576022,5.908869061609935,1.0848292642311093,-3.89619722700612,-1.8364874694255682
-1.5972565204966331,12.632193031710237,6.628869599619405,0.9911356934785618,-5.616912666761292,-1.6776708843165902
-1.4474775298602085,12.344526023996465,7.345406964329943,0.8978927849899742,-7.329351535248208,-1.5196182005214875
-1.2971901074760601,12.055882517249865,8.064376648440563,0.8043333591131716,-9.04760335709444,-1.3610289995425473
-1.1465123166270539,11.766489264976776,8.785213841404637,0.7105309145667216,-10.770318302436259,-1.2020278664009074
-0.9963101094714654,11.47800942343921,9.503775858892277,0.6170245382913667,-12.487595849659904,-1.0435285878838352
-0.8461014902386415,11.189517266802817,10.222368551529387,0.5235141702630403,-14.204946706833363,-0.8850225430905879
-0.6955688152965805,10.900402725572883,10.942511515155301,0.4298020656846596,-15.926002526830345,-0.726174541963369
-0.5451262457874032,10.611461241726671,11.662223417594657,0.3361460550390595,-17.646028161987136,-0.5674216236340195
-0.39493715222547265,10.323006586286514,12.380722700116591,0.2426478424561435,-19.36315578012267,-0.4089361830969132
-0.2754961679090265,10.093607052942724,12.9521241214834,0.16829145426656494,-20.72873704866193,-0.2828973571832864
-0.18800690534993714,9.925574311765088,13.37066964224159,0.11382618335060972,-21.729010939845484,-0.19057524517036406
-0.10053596036306595,9.757576751497446,13.789127532385704,0.05937231579438348,-22.729075404309647,-0.09827246258032929
-0.013244618686554745,9.589924139120342,14.206726206680173,0.005030257878220803,-23.72708644533797,-0.006159204469664127
-0.004624333004427285,9.573367933358247,14.247965346825785,-0.0003361857437368331,-23.825643073319053,0.0029372601369640904
-0.004624333004427285,9.573367933358247,14.247965346825785,-0.0003361857437368331,-23.825643073319053,0.0029372601369640904
-0.004624333004427285,9.573367933358247,14.247965346825785,-0.0003361857437368331,-23.825643073319053,0.0029372601369640904
-0.004624333004427285,9.573367933358247,14.247965346825785,-0.0003361857437368331,-23.825643073319053,0.0029372601369640904
-0.004624333004427285,9.573367933358247,14.247965346825785,-0.0003361857437368331,-23.825643073319053,0.0029372601369640904
-0.004624333004427285,9.573367933358247,14.247965346825785,-0.0003361857437368331,-23.825643073319053,0.0029372601369640904
-0.004624333004427285,9.573367933358247,14.247965346825785,-0.0003361857437368331,-23.825643073319053,0.0029372601369640904
-0.004624333004427285,9.573367933358247,14.247965346825785,-0.0003361857437368331,-23.825643073319053,0.0029372601369640904
-0.004624333004427285,9.573367933358247,14.247965346825785,-0.0003361857437368331,-23.825643073319053,0.0029372601369640904
-0.004624333004427285,9.573367933358247,14.247965346825785,-0.0003361857437368331,-23.825643073319053,0.0029372601369640904
-0.004624333004427285,9.573367933358247,14.247965346825785,-0.0003361857437368331,-23.825643073319053,0.0029372601369640904
-0.004624333004427285,9.573367933358247,14.247965346825785,-0.0003361857437368331,-23.825643073319053,0.0029372601369640904
-0.004624333004427285,9.573367933358247,14.247965346825785,-0.0003361857437368331,-23.825643073319053,0.0029372601369640904
-0.004624333004427285,9.573367933358247,14.247965346825785,-0.0003361857437368331,-23.825643073319053,0.0029372601369640904
-0.004624333004427285,9.573367933358247,14.247965346825785,-0.0003361857437368331,-23.825643073319053,0.0029372601369640904
-0.004624333004427285,9.573367933358247,14.247965346825785,-0.0003361857437368331,-23.825643073319053,0.0029372601369640904
-0.004624333004427285,9.573367933358247,14.247965346825785,-0.0003361857437368331,-23.825643073319053,0.0029372601369640904
-0.004624333004427285,9.573367933358247,14.247965346825785,-0.0003361857437368331,-23.825643073319053,0.0029372601369640904
-0.004624333004427285,9.573367933358247,14.247965346825785,-0.0003361857437368331,-23.825643073319053,0.0029372601369640904
-0.004624333004427285,9.573367933358247,14.247965346825785,-0.0003361857437368331,-23.825643073319053,0.0029372601369640904
-0.004624333004427285,9.573367933358247,14.247965346825785,-0.0003361857437368331,-23.825643073319053,0.0029372601369640904
-0.004624333004427285,9.573367933358247,14.247965346825785,-0.0003361857437368331,-23.825643073319053,0.0029372601369640904
-0.004624333004427285,9.573367933358247,14.247965346825785,-0.0003361857437368331,-23.825643073319053,0.0029372601369640904
-0.004624333004427285,9.573367933358247,14.247965346825785,-0.0003361857437368331,-23.825643073319053,0.0029372601369640904
-0.004624333004427285,9.573367933358247,14.247965346825785,-0.0003361857437368331,-23.825643073319053,0.0029372601369640904
-0.004624333004427285,9.573367933358247,14.247965346825785,-0.0003361857437368331,-23.825643073319053,0.0029372601369640904
-0.004624333004427285,9.573367933358247,14.247965346825785,-0.0003361857437368331,-23.825643073319053,0.0029372601369640904
-0.004624333004427285,9.573367933358247,14.247965346825785,-0.0003361857437368331,-23.825643073319053,0.0029372601369640904
-0.004624333004427285,9.573367933358247,14.247965346825785,-0.0003361857437368331,-23.825643073319053,0.0029372601369640904
-0.004623032174200088,9.57337066858169,14.247958839537638,-0.00033618175596071326,-23.825626591573435,0.002938569802777283
0.013682443782986659,9.611777621378218,14.156495006339709,-0.0003425955363989071,-23.59385697188066,0.02134305936458732
0.05480799479152083,9.697456834597311,13.951789900244659,-0.0008102422198219784,-23.07433931453162,0.06251086649035123
0.09809803930924416,9.786747631136246,13.73745809858269,-0.0019704904175538505,-22.52920254688615,0.10558841543112506
0.14136959540277919,9.87509117430701,13.52437112833716,-0.0038035375746717326,-21.986012896918922,0.14839940323383147
0.1849083104405137,9.963073695986596,13.31111004895637,-0.006316286019240714,-21.441147362165957,0.19123941687925
0.22841494388104053,10.050093581563832,13.099128405977543,-0.00948647885957568,-20.898313998575226,0.23382678568248041
0.2722586544127116,10.136889945446107,12.886618296849104,-0.013337953665582861,-20.352874425710265,0.27653498687519373
0.3160092112709007,10.222613357495586,12.675654044037389,-0.017828948974974685,-19.81014628558945,0.31895722033730345
0.3600148309359354,10.307950597042016,12.464542899909553,-0.02298983708324339,-19.265771643877418,0.3614438098603362
0.4043218607830059,10.392983870073442,12.253063780558401,-0.028829721414508232,-18.719159849001144,0.4040496152333691
0.44841436654774364,10.476729162488835,12.04366381303887,-0.03527445121321056,-18.176635662544328,0.44629120427258867
0.49275260682062,10.560068191738143,11.834140182568795,-0.04238436167953343,-17.632493827832086,0.4886223010751201
0.5371244394481283,10.642602132825303,11.625487654564997,-0.05012420727721373,-17.08930858923374,0.5308516667887946
0.581762348277337,10.724762492239035,11.416606299062723,-0.058534113312751705,-16.54420605988597,0.573211727556746
0.6263788400423261,10.806020592006593,11.20883314578133,-0.06755867654982861,-16.000667213085585,0.6154409405230598
0.6712119629136531,10.886811652357617,11.001049999940221,-0.07724414707082763,-15.455760574168393,0.6577760210471086
0.7160625319068804,10.9667770593937,10.794172024006963,-0.08754675778645828,-14.91187792092792,0.7000400296440432
0.7610576885389019,11.04614567015036,10.587602716398582,-0.09849384997491943,-14.367445849416193,0.7423640704208143
0.8061282266714945,11.124795704646514,10.38165197717294,-0.11006825914521759,-13.823273065638325,0.7846940939060484
0.851364650612267,11.202884592979334,10.17589937139894,-0.12229366551621791,-13.278239393921826,0.8271260775043229
0.8966263042018516,11.28017022808468,9.970976497707879,-0.13513182660089534,-12.734010705827473,0.8695390936909168
0.9420360129206626,11.356863345012922,9.766318811404258,-0.14861732501308839,-12.189081078814356,0.9120592429079432
0.9874471320091395,11.432717730123391,9.56257836730955,-0.16270622349464056,-11.645180963513829,0.9545601666901719
1.0327580866691881,11.50757184756117,9.360194827648153,-0.17736201797267587,-11.103489783628948,0.9969577876215421
1.0784183672119478,11.582166515575521,9.157155300962758,-0.19273238646341656,-10.55860896950578,1.0396835265636961
1.124635153245492,11.656820243634112,8.952552859376336,-0.20890268303148157,-10.008062240174262,1.0829423707021915
1.1708522044392433,11.73062416969036,8.748853887352377,-0.22568723290592113,-9.458460099873614,1.126225002460517
1.217185964053533,11.803765670275348,8.545536457225372,-0.2431289697035085,-8.908388857667676,1.1696516488809652
1.2635379019294921,11.876090029633561,8.343024943050379,-0.26119208449624465,-8.358990228978204,1.2131411318417125
1.3100382006690365,11.947800189592451,8.140743694577624,-0.279929529299471,-7.808694377768247,1.256826847831399
1.3565657126438615,12.01870860529297,7.939213445761615,-0.2992953002435014,-7.258908921099868,1.3006062876399993
1.4032014288943488,12.088938988201999,7.738076131196705,-0.3193254027128436,-6.708649907772978,1.3445669359873356
1.4496142507349705,12.157999584982802,7.538745910950323,-0.33987526862310097,-6.1617912681743485,1.388407248735107
1.4965235812804907,12.226957045961145,7.3381301299803,-0.3612691459833777,-5.609833830857401,1.4328185470723587
1.5431243956559884,12.294626240740666,7.139666604163186,-0.3831442793366709,-5.062225536798805,1.4770502146138162
1.5900660572348102,12.36195247657459,6.9405807176299605,-0.40580707382847886,-4.511307726577065,1.5217297496599929
1.636945177067621,12.428352826875606,6.742580939131369,-0.4290696026843672,-3.9617926046617726,1.5664853464563988
1.68382023280986,12.493914775205543,6.5454091048757395,-0.4529611410029739,-3.412965535581931,1.6113836097669736
1.7308003869978557,12.55879102085858,6.348599469779559,-0.47754129860613587,-2.863523130738576,1.6565406972629975
1.777893363951229,12.622988998384683,6.1521162786232955,-0.5028208035406555,-2.3133522779836975,1.701976359238636
1.8249198613457969,12.686265429208396,5.956700077638449,-0.5287069597239815,-1.7645219800307457,1.7475291280650116
1.872098577755089,12.74891457630708,5.761435675599336,-0.5553248347547683,-1.2144550896402113,1.7934227275206038
1.9192277442455037,12.810667854992534,5.567152438297965,-0.5825660006594688,-0.6654799451285838,1.8394729790847428
1.9665197241665613,12.871802490976508,5.372969588859535,-0.6105591733420934,-0.11509904491339588,1.8858997298486515
2.0136836919552046,12.93194340120915,5.180074243428214,-0.6391368913032099,0.43332768197330845,1.9324293860888453
2.06114362707379,12.991628429754996,4.986728726340664,-0.6685639407111303,0.9847529204047205,1.9794933474026943
2.1084174668652698,13.050249990766757,4.794892001454541,-0.6985483913640604,1.5335988579006945,2.026626375972471
2.155877060587415,13.10827052751978,4.60304780446029,-0.7293311758798072,2.0842070933904493,2.0742113954501713
2.2032466030558293,13.16535160748812,4.41230611861003,-0.7607408303613796,2.63340076329155,2.1219849575379754
2.250524030747123,13.221496555305372,4.22266414767297,-0.792777812216459,3.1811817390864094,2.1699557845087263
2.2980287136833177,13.27708209517622,4.0328371627577555,-0.825667593692086,3.7312724758137326,2.2184617982129855
2.345612892391636,13.331928098452675,3.8434160672204962,-0.8593212097814245,4.281982198302513,2.267367978585736
2.393221327406514,13.385968856676193,3.654616693090344,-0.8937088710680737,4.832693790802973,2.316631734148927
2.4406524831228524,13.438980164926866,3.4672285961649347,-0.9286888621397608,5.38110009065568,2.366056186667888
2.4881652014651507,13.491254276475479,3.2802209540445157,-0.9644575671178546,5.930217146950636,2.4159234855090395
2.5358156242233987,13.542847505299616,3.0933717785236117,-1.0010704520146678,6.4807145549970295,2.4663088288761967
2.5835643966635033,13.593711220689462,2.9068348354940885,-1.0385113998734028,7.032158347663274,2.517187513260412
2.630948193289714,13.643358915894366,2.7224087926802647,-1.0764197428797773,7.579221003682283,2.568076814658893
2.6786884268253783,13.692546622679355,2.537280182424904,-1.1153818643791844,8.130253243560079,2.6197660299888996
2.7262186346603747,13.740686692999622,2.3536435535291,-1.1549488163932746,8.678737509690398,2.671658598524788
2.7739638315133237,13.788209165090707,2.1698518086611367,-1.1954848767736685,9.229599650391666,2.724233865566124
2.821403169140422,13.834597556992415,1.9879030894436212,-1.2365563325965443,9.776851565279095,2.776932465531402
2.8692380575545937,13.880534854882034,1.8051042635025243,-1.2787840123075667,10.328605318959884,2.8305508257876486
2.9167903295441184,13.925366189736032,1.6240446152294534,-1.321583856670226,10.877058971448454,2.8843466959653705
2.9645349813577337,13.969540991889438,1.4429091409633013,-1.3653933597911567,11.427711645026664,2.9388727094785945
3.011971507627743,14.012598270329349,1.2635900109299798,-1.4097630161134518,11.974811089101614,2.993572363618725
3.059636022437027,14.055025892930043,1.084054650502232,-1.4552053177816833,12.524560527814117,3.049079844429595
3.1074293276736435,14.096724968854788,0.904679910295837,-1.50164938680266,13.075836097681705,3.105303765590397
3.1549413841146934,14.137340565613451,0.7269976864612016,-1.5487069865730285,13.623927699275091,3.1617773412084964
3.2025577903743865,14.177205764839087,0.549558503158397,-1.5967699962677213,14.173302751883075,3.2189743626923937
3.250321210307629,14.216348089341283,0.3722047717965483,-1.645904463663326,14.724473642879635,3.276970286802222
3.2979476862214265,14.254533131704733,0.19598743122548923,-1.6958347807213565,15.274182948474866,3.335440314272675
3.3455665646502353,14.291866801446327,0.020421609016724213,-1.7467092362647185,15.82394219206533,3.3945607159189057
3.3930391579243384,14.328242701996713,-0.15398765687422153,-1.798392586454677,16.372168424570404,3.454176959194627
3.4408052430678646,14.363992121399864,-0.3288564422640206,-1.8513863753602826,16.92395990024313,3.5148660176134974
3.4883479188860957,14.398724287301224,-0.5022940329320493,-1.9051384266470168,17.47336446638361,3.5759949222707017
3.5357831440809635,14.432530887958334,-0.674732870697702,-1.9597888224749997,18.02173849876073,3.6377277738500196
3.583427845614766,14.465632819031265,-0.8473258514451104,-2.015726620829363,18.572764892706147,3.700502980022769
3.6307872736947457,14.497686272825502,-1.018284951488507,-2.0723894704765558,19.120739206559694,3.7636907334380374
3.6783914517899103,14.529048669576037,-1.189526766672907,-2.130432349469296,19.67181186068577,3.8280221453702103
3.725728142847058,14.55938082924555,-1.3592116152182703,-2.189252610155952,20.2200706942678,3.8928298000143067
3.7731094286228366,14.588886235248978,-1.528464716449724,-2.2492539467272876,20.76914592003647,3.9585613314111163
3.8205102065424392,14.61754492216584,-1.6971974207862766,-2.3104314573949534,21.31876475481803,4.025210784763345
3.8660417921911434,14.644262196466457,-1.8587226893697937,-2.370304639946833,21.847025402067285,4.090096982761025
3.888562323614799,14.657182230716385,-1.9384152231777125,-2.400327503763215,22.108429226638968,4.122511921163251
3.898952952314018,14.663077504422368,-1.9751396165903903,-2.414271889977531,22.22906421991199,4.137540575433727
3.886410014110563,14.552945296879141,-2.109157401220009,-2.4109071019207295,22.475671776233895,4.135494487366197
3.8597205953019684,14.316567656601626,-2.385943627495529,-2.4033815103891762,22.989478457908717,4.1306060196310765
3.832408594606186,14.065625327870247,-2.667640509566909,-2.395957903124056,23.522770445460356,4.125795394218954
3.805424344506788,13.808397590659595,-2.944254939284924,-2.3889097036624007,24.057252449788564,4.12124271319803
3.778894426853392,13.546186385666731,-3.2143928508923434,-2.3822684350914263,24.590225576678893,4.116970477228345
3.7527682261099793,13.278636734664897,-3.478485627755449,-2.376018460865199,25.122477514814207,4.112970589339288
3.7269031626752054,13.004341761227883,-3.737873652515127,-2.370125696329957,25.656758932819617,4.109223338937941
3.701444085409753,12.72490057969601,-3.9910072937113337,-2.3646229906326983,26.189917818488965,4.105751643186382
3.676607095707349,12.442961996909657,-4.23569418465727,-2.3595502579012235,26.71710823333045,4.102581965837518
3.661737278311157,12.269637328471532,-4.38104430936869,-2.356657608638091,27.036118917707757,4.100791193685861
3.6552870739188004,12.193377833885073,-4.443815207855143,-2.355437261512485,27.17529446140251,4.100040013505211
3.661504919744751,12.306492238587678,-4.604996946802522,-2.3604531184324604,27.22306756056942,4.109184981760848
3.685590985459083,12.725188755924243,-5.1325655431982815,-2.378277511644558,27.330859533117206,4.141083997951804
3.7142251026478115,13.216225035424202,-5.747761552900774,-2.3994085975375383,27.45372800148978,4.178856154855655
3.743355921888935,13.70850817004334,-6.360682708725035,-2.4208401910190545,27.573044364473347,4.2171181090073455
3.773088974352748,14.203637246575452,-6.973250010288119,-2.4426458756234584,27.689125323921054,4.2560010989700405
3.8034362429074102,14.701593643757604,-7.585352799504533,-2.4648299434006864,27.80187782167906,4.295512446651807
3.834480533497035,15.203489906587679,-8.198256512212842,-2.4874480115492097,27.91145042266182,4.335750725521292
3.8663236926092344,15.710668575730502,-8.81346775427975,-2.5105686118950103,28.018001874511487,4.376837045215448
3.89873634412082,16.21922649294856,-9.426149383660974,-2.534019928299187,28.120608300031112,4.418465619597787
3.931827095904974,16.730669528655017,-10.038042315332717,-2.5578756788282346,28.219499144967408,4.460767161795288
3.9658445206210056,17.248524922730486,-10.653229723292949,-2.582308745397113,28.315217947399443,4.504047421907432
4.000382938285847,17.766365019055563,-11.263974788467573,-2.607021990828797,28.406474161850603,4.547779612561956
4.035012081747744,18.2777788431628,-11.862779860908331,-2.6317051988740103,28.492201420381765,4.591415936820451
4.06497632922416,18.714194909882572,-12.370331461263131,-2.6529867760508643,28.561888353492787,4.629005714972426
4.074765802669684,18.855573827663015,-12.534073858988133,-2.659924215963835,28.583776812092346,4.641252945982592
3.8319823463252134,18.87365204079055,-12.547798527696054,-2.5017144704135106,28.590313037852763,4.3665017557155
3.295721975266665,18.902367122840324,-12.566714217311336,-2.1520469279472634,28.602152581009186,3.7595085028464963
2.722437613443406,18.928263318293858,-12.583767077070595,-1.7779991057896152,28.61286838056177,3.110536246813496
2.144470211050928,18.949359631496197,-12.597649749059304,-1.4006869425758843,28.621580996204806,2.4561989310831547
1.5709198229746069,18.96533257504291,-12.608160473473518,-1.0260958206631365,28.628210112361554,1.8068136128158279
0.99788400413828,18.97636094515853,-12.615412570192497,-0.6517219918622796,28.63276375970357,1.157974519468492
0.4234651991181456,18.982476897130812,-12.619436826680927,-0.2763687051536179,28.63531489452036,0.5075468324853217
-0.15273410457825945,18.983645215526636,-12.620203767870972,0.10017961486882535,28.635785206302206,-0.14490672673524022
-0.7287493425375597,18.97984357164046,-12.617706420182671,0.47659709119288285,28.63422728392523,-0.7971485376108841
-1.3011161322384794,18.971141025754463,-12.61198179659464,0.8505738493845045,28.63060704919332,-1.4452419723106147
-1.878463688417142,18.95738596501352,-12.602936214142577,1.227707401998411,28.62492792820122,-2.0989456779154843
-2.4516306598808293,18.938778423283804,-12.590690885419985,1.601965476088038,28.617212187292502,-2.747871892598597
-3.026912680193414,18.91513296654144,-12.575127987118325,1.9774210564222334,28.607452309407492,-3.3991374501868394
-3.598777384348585,18.88668129211063,-12.556390161171802,2.3504173042454695,28.595705600244973,-4.046464930117354
-4.00396006401813,18.863529332054032,-12.541132226911241,2.6145323540439334,28.58613541506787,-4.505065321040307
-4.075867043296639,18.86098874380922,-12.49939390625519,2.6603616201443385,28.543696637825434,-4.584297484816537
-4.082745896814916,18.87671238075125,-12.113761419089952,2.6547904168782104,28.14245516175575,-4.5709099407711795
-4.092148930005357,18.8925945106689,-11.584998161302495,2.6475479336466607,27.597960851177213,-4.552958090271194
-4.101650407266631,18.90220508133413,-11.048854094326476,2.6406522229914735,27.052352541190253,-4.535210312815094
-4.111185482856543,18.905502819187383,-10.509014600940773,2.6341431645281648,26.509356063113387,-4.517778315725542
-4.120782833934924,18.902558833761493,-9.963892332915384,2.6279919871183894,25.967313586853326,-4.500598361587286
-4.130336322733963,18.893540282245393,-9.419571671468725,2.6222533133072825,25.43214109965723,-4.483845324822163
-4.139852761965938,18.878665209506746,-8.875743922829395,2.6169045088108454,24.903312292530174,-4.467487575103326
-4.149317487794496,18.858179833098205,-8.33332458077037,2.6119359313826243,24.38149657484024,-4.451531383527783
-4.158804653736648,18.83208625237416,-7.788123590295956,2.6072950012928087,23.8625029801355,-4.435836693600154
-4.168314221434538,18.800479201681323,-7.240183444185868,2.6029726282437746,23.3462794628967,-4.4203926091457575
-4.1747663810202775,18.77599228057751,-6.8676080291760435,2.6002222168531555,22.998262860480338,-4.410071554715264
-4.183284220040744,18.88685690565244,-6.9714148396300475,2.6053774252099213,22.99083394907269,-4.418767663468743
-4.215057506548192,19.32640901753672,-7.475032060341617,2.6263609361492812,23.053413700144045,-4.45569146970884
-4.253834738646461,19.85476628291116,-8.076297149721215,2.6518953953385576,23.12449705798761,-4.500556796444252
-4.293515286114881,20.386509354398825,-8.676883072902593,2.6779404808482634,23.191459691983038,-4.546245995066631
-4.334261149986034,20.92343989334592,-9.278701716027083,2.7045969449638574,23.254403201001182,-4.592933086464052
-4.370406554101883,21.39227837223867,-9.800387607284677,2.728169881224245,23.30551382702818,-4.634158258572209
-4.380434500211947,21.547086008054936,-9.971804645397915,2.7347532789540856,23.321636387169907,-4.645704822831389
-4.137694414691764,21.37715729144485,-9.777084179758313,2.5831245810594465,23.307914352474363,-4.3857936605662875
-3.6347730332308683,21.01975589626841,-9.367323846988452,2.268934128341906,23.276450039964164,-3.84755082909147
-3.10983122076221,20.63887101252243,-8.930261144564934,1.9409679994847062,23.2391883293305,-3.2861431390769162
-2.58481801265186,20.249717592968096,-8.483230510600833,1.612985836633843,23.197274900304045,-2.7251252241177175
-2.0620820757209337,19.853863566326442,-8.02792871060458,1.2865037920152407,23.150787388018372,-2.167062486440449
-1.54875791368276,19.45676513143196,-7.570540972107979,0.9660234533447815,23.100379015933633,-1.6196134487888558
-1.0409485220124233,19.055540968341646,-7.107665070513,0.6491539878748088,23.0457302955457,-1.078657842008412
-0.5339382018163245,18.646386626327626,-6.63481021270963,0.3329972120625516,22.986276307290254,-0.539222859997394
-0.02923380535728955,18.230353393929644,-6.153078698163222,0.018538710400186013,22.9220853166059,-0.0029702652805399365
0.4423184575956387,17.833543435987878,-5.6926763137946566,-0.27498610257686257,22.85745210761523,0.4973402210946499
0.6665358629965145,17.642056287920827,-5.470162630267993,-0.4144502599527193,22.825116693178792,0.7349764494749104
1.0362084776607778,17.322306070391,-5.098086045746769,-0.6442178565802938,22.769440820160153,1.1263747346713875
1.5316102794234128,16.88575518183066,-4.589021263515853,-0.9517881491571697,22.690211354123793,1.6501012442928849
2.028056742731565,16.43877118410011,-4.06644077327128,-1.2595513428716185,22.605261470131506,2.173928413495903
2.5114966889442734,15.994068025095324,-3.5451157017609476,-1.5587706443578029,22.51704172873991,2.682999458017362
2.9847661956859146,15.549430370063465,-3.022404608233056,-1.8511896447664953,22.425244209984275,3.1802990272271625
3.448690432438727,15.104379003594685,-2.497690389732689,-2.137304951942694,22.329861048840705,3.666684570801691
3.8210935833985755,14.740352813247808,-2.0673448386318896,-2.3665750429615917,22.249327747320145,4.056294032738407
3.8979555918621496,14.652545470519696,-1.9890260271427123,-2.4142515554289696,22.255683130136205,4.137678033597713
3.878913219952785,14.487398113633368,-2.187072311534351,-2.4087750979539955,22.61933737617157,4.134116805774433
3.851316862261477,14.24032645592366,-2.4728191467368856,-2.4010752982818815,23.152819043490165,4.1291183378283955
3.824158284103228,13.987957608821837,-2.7524249597478154,-2.3937806208410555,23.68544125134329,4.124395474309877
3.7973661547890094,13.729728438898585,-3.026527106527555,-2.3868701390478204,24.218406308690827,4.1199368431115735
3.7709210669570403,13.465513845525379,-3.2952222174256787,-2.3803383734708743,24.75193649973115,4.115741082389165
3.7447613379553832,13.194726039059274,-3.5590294995914067,-2.3741707951206807,25.287140341217057,4.111801060321207
3.719062785444318,12.919284183207836,-3.8160851559033975,-2.3684074884825,25.82023088773152,4.108144362986569
3.6937118424832462,12.638115268199513,-4.067446770794223,-2.3630203271971135,26.353341480928922,4.104754931306231
3.670143080502016,12.368026421361515,-4.29900208285957,-2.358287688635638,26.855520418845384,4.101806994561557
3.6593842467640285,12.24188185090252,-4.403976996725615,-2.3562183766531084,27.0868825538093,4.100528860611836
3.641882402215661,12.185402672108987,-4.451520486074541,-2.3471540036815077,27.19152999869794,4.085856532010782
3.321643359924746,12.203512811766634,-4.465062147445376,-2.1410260900684843,27.199413710817556,3.7291666397483616
2.79038295853958,12.229863449768484,-4.484750576154021,-1.798892267049042,27.210834171724535,3.137359484313963
2.245385147807951,12.252118907062359,-4.501375369443269,-1.4477194410621244,27.220515557790865,2.530172794712969
1.7012757779954932,12.269522239664608,-4.514371247094273,-1.0969610661687657,27.228092702316584,1.923911328091884
1.1523821389211013,12.282209841688795,-4.523839743039593,-0.7429969994188526,27.23359081214169,1.3122678536086216
0.6112745815051774,12.2899380861307,-4.5296089224481095,-0.39397363022063575,27.23696304117196,0.7092693475803218
0.06540769216999266,12.292929504961215,-4.531842793300729,-0.04183729798600352,27.2382747212947,0.10094952814985704
-0.47921689300559966,12.291105097966339,-4.5304812882595895,0.30950215505460127,27.237476927140435,-0.5059883208257475
-1.0233772359314552,12.284484880401907,-4.525539878774523,0.6605081358981525,27.23458610367985,-1.1123951626220645
-1.5683939506601225,12.273044603235087,-4.517002157285088,1.0119950426563256,27.229617711413734,-1.719726368847776
-2.1139558497264552,12.25676721231292,-4.50485088617718,1.3637230441158246,27.22254790167426,-2.327619981157477
-2.657837021489352,12.235725219481234,-4.489133089964182,1.714216858375623,27.213378885833436,-2.9335804221930513
-3.201821937424825,12.209863370827108,-4.469811102555475,2.064593080510432,27.202154478297327,-3.5395799265154873
-3.586050073838425,12.188687023605699,-4.453981629325208,2.3119373777426278,27.192959419515546,-3.9675558316833466
-3.655861674634046,12.195183682948725,-4.421599273872275,2.356023084091555,27.15130070457213,-4.043466173530815
-3.667363068059095,12.297664819636442,-4.129486154908652,2.35515730482762,26.756571627801037,-4.038040432299013
-3.6832398640985393,12.432879827913325,-3.7248757293808845,2.3542535395684685,26.216556619533304,-4.030794252079098
-3.6991942188531786,12.561626962848166,-3.3167769869963544,2.3536743434300242,25.679516351964228,-4.023785486268604
-3.715417054958937,12.685411176393101,-2.9003550924506896,2.3534110820775,25.13910875718921,-4.0169262600427675
-3.731780150927531,12.803180585596484,-2.4789429077454757,2.3534660591139294,24.599720197214506,-4.0102683002361035
-3.7482914539304737,12.915001967838224,-2.05239429101392,2.353835949421635,24.061137720251374,-4.003802902209539
-3.764927233009628,13.020736685494029,-1.6213828935786219,2.3545165382245927,23.52417399376118,-3.997533586798664
-3.781852556560448,13.121372731458516,-1.181678170424354,2.35551477830983,22.983608351023047,-3.991395383991578
-3.798902303429601,13.215871115223035,-0.7376172954912522,2.35682113316054,22.44481918269615,-3.9854453308034063
-3.812095255975913,13.284380173863314,-0.3932888162590871,2.3580323885840664,22.031801511479348,-3.980994731325782
-3.8156976973810277,13.305301594155104,-0.3107989993941412,2.358537476624318,21.92833336593437,-3.9801893791704597
-3.8290581738713163,13.526248511528475,-0.5836820247985268,2.367642511500342,21.979688669325153,-3.9965232736448164
-3.8581178344353484,14.001586719626196,-1.1682115582074677,2.3874116186410976,22.087611278867477,-4.031941650336869
-3.8854920735170424,14.442959796740306,-1.707856462586463,2.405990569908998,22.18468116919998,-4.065171620769817
-3.896997935387385,14.626666853416229,-1.9315782354896502,2.4137869959951375,22.224188723489053,-4.079100382243438
-3.8947465104637775,14.624218318393257,-2.023415797175781,2.414021090607508,22.318483716798685,-4.081019688699883
-3.8714082086826838,14.420254783798871,-2.2659522510343377,2.4073581389278607,22.765547412650104,-4.0766937528557206
-3.844005301075935,14.17234215079249,-2.549329734348761,2.3997928396806176,23.29749470451715,-4.071792112286512
-3.8169702272199,13.918547169194733,-2.8272654295723196,2.392612287031843,23.829868652825375,-4.067153437714036
-3.790236619247839,13.658279307376144,-3.1003330687618185,2.3857991906901703,24.363835181106282,-4.062768821469153
-3.7639172619915056,13.392703667084904,-3.367280176425371,2.3793816992104233,24.896974145798723,-4.058658525121406
-3.737932392351693,13.121108782857867,-3.6288223096376804,2.373339085669069,25.430714543328413,-4.054811308050448
-3.7123449364449197,12.844247171359232,-3.884235345929534,2.3676847822159717,25.963578376584657,-4.0512376850521505
-3.687063688369895,12.56122014044541,-4.134339233656017,2.362397770816122,26.49728648229893,-4.047926300215886
-3.665845443829744,12.316130348221336,-4.342429912424288,2.358231120390717,26.95093218952574,-4.045320604600177
-3.6572810409512115,12.215244314436337,-4.425895091286654,2.3565997234536296,27.1354763505411,-4.044317107029466
-3.656156916853531,12.21016770875309,-4.483244083126602,2.3571939958521204,27.197894971002757,-4.045951523706385
-3.6742127318977946,12.525430614057596,-4.881217198571081,2.370568093120787,27.279797035795344,-4.069895647207907
-3.7021504510149876,13.007454272303109,-5.486676835751856,2.3912116590282366,27.401976431858635,-4.106815913406862
-3.7309866560762166,13.497812094791541,-6.0988338740786086,2.4124549715408263,27.522470856126372,-4.144761715043852
-3.76047233586254,13.99191485803415,-6.711797792071841,2.4341090703438995,27.639989676149074,-4.183394253789234
-3.7906481826898033,14.490176893050139,-7.325968341777466,2.4561989295409425,27.754515935758075,-4.222757431485098
-3.8214281608605845,14.990934563319346,-7.9391943385457004,2.4786567374184183,27.865565514877147,-4.262729940123673
-3.8528555149783346,15.494672328147248,-8.551982125485726,2.5015093068517555,27.9731578032492,-4.303359202893852
-3.8850953897461125,16.003750557276565,-9.167080019749985,2.5248711283173315,28.077672487579868,-4.344848081352399
-3.917927357100041,16.514432029314143,-9.779866636668483,2.548577038364924,28.178235112845787,-4.38690276508263
-3.9513889728323486,17.027116143929458,-10.390755981864372,2.5726493651444686,28.274858013794578,-4.429562800214134
-3.985807583308928,17.546514497644754,-11.005231733545925,2.597317307684318,28.36829711009532,-4.473233624035361
-4.020401682697882,18.060694654638173,-11.60913952333718,2.6220162894709085,28.456367193815446,-4.5169159144117845
-4.054362227072108,18.55802425625172,-12.189079024286743,2.646170738973336,28.53733933112221,-4.559594759784924
-4.073282698463968,18.831990271913785,-12.506792206221904,2.6595883976885197,28.580169527188346,-4.5832859307190725
-4.077006477162037,18.86383932909111,-12.43547075701302,2.6594088875490414,28.476938414912127,-4.582044922121856
-4.085088992852485,18.881273902127862,-11.98205911140341,2.6529323967654475,28.006225847752322,-4.566379976545849
-4.093441198906268,18.894279404705348,-11.512070993181858,2.646572142099764,27.523365321406786,-4.550502198211188
-4.0966452236277435,18.89794010339718,-11.331396005098417,2.6442195085875686,27.339079383777612,-4.544492220699633
-4.10213451140732,18.9025246410408,-11.021374366791681,2.640298773076802,27.02455680350415,-4.534297193437226
-4.105190237791838,18.904162653869886,-10.848535106814605,2.638175432949039,26.85012518797282,-4.528676469745277
-4.107086600756698,18.904853849167083,-10.741180323229687,2.6368786789258976,26.74210723396019,-4.525207556325854
-4.109316264243232,18.905349048345254,-10.614867648132684,2.635374412873347,26.615332009760017,-4.521147660436482
-4.116098080620628,18.904769509809384,-10.23008562947625,2.6309323781814733,26.231226884041032,-4.508920882465522
-4.125587674093147,18.89877022305625,-9.690225576467608,2.6250459282390626,25.697497555869546,-4.492111635032311
-4.135010368475314,18.886956418766232,-9.152554438982456,2.619568551911632,25.17176544879716,-4.475752619144677
-4.1445237931116425,18.869251174293886,-8.608127538880476,2.6143969238291915,24.645165138517136,-4.4595567667254805
-4.154002311909096,18.845976229902544,-8.064174502316558,2.609590108414812,24.12460310814056,-4.44372683158568
-4.163467912299888,18.817273112963,-7.519823841754376,2.605159486102104,23.60906378675127,-4.428245172332616
-4.17220377652992,18.786023303734517,-7.015881943580554,2.6013216967806194,23.136470566065963,-4.414172742021511
-4.175894014526172,18.78369150788126,-6.852764309905395,2.6005091578378674,22.9756864198702,-4.410164496933476
-4.196774093312819,19.074162699119206,-7.186398170734702,2.6143133258512323,23.01787525939081,-4.434468476166272
-4.234057543391443,19.586333949908365,-7.771383309650745,2.638902765489086,23.08894100482118,-4.477707752397166
-4.273341192175357,20.117220772276934,-8.373299059444781,2.66472971392468,23.158115180338385,-4.523051056111417
-4.313498145625146,20.650913482864475,-8.973821477081579,2.691044893235815,23.223035348291123,-4.569177642708633
-4.3540079214728555,21.180377172559435,-9.565040952273348,2.7175040629820115,23.28285098228471,-4.615483423447676
-4.380075400911871,21.516476328515353,-9.937987938787215,2.7344842374525085,23.318443026226802,-4.6451623527861186
-4.30728501632399,21.51802417096868,-9.937606039286946,2.6891290562657653,23.319893631551608,-4.567497690694205
-3.8692036716594327,21.338178143912184,-9.726780043704046,2.4157138344292526,23.308053147662235,-4.099165604285911
-3.2981413144649907,21.098369628280114,-9.446992281386871,2.0592063570477617,23.2899462301792,-3.4889338545961817
-2.7238545232767337,20.850974398923782,-9.159800573995822,1.7006181335152983,23.268625912719642,-2.8755853615743043
-2.1493283419943867,20.59710416726813,-8.866463989752026,1.3418594862673323,23.24408399247484,-2.2623450493235175
-1.5751141453077144,20.336884678154444,-8.567090561522523,0.9833212678198625,23.216348284103624,-1.6498270869459846
-1.007589582890034,20.07319794964281,-8.26492484970609,0.6290318595944135,23.185693218178276,-1.0448631383708173
-0.4454231127529092,19.80550418182203,-7.959264871893458,0.2782035715052066,23.152086851267708,-0.44605406321658037
0.11151002178893897,19.53379632662751,-7.650021560233443,-0.06919765565553085,23.115518662881097,0.14670698813205368
0.6677487458287693,19.255833082606905,-7.334585268295191,-0.4159646799697658,23.075742743777994,0.7382323761154548
1.2216726424903428,18.972339607406152,-7.013716106845308,-0.7610424633068876,23.03280329382546,1.3267624360640353
1.773432438796278,18.683177436931675,-6.687192980716978,-1.1044832014964427,22.986661142794347,1.912426425620034
2.322802993593927,18.38840250560515,-6.355012704771185,-1.4461056438785653,22.937305881254407,2.494953645318901
2.8669879188556218,18.08950732786684,-6.018784421416819,-1.7841335272506873,22.88498672637725,3.0713517101262173
3.410462787412443,17.78398986521243,-5.6756190573360525,-2.1213042337798083,22.829222428847395,3.646323680900689
3.904367405145552,17.500128964493662,-5.357163754859502,-2.4273310267819204,22.775488256588485,4.168243704475276
4.078367119304061,17.394957226737297,-5.247314752814438,-2.535189564639757,22.76345972669118,4.352334956479383
4.061102713970267,17.254129854685353,-5.413140202530232,-2.5301975622864816,23.070559212445332,4.348732466055206
4.03157110504256,17.005940346476248,-5.695870915059746,-2.5218965095814685,23.602238553228442,4.342742537865588
4.002122390049973,16.74899569123624,-5.976509731375757,-2.513928383822498,24.140572721066565,4.336995540712239
3.9730424507548374,16.485676541731667,-6.2521949567641935,-2.506375982620362,24.680312094937257,4.33155353006037
3.9499175849843358,16.269252002462412,-6.470287525173533,-2.500602978349289,25.11540913067464,4.3273991693212635
3.9407255862563533,16.181452065057876,-6.556675738785732,-2.4983672105392394,25.28982666142278,4.325791996161205
3.932210097958064,16.09919986148719,-6.636544717553401,-2.4963264981676385,25.45215975810567,4.324326051075099
3.9072716642432495,15.853170345194346,-6.869509433692754,-2.4905224049353483,25.931771337415338,4.320163055184495
3.879526273040757,15.570209865972954,-7.126927716758637,-2.484376045623868,26.47283112086467,4.315767848831511
3.8523385306823834,15.283189693388719,-7.377195401394296,-2.4786837011505325,27.010780246390766,4.311714075458909
3.8273550409373063,15.010657042000624,-7.605290608547118,-2.473752953504432,27.512010351567305,4.308220504092059
3.8162946930517174,14.887250513850987,-7.705654582116877,-2.471664806432212,27.736045788275376,4.3067473855943454
3.792866117881901,14.835605971239412,-7.748830142819754,-2.4586665234560194,27.831779260723962,4.285105654742344
3.4594920590150626,14.854637278894987,-7.762382424956619,-2.2428587058100473,27.839899982494813,3.911053336362571
2.9141283170089864,14.881975905439473,-7.781834982296691,-1.8896266731988738,27.851517052784992,3.2990701745558964
2.356560702047788,14.905071876891562,-7.798264462603178,-1.5282816589628427,27.861368581296635,2.673317670846888
1.7998001155030543,14.923246917847855,-7.811188749141566,-1.167287793756831,27.869128938235736,2.048407935396022
1.2425726456519997,14.936554262914656,-7.820645498393893,-0.8058596471890684,27.87478565744487,1.4229247216038599
0.6869233152290702,14.944967931437422,-7.826626458275241,-0.44536514598552995,27.87838787557918,0.7991813235664991
0.12864302901117158,14.948540214612503,-7.829162860895883,-0.08311397139268524,27.879893270583196,0.1724652222505858
-0.4279750296902339,14.947233648091292,-7.82823635508256,0.27806853733053705,27.87934790937892,-0.4523874157197366
-0.9851367556172818,14.941057107746325,-7.823849206277226,0.6395729039151,27.87672445688272,-1.0778391051317038
-1.5432624541675624,14.92998191007946,-7.8159760454944776,1.001629267652605,27.871980746384132,-1.7043468994656175
-2.0990890721337614,14.91408676999072,-7.804678180388616,1.3620837180736756,27.865215040790435,-2.328232661879858
-2.656986091566991,14.89324103665175,-7.789852079229926,1.7237255171460846,27.856312704592032,-2.95438618109112
-3.213946028316992,14.867533715373641,-7.771564431061468,2.084568675411116,27.845378196160777,-3.579417326150819
-3.673233351094887,14.842644479086488,-7.753849230279715,2.3819570392724057,27.83479228435755,-4.094774576072714
-3.8118604156130442,14.834659306370613,-7.7417898068625375,2.471538040067614,27.824907604803393,-4.24999937581981
-3.816331300187119,14.841888856080061,-7.4524361239774,2.467721911935432,27.528408615539572,-4.240572595022615
-3.8243536996683076,14.850247122061736,-6.931628244520205,2.461156578159928,26.99938981272162,-4.223912391326376
-3.83258530637782,14.85277891134409,-6.395150291291087,2.4547854079523437,26.460526358973844,-4.2071454806998405
-3.840842794631972,14.84929943102214,-5.854916217024687,2.4487531692107427,25.923913764721323,-4.190645122560943
-3.8490301806717353,14.840027201221021,-5.3172765043981745,2.4431148517137347,25.39568260371965,-4.174586907550014
-3.857254892303287,14.825001051718024,-4.775240582053167,2.4377828418855074,24.868805503812528,-4.15874533222074
-3.865489685374297,14.804344384700661,-4.230637287576078,2.432766633377732,24.344987629140768,-4.14316291874303
-3.8737412665440605,14.778133824167863,-3.683062399959751,2.4280531520535864,23.823748417502948,-4.127816343544515
-3.881957694362187,14.746669420495156,-3.1360152720066425,2.4236610681501904,23.308286585079838,-4.112789931347134
-3.890172868538176,14.709970665105857,-2.5872953209480762,2.4195608059316953,22.796382761295675,-4.098009114728614
-3.8973348636592533,14.673788028842282,-2.107521078987082,2.416216746995362,22.35289075850105,-4.0853135821446465
-3.900043397646563,14.675128672287762,-1.9905095288082197,2.4158455773944176,22.234532320025075,-4.0827756624279035
-3.918442589770959,14.96627391322463,-2.343780983976031,2.4282942668980927,22.29584461826506,-4.10499319841197
-3.949947342672099,15.458707549020891,-2.9382930407046035,2.449565682739241,22.39652249026636,-4.142904394585785
-3.983275645871983,15.97149751837947,-3.5533589318009016,2.472007426073668,22.49730735042414,-4.18283166725823
-4.017181833446796,16.48485457894092,-4.164977928438753,2.494774161941288,22.594042433232694,-4.223266397142947
-4.051530650700908,16.99662418616999,-4.770579097606585,2.51777233255804,22.686317018947904,-4.264042185715362
-4.074704800932987,17.337319910162464,-5.171448291468367,2.5332512448034943,22.745434263283965,-4.291447848686021
-4.078888386230855,17.398439685402902,-5.243168988020813,2.5360424334327165,22.75584401154419,-4.296386465011146
-4.078888386230855,17.398439685402902,-5.243168988020813,2.5360424334327165,22.75584401154419,-4.296386465011146
-4.078888386230855,17.398439685402902,-5.243168988020813,2.5360424334327165,22.75584401154419,-4.296386465011146
-4.078888386230855,17.398439685402902,-5.243168988020813,2.5360424334327165,22.75584401154419,-4.296386465011146
-4.078888386230855,17.398439685402902,-5.243168988020813,2.5360424334327165,22.75584401154419,-4.296386465011146
-4.078888386230855,17.398439685402902,-5.243168988020813,2.5360424334327165,22.75584401154419,-4.296386465011146
-4.078864573484455,17.398393946426836,-5.243055012278316,2.53602759301881,22.755571704013747,-4.296361321193553
-3.9913638658634323,17.230324598002433,-4.824247456335266,2.4814960116378537,21.75496886704419,-4.203969549378601
-3.9039502370906467,17.062422508628647,-4.405856688788512,2.427018698930012,20.755361808794067,-4.111669723895228
-3.816263609629565,16.893996049647914,-3.986159258512633,2.372371249881649,19.752632909939187,-4.019081639800004
-3.7024627910367442,16.675410052447774,-3.4414706040436607,2.3014490965752814,18.451278612021746,-3.8989196485470736
-3.5516517548999693,16.385735679887304,-2.7196387106692708,2.20746169334355,16.72669883766892,-3.7396786639109956
-3.401749905334036,16.09780765199892,-2.002158487309704,2.114040907032142,15.012515946802546,-3.5813976870334168
-3.251589657851636,15.809383299330594,-1.2834414853823004,2.0204590837715073,13.295378180537865,-3.4228438684613565
-3.1013514162863567,15.520809137420185,-0.5643511777741042,1.9268286535819308,11.577348523193486,-3.2642076961380617
-2.951117396445215,15.232243084500482,0.15471892325501835,1.8332008544258573,9.859367142820377,-3.1055759815224104
-2.800601398881897,14.9431354152519,0.8751386636626766,1.7393973230783244,8.13816124328116,-2.946646527356159
-2.6501401801316318,14.654132963888605,1.5952962144099747,1.6456279306010155,6.417581759656026,-2.787774913997526
-2.5002981326239877,14.366319802419525,2.3124902051829315,1.5522444137117302,4.704082727364151,-2.629557081959272
-2.3500282949305835,14.077684951392293,3.0317317423932337,1.458594292403315,2.985691756651006,-2.4708875473656677
-2.1997614995525505,13.789055943974516,3.7509587180679826,1.3649460671054892,1.2673355759352691,-2.3122212251450276
-2.048857430011265,13.499202874988578,4.473235900330013,1.2709006842435682,-0.45830806968235005,-2.152882006776738
-1.8990811801460548,13.21151609611905,5.190114961651956,1.1775581733025846,-2.1710546816855807,-1.9947336502996644
-1.7487168714102215,12.922699787284476,5.909808668764227,1.083849176409292,-3.890525963582897,-1.8359643639756735
-1.5982029735861365,12.633596151166758,6.630218359119945,0.990046953646615,-5.611707851830195,-1.6770371269186708
-1.4480588544592996,12.345202777473165,7.348858165361066,0.8964751817873673,-7.328661184405463,-1.5185003382357107
-1.2976140076946396,12.05623177304359,8.06893735432749,0.8027159925448624,-9.049053448341887,-1.3596460120145104
-1.147587913159236,11.768065098273008,8.78701225552929,0.7092177751492034,-10.764657126220285,-1.2012338451936668
-0.9970874246708356,11.478987218499125,9.50735776433428,0.6154239092592884,-12.485685673772485,-1.0423207670196775
-0.8467408651881325,11.190205002022084,10.226966517604172,0.5217259739318717,-14.204953986419392,-0.8835702220863525
-0.696344208458221,10.901326559903842,10.946815052999643,0.4279968173470801,-15.924795179549719,-0.7247667795987277
-0.5463234005185266,10.613170039504812,11.664864650792037,0.33450189462676677,-17.640338403257992,-0.5663601948806773
-0.39587794126221004,10.324197858615337,12.384946771347705,0.24074232367147902,-19.360737671262214,-0.40750522193111516
-0.2763065038589762,10.094527789413492,12.957255531138973,0.1662238455143289,-20.728081121836315,-0.281250049138763
-0.1889314447074431,9.926699783681872,13.375461691620826,0.11177056989712766,-21.727247122253917,-0.18899094921913223
-0.10135376043002571,9.758482580264799,13.794637683502351,0.05719101566067415,-22.72873021565641,-0.0965178979509506
-0.014029308390776919,9.590751779511498,14.212601621474404,0.0027692790554080184,-23.727317505095563,-0.004312233950839919
-0.005580420619277466,9.574523350036195,14.25304081487321,-0.0024961779176438607,-23.823933650304525,0.0046089248865883135
-0.005580420619277466,9.574523350036195,14.25304081487321,-0.0024961779176438607,-23.823933650304525,0.0046089248865883135
-0.005580420619277466,9.574523350036195,14.25304081487321,-0.0024961779176438607,-23.823933650304525,0.0046089248865883135
-0.005580420619277466,9.574523350036195,14.25304081487321,-0.0024961779176438607,-23.823933650304525,0.0046089248865883135
-0.005580420619277466,9.574523350036195,14.25304081487321,-0.0024961779176438607,-23.823933650304525,0.0046089248865883135
-0.005580420619277466,9.574523350036195,14.25304081487321,-0.0024961779176438607,-23.823933650304525,0.0046089248865883135
-0.005580420619277466,9.574523350036195,14.25304081487321,-0.0024961779176438607,-23.823933650304525,0.0046089248865883135
-0.005580420619277466,9.574523350036195,14.25304081487321,-0.0024961779176438607,-23.823933650304525,0.0046089248865883135
-0.005580420619277466,9.574523350036195,14.25304081487321,-0.0024961779176438607,-23.823933650304525,0.0046089248865883135
-0.005580420619277466,9.574523350036195,14.25304081487321,-0.0024961779176438607,-23.823933650304525,0.0046089248865883135
-0.005580420619277466,9.574523350036195,14.25304081487321,-0.0024961779176438607,-23.823933650304525,0.0046089248865883135
