RAMEL-ESPOL/ARCHIE/matlab/data/joint_goals_espol_t5_h20_p21.txt
Joint0,Joint1,Joint2,Joint3,Joint4,Joint5 
0.004452470386254523,-0.005483648564563252,-0.0013958596538782293,0.002097758350331586,-0.0008713083746931151,0.001937865582872932
0.004452470386254523,-0.005483648564563252,-0.0013958596538782293,0.002097758350331586,-0.0008713083746931151,0.001937865582872932
0.004452470386254523,-0.005483648564563252,-0.0013958596538782293,0.002097758350331586,-0.0008713083746931151,0.001937865582872932
0.004452470386254523,-0.005483648564563252,-0.0013958596538782293,0.002097758350331586,-0.0008713083746931151,0.001937865582872932
0.004452470386254523,-0.005483648564563252,-0.0013958596538782293,0.002097758350331586,-0.0008713083746931151,0.001937865582872932
0.004452470386254523,-0.005483648564563252,-0.0013958596538782293,0.002097758350331586,-0.0008713083746931151,0.001937865582872932
0.004452470386254523,-0.005483648564563252,-0.0013958596538782293,0.002097758350331586,-0.0008713083746931151,0.001937865582872932
0.004452470386254523,-0.005483648564563252,-0.0013958596538782293,0.002097758350331586,-0.0008713083746931151,0.001937865582872932
0.004452470386254523,-0.005483648564563252,-0.0013958596538782293,0.002097758350331586,-0.0008713083746931151,0.001937865582872932
0.004452470386254523,-0.005483648564563252,-0.0013958596538782293,0.002097758350331586,-0.0008713083746931151,0.001937865582872932
0.004452470386254523,-0.005483648564563252,-0.0013958596538782293,0.002097758350331586,-0.0008713083746931151,0.001937865582872932
0.004452470386254523,-0.005483648564563252,-0.0013958596538782293,0.002097758350331586,-0.0008713083746931151,0.001937865582872932
0.004452470386254523,-0.005483648564563252,-0.0013958596538782293,0.002097758350331586,-0.0008713083746931151,0.001937865582872932
0.004452470386254523,-0.005483648564563252,-0.0013958596538782293,0.002097758350331586,-0.0008713083746931151,0.001937865582872932
0.004452470386254523,-0.005483648564563252,-0.0013958596538782293,0.002097758350331586,-0.0008713083746931151,0.001937865582872932
0.004452470386254523,-0.005483648564563252,-0.0013958596538782293,0.002097758350331586,-0.0008713083746931151,0.001937865582872932
0.004452470386254523,-0.005483648564563252,-0.0013958596538782293,0.002097758350331586,-0.0008713083746931151,0.001937865582872932
0.004452470386254523,-0.005483648564563252,-0.0013958596538782293,0.002097758350331586,-0.0008713083746931151,0.001937865582872932
0.004452470386254523,-0.005483648564563252,-0.0013958596538782293,0.002097758350331586,-0.0008713083746931151,0.001937865582872932
0.004452470386254523,-0.005483648564563252,-0.0013958596538782293,0.002097758350331586,-0.0008713083746931151,0.001937865582872932
0.004452470386254523,-0.005483648564563252,-0.0013958596538782293,0.002097758350331586,-0.0008713083746931151,0.001937865582872932
0.004452470386254523,-0.005483648564563252,-0.0013958596538782293,0.002097758350331586,-0.0008713083746931151,0.001937865582872932
0.004460807085033542,-0.005467630041283568,-0.0014145302450981933,0.0020977588384246534,-0.000864953028664963,0.001946224865792751
0.11807148944534539,0.2120602306295949,-0.2546348457788156,0.0020046679251712156,0.08514250070764519,0.11586386419591391
0.3648358252439624,0.6792969941414055,-0.7963555249978623,0.0011206095850517718,0.2678671417127881,0.36329158960496255
0.6274393740044535,1.1688280899973964,-1.360733114858077,-0.0008286548114151551,0.4563559983277081,0.6266017357372567
0.8974856304113661,1.664187569993523,-1.9285071102162663,-0.0038956532223336873,0.6440027554594421,0.8973821893459579
1.1724675564095153,2.1604537775658748,-2.493970012464136,-0.008102928761908365,0.8288712268109305,1.1731262840915282
1.4551271301333677,2.66225089045063,-3.0623278351721583,-0.013544083132763285,1.0126148307702574,1.4565909854338033
1.742409859565071,3.163853887098977,-3.627045331928582,-0.020209317442649772,1.193078971017769,1.7447204862326804
2.036880789686466,3.6694680689529138,-4.192821969869847,-0.028203525202400177,1.3717327407305413,2.040094745981283
2.3390172408631864,4.179515160214358,-4.76004775288668,-0.03760230563296124,1.5486365882934292,2.3432004620373226
2.6468903575331177,4.690413175030215,-5.324690738165442,-0.04839875801841029,1.7224906126508948,2.652110193458592
2.964453394657983,5.208318479304173,-5.89348032060823,-0.060795766042000786,1.895306662220504,2.9707985899378864
3.287831453878713,5.72651359802333,-6.458971307359971,-0.07470579446123332,2.064765982634947,3.2953850340857866
3.6196369691278663,6.248850026815228,-7.025329690451045,-0.09029642298937549,2.232079340091448,3.628499262036451
3.958667233712188,6.773049774973606,-7.590033477343965,-0.10757354590260704,2.396453277231402,3.9689415744748957
4.306744090594836,7.3015287073785515,-8.15563272852892,-0.12669497951911812,2.558580221669246,4.318549145069956
4.665614666794352,7.836399373740606,-8.724289158155122,-0.1478417978502278,2.718996843074245,4.679085548409556
5.0314168789423865,8.371465333950153,-9.289360656691745,-0.17085746548364192,2.8757757613893684,5.046678459515954
5.407418805100926,8.911102033504807,-9.855434464018774,-0.19601371441761858,3.0301490237382187,5.424619041607076
5.7946839610078245,9.456263985033065,-10.42342353863375,-0.2234721440786222,3.1822847504108305,5.813984635580418
6.190324100389772,10.002400227419223,-10.988538205923255,-0.25310592029999973,3.3308459793108116,6.211878453812922
6.597586203047633,10.553505595082456,-11.554872023360492,-0.28523657281208775,3.476858782159239,6.621572674544849
7.015779687893579,11.108066794778676,-12.12080576118565,-0.3199013794738832,3.619835987345256,7.042379710423458
7.444846761922302,11.665472047125201,-12.685676245987947,-0.3571808325725438,3.759556883081311,7.474247506863434
7.887710319858803,12.228881603318486,-13.252622959349258,-0.3974291414773294,3.8967239181823623,7.9201245395516064
8.346548547633358,12.800237963328335,-13.823486096877401,-0.4409729094624936,4.031665157838569,8.38221155267545
8.807981727789256,13.362516267130442,-14.38130510843933,-0.48660150111106204,4.16037990558614,8.847036303695063
9.278897282186898,13.924015749006868,-14.934457610044351,-0.5350140463764996,4.284883960456718,9.321535549868294
9.749619337034831,14.473212840619942,-15.471767267057496,-0.5852170250897589,4.402771399523036,9.79595682091768
10.225395751764985,15.016411736041263,-15.999628552971188,-0.6377453223353948,4.515598179013471,10.275584072443765
10.708064450893241,15.555623972738191,-16.520138525106894,-0.6928165103146265,4.62389646346905,10.762266997340598
11.193761439585785,16.086520244660527,-17.02928139015999,-0.7499924425322474,4.726933510829208,11.252105199239283
11.682083799855576,16.608798778681393,-17.526972319791863,-0.809204887770081,4.824832384063546,11.74468636705539
12.182986781982034,17.132910798573235,-18.02328145074616,-0.871689779108924,4.919631640268084,12.250048962762309
12.693179414761254,17.65498961529738,-18.514600380047792,-0.9370986700054937,5.0106461054743345,12.764870317283894
13.21047248212704,18.172571390887814,-18.998722171829208,-1.0051821149770037,5.097523368105903,13.286936881866833
13.728221313514902,18.6790853193828,-19.46968878706882,-1.075050820454619,5.179323607539147,13.8095358542311
14.246966042180373,19.175333218280837,-19.928476809668744,-1.1467329258824088,5.25639047407398,14.333204370810327
14.765719333236929,19.66064621959703,-20.374691031940227,-1.2200463794796323,5.328828039396023,14.856937854326876
15.283234491736268,20.13418893664174,-20.80779024315819,-1.2947606975574117,5.396727375569893,15.379469769946
15.67604160040491,20.486714516017976,-21.128771673846224,-1.3524928093899233,5.445498041568055,15.776112546604727
15.713128464748447,20.507258269816884,-21.279252165970274,-1.358557059190434,5.583825308655831,15.816760638167182
15.698248620224632,20.445630817300994,-21.701075680079978,-1.3584711924983535,6.06749308918616,15.813333168402584
15.681435273655092,20.36934447030373,-22.174931626521975,-1.3585011487686303,6.617879198545133,15.809552041828594
15.664801986855393,20.286796755449636,-22.64075778605682,-1.3586665483502265,7.166493005136069,15.805911696986707
15.648686883047692,20.199973342752063,-23.089215661992892,-1.3589588349190556,7.702005494033579,15.80248444328228
15.640551115670267,20.153538348271418,-23.31453642983439,-1.3591568160208356,7.973877492691737,15.800792897091277
15.637303585073088,20.134510211073,-23.404271647127384,-1.3592454270999925,8.082687151816057,15.800125127336015
15.700001740297141,20.108906275341337,-23.42259681625192,-1.3647051459721944,8.12511611856452,15.864388123943021
16.147506254535863,19.972072470679034,-23.338551930964876,-1.402750558926852,8.167102135971515,16.31684206812873
16.73072830881392,19.78734441672552,-23.224699982469417,-1.4522255200539111,8.223453422153398,16.906644233494216
17.314159937959243,19.595234014270556,-23.105822235873863,-1.5015912362587551,8.281652619283593,17.49680876107486
17.89622536623401,19.396197669942033,-22.98214599396265,-1.5507105250794109,8.34151399673357,18.085745026412944
18.476663107379252,19.19029551894928,-22.853653423388636,-1.5995581594127297,8.40297179869478,18.67319082373561
19.057295798475693,18.97681499136946,-22.71983664931757,-1.6482779574392237,8.466156150336678,19.26099864993287
19.627838512708554,18.759643323770486,-22.583089903743492,-1.6960178432941428,8.529934904446051,19.838745388736353
20.03440002117625,18.600359186147227,-22.482395344188852,-1.7299505322792574,8.576372800251093,20.250537897169334
20.28773384733288,18.499183531063448,-22.418260108524336,-1.751057468121495,8.60571968029284,20.507172735212144
20.821792396719445,18.281008884776274,-22.279495565208936,-1.795458676869091,8.668605440048266,21.048295756017
21.3913157698631,18.040968123350307,-22.12609041521272,-1.8426637243661141,8.737164047904843,21.625512214073797
21.962148105731885,17.79263182339321,-21.966573602010186,-1.889823578917459,8.807394950047259,22.20422251483716
22.516148817340323,17.544097960674673,-21.806100033127844,-1.9354347684223876,8.876938731478198,22.76603642477781
22.83515567797315,17.397587682555763,-21.711114754314853,-1.9616339419712956,8.917617591405634,23.08961184565958
22.818688570117722,17.355470965606372,-21.49582639148853,-1.959376426746367,8.745109404419285,23.067005756687557
22.766238369277115,17.25434353067702,-20.967173147674846,-1.9529305667330807,8.31961951304317,22.99936448665347
22.710617472974942,17.142075121324506,-20.401127816554116,-1.946224203395802,7.8679946173182405,22.927724834370654
22.655491772351258,17.025696213076266,-19.834530528785233,-1.9397072789019798,7.4199021097827105,22.85681073691431
22.60095970273341,16.905560066434763,-19.268483955221022,-1.9333862684835863,6.976087889999465,22.786741987065096
22.546337473511606,16.780222126237543,-18.695890729445892,-1.9271789635427934,6.530925602082162,22.71663467166991
22.492509195075154,16.651797863010728,-18.126049458588323,-1.921182383142471,6.091564707290172,22.647618028076117
22.438857371753883,16.51893544955329,-17.55249503714452,-1.9153235352288485,5.652915760071827,22.57889445206213
22.385943726746813,16.383136974937237,-16.98129580176913,-1.9096599325592423,5.21952384666017,22.511177965071408
22.332896912825678,16.2422326672948,-16.403058733779908,-1.9040956406595166,4.784198971566244,22.44334864975732
22.291629084758494,16.129306862953854,-15.949287380586597,-1.899845122204142,4.444911335099212,22.39061823801227
22.27825782615339,16.092094895721853,-15.80151474272772,-1.8984825385435953,4.334854678008851,22.37353967378559
22.266927139970417,16.0601365981009,-15.665802812884664,-1.897308896861812,4.231533347090969,22.358737328617853
22.357984558222707,16.300368238613498,-15.842076736270355,-1.9045116584058936,4.164590064482225,22.447859861302376
22.567069690107868,16.845656693132483,-16.239162876837515,-1.9210344372689752,4.009490932139965,22.652393313384366
22.792190588773646,17.423117090037668,-16.655110715490242,-1.938800170455225,3.840488219313809,22.872447643066593
22.977788393160516,17.89185220723112,-16.989302179070915,-1.95342872555867,3.6997192774750145,23.053742354220724
23.0517112977852,18.076733838445094,-17.120270826703347,-1.9592507982542842,3.6433141836344984,23.125920264490205
23.058760120458665,18.098005590273356,-17.258053547162024,-1.9600744588685466,3.759515946560378,23.13697187210501
23.03789873526646,18.056761602827798,-17.69437274787822,-1.9595383094309797,4.237513147359638,23.132446525917725
23.014297593091307,18.003843964467826,-18.185126854310663,-1.9591049259708522,4.781673921260668,23.12743380704909
22.990860461925262,17.944603685904255,-18.66941329232156,-1.9588602017958725,5.325684091098239,23.122574118413343
22.967342006527645,17.87833167999504,-19.152269280910957,-1.9588046696471835,5.875294934638376,23.117822220482857
22.94397253956314,17.805580552802276,-19.62892991289525,-1.9589423166053797,6.425184117649911,23.113230490512358
22.92075789071855,17.726376129961825,-20.099286382285655,-1.9592737867446632,6.97521683177473,23.108804019680328
22.89780539444535,17.64114571802395,-20.56119729066885,-1.959796847589259,7.522822152440294,23.104566139827458
22.874747069010027,17.548465952865822,-21.022047114281136,-1.9605226586337623,8.076815277952008,23.10045417405174
22.854727819971924,17.462165049703657,-21.419521046251564,-1.961319532678888,8.560990355103415,23.09700773468773
22.847312241865026,17.42880178299939,-21.566124437097255,-1.961654780557086,8.741104736274583,23.095761241726155
22.843175687787646,17.409860988112165,-21.64775372429871,-1.9618512986744252,8.841757093624404,23.095073143707456
22.849087436805352,17.41898002093314,-21.726519945208565,-1.9627305826182817,8.911153111349886,23.103459328339515
22.994551073961016,17.797286218018613,-21.995313073303034,-1.9739427834375154,8.79672156070128,23.24637887804954
23.22134798211724,18.3794974025052,-22.40506708588755,-1.9913914415920095,8.616540393886792,23.469056853623204
23.454627775643004,18.96887641198848,-22.815050264196188,-2.009298893131296,8.429129414600359,23.697910754833252
23.69196576362886,19.558892373336406,-23.220649612116862,-2.027478029652474,8.236485132465468,23.93055420024408
23.93264917877389,20.147564415817147,-23.62053764652614,-2.0458741358795547,8.039282337818326,24.166284835521544
24.178411044816503,20.738867796030302,-24.017425483470827,-2.0646193644648885,7.836192441513865,24.406795354434205
24.429787414512756,21.333700134285746,-24.411867695933807,-2.0837538230197374,7.626848494708884,24.65260325079053
24.685055600312083,21.92767054531165,-24.80094757712354,-2.103145946677293,7.412781550546643,24.902018549139175
24.946145002396673,22.524950347438857,-25.187396149582675,-2.1229418926524968,7.19247729646256,25.156921020944488
25.209920859920075,23.1181280143823,-25.56645621283071,-2.14290387351697,6.968699692837992,25.414246440272883
25.47957737607108,23.714148423719255,-25.94260893815248,-2.163273533406836,6.738863844882026,25.677107319677393
25.7537199356685,24.30959533688515,-26.3137005029693,-2.1839450984377144,6.504278538735287,25.944138887016823
25.99001591625312,24.81455540846922,-26.6247407357782,-2.2017342340250887,6.301463565420824,26.17414677483295
26.093913384534577,25.034199922384698,-26.758991890251895,-2.209547862525123,6.2121364182173,26.27523396582453
26.0827649488337,25.127345237612836,-26.814370713354734,-2.208513434276776,6.174828110629295,26.262569075539353
25.671052946134683,25.331833834990437,-26.926147341968132,-2.1757033892669817,6.097932235156262,25.84538870047751
25.080430044630226,25.617904182782887,-27.08164440774778,-2.128472040940531,5.98963201593879,25.247161626808364
24.484030317342885,25.89820023223332,-27.233017345118835,-2.080586349119338,5.882700588898771,24.643367313632464
23.887533303117642,26.170070094386695,-27.37891060472174,-2.0325031665820226,5.778215541643354,24.03975557062474
23.2867099271757,26.435483018400582,-27.520455628490428,-1.983873650654813,5.675457302179399,23.432046807168348
22.683295269933538,26.693672540642353,-27.65731918652755,-1.934858314231887,5.574840318538676,22.82199298155481
22.07717331251728,26.944707969098946,-27.789605649672602,-1.8854393938447864,5.476368476821646,22.2094765588214
21.46819276081921,27.18866802766862,-27.91742421787207,-1.8356061193201638,5.380068221971356,21.59434284320677
20.856281418528027,27.42558792459012,-28.04085536063971,-1.7853455471710735,5.285950900988913,20.976518286135892
20.241709916882158,27.655380519988906,-28.15992274809829,-1.7346993905750199,5.194163162101112,20.356270935810365
19.62808925565154,27.87677849622547,-28.274033301138235,-1.6839599563387833,5.105237252134454,19.73724120102786
19.007356550583236,28.092686452410224,-28.38474168426488,-1.6324624966580228,5.018054518745819,19.111292351911015
18.41158458747966,28.292393540860807,-28.486637670163635,-1.5828717187278412,4.936979751577257,18.510750552848254
18.077000697793267,28.401359373147525,-28.54203349731698,-1.5549605609080008,4.892596291579342,18.173586039279822
18.026983641459186,28.320594534933708,-28.374186594408126,-1.5506022734375666,4.806902246700531,18.12103891624823
17.941006092708026,28.052352595142608,-27.850451133877172,-1.5428885438151096,4.553823414705234,18.027884001563773
17.845030598773448,27.748914686179607,-27.258410372712078,-1.5343088670219995,4.2679024891327995,17.92388581810592
17.75050412558744,27.445842282339818,-26.66750383978607,-1.525891458262339,3.9826958208589347,17.821445751356883
17.65798349499477,27.145060137593052,-26.081461729406268,-1.5176848627686568,3.6999941347856726,17.721166871925842
17.56637783869305,26.843127957689497,-25.493562560964666,-1.5095915447074362,3.4165470438901724,17.621866409023756
17.475637065888485,26.539911242420196,-24.903533652046306,-1.5016068949301828,3.1322181274649616,17.52348941953236
17.38590356199475,26.23592364521212,-24.312363515876843,-1.4937432071834558,2.8474787478342756,17.42618966280281
17.2969897857167,25.930565488559342,-23.718875553474735,-1.4859838334378588,2.56175747542132,17.32976317851583
17.209072923721976,25.6244813607889,-23.12431255937011,-1.4783440248932642,2.275648096520826,17.234401532187654
17.122254451099817,25.31808184028721,-22.52946078992501,-1.4708322258219275,1.9895239875066308,17.140214296630525
17.037628212703726,25.01537194843796,-21.94207829188491,-1.463542020165233,1.7071095062206418,17.048388055649113
16.985325072854867,24.826246159145896,-21.575245317173536,-1.4590524118710106,1.5307924126310826,16.991625953057618
16.961182998684983,24.73841717346439,-21.404928223580328,-1.4569843138004823,1.4489445154562504,16.965423299130748
16.953938686998136,24.688389146968216,-21.31037195638579,-1.4563518656924297,1.4046146181251848,16.957058916473724
17.273989883526706,24.59283714612596,-21.257408572942772,-1.4830508131060325,1.4389951678988993,17.277646188993394
17.86225672741841,24.41189746627784,-21.156794685851544,-1.5320087674798306,1.5038434568034986,17.867043299202873
18.466701990497803,24.218736745898806,-21.048920902796223,-1.5821528299975214,1.5727012236144227,18.472850271592765
19.073190414281058,24.017439413823425,-20.935992145186184,-1.6322980849633177,1.6440506474812253,19.080914882127118
19.52745312751292,23.86168873710706,-20.84825375490426,-1.6697389398129274,1.69893752311066,19.53651322527356
19.593111532211232,23.834323751131187,-20.914502835173987,-1.6752175443534425,1.7905981053291293,19.60481977659922
19.573893457596466,23.81334308844385,-21.353574767589176,-1.6741116320250948,2.2510152068573452,19.59907405456021
19.551133009486193,23.782091103530284,-21.871085817714267,-1.6729462259331478,2.8002083798498676,19.59236182905731
19.528531090793543,23.74403908529752,-22.382267598341937,-1.6719471434159854,3.349867576078087,19.585801142240648
19.506082111649313,23.699166737025234,-22.887248796674296,-1.6711145180997509,3.9001418407459765,19.579394043114235
19.48390853521569,23.64776503474458,-23.383298059189965,-1.6704521017177572,4.448006520443419,19.57317823057507
19.461850179556777,23.58949416018455,-23.87401564414729,-1.6699547667714671,4.9974046483413,19.567111744220412
19.439881822176872,23.52422980461455,-24.359944160564947,-1.6696237426751444,5.549003555017293,19.56119204835445
19.418853802123255,23.454851528863422,-24.822413458464574,-1.6694643887342318,6.081237871287755,19.55564555510328
19.407910073845102,23.416023050095827,-25.06205173846848,-1.6694437301382328,6.359905139004917,19.552807226807953
19.39554573676,23.369879475771995,-25.331922609458946,-1.66947261141547,6.676145473002082,19.549641521380835
19.390383846893542,23.34989397103786,-25.44431145868552,-1.66950126746515,6.808613924107587,19.54833306778713
19.38596632141868,23.33245113480272,-25.540362925301704,-1.6695336131143994,6.922188656779505,19.54721954770971
19.47703202147793,23.29336310988085,-25.549226597073105,-1.6772382496130835,6.967462741484419,19.64026029723821
19.96247414212971,23.112126697043582,-25.445422686566655,-1.7176133323071245,7.030494021863979,20.13105066667121
20.556363782495605,22.883306530653204,-25.313767494475815,-1.7668666375722508,7.1095742711194685,20.731673239890704
21.14805268116476,22.647468078937326,-25.177374961969722,-1.8157786484161953,7.190493737299883,21.33028197667301
21.742722563506074,22.40241686427981,-25.03490063589572,-1.864773252645898,7.273940817543114,21.932123780629315
22.288439607541918,22.17035909986953,-24.899270975502713,-1.9095866167837077,7.3523654712176025,22.48461732032795
22.551365656979968,22.056069488884436,-24.83221513419723,-1.931124122723751,7.390742898858853,22.750883574600692
22.951329812009018,21.879089238602482,-24.728050890785806,-1.9638245509096426,7.4499414513674855,23.156002020554915
23.52711298911176,21.6176147004747,-24.57341734462312,-2.0107589960560692,7.5367772501784165,23.739387300735196
24.08290551328664,21.357620340700358,-24.41878320843936,-2.055903339718647,7.622378607610895,24.30272415970993
24.37955971163969,21.215650793119426,-24.33377419348575,-2.079932622894224,7.668613302076954,24.603482984218463
24.340237665404228,21.134566259159428,-24.090900131512974,-2.0760057455449004,7.508354381765897,24.55797590826178
24.252966668441417,20.951645329501908,-23.547734639157884,-2.067349890619619,7.151497324077227,24.457013998506618
24.160796877041058,20.75399176158128,-22.96780708104731,-2.058296938667164,6.77278679097726,24.350436519274634
24.07035985620412,20.555553865615106,-22.392405487636275,-2.0495026695758205,6.399305430885704,24.245911458153213
23.97972761164779,20.3521713839559,-21.80930792282846,-2.040777249174698,6.023066214922926,24.141206329864154
23.8902984945344,20.147011480249713,-21.22749961555356,-2.032253819497211,5.649833860416296,24.037933013692697
23.8013236492155,19.938433331627664,-20.642167796409016,-2.0238586588396874,5.276465453031286,23.935222752955042
23.713725762817855,19.728688929004075,-20.059461637064732,-2.01567632810924,4.906823525067287,23.834136760890644
23.626848720719448,19.516316166376626,-19.475127415931343,-2.0076427355810904,4.538141838516763,23.733913969143916
23.54077514639694,19.301581207018984,-18.88976830722787,-1.9997636198993478,4.170754660722704,23.63464623891787
23.45558157605177,19.084751410953785,-18.303972503656215,-1.9920439165610466,3.8049803532275326,23.536418420469662
23.400721582499276,18.9428410658288,-17.923312686566028,-1.9871145383397988,3.568279767073433,23.47317704700015
23.37941710832213,18.88724520745533,-17.774751134343898,-1.9852090799636377,3.4761083956632466,23.44862006698281
23.365463665672657,18.85017986706869,-17.663007066655453,-1.9839354610677324,3.4019577405739287,23.43206136430756
23.481206681969645,19.130992478065018,-17.857999234947428,-1.9930305881925043,3.3121733367500417,23.544924103933234
23.713885025559843,19.688330404023166,-18.24177235356642,-2.0112978208615515,3.130586753578194,23.771689885849078
23.961209490533292,20.270466817782626,-18.638046892826516,-2.0306913254412033,2.936120646520592,24.012554799045024
24.212802264488744,20.85206105172897,-19.029305856333632,-2.0503956991733183,2.7369508386227235,24.257397135116452
24.456668183032217,21.405867836699937,-19.39757393693595,-2.0694729908777125,2.5427703154126666,24.49455238457315
24.577585760144107,21.67692034054414,-19.57629526224134,-2.0789244870993873,2.446125562127004,24.61208292732956
24.62170036517175,21.80442091811053,-19.65969460275844,-2.082355682365925,2.4004528672381036,24.654575192944954
24.274389599518013,21.876964636931906,-19.69790467974538,-2.0547261255899674,2.3786744701295,24.306195170027383
23.69004216425066,21.9938695804587,-19.759035498143476,-2.008075647342958,2.343643155088038,23.720172890453025
23.09328040679365,22.10664082761311,-19.81743101500762,-1.9602257621816273,2.3099554870364387,23.121857074559006
22.492196627014554,22.21352697908096,-19.872190236019755,-1.911821359591002,2.2781584601572646,22.519362331582013
21.891258581574718,22.313715065407834,-19.922916827169963,-1.8632170728876318,2.248483374706008,21.91716751297506
21.28694669129062,22.40779567550947,-19.969939473743352,-1.8141477396431303,2.220832215836327,21.31173212832674
20.68062821532753,22.49551238530129,-20.013144556779594,-1.7647186252502596,2.1952681599546557,20.704426584530726
20.073642673647573,22.576673447726535,-20.052458020656278,-1.7150428257398986,2.1718617653296497,20.096587532450684
19.465639885287118,22.651340534672872,-20.087929860949302,-1.665096124398377,2.1506079915187075,19.487858783646626
18.856210891255866,22.719560431586473,-20.119595765161478,-1.614842496690036,2.1314754111023033,18.877829312534995
18.24234239126971,22.781617186204393,-20.147602545901275,-1.564049784639553,2.114458369597453,18.26347061084168
17.628611513470535,22.837008981830408,-20.1717292309653,-1.513093421821459,2.099675965294747,17.649362055458255
17.016666711877463,22.885648608401883,-20.19195886606192,-1.4621166117405107,2.0871551185026487,17.037146079240397
16.404346111718002,22.927754582759764,-20.208397220210305,-1.4109398640028759,2.076811883520803,16.4246560014396
15.792528911005217,22.963298064648995,-20.221053706684913,-1.359653584636425,2.0687163198208998,15.812758518797558
15.176948021913885,22.992492206225105,-20.230000419834894,-1.3078986445914946,2.062797077413685,15.1971830665292
14.56372694250495,23.01504160228119,-20.235150763375426,-1.2561950072689474,2.0591171175030616,14.584046641404083
13.951268752353347,23.031066033242606,-20.236553813000096,-1.2044104049106505,2.057616458134752,13.971747477437892
13.339132483652767,23.04061040898115,-20.23423794336241,-1.1525226789034906,2.0583438113149413,13.359833185683879
12.7255977338888,23.043689576337055,-20.228186971549395,-1.1003866469141255,2.0612730074262378,12.746579616011838
12.112402808695418,23.040282563191845,-20.218409677283546,-1.0481554069584866,2.0663969711238366,12.13371757400901
11.499812226856482,23.03040424634341,-20.204911891915742,-0.9958542321908472,2.0736736404360623,11.52150596072068
10.885183807135078,23.013992937981318,-20.187626091539062,-0.9432697472953122,2.0831975149161583,10.90729444404235
10.273948471704129,22.99120690652592,-20.166703306774846,-0.8908691291234064,2.094842100932493,10.29650475243878
9.658109056984097,22.961721042714494,-20.141846280637314,-0.8379722885916002,2.1087605864249785,9.681138673016001
9.045196505369574,22.925854423577103,-20.1133222819582,-0.7852293789868371,2.124756044255056,9.068715222133186
8.432665511076417,22.883502083153108,-20.08103345724022,-0.7324323953109095,2.1429316863561665,8.456682638986194
7.818478562175689,22.834481994128236,-20.044832445599468,-0.679408862444814,2.163318363995425,7.84299884290059
7.207081284319798,22.77914575457774,-20.00496491024604,-0.6265485799431364,2.1857561032958936,7.232098897745401
6.592648656563944,22.716937803403226,-19.961018128313334,-0.5733536945097678,2.2104530466375683,6.618155571732713
6.119821846378536,22.664543305147628,-19.924523865006783,-0.532372175219228,2.230889454987198,6.145693687238333
6.036411657574742,22.651324955015063,-19.987035527772292,-0.5251653969178384,2.307386588083856,6.063014243381587
6.030800687880965,22.626676552026336,-20.40101779048964,-0.524855675785831,2.7460502026724014,6.06142792185665
6.023891317993578,22.59018950991091,-20.908368993138886,-0.5245182098376375,3.2899288747731563,6.0595023666104915
6.0170460771896535,22.547228865317244,-21.40832078905668,-0.5242326784589777,3.8328812015287066,6.057626600487372
6.010221607098794,22.49750222353804,-21.904037308248505,-0.5239974805388115,4.378363955863804,6.055789900907498
6.003458978912883,22.441287388038006,-22.392531275765275,-0.523814282946196,4.923111816645554,6.054004482881758
5.996670521106096,22.377760778623152,-22.880102010428885,-0.523681527753904,5.474248182867031,6.0522487482161
5.9899714190841955,22.307949711390606,-23.358459472421977,-0.5236020039802967,6.022455031246193,6.050553817949363
5.983283307638211,22.231045280659394,-23.83320449245108,-0.5235749360575376,6.574142542674733,6.048900902570399
5.9768320616916135,22.149895663311973,-24.288403268438778,-0.523599652532675,7.1105274558365155,6.0473454860556695
5.9732994389476115,22.10250806289833,-24.536507448045075,-0.5236348051557659,7.406039150643949,6.046510622763068
5.972268228631518,22.088276729668753,-24.608775506630344,-0.5236479942270929,7.492544344471243,6.046269226440337
6.261708550008306,22.055313834513683,-24.591689124674005,-0.5489647484458564,7.505714234156101,6.338059449422341
6.836799445516424,21.98598415100224,-24.550890026922378,-0.5992249017339281,7.528488167337664,6.91782019157481
7.436902520806326,21.907021968330806,-24.504346976644246,-0.6516160240802065,7.554362958090402,7.522866114156764
8.039110508533504,21.820955037662703,-24.45352459566046,-0.7041296334354376,7.582489136767129,8.130112042304331
8.640332461766654,21.728168321123395,-24.398627151433175,-0.7564911283973839,7.61272162962366,8.736447409392436
9.243272992849192,21.628188566859514,-24.339346393309764,-0.8089284443956227,7.645162700247789,9.344607928975416
9.845528202521463,21.52135787478498,-24.275864128074026,-0.8612323228730838,7.679740211841341,9.952171069469738
10.448003769791034,21.407473491223914,-24.208027764475236,-0.9134743389899734,7.71646452426517,10.560058228963298
11.049151913774505,21.28679707306081,-24.135962398820975,-0.965515668816697,7.755225388588494,11.166713172216536
11.651180014649745,21.158837194795197,-24.059338154088632,-1.0175390337140717,7.796121600825093,11.77437175187541
12.251468704302711,21.024113888233884,-23.97843751815962,-1.069320462761702,7.839019219107043,12.380389892103166
12.849413115907257,20.88277399568434,-23.893310140800203,-1.1208006896348193,7.883810494402158,12.98416387882636
13.262546312570523,20.780921579662255,-23.831804463558598,-1.156309361239734,7.915952384100418,13.401399031505651
13.519706712889228,20.715779168227648,-23.792396045902038,-1.1783865969174885,7.9364499229597785,13.661144229299246
13.81855532625084,20.638266790886192,-23.744605175031833,-1.2040151985235752,7.959961844074691,13.963011097648765
13.808547653894614,20.60783078667891,-23.50436798201069,-1.2025522537677806,7.750416920070674,13.948476193091647
13.786667925670136,20.537564062924957,-22.97584646480236,-1.1994158379997306,7.292721166898806,13.916744930541352
13.763847230523433,20.4588561514904,-22.4197478855645,-1.196234096297491,6.815911812515764,13.883714146267414
13.741169260323744,20.37518715120246,-21.862177708660465,-1.19316152454658,6.3425865606867085,13.850952601316187
13.718560541647195,20.28638816381897,-21.301349538657007,-1.1901856900767522,5.871129840473493,13.818350104458679
13.69615761119464,20.193116546273014,-20.740690002770812,-1.1873218590601835,5.404307530381416,13.78609941212042
13.673939168607385,20.09544135223503,-20.179742696778064,-1.1845640929942303,4.9415947860226,13.754165479463158
13.651682886082547,19.992454306419297,-19.61288914142407,-1.1818830624517476,4.478287048554693,13.722225360965126
13.629694840277896,19.885667120203586,-19.0479468267738,-1.17931355173228,4.020682467239064,13.690714762933887
13.60819254577154,19.77640536164323,-18.490700105254266,-1.176876239182412,3.5732344850822084,13.659940497178868
13.595551143543796,19.70994264523088,-18.160858651101965,-1.1754778810154465,3.310170806795368,13.641865544130415
13.591120211662275,19.686257015693442,-18.04485231561106,-1.1749937720015722,3.217960421950614,13.63553304951015
13.642863925665074,19.907779082671386,-18.19100891715847,-1.1792972126228367,3.1415480576379404,13.685772703733395
13.773292797292145,20.46046057795204,-18.5638847171245,-1.190157991294532,2.959084757867184,13.812570951962583
13.903250837551449,21.002440937103678,-18.925444291684833,-1.200980606859239,2.775992656295255,13.93881626313523
13.960002516244858,21.236446304028444,-19.08030128267364,-1.2057072488214933,2.695670441346175,13.993917380007671
13.959182149722976,21.24320139221614,-19.260673638664407,-1.20581503997056,2.869266493588579,13.996755208089029
13.94480681785393,21.20851221214775,-19.730447778500206,-1.2051753133575447,3.37392044211815,13.992999030783983
13.929445307046922,21.164942645285567,-20.229751069682923,-1.2045997705043712,3.91699619793719,13.989053768014005
13.91417174862919,21.114829885792133,-20.723382956247708,-1.2041406089014808,4.460941714522673,13.985205158446847
13.898944851939593,21.057988952572327,-21.21266369600207,-1.2037976559092398,5.0072627461508,13.981445789065988
13.883730695670948,20.99419191615223,-21.698646861699768,-1.203572167357385,5.557241204411141,13.977770904627508
13.868646733191179,20.92388702802623,-22.177566967521546,-1.2034670380014851,6.106661794036363,13.974211870974242
13.853716958288338,20.84724269723939,-22.6486891491463,-1.2034819793177927,6.6546209169398285,13.970776138420062
13.838714867439883,20.763009813499675,-23.119128258736975,-1.2036192620272725,7.209485423978602,13.967415158152335
13.826211292592355,20.68717056055579,-23.508904812094222,-1.203829636807611,7.675260861948736,13.964687139310891
13.82197064306224,20.660269267232596,-23.640615135498845,-1.2039211663315748,7.833926444340022,13.96377753979567
13.81913127779737,20.64192026146568,-23.728664672694794,-1.2039882299148854,7.940361070307192,13.96317302187782
13.845227985722799,20.7539630429994,-23.822325567172186,-1.2061630701154635,7.9214350671896065,13.989087720770064
13.96166029961185,21.255070700346447,-24.153273956164604,-1.215606574552665,7.748856068139418,14.102802193744639
14.106625198969786,21.869907564620394,-24.554647654924796,-1.2273573042607464,7.532354112886081,14.244267974060143
14.253048240546727,22.480952583579445,-24.948458020674426,-1.2392195832718842,7.3120207531800965,14.38702998994082
14.402754320112019,23.095590954683686,-25.339497883448594,-1.2513422270011094,7.085223594532965,14.532864668247365
14.554813208941052,23.709685632089112,-25.72512686431882,-1.2636508915091746,6.8534774670991165,14.680861925877569
14.706257676724919,24.311330993147024,-26.098057976722927,-1.2759065688388431,6.621464509117719,14.828134932287606
14.800453416196516,24.680633438394434,-26.32459117355673,-1.2835282733307614,6.476627662017825,14.919673992870116
14.788818107957724,24.786056009584296,-26.388371157802368,-1.28243651217523,6.435256413352982,14.90703368579259
14.381076204497097,24.894615192351875,-26.44830650245586,-1.2477219194395683,6.395650181041491,14.495896562059315
13.776607149072557,25.04950548902229,-26.533566049136347,-1.1961587974562151,6.338931689685079,13.886531928638925
13.161313279059211,25.19981975185936,-26.616020310226723,-1.1435546691047007,6.283654631674701,13.26641802809234
12.547492341747041,25.342454985679694,-26.69399864435642,-1.0909629930220077,6.230957377085,12.647949432897216
11.92528860578969,25.47965219916052,-26.768768121058358,-1.0375433026256697,6.180104850614824,12.021184761052378
11.304864794421778,25.609116850259227,-26.839108955753215,-0.9841710591245977,6.131943957674982,11.396359967087294
10.684384627260272,25.731325120936084,-26.905316343360003,-0.9306939853237756,6.086327518743887,10.771617980414975
10.060291695522611,25.84697000156019,-26.96779425669482,-0.8768108089660905,6.042991238078929,10.143374821500814
9.4397662053017,25.954781367872492,-27.025893890481914,-0.8231455398879208,6.002499416982639,9.51884530280797
8.817785650878042,26.055717903956968,-27.080158378349363,-0.7692701236593428,5.964484557561011,8.892969336093824
8.195565150670882,26.149598634911403,-27.13051341516751,-0.7152964028020197,5.929004442663975,8.266965022137283
7.568563367820687,26.237074200406756,-27.17733799431719,-0.6608322687800766,5.8958960038565085,7.636252306960099
6.940445339791757,26.31757247954361,-27.22034437611984,-0.6062018470263556,5.865361682609958,7.004513934582455
6.483552778722625,26.37166399301043,-27.249198055079237,-0.5664233550754117,5.844808118457865,6.545044549099657
6.421112906994989,26.361293621467386,-27.15797038341713,-0.560907400980388,5.764570064732831,6.48149264597418
6.411371308233509,26.275089140348253,-26.69383346194726,-0.5596984776419933,5.3867510681686435,6.46799081624911
6.399722401425037,26.167211520218714,-26.134472273705835,-0.5582871193290877,4.935402771696419,6.451870583600945
6.388116359361207,26.05456571161719,-25.572410654190826,-0.5569175985372912,4.486121326643148,6.435835544942398
6.37653583244571,25.937055735225517,-25.00679893697596,-0.5555870997243387,4.038153257665692,6.419860126346629
6.364979413509811,25.814725414178298,-24.43754675357161,-0.5542948173091921,3.5913643991396706,6.40394087890583
6.353622102106776,25.68959432702268,-23.87335944717692,-0.5530589411258732,3.1524385196225677,6.388316924004105
6.342348926972254,25.560597057069668,-23.30864809382269,-0.5518653723939658,2.716853451623932,6.372828081747674
6.331059224728732,25.426640771638617,-22.73835628860803,-0.5507028742758207,2.2806467844878755,6.357334661502044
6.319790254302699,25.288184111834603,-22.164310858818908,-0.5495750146481262,1.8451862855431072,6.34188659158979
6.310097522142904,25.165309454210334,-21.666676677408848,-0.5486307231992075,1.4705368199223505,6.328611911847211
6.3062585667358855,25.11567670183824,-21.46857869668145,-0.548263293117627,1.322115113378843,6.323357317806367
6.317657641553226,25.214289766531316,-21.510332389216806,-0.549238714933015,1.2651493355515862,6.3341904900447945
6.373734008244282,25.70344031915254,-21.804686411681132,-0.5540589990753367,1.069822793373637,6.388276316544754
6.4446170957660724,26.31143322314071,-22.1661263234795,-0.5601596125815081,0.8225935274173489,6.456593123510391
6.491952330752783,26.711176131260157,-22.401101865139797,-0.5642384368311006,0.657370625077512,6.502184127303728
6.497285519793782,26.76520381391297,-22.51614922737767,-0.5647074628018105,0.7183349106143377,6.508104059358334
6.490502721852115,26.755357213182045,-22.95813207503412,-0.5641929906321785,1.1702090887612084,6.505790866929847
6.482226200444117,26.736797533197816,-23.495174748898954,-0.5636138000324916,1.7258658356946637,6.50299972574659
6.474108749764854,26.71144212858967,-24.01941379479561,-0.5630987497977327,2.2755134251546147,6.500297751953645
6.466059237832704,26.679130889015426,-24.536781240494623,-0.5626410873099829,2.8252445911161073,6.497655177392865
6.4580808427800775,26.639886845071647,-25.047078843871947,-0.5622409119233885,3.374838036173981,6.495074160696657
6.450166188838649,26.59368132148355,-25.550782617475605,-0.5618978337464495,3.9247984920427,6.49255343447301
6.442342872486344,26.540713215570953,-26.046150146834886,-0.5616128465668363,4.473184465559787,6.49010272667136
6.434690915097063,26.481718366540477,-26.52818165867598,-0.5613875411872818,5.014259831451769,6.487747123809254
6.430201515028736,26.44372938117704,-26.809821197363558,-0.5612805235913886,5.333916996758692,6.486384998790801
6.425989353783204,26.40577722986573,-27.073269247489012,-0.5611973674546693,5.635343994637572,6.485120850900904
6.4235809865152635,26.38306146481883,-27.2235479560554,-0.5611574270089601,5.808353755771156,6.484404227908464
6.428696960816091,26.428737892305456,-27.282335578769754,-0.5616158279761339,5.821414167928918,6.489675075477252
6.476996562569881,26.85990806725289,-27.534127762373423,-0.565642308107843,5.641569490340129,6.536437032209123
6.548309957461241,27.48735487325471,-27.896241360708427,-0.5715917885330662,5.375541245481951,6.605428810325889
6.6213944697053435,28.119299268042173,-28.255829480013283,-0.5776951089871641,5.102465269914883,6.676072060606855
6.696009500655093,28.753194445909347,-28.611398218624323,-0.5839332214364751,4.8233963328804395,6.748131699059403
6.772564906767357,29.392028199968852,-28.964574090308243,-0.590341518827424,4.5369685339992465,6.8220008864271575
6.850631778697242,30.03174232925183,-29.313077769186048,-0.5968852761317233,4.244964510851097,6.897263206113461
6.9216949306987114,30.604022750396034,-29.620498744070755,-0.6028503240329848,3.979375266417795,6.965717626528207
6.959939218013676,30.810443710947048,-29.73045710845013,-0.6060968370388686,3.882514507350275,7.003023574493257
7.3015804741309855,30.76948188104176,-29.71082615570367,-0.6357261046954272,3.900143816266533,7.345605846693248
7.921123862055716,30.690073501362285,-29.672713394087435,-0.6894040210566087,3.9342759431586813,7.966934496873728
8.569384102166696,30.59987340388628,-29.629330886086915,-0.7454920062344847,3.9729762610794053,8.617179265491231
9.216758261923218,30.502488478671697,-29.58238188942621,-0.8014161694958037,4.014644143167267,9.266665400264147
9.867441396761835,30.397200324481442,-29.531500183893016,-0.8575343819177128,4.059628706137949,9.919608258068804
10.514277043072694,30.28511512583226,-29.47718972494894,-0.9132222708218065,4.107404812526883,10.568837709586266
11.162258191736747,30.165351631893607,-29.4189913679049,-0.9689019235185595,4.15829425934592,11.21937614104057
11.810410259277992,30.038007319326688,-29.35692609168634,-1.0244871347791473,4.2122919847488065,11.87025009385611
12.459781387989295,29.90277991504384,-29.290808154854016,-1.0800594327206374,4.2694672068517665,12.522524446395268
13.10630762326583,29.760467319780126,-29.220988251585347,-1.135262387536681,4.3294226211731255,13.172128686957222
13.753845454226116,29.610181200162135,-29.146998234043444,-1.1904255382631705,4.392564284359027,13.822939896762293
14.38940869074074,29.45504903718426,-29.070340142521427,-1.244437429565407,4.457519345398357,14.461913162514696
14.961827590076226,29.308794810095996,-28.997806058093065,-1.2929672913544557,4.518549245490054,15.037577580373371
15.22520990405046,29.23939833270209,-28.9632966624754,-1.31525499828678,4.547405708900819,15.302514061473305
15.67456672792785,29.117929899188187,-28.902759833397408,-1.3532296880323047,4.59785897848427,15.754601838993635
15.984831518577954,29.031781898105503,-28.859718760712045,-1.3794072023027784,4.633556486899951,16.066816479896
15.951407038420864,28.907292289217896,-28.62271071681781,-1.3763814335891962,4.521874682442314,16.030579932456035
15.87055044123929,28.618847018849845,-28.07209549046982,-1.3691031458321965,4.2617177476628125,15.943209747793906
15.785500524042792,28.311447985794402,-27.485383683083906,-1.3614743534172877,3.9845113866052673,15.851295364621556
15.701144520524702,28.002421337671052,-26.895648008405406,-1.353935773471708,3.7058804452841176,15.760116839055277
15.617987535440829,27.69366315037659,-26.306502511750693,-1.3465323026684481,3.4275308244261438,15.670219750763577
15.535619771599537,27.383706414392996,-25.715143672961187,-1.3392271565176928,3.1481364454018776,15.58116074834861
15.454715965742434,27.07516697111204,-25.12655776628012,-1.3320797272275402,2.87005173059769,15.493669138421058
15.374114338859362,26.763654940677267,-24.532366813496953,-1.32498717564664,2.5893170909028362,15.406488167986435
15.294535938867423,26.45196552592538,-23.937899583346727,-1.3180129715138666,2.3084489513987676,15.32039724865523
15.216066484352567,26.14050667596367,-23.34393043969098,-1.3111642142740414,2.02781206929835,15.235488881489227
15.138501617245897,25.828532199186604,-22.749032973784047,-1.3044227063192801,1.746731479524403,15.151541688264379
15.06312097470698,25.52134189357116,-22.163308976225782,-1.2978986977612053,1.4699793394759402,15.06994075188215
15.01660667178418,25.329780579882595,-21.79808050517123,-1.2938869107513546,1.2974070974885328,15.019579066172788
14.994783050744308,25.239368023785552,-21.625707225314628,-1.2920083778634526,1.2159589277861864,14.995947856607243
14.813697110258131,25.208150736115343,-21.592645951573278,-1.2767508811133699,1.2181694080249366,14.815185709772559
14.272309294500175,25.137507460601864,-21.54251536509914,-1.2310727999360271,1.2505103949110663,14.275323319618218
13.651301150494254,25.050239386021037,-21.48146953687366,-1.1785427384436644,1.289769647727398,13.656065735012966
13.032907808934976,24.956680324840477,-21.41687351264825,-1.1260970397218604,1.3311498049618364,13.039409129715066
12.413014722754289,24.856180259290877,-21.348251670878742,-1.073388300428474,1.3748803083384762,12.421242409753624
11.795971971989145,24.749424698412785,-21.27605157207872,-1.0208025998521646,1.420695747990331,11.805897017077431
11.175242126459054,24.6352169427192,-21.19943653681745,-0.9677834462689878,1.4690454153268129,11.186845356217658
10.557424666189345,24.514703852327234,-21.119149395377374,-0.9149002287428267,1.519408559320998,10.57066145213241
9.936179266434515,24.386582816445966,-21.034292900739086,-0.8616160874499914,1.5722927494679169,9.951014105336604
9.318738122349819,24.25228675133595,-20.94578091938505,-0.8085540456730324,1.6270382486236703,9.335108166884288
8.698722028080056,24.11038941972813,-20.852643523396683,-0.7551790592578284,1.6842509855610714,8.716575483115935
8.078624898172318,23.961343714338533,-20.755140699836346,-0.7017075544572041,1.7436713306620037,8.097894853252361
7.470562738541187,23.80819542867745,-20.6552181253041,-0.6491926088159916,1.8040608880565263,7.491149331314757
6.86532455178082,23.6488034791185,-20.551427412298636,-0.596845179732448,1.8662122908791365,6.8871415156245375
6.264488554743106,23.483637438610426,-20.4440357495066,-0.5448129745925443,1.929971388179465,6.2874450445439996
5.660761173182185,23.31063557991662,-20.331655789197942,-0.4924676723109234,1.9960583400668066,5.684771744444852
5.061346065754892,23.131805117693325,-20.215545615748162,-0.44043943033821303,2.0636601250531093,5.086306433661052
4.4721638572893525,22.949080247659477,-20.096909813114422,-0.3892484493388049,2.131989734397684,4.497954852428712
4.103441347189387,22.831188211087802,-20.0203506719469,-0.35718980789684335,2.175726801069621,4.12970054756755
4.086037607181282,22.817523346638552,-20.177446372191916,-0.3557175524953568,2.346592501124343,4.113367148991111
4.081691184759477,22.78859038869155,-20.648964723417123,-0.35547998164207784,2.8470611211997645,4.1121311602484525
4.076997665217934,22.75080139724079,-21.155564296734603,-0.35525515277449926,3.3914683071192835,4.110816763430635
4.0723384234543625,22.70642405675122,-21.655771079381534,-0.3550652467922845,3.9360708379629457,4.109533954812433
4.0677342752368455,22.65570610010267,-22.14737469357684,-0.35491091812424025,4.47841051960628,4.108289020574004
4.06309202420925,22.597509126280297,-22.640286511766792,-0.35478965702254756,5.029537489002642,4.107057858401725
4.058501870252042,22.532844546035705,-23.124885818189927,-0.35470449684024624,5.578819263230754,4.105865525230672
4.053959525151143,22.461732037525223,-23.601659080918974,-0.35465508819327685,6.126722648088383,4.104711349571772
4.049431727870524,22.38364475995733,-24.07409668820905,-0.35464124580345185,6.677264999724041,4.103587628117425
4.045338644362122,22.30673797514455,-24.49871302515162,-0.3546599303796482,7.17880383044609,4.102595876052722
4.043740200797076,22.275048872388655,-24.663890244074917,-0.3546754353267529,7.375676265350643,4.102215009187894
4.044731297393281,22.287164718229402,-24.728932537435014,-0.35480488003442734,7.428595557563023,4.10354417171494
4.070216180408864,22.664320274925476,-24.96997570185119,-0.35692951481963753,7.2923274771974445,4.128365527511938
4.1121106671009455,23.276440131213228,-25.357099048540157,-0.36042266286094954,7.067073041315943,4.169139223837671
4.15568516775993,23.902927303927044,-25.748098238507033,-0.3640568651725892,6.831314162804728,4.211509214193417
4.19977695139717,24.526545675961955,-26.132103206113733,-0.36773563538269066,6.591423921556009,4.254342920514185
4.2448694981822825,25.15386348488852,-26.51318091851597,-0.3714998069048579,6.344897870794194,4.298108997687438
4.290941775799922,25.78416383209193,-26.890845464858103,-0.3753481768317743,6.091966944010755,4.342785422954251
4.3380047694505475,26.41718343118003,-27.264900799347284,-0.3792822517289335,5.832698120256368,4.388381289982972
4.385762296066208,27.048634054602008,-27.63283282829685,-0.38327786439560424,5.568867284303218,4.434608515353218
4.434281249070812,27.679180682513156,-27.995093014702785,-0.3873412007178002,5.30026033582764,4.4815310481282
4.484321584349991,28.318208029583992,-28.35701407982452,-0.39153662912392634,5.022820027295605,4.5298820139235705
4.535199284681611,28.95647321064242,-28.713301086140568,-0.3958075730284687,4.74049862537794,4.578998611708856
4.586863238177267,29.59308615098427,-29.063521589873215,-0.40015043068579076,4.453753933045567,4.628830615376332
4.639543404862286,30.23057964181065,-29.409112852496087,-0.4045852729522699,4.161488657236601,4.679598759747066
4.688012976392376,30.806996208573043,-29.717217111959272,-0.40867185412016277,3.8928388753123855,4.726270898511845
4.70688163136596,31.028711759048104,-29.83215182855589,-0.4102632384500914,3.7859258367261677,4.744412721416024
4.694277014809567,30.87229059430043,-29.55440990329808,-0.40910950350807634,3.6646983911995465,4.730914908517819
4.669104637580514,30.557186179825383,-28.99423562003344,-0.4068105692367368,3.419814125826914,4.703953564305666
4.642968421608156,30.22610258156687,-28.40470642029206,-0.4044310749983426,3.1615601716933983,4.67595244011549
4.617245276959571,29.89625848189114,-27.816444510034845,-0.40209684204669593,2.903329922606484,4.648386276885794
4.5916946876097855,29.56460334948812,-27.22403292548031,-0.3997860190735272,2.642758735878775,4.620997391774073
4.566374353078007,29.231878509598705,-26.6288093152202,-0.3975038775211242,2.3804425411900834,4.593847616479825
4.541345587702873,28.89891165818957,-26.032273850183625,-0.39525593921499175,2.1170534030178922,4.567002726158476
4.516733480607493,28.567436399418277,-25.437561187819174,-0.39305334121036756,1.8539915199308508,4.5405970018450486
4.492480090109809,28.236761508557148,-24.84346292814676,-0.39089076085240115,1.5907401755362138,4.5145684267813735
4.468529096619492,27.906182728380536,-24.248739303879372,-0.38876308798711867,1.3267642976662053,4.488856653021721
4.4448154007050995,27.574836294615235,-23.65185542564147,-0.38666450755100906,1.0613932514386621,4.463391828973698
4.421418305928056,27.243871017141675,-23.05490027161821,-0.3846019934783674,0.7955666801632831,4.438259154911743
4.403740101457687,26.99107760938898,-22.59844448669717,-0.38304906223771434,0.5920271182045316,4.419264289554238
4.39117690675733,26.8303636495878,-22.46003303191776,-0.38195879388975823,0.614412850457505,4.406886445594986
4.350455418910702,26.320831587016166,-22.16103681311478,-0.3784371604861744,0.8252138366994894,4.367673716532013
4.301890013644371,25.70249843743119,-21.79358392674913,-0.37424310888254925,1.0764072628830994,4.320872472259462
4.253986262860267,25.08093182561778,-21.419088656010185,-0.37011225635637846,1.3237842464799898,4.274670321570184
4.207311237646258,24.463857806867942,-21.042196135903932,-0.36609286891467263,1.5642604388240802,4.229615429448547
4.16137235412202,23.845169429454607,-20.65918657821431,-0.36214190202543267,1.800226307019092,4.185233674338435
4.1168854356391495,23.235007605129823,-20.276398519605753,-0.3583202894127597,2.0278752135377043,4.14221829818001
4.089232461500918,22.850131659477668,-20.032351146819195,-0.3559468790927753,2.168873407267853,4.115461576005281
4.086195877501294,22.818470473903613,-20.16016828743566,-0.3557215216299373,2.328367507443133,4.1134179876753825
4.081930926788464,22.790340095743108,-20.622944359700234,-0.35548714188212005,2.8192909471343643,4.11220428864861
4.077221211130219,22.752762597276426,-21.131419374536062,-0.3552598784794517,3.3653621496693447,4.110884186116951
4.07256388571063,22.708737759039938,-21.631544521825493,-0.35506842681367784,3.9095305391605035,4.1096007243536885
4.067962246629369,22.658388999820737,-22.123007039731288,-0.35491251970746596,4.451359921217101,4.108355229392854
4.063329602196331,22.60067318054698,-22.6150329023745,-0.35478974909017114,5.001119747222079,4.107125273200708
4.0587427810695385,22.53643060626327,-23.099419925157434,-0.3547028143031906,5.54976722344869,4.105932376585789
4.0541753903719,22.465290351776524,-23.578957338549017,-0.3546513418725903,6.100462606612622,4.104770409336994
4.049642367641472,22.387458846762957,-24.05206827747078,-0.35463577456200557,6.651422541892551,4.103643996022422
4.045461606564479,22.30915901790663,-24.48587320339747,-0.35465359533188856,7.163543345449601,4.102629932379541
4.043692057156048,22.27410363801675,-24.668739315564395,-0.3546706292272568,7.381471605472572,4.102208157402121
4.020730607388472,22.266749715069697,-24.715735152380677,-0.35270125850338696,7.435962306935755,4.079413025763161
3.6246578906232276,22.294463778896056,-24.731952427262968,-0.31795892815573773,7.426788495188785,3.680286963124523
3.0226085500227446,22.331065835056364,-24.753355630909123,-0.26512435910036314,7.4146609712544915,3.073627711708312
2.4125792181638324,22.361368358466322,-24.771062291141643,-0.21156376781340502,7.404611164979292,2.4589601394746228
1.8049262311565033,22.38477738168308,-24.784732984451466,-0.1581912242429835,7.3968424200154095,1.846713219297243
1.1979044927316533,22.401417935156196,-24.79444375918787,-0.10486101902886169,7.3912873869047875,1.23512076340354
0.5883886822695782,22.411356953276464,-24.800244270348955,-0.05129940174032571,7.387989343064449,0.6210297145478649
-0.021735028082249492,22.414513871216947,-24.802086940483534,0.002320782495337113,7.386946212580235,0.006332666627461529
-0.6301255532855841,22.410896930706155,-24.799977398573493,0.055788593609986184,7.388155906811775,-0.6066184071316254
-1.2384105092265147,22.40052271234232,-24.793921255057743,0.10923853986344813,7.3915812718584455,-1.2194718084256697
-1.8479464725597146,22.38334954988625,-24.783897743655128,0.1627910593902822,7.397295723337511,-1.8335971970978917
-2.4559059587576795,22.359452574801995,-24.76994312653047,0.2161895189894306,7.405239646500877,-2.4461542983451796
-3.064892992868862,22.328727771477514,-24.75199042239668,0.2696574885396056,7.415442442395392,-3.0597734100941807
-3.6585070259417325,22.292227774724875,-24.730647328835236,0.32175082739012684,7.427548498953551,-3.6579345915731687
-4.027837785087621,22.26624534627974,-24.715440678366082,0.3541426871682364,7.436125954984432,-4.030115738646906
-4.041354187323776,22.23974135839538,-24.54082904212892,0.3552090696411473,7.287937813337232,-4.042808579622202
-4.034997953537808,22.16274867555172,-24.031009641529007,0.3543197480372867,6.8551586471677455,-4.033708943082858
-4.028095489575573,22.073921141341565,-23.472659744930862,0.35337902805598376,6.385687767625936,-4.023845547996622
-4.021201994089407,21.979813528080825,-22.910083886431096,0.352465176046331,5.91727078022631,-4.01401298889571
-4.014400468460834,21.881701699389794,-22.350113400625926,0.3515882997686557,5.455462545267076,-4.004328352052389
-4.007634174151009,21.77893711693939,-21.788162879367338,0.350740084279554,4.9963266207386585,-3.994709499901391
-4.000881268904665,21.671262541170982,-21.22241664471649,0.3499172587693418,4.538304734104737,-3.9851243599974246
-3.9941850979166267,21.559466543961175,-20.656528318007254,0.34912448362209014,4.084261620329621,-3.9756333962480985
-3.9875280777304214,21.443377108271232,-20.089059810485786,0.34835896256052257,3.632931342520676,-3.9662105894416526
-3.980925647626018,21.323380256827,-19.521373210453564,0.3476217962623296,3.1852898584673706,-3.9568767443074586
-3.975872745562312,21.228282626458718,-19.083603082469416,0.34707237911146005,2.8426542126813956,-3.94974085103205
-3.975071962370412,21.210370233395043,-18.96994897851955,0.3469743344315461,2.746919092614842,-3.948359481570501
-3.996790271493769,21.527689600420363,-19.178415151979763,0.3488336359459851,2.6379363032701484,-3.9694227997101823
-4.037288239250961,22.111764281534462,-19.558515137044907,0.3523027794781512,2.433718173852452,-4.00867437038083
-4.075155426452658,22.649103431446193,-19.904080877538746,0.3555492419714276,2.241715052306598,-4.045347226468024
-4.087586365374726,22.825096370279343,-20.035281993219844,0.3566199325568607,2.19684702499366,-4.057494417010593
-4.0844911537844775,22.80629136290085,-20.37211129369778,0.3564421410309569,2.552493689395658,-4.056613418125768
-4.079797936165619,22.77218368545606,-20.880638631363134,0.3561996913085946,3.0951473796712117,-4.055294684278084
-4.075118689864229,22.731335171034647,-21.3849650988412,0.35599116148899135,3.640340905092498,-4.054001447807962
-4.0704838243714,22.6839928674238,-21.881811386499653,0.35581802959889797,4.184547785725602,-4.05274289256278
-4.065873266876153,22.629955991149238,-22.3733354933378,0.3556795828143934,4.730126881511559,-4.051514273656077
-4.061251718068237,22.56868977462972,-22.863257043218603,0.3555754334562153,5.281332719350272,-4.050307321465289
-4.056701517968258,22.501273686990576,-23.34284550732688,0.35550760355243605,5.8283549773977175,-4.049144304904682
-4.0521541187074055,22.426712736467785,-23.81933591372641,0.355475103977264,6.379423940674979,-4.048008358441791
-4.047651269878401,22.34565155440394,-24.288339282607836,0.35547858774842567,6.929505834098945,-4.0469107848015256
-4.044545795550439,22.285472712560036,-24.610130499606232,0.3555021652657716,7.311487798548245,-4.046170308794462
-4.043616816285008,22.266784064743096,-24.706124281066575,0.35551263233492875,7.426173780361256,-4.045951493169727
-4.053296203600251,22.410091198451603,-24.807708289370826,0.35632751130563556,7.384391460701149,-4.055442276426155
-4.089059266562225,22.936669622861945,-25.14284195663502,0.35930897671267914,7.192727549147792,-4.090262531715895
-4.131995489430533,23.559513534062308,-25.534420868848564,0.3628891524133723,6.961197055398472,-4.132031217627825
-4.176028447664266,24.18791594068688,-25.924228645335514,0.36656197304221977,6.722327448264742,-4.174827373750257
-4.220505063592912,24.81227330278793,-26.30632109829312,0.3702734464562026,6.479782016453241,-4.218015181051849
-4.265789925169119,25.437528785810024,-26.683795116699823,0.37405448597853225,6.231712067041955,-4.261948000032954
-4.312132682100414,26.066748030587757,-27.05847378721789,0.37792649250743443,5.976873277570391,-4.30686658655132
-4.3452959234473445,26.510562462624332,-27.319637803408636,0.3806991994733375,5.794007599800113,-4.338986083627236
-4.258829296197291,26.581807403991395,-27.360950211613197,0.37312632647130145,5.7646447585897445,-4.251890111475462
-3.7782220363941574,26.615671740752127,-27.37890840898617,0.3311212887712335,5.751693878949476,-3.76879983192459
-3.1470340055260877,26.653961441063302,-27.39919647049328,0.2759248355841283,5.737037949859286,-3.13439384797516
-2.5215084370255725,26.68499651830111,-27.415627506103554,0.22119450089563986,5.725149510773372,-2.505719947779236
-1.8923823371740445,26.709285835410817,-27.428478976734144,0.16612574626575183,5.715840086250656,-1.873460179455093
-1.261871656766257,26.726670321260148,-27.43766967159772,0.11091917342552073,5.70914447535961,-1.2398344402603962
-0.6340144894937975,26.73707324326573,-27.443169735529597,0.05593235692854898,5.705157808931357,-0.6088911286897045
-0.004742009641113558,26.740584832484284,-27.445026393745323,0.0008155865194870705,5.703816536412761,0.023466142827834848
0.6234472128394681,26.737187591690567,-27.443231285922852,-0.05420648935568744,5.705128058139125,0.6547347269274889
1.2531045604088087,26.726856663734285,-27.437767264728706,-0.10934928531645775,5.7090701816271086,1.287486898966907
1.881723978666258,26.709626994747566,-27.428656461249723,-0.16439164287085437,5.715689510289713,1.9192120940549964
2.508861468192363,26.685541088066117,-27.41591384523278,-0.21928705445383895,5.724935133986836,2.549472375738137
3.137244945980884,26.65448646464527,-27.399473764875587,-0.2742685287200791,5.7368452908559195,3.1810173705752325
3.764878410659726,26.61653573682345,-27.37936358714748,-0.3291522420679438,5.751354709355227,3.811850287671612
4.257882045609921,26.581858781034136,-27.36097551551618,-0.37224169722077216,5.764627543426269,4.307399921238379
4.347296723667439,26.541207247947412,-27.291104545898527,-0.3800325566197013,5.734822150662236,4.397063819566093
4.330177954746491,26.314638418160012,-26.846319044924265,-0.37839522951414195,5.516723701392109,4.378411416801094
4.307709664791496,26.013652186132838,-26.255702308919833,-0.37625439459927207,5.2272476354499915,4.353927936761786
4.285425041218153,25.710987427043598,-25.662083360723983,-0.3741403618359886,4.936445806681579,4.329641789090109
4.263396468052138,25.407657041187985,-25.06744381168498,-0.37205990618003515,4.645286455914709,4.305631695465845
4.241739298026697,25.105333826714904,-24.475054495591966,-0.37002371025376085,4.3553668687607665,4.282023265168487
4.2202481895094826,24.801211520213553,-23.879410074188954,-0.3680123128260884,4.063989388732553,4.258592522188494
4.1989760022244775,24.496056195666856,-23.28200732589941,-0.366030602321982,3.7718843853864055,4.235396932543306
4.178153604714305,24.193282076781916,-22.689521517579696,-0.36409984220529634,3.4823113914336545,4.212688151905893
4.1575005554030176,23.88890114959075,-22.09414096683893,-0.362193814520059,3.191448638685165,4.190160239334053
4.136976674821683,23.582317806125396,-21.49469880708284,-0.36030880632563983,2.898725150490945,4.167769190596897
4.116578954347305,23.2734700611201,-20.89107289923031,-0.3584445682989012,2.6040808062127194,4.14551153087679
4.098806331725075,23.000923443998772,-20.358593768505433,-0.35682787013548967,2.3442643391137374,4.12611466618384
4.0909842075744285,22.879934621485873,-20.12227422243806,-0.356118612870975,2.228984527904041,4.117576542219924
4.069703307401345,22.827289896350575,-20.017729740123205,-0.3542547915670534,2.177217842606452,4.0959832440868995
3.7049775793740087,22.851795524856552,-20.03189515998003,-0.32251498484541,2.1690355397010337,3.7313805899586656
3.1061894871529145,22.887015383413598,-20.052240325381316,-0.27037957616162656,2.157265740066584,3.1328259223098525
2.4926275104231155,22.916656612347044,-20.0693505637916,-0.21692845986926523,2.1473514794730266,2.519537746324246
1.8775155459952921,22.939836314505083,-20.082723129317284,-0.16331829743759504,2.1395936199966625,1.904728568653999
1.265694674366011,22.956408355495704,-20.092276477351284,-0.10997656644246412,2.134014802114655,1.2932318188172305
0.6528049057934613,22.966539890810687,-20.09811749776163,-0.05653014533896164,2.130624323401121,0.6806793041036353
0.03848476719435766,22.97019968283604,-20.100227598383274,-0.0029526178845720695,2.129403739765979,0.06670463307060212
-0.5750261649755563,22.9673662607064,-20.098595324543346,0.05055483690837796,2.1303609590148285,-0.5464608089921675
-1.1864815586251272,22.958086662861827,-20.093243930183057,0.10387689518864829,2.1334485731124677,-1.1575773291080977
-1.800859515501823,22.942272392152073,-20.084126341355972,0.15744309398332654,2.138756539457667,-1.7716291414706997
-2.411629667368835,22.920091639339187,-20.071332416941935,0.21067778094078296,2.146194187388905,-2.382095243529995
-3.026314606664122,22.89125601104553,-20.05469015185757,0.26423076042197663,2.1558537017973998,-2.996501414248774
-3.6391291116142277,22.855986947372426,-20.034316860316288,0.31759009092194634,2.1676240268548854,-3.609071908630236
-4.251901479967021,22.814198266838304,-20.010160123947678,0.370912920752728,2.181588901058909,-4.221641333840969
-4.867329092192747,22.765640670072937,-19.982061819877302,0.4244262332756489,2.197791915707831,-4.8369131689801
-5.479229584973706,22.710791761596326,-19.950285963255496,0.47758673672885155,2.2160638142804356,-5.448713331195867
-5.954226250588274,22.66368076302511,-19.92296159538161,0.5188179655114572,2.2317323862181664,-5.923673935822886
-6.036667704851591,22.651373484571103,-19.986183388589474,0.5259968890995165,2.3065089475610483,-6.006773678040033
-6.031069599938532,22.626777707203964,-20.399497147705592,0.5256880438307889,2.744451374617914,-6.005196756208682
-6.024158951724445,22.59027720699835,-20.907288191716194,0.5253507687721722,3.2887833751128768,-6.003278004033162
-6.017288115468764,22.547126876370125,-21.409444804068517,0.5250646213719227,3.8341303745335695,-6.001402490254932
-6.010500739646426,22.49763839210474,-21.90279711478781,0.5248312123154707,4.377010568654367,-5.999583012457827
-6.0037354986655265,22.441378176074267,-22.39181252763474,0.524648432990582,4.92232529178917,-5.997804122929854
-5.996953580979676,22.37788185715182,-22.879244468504314,0.5245163892351782,5.473292557692983,-5.9960573983317955
-5.990266829076152,22.308169903267896,-23.357046924060864,0.5244376227322383,6.020845237232468,-5.9943728498457
-5.98359248853189,22.23139897471105,-23.83114274953771,0.5244112283832543,6.5717499955616505,-5.99273060201552
-5.977132191026318,22.15010512297813,-24.287295696682488,0.5244366651044805,7.109233386937559,-5.991180114913736
-5.973585205212918,22.10249723524743,-24.536577637597496,0.5244724350646377,7.406143222936164,-5.990345844318228
-5.972556203448348,22.08828680070024,-24.608739345041002,0.5244857474818865,7.492521157850478,-5.990106133555263
-6.258375374293813,22.055732555216867,-24.5919397554321,0.5494860638867147,7.505603891387,-6.2782465509922325
-6.832560248983337,21.986555894013325,-24.551231328152472,0.5996676377595812,7.528328212308858,-6.857093630697163
-7.435024006156504,21.907320892573132,-24.504528099074992,0.6522654490254642,7.554293067617003,-7.464519446980561
-8.037075695902882,21.82130216040077,-24.453734728186184,0.7047659404849085,7.582404090143116,-8.071607657290377
-8.638989754729103,21.72842831651129,-24.398783140201605,0.7571853130308784,7.612634570368889,-8.678642527127574
-9.241638888509899,21.628520186460275,-24.339548551680394,0.8096000731453681,7.645083929190875,-9.286507062170543
-9.842765741157914,21.521918647579447,-24.276203260985042,0.861806562414031,7.679588079236718,-9.892931720039828
-10.445862487136749,21.407946049572633,-24.208312137663725,0.9140993688386894,7.716310615251281,-10.50144745833121
-11.049733427579964,21.286735491954566,-24.135928301937945,0.9663765462387871,7.7552436393238455,-11.110850159043679
-11.647910808383761,21.159615906579326,-24.05981113442292,1.0180710158944584,7.795902932749554,-11.71461919878011
-12.250696163449577,21.024360191483844,-23.978591881845368,1.0700684772581088,7.838971125484228,-12.323157644947601
-12.84769193993569,20.883259945769467,-23.89360654185812,1.1214627564173862,7.883656329341653,-12.925976156786028
-13.262142024775992,20.781094343329453,-23.831912312496538,1.1570847767116783,7.915897657174169,-13.344541243124455
-13.518895854396085,20.71605961745647,-23.79256931169329,1.1791271761886235,7.936361617396915,-13.603875809540332
-13.818849169947672,20.63827905395151,-23.744715208358947,1.2048508458003224,7.960055839861162,-13.906860644086631
-13.808902972860261,20.608039234699593,-23.505999188559844,1.203396722242362,7.7518342874394515,-13.892414236713737
-13.786984570867551,20.53767241535937,-22.97664702949912,1.2002543563598995,7.293408883808529,-13.860625118392498
-13.764220910994782,20.4591903325599,-22.422049684218997,1.1970801097614838,6.817873387357513,-13.827675026061778
-13.741483587865964,20.37533293765445,-21.86313301989619,1.1939990475590563,6.343391456129444,-13.794825883994319
-13.718904068324814,20.286677298468813,-21.303139797599705,1.1910266700390872,5.872625502273976,-13.762263694589715
-13.696512365196329,20.193487483635987,-20.742877355674835,1.188163815169571,5.406118108964423,-13.73002733353139
-13.67430099337849,20.095881698737596,-20.182227367926995,1.1854064451271606,4.943633006428377,-13.69810173429743
-13.652037559682006,19.992902012376383,-19.61531299836124,1.182724068333842,4.480257185855342,-13.666149522936143
-13.629935896932277,19.885590992652546,-19.04756021505348,1.1801410193852357,4.020368722156061,-13.634474411026735
-13.60855983225427,19.77700085639295,-18.49369327573677,1.177717740382859,3.575625659336407,-13.603879159899495
-13.595808729479431,19.709981069126613,-18.161055906603814,1.1763070698146623,3.3103258187890017,-13.58564636478851
-13.591366584218386,19.686239764581792,-18.044776519367424,1.1758217160016589,3.2178983174759077,-13.579297520224147
-13.642930187358045,19.90699770332602,-18.19048242594266,1.1801102017990857,3.141803027265319,-13.629362817977016
-13.773474974573414,20.460183514539345,-18.563702587175676,1.1909805519864785,2.9591774376881785,-13.75627249866078
-13.903221825076805,21.001298746072738,-18.924690307421766,1.2017855025546285,2.7763829844381647,-13.882311425008607
-13.960205635842636,21.236267920585586,-19.080187339511074,1.2065314449638658,2.6957322160833503,-13.937637378608489
-13.959466268994108,21.243280747107416,-19.25948413070935,1.206644753933997,2.86799358430683,-13.94052935765064
-13.945159710052733,21.20877519012738,-19.72716048666732,1.2060079901900707,3.3703652612207646,-13.93679756395795
-13.929744356004598,21.16507157447033,-20.22837507373045,1.2054303681047462,3.9154871244716256,-13.932845419359706
-13.914485584217747,21.1150138219087,-20.72168376046745,1.204971827888939,4.459054290040595,-13.92900757551044
-13.899254582236507,21.05816281398952,-21.211250418782644,1.2046290188947284,5.005671419311345,-13.925254270492044
-13.88402554142416,20.994300577004495,-21.697859809228348,1.2044037210033671,5.556341547097815,-13.921583000455048
-13.869012470545613,20.924332392365464,-22.174681528865484,1.2042993796240802,6.1033261792975635,-13.918047730767784
-13.853985760219954,20.847187068638775,-22.64901129913265,1.2043149162421294,6.654995185297577,-13.914596895304877
-13.839041559647146,20.763262555483742,-23.117777575859723,1.2044524324248704,7.207877795545246,-13.911256260145185
-13.826505311082272,20.68721279515693,-23.508692966038446,1.2046640030536675,7.675003037238768,-13.90852731555017
-13.822279528570306,20.66039984700705,-23.639981354271384,1.2047554675090495,7.833158164234447,-13.907623027396264
-13.819427510370883,20.641964888896453,-23.72845007638034,1.2048230073719652,7.940098097811807,-13.907017252449528
-13.845408092567585,20.753489142477086,-23.822014573178137,1.2069891468020968,7.9215965761257685,-13.932823723526981
-13.961768308454758,21.25429773561537,-24.15276990924467,1.2164266264041133,7.749125112166119,-14.046466594508727
-14.10590155626569,21.865650657179003,-24.55188990050727,1.228109747503528,7.533870942914669,-14.187119691320698
-14.252747509976883,22.47851904313778,-24.94690365423973,1.2400060988681545,7.312908818586622,-14.330293090911512
-14.402334102346572,23.0927128800097,-25.33768226280691,1.2521188660819846,7.0862976228844055,-14.47601021897246
-14.554467584956695,23.707156943572603,-25.723552994205257,1.2644333659773537,6.854442389498327,-14.62407891408912
-14.710768430384443,24.327979541748874,-26.108313264557868,1.2770817984152232,6.614975187161868,-14.776071238529111
-14.868782518283414,24.945106531507076,-26.485717243053397,1.289866700726518,6.371775935376503,-14.929596795349555
-15.030288963169493,25.565236859650764,-26.859902095420743,1.3029332455192193,6.122242049476838,-15.086381258814018
-15.194790510667058,26.18609234672342,-27.22947970369722,1.316242478317567,5.867272524539898,-15.245937549951295
-15.361976769352419,26.806218769059345,-27.593616100770152,1.3297706290188875,5.60749269851022,-15.407961381566263
-15.533902470512604,27.432796438292094,-27.956491480372886,1.3436854097458926,5.339853364195859,-15.574438879172039
-15.708597239722113,28.058202569048024,-28.313660195027058,1.3578288819840556,5.06757418542202,-15.743456998990018
-15.876088786265345,28.64742896563728,-28.64560051736092,1.3713946810834206,4.806373944400586,-15.905376568343684
-15.961970862659422,28.94569370918554,-28.81194787295838,1.3783530489327833,4.672434730746667,-15.988353615617129
-15.977806247355709,28.9997189651167,-28.799171054354314,1.3795534682641968,4.605271107839798,-16.00262389283497
-15.913239497771599,28.770628896716325,-28.361832283891168,1.3737330748165346,4.398633249037163,-15.932858532078964
-15.827455252737847,28.46264121296572,-27.77395419121271,1.3660244037807456,4.1208729680595715,-15.840155690630832
-15.74271184168797,28.154254784811393,-27.185399991320974,1.3584372087384071,3.8427982101527927,-15.748563807482848
-15.658940169730405,27.845271634356823,-26.595787196889024,1.3509650075148216,3.564226572848905,-15.658007847512893
-15.57623037804209,27.53608190981021,-26.005855831273433,1.34361551792092,3.285506119172981,-15.568584920654818
-15.49482276676979,27.227667566448027,-25.417474783421,1.336409595232799,3.0075183696640937,-15.480554607234515
-15.414014424182886,26.917416393961577,-24.825656709503797,1.329284748204914,2.7279056443560665,-15.393156476219554
-15.33374165730771,26.605076863891252,-24.229919050047506,1.3222354864593397,2.4464386698570775,-15.306321084176483
-15.254624386081966,26.293098166891347,-23.634929964511535,1.3153160761249112,2.1653218212455116,-15.220718651582494
-15.176715066324359,25.981778746796003,-23.041254766323654,1.3085305596545729,1.8848211533307118,-15.136405787661698
-15.099370472209296,25.668594599186083,-22.44407722827156,1.3018226837147655,1.6026600859289286,-15.052686070565633
-15.033212374018241,25.397376555407178,-21.926961397960643,1.2961080444120432,1.3583222282535325,-14.981059950561388
-15.004362976003458,25.278129235820376,-21.69961090678712,1.293622864929597,1.2508971608789854,-14.949821644309704
-14.961953447278578,25.22410090119745,-21.60436402638578,1.2900310672165323,1.2106432848349384,-14.90656739808626
-14.564107129221876,25.141604784795845,-21.549013954702367,1.2565031857188662,1.2466066268505644,-14.510119750561532
-13.961309084477382,25.011172151451472,-21.461930969558253,1.205589166962465,1.3028732931947842,-13.909414848676402
-13.345283657001815,24.87105360673009,-21.36886523505262,1.1534208882857535,1.3625744929561672,-13.295489483218462
-12.733711712068224,24.72505870441507,-21.272322658234206,1.1014984144147177,1.4240303108517045,-12.68595597350596
-12.119763680584562,24.571519115483607,-21.171158204307684,1.0492486219163688,1.4878703777542173,-12.073994888681485
-11.507339098975331,24.411328025845034,-21.065927915723755,0.9970085394343263,1.5537404602148468,-11.463496365400204
-10.892916728704455,24.243474543337477,-20.955923438116432,0.9444833720076024,1.6219747078951479,-10.850937339015596
-10.280849874155193,24.069072453038945,-20.84183039663319,0.8920510594868439,1.6920706888942483,-10.24065062156775
-9.668856929143608,23.887424474516855,-20.723141854907006,0.8395241548956841,1.7642281446430481,-9.63034828776124
-9.058034329134742,23.69879503890684,-20.599986890402725,0.7869995887751781,1.838354270925951,-9.02112900710687
-8.458076476198691,23.506297941681858,-20.474342564495984,0.7353206212417777,1.9131611112050129,-8.42265133949301
-7.8601439366761765,23.307236031464395,-20.344395215822697,0.6837339746957328,1.9896659108750527,-7.82609399889831
-7.264665010450305,23.10173264931082,-20.21016837916656,0.6322858542704585,2.0677395085716945,-7.231872078706836
-6.672515937499891,22.890102715240413,-20.071818407704736,0.5810521280918801,2.1472785774626635,-6.640868742718663
-6.166251096102546,22.70333348986977,-19.949581094988815,0.5371973350095719,2.2167429054045527,-6.1354909477312995
-6.0370888220673695,22.653055506008595,-19.954823407637637,0.526015478809594,2.2734581134612,-6.006897001257918
-6.032030661253131,22.6313251410917,-20.328475932704094,0.525732886572579,2.6688707327784,-6.005470002772804
-6.02512404093751,22.595799804968316,-20.83635910494793,0.5253889685514295,3.2123196960564355,-6.003548022122939
-6.018259939539938,22.553665114130364,-21.338418385004143,0.5250961161128292,3.7565537073747595,-6.0016697582649785
-6.011431288764992,22.504847319406824,-21.835164294681196,0.5248543029693765,4.302157074264852,-5.999834486397892
-6.004658800299265,22.449486012044648,-22.32509147241125,0.5246644164532747,4.847484719491864,-5.998048875894548
-5.99788735352968,22.387069055570574,-22.81216698187534,0.5245254841236819,5.3970161564337,-5.9962997717050825
-5.991132853148501,22.317619265838417,-23.295201135967275,0.5244388939817611,5.949538783413796,-5.994593001213591
-5.9845054280273144,22.24234755576322,-23.766351251055827,0.5244056930632379,6.495998371353735,-5.992957044378301
-5.9779072555265484,22.160243502521507,-24.23261237913412,0.5244249006376462,7.044400951291174,-5.991368271797498
-5.973931700577584,22.107259624011476,-24.512167950866317,0.5244622236629953,7.376962836579925,-5.990431050571813
-5.972721057253091,22.090593044942498,-24.59709022075408,0.5244774993352291,7.478558502420843,-5.990148727477258
-5.9838035361470485,22.201304549879957,-24.68385217137553,0.525417519928721,7.454508602550836,-6.001093789290509
-6.034156980472369,22.70371029886266,-25.00516993875369,0.5296025604651796,7.272965515480411,-6.050139566021819
-6.097373348733712,23.32532368758707,-25.39801290261661,0.5348572027690489,7.043618676165786,-6.1116629690082735
-6.162017585986245,23.950706313743204,-25.788004622505262,0.5402317020620974,6.807632522939655,-6.174518350090004
-6.2279630233750956,24.57824081798876,-26.174093901224342,0.5457162200789125,6.565574014589734,-6.238580341654534
-6.294630194299356,25.202197227902985,-26.55280601382032,0.551263264687919,6.319703510341954,-6.303284825726372
-6.362927936133753,25.83079387859054,-26.929148059096992,0.5569492121627477,6.066800907211907,-6.369512292601443
-6.432855490451431,26.46353288089397,-27.302746198905588,0.5627748658990801,5.806989796949088,-6.437259291076189
-6.5038929119830415,27.095349354303597,-27.670603921889278,0.5686977817275147,5.542343133098208,-6.506020122310676
-6.576174547473832,27.72717455977896,-28.033308145859902,0.5747300342685366,5.272514921809403,-6.575923416392507
-6.650098263429175,28.36210983266539,-28.39263512525323,0.5809058001366602,4.99617575265177,-6.647351921274409
-6.725350177024621,28.99707252018336,-28.746836259993813,0.5871998825600175,4.71466232363387,-6.720000280491428
-6.802677542854966,29.637893352459997,-29.09912718938904,0.593675924725727,4.425351540659493,-6.794587354661745
-6.880683984947171,30.272681260765737,-29.443007233348617,0.6002180569641081,4.133647451640991,-6.86976459244058
-6.9393327147037445,30.742413591365597,-29.69422896275608,0.6051431803021339,3.914532602065027,-6.926244401188117
-7.0396151518532,30.801102183739296,-29.725983732085798,0.6138188947607685,3.8865355090548745,-7.026449625619211
-7.526126684245134,30.74150056764445,-29.6974067174187,0.6559993881476462,3.9121771129478438,-7.514320494709484
-8.173487735107267,30.655863488485828,-29.65627325465544,0.7120588790982565,3.948962315951668,-8.163589845081173
-8.82318182513969,30.562609056332438,-29.611382638992218,0.7682380453130486,3.988942723245549,-8.815322204265673
-9.47362970618784,30.461857786486544,-29.562764721639635,0.824391230642645,4.032016103876527,-9.467943426285489
-10.121994775990705,30.35402312902875,-29.51059918681352,0.8802713853071208,4.078047270782094,-10.118617498825216
-10.768516687551374,30.239071929196317,-29.454839572853437,0.9358920081435153,4.126997909917892,-10.767592621703937
-11.416438071914063,30.116369049536132,-29.39514405180257,0.9915229665833301,4.179083247666823,-11.418133134108139
-12.066514179970365,29.985649376204112,-29.331355356147753,1.0472277208323906,4.234450991384414,-12.07100771563625
-12.712847005823768,29.84805249739189,-29.263991614693964,1.102492521656557,4.292559683120578,-12.72030179522742
-13.362047172973591,29.70210776398938,-29.192291917213247,1.157872971925461,4.353969338629798,-13.372665884092848
-13.995703853709601,29.552108113869124,-29.118339148457586,1.2118036372122016,4.416909002601858,-14.009601252551327
-14.41138980850113,29.449616090981234,-29.067654345777015,1.247111789916275,4.459792794994543,-14.427544799474287
-14.702390998312582,29.375923086251653,-29.031133892021494,1.2717948254537559,4.490565522187828,-14.720178258831961
-15.293402114214896,29.221291770920036,-28.95429149670668,1.321835265535581,4.554969501777324,-15.31463954497184
-15.833787201015776,29.074030792389216,-28.880842689060934,1.3674759839858852,4.61606184390098,-15.858343650202457
-15.982856208657603,29.017517974821104,-28.83314848673204,1.38002550739567,4.6213068173874685,-16.008066188304127
-15.926006961686852,28.81609181286031,-28.44861485946409,1.3748989325205365,4.4396184632002305,-15.946640556818544
-15.841078484838958,28.511809954543526,-27.867797368954268,1.367262912510843,4.165193483029489,-15.854864510672256
-15.755993377139923,28.202841340519857,-27.278119273015864,1.3596406776917274,3.8865872642834893,-15.762905499950717
-15.672067707774419,27.893945674570983,-26.688661453628892,1.3521503215286308,3.608088654752915,-15.672185318782534
-15.58902681545637,27.584169130247062,-26.097599232559293,1.3447670119566308,3.328833959347704,-15.582406732254917
-15.507431915043403,27.275686473398757,-25.509077445123413,1.3375401666362527,3.0507799765388155,-15.494176254600617
-15.426853222966148,26.96696585308126,-24.92016902426103,1.3304311595919684,2.772542420189212,-15.407028974250222
-15.346533395590832,26.65510952054423,-24.32534334920023,1.323373225088136,2.4915069919738677,-15.320145298961036
-15.26697097946167,26.342037956604237,-23.72826097329396,1.3164103566725043,2.2094019550533455,-15.234063926209442
-15.18874135931157,26.030084560097176,-23.133368505622688,1.3095925169480604,1.9283271280285006,-15.149407141745497
-15.11163130834276,25.718499285015252,-22.539231821286744,1.3029005192274854,1.6476039654484314,-15.065944102312963
-15.04387900916657,25.441295993305932,-22.010697961711134,1.29704438187237,1.3978721447431328,-14.992594456103424
-15.013999991231842,25.318010628955676,-21.775646362725244,1.294469003867125,1.286808695874332,-14.960242250306177
-14.996644112313845,25.246102726071975,-21.63855264287599,1.2929750892291045,1.2220304703653333,-14.941448401276133
-15.022271772088073,25.077386146100174,-21.516710680080394,1.2951562033065527,1.2683157583125555,-14.968083859271143
-15.122962987575786,24.548193186941408,-21.196520693026184,1.3037468088364195,1.474986675798405,-15.073334368566904
-15.236423516857561,23.94162789706368,-20.824923060856637,1.3134439307029055,1.7073071637453734,-15.191994644187526
-15.348018445688362,23.33415483658564,-20.447828668636603,1.3229993903806927,1.9350622051192043,-15.308764171806606
-15.457614282221362,22.726778737175817,-20.06582719213832,1.3324008888179604,2.1578409577885114,-15.42349581804696
-15.565161164430057,22.120089969156904,-19.679275706387408,1.341643167835587,2.3754124138611883,-15.536129929460236
-15.67139292555347,21.510168604694016,-19.28562126478801,1.3507884030275041,2.5891269618375032,-15.64742815284718
-15.763189131537821,20.974383333292373,-18.935624410116375,1.3587035489841148,2.7726955362010064,-15.74363167750231
-15.799476746350164,20.760218361824883,-18.794956824001677,1.3618360725238259,2.845311654708612,-15.781676865679021
-15.792012804265113,20.745030434824425,-19.01321491244334,1.361495827243817,3.0788690294616954,-15.779763011447036
-15.77552150552776,20.707039579269814,-19.493573352221567,1.3608274842413153,3.5974636833252673,-15.775586041829564
-15.758292491440848,20.660726492377666,-19.992626699265795,1.3602540328313397,4.143085405656939,-15.771301499440096
-15.741283218213104,20.60823273014337,-20.48246637017605,1.3598157060736356,4.685669774891777,-15.767155374553758
-15.72426065711768,20.548825325228453,-20.969803925143204,1.359507075697273,5.232664726735182,-15.763093808114995
-15.707199411196617,20.482244319380648,-21.455300258044627,1.359331338635751,5.784991430015486,-15.759115751554493
-15.69042992608085,20.409795917134666,-21.92956391656104,1.359292087004158,6.3319473734731,-15.75530082549335
-15.673692268970434,20.33041942375708,-22.3999760829922,1.3593881257473086,6.88197819771409,-15.75159185233924
-15.656940037437334,20.243763201181046,-22.86778898151704,1.3596229446175867,7.436688385057648,-15.747983233322064
-15.644117938315224,20.17247307273684,-23.22378142890021,1.3598986581003014,7.8641545532719626,-15.745294324542163
-15.640147328044767,20.149512234199886,-23.333652654385453,1.360001212419601,7.9970433041994315,-15.744474914076747
-15.637106407694677,20.131642555893162,-23.417679551038464,1.360085301952127,8.098983239308224,-15.743851680055085
-15.673659251402913,20.270387503001814,-23.529982348576947,1.3630923847757621,8.071681754483,-15.780066616525783
-15.809676319987934,20.786882699714504,-23.874688922032963,1.374031261346818,7.896699814654178,-15.913023787493746
-15.971781495927353,21.393392089801537,-24.274801944023025,1.3870572957269494,7.686464631802337,-16.071353056127386
-16.136988917544496,22.001621227281074,-24.671012812674196,1.400321727692195,7.470497176757085,-16.232571325604297
-16.305939384851392,22.613563736576896,-25.064581847858364,1.4138767513569919,7.248046548224468,-16.39729884619221
-16.478397749683328,23.227973258726497,-25.454660264800825,1.4277043039798047,7.01951352987763,-16.565300910737278
-16.653335628910348,23.840912358715023,-25.838766393086523,1.4417229153336175,6.786376882544194,-16.735572049867535
-16.831213843714508,24.453778967761426,-26.217825953242322,1.4559705990293197,6.548151169368199,-16.90855799628604
-17.012030379460032,25.066315302365076,-26.591715098149095,1.4704483068634098,6.304968293106075,-17.084253565110224
-17.198098690734362,25.685915704766344,-26.96489668490714,1.4853423698654256,6.053835760595279,-17.26490081543009
-17.38735665471222,26.305256527735224,-27.332908419589923,1.5004889019596135,5.79766403294856,-17.448491699894497
-17.57994557267519,26.924519905380826,-27.695895230386842,1.5159005181018448,5.536409842551889,-17.63515984068088
-17.776223093120766,27.54454003663991,-28.05437015012207,1.5316071956943518,5.269740094381914,-17.8252480104214
-17.96441634223759,28.12876033190572,-28.387638514954816,1.54666811354958,5.013825858668921,-18.007363957823312
-18.058085206779726,28.407538566145078,-28.54517843916825,1.5541736785524785,4.890098517899293,-18.098057415730796
-18.31940746450317,28.322731700831955,-28.502083845087828,1.5759810246613044,4.924662438394876,-18.361384914959654
-18.895738294195045,28.130751966399313,-28.404208335557847,1.6239746357363656,5.002648085300892,-18.942290757315728
-19.518370829246695,27.915625376808755,-28.294002187079506,1.6756638440946885,5.089609745931386,-19.570107164584474
-20.135960003635645,27.694208597472418,-28.17998771019894,1.7267655224632128,5.1786409891180165,-20.19309251689054
-20.755666035304266,27.46387053671277,-28.06074378289069,1.7778658080713043,5.2707149665777075,-20.81847984554861
-21.374083972993507,27.225745766667703,-27.936792700942284,1.8286845384957289,5.365383344180701,-21.442829484176162
-21.90375919480673,27.01512827585234,-27.826582925526953,1.8720661051545968,5.4486460088226,-21.977802518543896
-22.140221547508553,26.919094748387103,-27.776151378704366,1.8913890154276807,5.4864635938393045,-22.21669578853563
-22.615774362260616,26.722166696334934,-27.67238200888595,1.9301662701775706,5.563723832076788,-22.6972623040461
-23.225614764804444,26.462125617147205,-27.53462301774983,1.9797242783786708,5.665114457351799,-23.31378564223058
-23.820547011755423,26.200201314103225,-27.395028348684143,2.027891226535625,5.766580616174997,-23.915504739188176
-24.372054735109234,25.95000702017536,-27.260894663535236,2.072377807518195,5.862850898916179,-24.473549015169773
-24.58752329016601,25.846248814836844,-27.198003975206976,2.0896951184270263,5.895872806572959,-24.691446782516266
-24.531832852186817,25.726445972398,-26.881136577808803,2.0845331145423245,5.700966294037562,-24.628306722298927
-24.433591341115616,25.511806988820936,-26.317319712127865,2.0754842041792685,5.355582932178333,-24.516953098075135
-24.334256589700214,25.2904592244405,-25.740843979838466,2.06640893509608,5.0042756452150225,-24.404396443896026
-24.23554132506329,25.066140617982825,-25.16148252847158,2.05746449102378,4.653013691751684,-24.292575169750812
-24.137068562190844,24.838001386345677,-24.576983141904293,2.0486159839813713,4.300409325696361,-24.181059249620045
-24.040014963620767,24.608827102264296,-23.994371131578852,2.0399675707130895,3.9506578448397187,-24.071177923822397
-23.943399740466027,24.376373145264317,-23.407819587116823,2.0314301250905165,3.6002146890301776,-23.96181750715407
-23.848874725369065,24.14472994432216,-22.827488971211874,2.023147194936694,3.2550880389001207,-23.85484438534423
-23.754723919852577,23.90980337249983,-22.24297099798591,2.014966129107373,2.909028980338572,-23.748313384559964
-23.6613274653828,23.672563305607436,-21.656616475010885,2.006919197982115,2.56340447409287,-23.642651958314985
-23.571621738066604,23.44071155851784,-21.087199187282856,1.9992550671174667,2.229177788947618,-23.54117877238083
-23.523668858468117,23.315153203991542,-20.78026647230274,1.9951843750877434,2.0495829518768556,-23.486939922802485
-23.498032677073848,23.24756129205904,-20.615440171381337,1.9930156710281668,1.9532984080877733,-23.457944296161422
-23.49108157695541,23.22682644574643,-20.536319563203026,1.9923913846021268,1.8951893689982149,-23.448969732539275
-23.645747750900544,23.581489628978673,-20.760989175761775,2.004610320538068,1.7598889987968995,-23.598907432861026
-23.901371878454786,24.158889503596853,-21.123157015075012,2.0247935590880015,1.5358177325796902,-23.84657803713207
-24.16751720363962,24.748719103997274,-21.48853670789852,2.0457930122608454,1.302074330815958,-24.104264186856476
-24.43860785397669,25.337943904341973,-21.848938366417627,2.0671683704087918,1.0636903243707805,-24.366557602031307
-24.69318739068459,25.88094301400362,-22.177013309521254,2.0872294623315466,0.8397007943428448,-24.6127149770264
-24.811651436172923,26.130277512890913,-22.326361600831618,2.0965606300062425,0.7354675530117133,-24.727208249058556
-24.86647735717394,26.2449641957828,-22.394784449542467,2.1008783402213953,0.6872320240610852,-24.780185574145904
-24.86647735717394,26.2449641957828,-22.394784449542467,2.1008783402213953,0.6872320240610852,-24.780185574145904
-24.86647735717394,26.2449641957828,-22.394784449542467,2.1008783402213953,0.6872320240610852,-24.780185574145904
-24.86647735717394,26.2449641957828,-22.394784449542467,2.1008783402213953,0.6872320240610852,-24.780185574145904
-24.86647735717394,26.2449641957828,-22.394784449542467,2.1008783402213953,0.6872320240610852,-24.780185574145904
-24.86647735717394,26.2449641957828,-22.394784449542467,2.1008783402213953,0.6872320240610852,-24.780185574145904
-24.866319362884596,26.24479743957507,-22.394642214976496,2.100865018604603,0.6872276226358761,-24.780028182647648
-24.206103203676523,25.547967551330764,-21.800281752719226,2.045197521321727,0.6688352360595611,-24.12233092725951
-23.548212967983623,24.853592575770026,-21.20801520615361,1.9897261391129144,0.6505076453593257,-23.46695072135711
-22.429602721450276,23.672947354944537,-20.200984866252846,1.8954081918906203,0.6193452574117982,-22.352608276487977
-20.823585308031966,21.977864738285945,-18.755165585825768,1.759993496641485,0.5746046179955883,-20.752718255350384
-19.197045716763192,20.261121841583286,-17.290871187903303,1.6228484313252192,0.5292922691124874,-19.13238435404023
-17.56484543654038,18.538404330057574,-15.821480747334064,1.4852260732578249,0.4838222240293182,-17.50641136084063
-15.93660940882809,16.819870917323367,-14.355659130280872,1.3479379693779119,0.4384626156018453,-15.884387495452383
-14.31030317962682,15.103374324291334,-12.891574816865395,1.2108125804692553,0.3931567677491993,-14.264286065870117
-12.682994284092173,13.385819459874558,-11.426587851769732,1.0736026496653261,0.34782298748903284,-12.64318579539864
-11.050318025181717,11.662599573223527,-9.956768910763374,0.9359401584658787,0.3023396825304378,-11.016738639499259
-9.422121180578285,9.944107516583058,-8.49098256835526,0.7986553583912047,0.25698116567104495,-9.394753807725674
-7.798905948755572,8.23087333894002,-7.029680929379261,0.6617905933490992,0.21176142722044844,-7.7777315825281175
-6.166689990049931,6.508139279446965,-5.5602763742353085,0.5241669133178476,0.16629094536409028,-6.1517429706633475
-4.537774555920643,4.788888782329067,-4.0938431206651416,0.38682152387419183,0.1209124099453743,-4.529042290977963
-2.918552879643268,3.079869631576153,-2.6361366853006745,0.2502934837658349,0.07580392447818245,-2.9159983848275486
-1.5159772174009085,1.5995110727264652,-1.373466107892939,0.13203240248518414,0.03673079150089226,-1.5187739293741953
-0.8572818133110781,0.9042862763968414,-0.7804747074231597,0.07649313082997841,0.01838077031602124,-0.8625916270108106
-0.2001518070267878,0.21071369042692895,-0.18889255837860058,0.02108584894338275,7.435818431205894e-05,-0.20796875003551246
0.0040389985188980515,-0.004800962197733277,-0.005069518181593427,0.003869076899303702,-0.0056140155074652556,-0.004556987827240209
0.0040389985188980515,-0.004800962197733277,-0.005069518181593427,0.003869076899303702,-0.0056140155074652556,-0.004556987827240209
0.0040389985188980515,-0.004800962197733277,-0.005069518181593427,0.003869076899303702,-0.0056140155074652556,-0.004556987827240209
0.0040389985188980515,-0.004800962197733277,-0.005069518181593427,0.003869076899303702,-0.0056140155074652556,-0.004556987827240209
0.0040389985188980515,-0.004800962197733277,-0.005069518181593427,0.003869076899303702,-0.0056140155074652556,-0.004556987827240209
0.0040389985188980515,-0.004800962197733277,-0.005069518181593427,0.003869076899303702,-0.0056140155074652556,-0.004556987827240209
0.0040389985188980515,-0.004800962197733277,-0.005069518181593427,0.003869076899303702,-0.0056140155074652556,-0.004556987827240209
0.0040389985188980515,-0.004800962197733277,-0.005069518181593427,0.003869076899303702,-0.0056140155074652556,-0.004556987827240209
0.0040389985188980515,-0.004800962197733277,-0.005069518181593427,0.003869076899303702,-0.0056140155074652556,-0.004556987827240209
0.0040389985188980515,-0.004800962197733277,-0.005069518181593427,0.003869076899303702,-0.0056140155074652556,-0.004556987827240209
0.0040389985188980515,-0.004800962197733277,-0.005069518181593427,0.003869076899303702,-0.0056140155074652556,-0.004556987827240209
0.0040389985188980515,-0.004800962197733277,-0.005069518181593427,0.003869076899303702,-0.0056140155074652556,-0.004556987827240209
0.0040389985188980515,-0.004800962197733277,-0.005069518181593427,0.003869076899303702,-0.0056140155074652556,-0.004556987827240209
