RAMEL-ESPOL/ARCHIE/matlab/data/joint_goals_square_t35_h35_p12.txt
Joint0,Joint1,Joint2,Joint3,Joint4,Joint5 
-0.0007244814018215363,9.582391633479324,14.253001205528323,-0.00019673937167419386,-23.829265929398648,0.0016131562733832166
-0.0007244814018215363,9.582391633479324,14.253001205528323,-0.00019673937167419386,-23.829265929398648,0.0016131562733832166
-0.0007244814018215363,9.582391633479324,14.253001205528323,-0.00019673937167419386,-23.829265929398648,0.0016131562733832166
-0.0007244814018215363,9.582391633479324,14.253001205528323,-0.00019673937167419386,-23.829265929398648,0.0016131562733832166
-0.0007244814018215363,9.582391633479324,14.253001205528323,-0.00019673937167419386,-23.829265929398648,0.0016131562733832166
-0.0007244814018215363,9.582391633479324,14.253001205528323,-0.00019673937167419386,-23.829265929398648,0.0016131562733832166
-0.0007244814018215363,9.582391633479324,14.253001205528323,-0.00019673937167419386,-23.829265929398648,0.0016131562733832166
-0.0007244814018215363,9.582391633479324,14.253001205528323,-0.00019673937167419386,-23.829265929398648,0.0016131562733832166
-0.0007244814018215363,9.582391633479324,14.253001205528323,-0.00019673937167419386,-23.829265929398648,0.0016131562733832166
-0.0007244814018215363,9.582391633479324,14.253001205528323,-0.00019673937167419386,-23.829265929398648,0.0016131562733832166
-0.0007244814018215363,9.582391633479324,14.253001205528323,-0.00019673937167419386,-23.829265929398648,0.0016131562733832166
-0.0007244814018215363,9.582391633479324,14.253001205528323,-0.00019673937167419386,-23.829265929398648,0.0016131562733832166
-0.0007244814018215363,9.582391633479324,14.253001205528323,-0.00019673937167419386,-23.829265929398648,0.0016131562733832166
-0.0007244814018215363,9.582391633479324,14.253001205528323,-0.00019673937167419386,-23.829265929398648,0.0016131562733832166
-0.0007244814018215363,9.582391633479324,14.253001205528323,-0.00019673937167419386,-23.829265929398648,0.0016131562733832166
-0.0007224172377809981,9.582395920509745,14.252990698110274,-0.0001967340418080963,-23.829239532147106,0.0016152369788244227
0.017387902780109335,9.619926265258078,14.16090856035364,-0.00021121476362740077,-23.597795009119487,0.019845878308676776
0.05844621818330205,9.704401631629922,13.952931357190401,-0.0006950214978281895,-23.07422818811959,0.06099767216009512
0.10170925112008798,9.792505732525878,13.734944788184698,-0.0018723309013687808,-22.524224858734232,0.10410249863689651
0.14499985833407095,9.879745016891626,13.517986067638361,-0.0037246706556267823,-21.975540956199126,0.14698653214886517
0.18857904855153892,9.966646155401124,13.300737101978052,-0.006259597613363069,-21.424833934752723,0.1899209367240208
0.23215259554792037,10.05262371691806,13.084654018632937,-0.009456177900360924,-20.87578684973777,0.23262843111415765
0.2758433764678058,10.137926672316663,12.869110415363632,-0.013316034142518503,-20.32680760172719,0.2752431597635037
0.31969978511145714,10.222650298276276,12.653857717208085,-0.017840415028038386,-19.77725457457569,0.3178245347032424
0.36385062902770965,10.307038506651976,12.43826092173822,-0.023043890487240624,-19.225489751919167,0.36050857903928146
0.4078611869171681,10.390264510245174,12.224429130190437,-0.028870228627533776,-18.676907522758846,0.4028876938406033
0.45210039874672503,10.473031924058835,12.010553988717515,-0.03536219316316368,-18.126868162693874,0.44533003501931223
0.496455160686328,10.555127018269681,11.797176277207795,-0.04250306928154446,-17.576750004284136,0.48773840678995534
0.5408274504824688,10.636372294285884,11.584754414276512,-0.050272857800945675,-17.027731878519845,0.5300313055928485
0.5853183095317065,10.71695633182497,11.37279208839406,-0.05868549412039776,-16.478527637202177,0.5723170643850415
0.6298239656099659,10.796694522603941,11.161771491208311,-0.06771796689223315,-15.93038311643188,0.614508890040834
0.6746740442213761,10.87617395808023,10.950125481229769,-0.07743880787250619,-15.379213222362909,0.6569302523580158
0.719487709468023,10.954717520785175,10.73964558263654,-0.08776642495643341,-14.829671206636585,0.6992320281845364
0.7644319407244109,11.03262168336542,10.529535046177735,-0.09873618103813972,-14.279674470963977,0.7415835042265407
0.8093370006075549,11.109595851371294,10.32057526484903,-0.11030386555418652,-13.731265965933385,0.7838362253444916
0.8544591048706532,11.186080089347598,10.111565019774579,-0.12253483182321305,-13.181286241466859,0.826242513650402
0.8999770335069383,11.262365686066993,9.901681248340264,-0.13548598579406318,-12.627541471079217,0.8689809953537072
0.9449307798704051,11.336854035750562,9.695331373167544,-0.1488772643545373,-12.08166931710888,0.911161804166443
0.9901412688518778,11.410919430724737,9.488724068471887,-0.16294387425129456,-11.533656332324396,0.9535666812173499
1.0356245415426915,11.484578240863355,9.281789093894671,-0.17769854855451667,-10.98329115247279,0.9962215203924022
1.0810828457580575,11.55734617353472,9.075875749779613,-0.19304711873450295,-10.434150891744778,1.0388581098283276
1.1268505175612793,11.629755063952548,8.869465534833635,-0.20910599659360996,-9.882172199210919,1.0818011831691858
1.1724414658932534,11.70103666071571,8.664742336929104,-0.2257054015862253,-9.333188926151651,1.124605688201542
1.218140436461925,11.771642260688045,8.460413673293104,-0.24294621074774733,-8.78373854363777,1.167549814363022
1.2640392365313675,11.841709223309726,8.256066306684318,-0.2608679973431948,-8.232694193472382,1.21073113426815
1.3096894110635564,11.910558093376187,8.053684232117346,-0.2792939092340495,-7.685407973580377,1.2537384462414458
1.3556269417092373,11.97899985693877,7.850881328304926,-0.2984405340529636,-7.1354248382706045,1.2970875803352209
1.4015341340978815,12.046557558431173,7.649056643154641,-0.31818039552681915,-6.586524934004055,1.3404901195092829
1.447539323903453,12.113421442696389,7.447637447352849,-0.33857021287448114,-6.037146101974805,1.3840783801704084
1.4936222369608652,12.179560308605872,7.24670716446922,-0.3596050013930852,-5.487505559932657,1.4278445107739197
1.5397816533209896,12.2449711588235,7.046265326228276,-0.38128806648318564,-4.937592683808695,1.471798730847318
1.5860042592915835,12.309634068095367,6.846363818297771,-0.40361709582812827,-4.387540899520801,1.515939790102178
1.6322181795809554,12.37344957086698,6.647305537040342,-0.42655994228247307,-3.838178984523093,1.5602101992360597
1.6786060905363516,12.436667800675394,6.448298820533114,-0.4502124639546372,-3.287311226316853,1.6047967215522871
1.7248946500005238,12.498916514096145,6.250509289420939,-0.4744388884362803,-2.7381580833408297,1.6494480220651393
1.7711256545871363,12.560258243099243,6.053745677934285,-0.49926035517258593,-2.1901946134281323,1.6942146503483242
1.8176100927641057,12.621102194066328,5.856680962502186,-0.5248506629027152,-1.6397118764755092,1.739410040650822
1.8639819756534712,12.680967373057348,5.660861949561852,-0.5510142635534356,-1.0910204484697088,1.7846904210773067
1.9106725585185838,12.740406553351589,5.464464628378341,-0.5780022404938456,-0.5389949669151695,1.8304896716512415
1.9570313692642254,12.798593416991784,5.270217054602692,-0.6054421680888283,0.008699227741620496,1.8761811246780764
2.00370199793971,12.856337727166629,5.075414312570621,-0.633718647107556,0.5596909021132627,1.9224105927125967
2.0501378020472227,12.912962129965221,4.882332673200005,-0.662506651135911,1.107549832208662,1.9686488985809858
2.0968595427834766,12.969101408206422,4.6888007048711,-0.6921348831911801,1.658443823143184,2.0154268847435834
2.1434889076381105,13.024296607180876,4.496383118299018,-0.7223728334139088,2.2079340523704447,2.062379454592255
2.1902626714631004,13.07882742128323,4.3040971628078335,-0.7533806941809424,2.75883403895245,2.1097577272746837
2.236820479236807,13.132276212959649,4.113416003280971,-0.7849239644468481,3.306923547912123,2.1572084178254807
2.283456114212403,13.184984472976248,3.9231267590436656,-0.8172048851547148,3.855685348651861,2.2050421547367973
2.33032787532932,13.23712294928544,3.7325845002917037,-0.8503467473722378,4.407002659587729,2.2534372453985747
2.37695368041608,13.288155983194633,3.543742566281016,-0.8840154020014147,4.95522784407965,2.3019087539138274
2.4236826862748955,13.338469548588435,3.355177753828401,-0.9184672630542061,5.5044895807279035,2.350831363802429
2.4706136994376497,13.388161861016057,3.1664923415321646,-0.9537899781464317,6.055969872605766,2.4003253935760416
2.517337475840329,13.436799548278337,2.979325986129724,-0.9896836778965657,6.604881781887058,2.4499729013710536
2.5641980135169873,13.48474225737065,2.7922937224732696,-1.026419702628047,7.155288754436455,2.5001525862001146
2.611600274926249,13.532385656420614,2.60378867174918,-1.0643408764124966,7.711967017918875,2.5513210981055803
2.6589170865021883,13.57908645564766,2.416309629253587,-1.102966317947548,8.267571952611743,2.6028223414426184
2.706007998204347,13.624713820841936,2.23040122087374,-1.1421839633857287,8.820476748030764,2.654514443606928
2.753389498232858,13.669765561520077,2.0440209076055016,-1.1824363743031634,9.376767141785285,2.706980921892587
2.800578021394807,13.713778306002089,1.8590681544235328,-1.223326408041793,9.930787030154029,2.75970363983244
2.847917911660543,13.757073362294584,1.6741877423572464,-1.2651630882536122,10.486600470979328,2.8130830188316835
2.8953367572299236,13.799577028413632,1.489662829177357,-1.30790072709596,11.043378567504169,2.867057788354165
2.9424503962571844,13.840949869682152,1.3069792456506022,-1.3511998645556016,11.596631123894209,2.9212040897592972
2.989673083975164,13.881559521839522,1.1245225194180524,-1.3954493588767127,12.151242965357545,2.9760122903745883
3.0369100791230537,13.921319722106565,0.9426571391894094,-1.4405775096957167,12.706122140086707,3.0313923782560956
3.08415066072013,13.960219318777591,0.7614208451302199,-1.4865890016610612,13.261163077114617,3.0873504882912557
3.1314747948178834,13.998319922522358,0.5805049164698296,-1.5335793335097891,13.817325885990414,3.144001932397115
3.1785723778463493,14.035374030461398,0.401088266853822,-1.5812520264437302,14.37098544480495,3.2009920455469656
3.225800601366604,14.071663339025726,0.22180475841984526,-1.6299821103224832,14.926360072808533,3.2587710496922453
3.273006883828148,14.107065450785214,0.04323248486689605,-1.6796323474655306,15.481675812037194,3.317174943520814
3.320168909784306,14.14156337711474,-0.13454875947743244,-1.7301947489924163,16.036689216866353,3.376195656708269
3.3674837514867138,14.17529591565158,-0.3122827853751424,-1.7819023291470306,16.593739711177875,3.4361038713663845
3.414623425399925,14.208027395420151,-0.4887409278997031,-1.8344150562158554,17.14898495674027,3.4965061134310367
3.461547272620944,14.239738095126413,-0.6637815621991551,-1.88769471903965,17.701961741890223,3.557363984975796
3.5088313354204104,14.270810544368112,-0.8395533307296548,-1.9424207328088863,18.259478742136142,3.619451657002087
3.5557606135383275,14.300772135300273,-1.013400861679414,-1.9977868169986064,18.813124227859984,3.681854432597368
3.602847999553843,14.329952943865857,-1.1872303540172462,-2.0544136606361914,19.3689656973399,3.7452744154458273
3.64969862165425,14.358107684659835,-1.3595879889907405,-2.1118463503803504,19.922359352591045,3.8092031583912096
3.6967902648735262,14.385520239126507,-1.5322335407346408,-2.1706947118977626,20.47896714589104,3.874319334338918
3.7436315975132977,14.411901906259429,-1.7033680652478138,-2.230368856117855,21.03299960683743,3.9399703482285005
3.7905302053423195,14.437428079466441,-1.8741208827315645,-2.2912793459469967,21.58811045430946,4.006610061194191
3.836985607110684,14.461834159393586,-2.042678967242773,-2.352787842539929,22.138388324499296,4.073544540396158
3.8656547049824073,14.47645805345053,-2.146413686710489,-2.3913411967464273,22.478194818026758,4.1153237395412745
3.8767652805841153,14.482035355602036,-2.1865566034144632,-2.406406188036845,22.609929988097367,4.131613839920993
3.870467356393665,14.41278084204817,-2.2746655450583066,-2.406381168745641,22.781728941803966,4.132551675710499
3.8454720276371814,14.186811968155993,-2.5331112605548363,-2.3994740323603625,23.266742981232387,4.128070568369292
3.818343793664735,13.932723566397538,-2.812042043211967,-2.3922491059181388,23.800407887264587,4.123396038354657
3.791612795123511,13.673060074540281,-3.08512738938378,-2.3854169687288924,24.333787918683967,4.1189918022279945
3.77119947214829,13.46835829940856,-3.292385118657757,-2.3803983197216256,24.74622597944395,4.115769655403044
3.7633904004721064,13.388549186539931,-3.3713574833685307,-2.3785251757201418,24.9051897237928,4.114570458296836
3.754347358914278,13.295074626718009,-3.462582649270089,-2.3763889517215695,25.090099955891013,4.1132054206651025
3.7305874252737614,13.043995177562861,-3.701060035356594,-2.370947833720153,25.580206976506563,4.10974288893488
3.704971932647399,12.764191717630359,-3.9560684142464004,-2.3653685641998083,26.115607175104458,4.10621860632096
3.6797838166228494,12.47954459600385,-4.2045304296821016,-2.3601835297749956,26.64928990177949,4.102974185406761
3.6555045831490656,12.195958326601257,-4.441702957615989,-2.355479193955026,27.170596838625947,4.100064220600306
3.642603954466331,12.041501988397952,-4.566735051951611,-2.353100621536974,27.45037458829745,4.098608275063151
3.636429409770155,11.96663185379594,-4.626325083324022,-2.3519925788232174,27.584972747177048,4.097934194823915
3.6471693393208815,12.156509675134872,-4.869454322900895,-2.360071728646357,27.63774117323704,4.112415944253093
3.6729639573894612,12.607001400797506,-5.438523383221662,-2.3793119838634706,27.755158903000563,4.146828986681059
3.7012808821823255,13.094682036094774,-6.050956263987025,-2.4003724039977974,27.87863078481434,4.184453100021193
3.73028236621326,13.586929902609588,-6.6652931746477915,-2.421875202175234,27.999400552435294,4.222821655168092
3.7598291817125644,14.081149036190459,-7.278196451208993,-2.4437125635673476,28.116732365159898,4.261741894060069
3.7900685892971118,14.579574110420127,-7.8923424303533665,-2.4659886231660098,28.231060661070405,4.3013990948845375
3.8209230004970802,15.080680294998679,-8.505748237646381,-2.4886412016930977,28.34193044868861,4.341682161253308
3.8524437394749467,15.58507336886084,-9.1190619464507,-2.511702986034759,28.449381128780075,4.382648953091626
3.8845733682405923,16.09161489569333,-9.730811081085724,-2.535126906510126,28.55308082027303,4.424215653773624
3.9174711758572363,16.602571334320018,-10.343631302381834,-2.5590236102575714,28.65339067966771,4.466578279866456
3.9511721529367922,17.118180348431522,-10.957672899554805,-2.5834121646039816,28.750221011298976,4.509769979484158
3.9853669257477384,17.633507321491706,-11.566983869613018,-2.6080634033925367,28.84256858940168,4.553384830680347
4.019919145202243,18.146454554941112,-12.169098985018723,-2.6328755982515495,28.93007206774124,4.597243603614975
4.04615004563569,18.530802578950443,-12.61738334968525,-2.6516473711619324,28.99273758167798,4.630398967960556
4.042327503328217,18.621092834786175,-12.722029416703009,-2.649516616349413,29.007254491272757,4.626815291341891
3.714552469239384,18.640352956740596,-12.734796053074618,-2.435017690999614,29.015256140818558,4.254037450473905
3.1608948074797194,18.66916460555006,-12.753877973859156,-2.072488732979845,29.02717915111459,3.624295654184352
2.58979561612384,18.694001211352273,-12.77032247390782,-1.6983039526955552,29.037500106938456,2.9746419174386123
2.017016217164293,18.71394067054357,-12.783515367605997,-1.3228194403534352,29.045764805822387,2.3230133815542033
1.4460832678271833,18.728873909661793,-12.79339600863743,-0.9483918711754122,29.051986967262167,1.6734374391787357
0.8737975431346614,18.738896561798015,-12.800022847071439,-0.57296667263261,29.056138592421846,1.0222870496066097
0.2999352965864197,18.74398099037541,-12.803387167773522,-0.19643975955235704,29.05826923789797,0.3693218279252402
-0.26960393006150063,18.74411161420586,-12.803471960936713,0.17727277626604163,29.058307314471215,-0.2787316322552149
-0.84283887465466,18.739299745665868,-12.800292560275336,0.553390801865043,29.05632250842774,-0.9309840048965614
-1.4160294844590628,18.729525770082144,-12.793827302077345,0.9294134077258637,29.052243368310045,-1.5831649027143393
-1.9867665714972256,18.714859931355424,-12.784128452709046,1.3037205160055814,29.046165334771032,-2.232520749495731
-2.5598074126829062,18.6951732507773,-12.771100181128542,1.6793839399909736,29.03797472563171,-2.8844485527644963
-3.1297704498060233,18.67065258218627,-12.754870017937124,2.05283780379497,29.027817500677422,-3.5328144877887446
-3.6842679457366327,18.642057509376652,-12.73593256406657,2.415931092240023,29.015980831906486,-4.163515720391925
-4.011475807566633,18.622985108366162,-12.723293971078844,2.6300688372820757,29.008079283260653,-4.535652214620538
-4.053844762440455,18.62474287737862,-12.644412934214216,2.655698368422513,28.925586534716604,-4.579518374178884
-4.061494620549925,18.645840230290112,-12.213320131576166,2.6492263685369286,28.473528728486222,-4.56432271075659
-4.0708300015928405,18.665601628423506,-11.685480660933413,2.641728508699896,27.92608331478386,-4.546153500450351
-4.080309132357128,18.679089820937364,-11.147595185717751,2.6345490579462485,27.374860990643707,-4.528108130549601
-4.089835201077207,18.686130523884838,-10.605166238939267,2.6277577927245326,26.82553714695471,-4.510364820562094
-4.099420610460185,18.686785549757996,-10.057522043770259,2.621336853002342,26.277378586680445,-4.492889264197412
-4.109044727739344,18.68111408244935,-9.505877427304009,2.615290957946893,25.73154085423494,-4.47570778128931
-4.118580131218746,18.669393883174553,-8.957611051187335,2.6096825814798374,25.195123382300327,-4.459028918731613
-4.128084321581385,18.651816222816123,-8.409506730411728,2.6044572211734454,24.664719857384878,-4.442730502412394
-4.137634435784936,18.62836812848933,-7.857167915285058,2.5995604987820635,24.135947942244467,-4.426666571067868
-4.146768229377703,18.60064578996312,-7.327469481537734,2.5951978624033716,23.634081078119916,-4.411583925492476
-4.151298351253443,18.58501268074123,-7.064245678442453,2.5931472012369112,23.386543029702846,-4.404201605248322
-4.166244351501899,18.794585814560836,-7.3038332201045115,2.6030487618448737,23.415862908159543,-4.421625501962818
-4.201201264580809,19.280990164343542,-7.861901367775997,2.626255735919304,23.485889673362344,-4.462494364151391
-4.239766338548455,19.809174572820744,-8.463596875523605,2.6517783121151046,23.5575826131017,-4.507373588236123
-4.279139617450431,20.339594231716195,-9.063310885392886,2.677750068948155,23.625007589824158,-4.552972003508928
-4.319734423065451,20.877426197503105,-9.66675952214116,2.7044376877826832,23.688683071400504,-4.5997550342063835
-4.350011338924983,21.272757156005895,-10.107331135701902,2.724283248777239,23.73246682117077,-4.634497715748177
-4.341336855513907,21.34313938272115,-10.18509239668171,2.7190199667719575,23.74024230342272,-4.625593914040742
-4.015205877975606,21.113307962860414,-9.920906399379534,2.514616502585312,23.72054690052559,-4.274745548646734
-3.498811550520812,20.743148886108767,-9.49515133052447,2.1909337240458107,23.6857877906762,-3.7195293150182094
-2.9771387700206198,20.361255810874773,-9.05549390009743,1.8639439824850288,23.646154734018417,-3.1590722739529498
-2.4540583764460804,19.97009446988161,-8.604662206908714,1.5361224875167088,23.601721682966794,-2.5975984134420202
-1.9379718935585228,19.575857365560786,-8.149694562728836,1.2127827660305717,23.553138640342333,-2.044177019953778
-1.4291654387542474,19.17888160486734,-7.69089521742377,0.8941482592809099,23.500487522902418,-1.4991523427234632
-0.9222603059264118,18.77496681890882,-7.223315600128921,0.5768946517720852,23.443197615111583,-0.9568080500914768
-0.4202181729023387,18.36640696183845,-6.749510809784821,0.26291961617775494,23.38155161483896,-0.4203631850133543
0.08158419195809422,17.949327477670387,-6.264879929961287,-0.050623616020308605,23.314903438567676,0.11506753509399047
0.5057088798608158,17.58983018033304,-5.846341469179397,-0.31537430716860004,23.254525096707493,0.5669718622021254
0.7031450930117458,17.420250827007425,-5.6486393391129015,-0.4385331153218607,23.225139285456745,0.7771308052195307
1.1407780753306347,17.03920937240645,-5.203737746539328,-0.7112974733973516,23.15697305966991,1.242442893612354
1.6343362084404496,16.600759452280336,-4.690622770229221,-1.0185178358854134,23.075016681784913,1.7663181661517788
2.125345870965699,16.1551387916227,-4.16775870414347,-1.3236822399280292,22.98796196210783,2.28646804673005
2.604537387590816,15.710894957550222,-3.6450902580032762,-1.621001955456157,22.897510800729314,2.7930407535643886
3.0721231955081407,15.268238133999231,-3.122827950340759,-1.910607251352362,22.80387240957807,3.2862749220256573
3.52802376689137,14.82765222595964,-2.601504377108746,-2.1924282573465304,22.707221885921143,3.7660684341154913
3.823666868623428,14.53706840790293,-2.2568273063239146,-2.3748760587520614,22.641641990414545,4.0765838397616525
3.877202943035391,14.472357196216954,-2.2048194756106088,-2.408286108623419,22.652153397320912,4.133792922479068
3.858388305975324,14.304527675090066,-2.399741437386026,-2.4030175566167626,23.015357363124334,4.130371931436835
3.831080878399176,14.053174065996894,-2.681309255196794,-2.395609129785288,23.54893120899083,4.1255717648950165
3.8042693116409008,13.797163497440541,-2.95607072643837,-2.388619284241926,24.080338759397456,4.121057496319877
3.7785087993540305,13.542292955826262,-3.2183198235093453,-2.3821788125277523,24.59806417055099,4.116914939719823
3.765832646048429,13.413589308421587,-3.34669064644004,-2.379111808189598,24.85543496097302,4.1149493850710765
3.7593543823992253,13.346961026315672,-3.412114566813781,-2.3775709908195024,24.987638145025155,4.113963955692608
3.742642367241884,13.172375769981693,-3.5803001858621784,-2.373680675951839,25.33079707187991,4.111482762206432
3.716984866778144,12.8965992599717,-3.8367677649415213,-2.367950924738547,25.863632840219136,4.107849593429818
3.691736390694615,12.615806205363837,-4.086930373629719,-2.3626095995057055,26.395165825777212,4.1044914990777
3.6667568706958575,12.328522700772186,-4.332086390422961,-2.357626433994135,26.928171605902623,4.1013913411490135
3.6463393102227903,12.086492509547492,-4.530611266917373,-2.3537840398425143,27.369185811179634,4.099028851026039
3.6381505882818495,11.987559259503488,-4.609736659836117,-2.3523029381096237,27.54742764507935,4.09812616100725
3.5584046946961387,11.97009489239836,-4.630661222062378,-2.3016455273611256,27.589001642989025,4.010739641077525
3.1376328244847476,11.993123859659569,-4.647955847267165,-2.029794493274812,27.599044663814247,3.5399470328257023
2.5928039805030307,12.018623318685488,-4.667098561101145,-1.6775972287119854,27.610182484403474,2.9302676781198103
2.051409872024596,12.039144441859154,-4.68249779869492,-1.3274363133430882,27.619153384397315,2.3243543191350664
1.509797179023095,12.054878013319723,-4.694300849944113,-0.9769888394014856,27.62603700929883,1.718135131518947
0.9667149782772125,12.065843580123538,-4.7025215456351095,-0.6254831429880902,27.630806610085834,1.1102245487434663
0.42566717177643376,12.071985196273765,-4.707127865152347,-0.2752260376293589,27.633500259633397,0.504563864479866
-0.11723546365597741,12.0733504379308,-4.708152868053384,0.07626215751741118,27.63410592146766,-0.10318594773513673
-0.6590062182906272,12.069922882607749,-4.705580646409569,0.4270083497937251,27.63258418104421,-0.7096659070451823
-1.2020036572761743,12.061685664114435,-4.699405585996513,0.7785028119792152,27.628992144467706,-1.3174986247026508
-1.7451599778924747,12.048632640812704,-4.689617587519626,1.1300148455689927,27.62329656922016,-1.9254733146163496
-2.2885039829930074,12.030752687589983,-4.676205750853202,1.4815243980880377,27.615495168330856,-2.5336059033946055
-2.828080876106631,12.008213959623008,-4.659288827190072,1.830433359891411,27.605632101470572,-3.1374541014022284
-3.345236460191779,11.982131886496656,-4.6397077146686545,2.1646604611405817,27.594260201652634,-3.716132199775994
-3.6112847240135766,11.967002326303563,-4.628346811357282,2.3365218236762013,27.587683220107692,-4.013796276998969
-3.6404257740045542,12.002582309980701,-4.527429593524895,2.3524124998973246,27.450120054772082,-4.040058013970814
-3.6544109896350343,12.130653924768804,-4.171742130672287,2.3512027591314237,26.966199630936043,-4.033308486395719
-3.6701745881350916,12.268142258549227,-3.7692823278116827,2.3501602307716785,26.426065819093846,-4.025969920845305
-3.6860190137410402,12.399187049541242,-3.363207265150542,2.3494429587786474,25.88875543524689,-4.018868600403346
-3.7021165655588257,12.525182202125194,-2.9491503958525906,2.3490411513603227,25.348506004806723,-4.011923086381532
-3.71833857956411,12.645064509701369,-2.530465534947841,2.3489573837531803,24.80973616136734,-4.005185735410065
-3.7347177034774575,12.759086509566254,-2.1063685021658634,2.3491879879276887,24.271408848582773,-3.9986374258548993
-3.7512417805178897,12.867164521033919,-1.6772303602220504,2.3497299800482083,23.733979026987384,-3.9922779697931747
-3.7680237067809412,12.969979012479744,-1.2401651362219386,2.3505870516222687,23.19387882777437,-3.9860610241339938
-3.784484383907912,13.064209789668364,-0.8103491687151386,2.351717308277514,22.66961256431385,-3.98018858176877
-3.7932826604602017,13.111953103137896,-0.5801864924929726,2.3524355577399305,22.391587969674312,-3.977137639093061
-3.796766935450737,13.144484130023972,-0.5467282398024279,2.353476709217593,22.3255147042411,-3.977882632092864
-3.8156299213538283,13.458399412924967,-0.9352118919380459,2.36640996675539,22.399261964442196,-4.001093743286433
-3.8456876393438177,13.95233562408984,-1.5434105951093122,2.3869761476357416,22.512209512261016,-4.037949134911295
-3.8694997304038106,14.338296470739584,-2.016034536970464,2.4032316709474495,22.59782521035475,-4.067033742529523
-3.8776659404293086,14.469595114210833,-2.1762889806715084,2.4087988139506686,22.626420657499935,-4.07698545563481
-3.8692717504467575,14.401254987035589,-2.28810676046307,2.406760457717982,22.80676421365694,-4.076303748721317
-3.843825571837317,14.170683264365179,-2.5511878420961076,2.399746459194129,23.301027066460076,-4.071759796936857
-3.816716648096122,13.916119843625577,-2.8298688368754044,2.392548617139901,23.834916469677182,-4.067110094681274
-3.7900215176660734,13.65614458170758,-3.102527313975576,2.385747875018925,24.368180283517365,-4.062733607435489
-3.7693736248040257,13.448535444901855,-3.3121056782180864,2.3806902649136394,24.785851610292923,-4.059492566259906
-3.7614020856900887,13.366825470711264,-3.3926907127611634,2.378786221219958,24.948332576235973,-4.058276066757408
-3.7525558373767556,13.275117824499524,-3.4818959515376733,2.3767054803838388,25.12945127430109,-4.0569492752407506
-3.729018881161318,13.025736789553216,-3.718050125118346,2.371337818902522,25.615531237910833,-4.053540984387148
-3.703482574345906,12.74611692603834,-3.9721780512574534,2.365799288636079,26.14986530135079,-4.050050817374464
-3.6782776408634317,12.46059513715369,-4.220704963616968,2.3606345937012017,26.684487710598557,-4.046827813575928
-3.6543672303608705,12.180711025809261,-4.454183647790418,2.356023126973787,27.198390095190486,-4.043983745503227
-3.6423493486702405,12.036575300544209,-4.570682744277883,2.3538458329149625,27.4592688331196,-4.042633661728096
-3.636540758545983,11.966377396678618,-4.628325581275778,2.3528332148793525,27.58723829048448,-4.0420628444200615
-3.6487730365010735,12.1819792085423,-4.901721247009038,2.3619746205423615,27.644484359650477,-4.058426202879819
-3.674977419888912,12.639231498207165,-5.479122725025454,2.381517495916115,27.763455210100176,-4.093378076608323
-3.7032753103718483,13.126120132286003,-6.0903154895916005,2.4025600118563846,27.886479447801864,-4.130967384828819
-3.7322677600342837,13.617757061985944,-6.7036461092933814,2.424052267101695,28.00685387756736,-4.169314405627089
-3.761907642087815,14.113069262840016,-7.317656070533197,2.445954346423355,28.124194633747216,-4.208347284952112
-3.7922238580132506,14.612280017490143,-7.932510381448272,2.468282586809877,28.23844159647756,-4.248094629466933
-3.823083511916684,15.112987680373026,-8.545164913142727,2.490934401544721,28.348957921214833,-4.288373620089991
-3.854658303200292,15.617759089153504,-9.15867178166947,2.5140309078251977,28.456220421061733,-4.329399411398068
-3.8868063100954884,16.124101756976994,-9.769910974414833,2.537463193914668,28.55960766452121,-4.370978317707915
-3.9198116980880195,16.63622839100351,-10.383856389408093,2.5614326837394064,28.659866906828153,-4.413467320094026
-3.9535246010626266,17.151510717775572,-10.997224114114426,2.5858242128367124,28.75634892432799,-4.456661638294707
-3.9878131405612325,17.667737169303237,-11.607309511217531,2.610537133872099,28.84856637731944,-4.50038299835816
-4.0222935092193906,18.17911474427996,-12.207297325290881,2.635291742945608,28.93551508263386,-4.544137457694461
-4.047738111832431,18.55164850700733,-12.641635630458195,2.6534972767985794,28.996086556900586,-4.576291275579259
-4.052944096716207,18.62196862184906,-12.694944867957345,2.6564631940229404,28.97885413574159,-4.581303805683283
-4.059309328768822,18.640272772523335,-12.336467179204627,2.6510276103960506,28.602183184555674,-4.5686126545316945
-4.068182461575369,18.660659960848466,-11.835235769948065,2.6437943651394997,28.08071395010073,-4.551243589746031
-4.072685399863274,18.66876040495201,-11.580212930320654,2.6402726949303763,27.817664220402342,-4.542568213647587
-4.078314334248741,18.676794843905423,-11.260811116282294,2.6360079016200104,27.49031785753846,-4.531851196784492
-4.081427699195202,18.680252295481456,-11.083864343562276,2.633713465469782,27.309962392593363,-4.525983249276934
-4.086648025406178,18.68449166962823,-10.786720627435114,2.629967338966897,27.00865956312293,-4.516237406601099
-4.089647203340608,18.68605300667733,-10.615755080663975,2.6278715285184595,26.83617795917244,-4.510690112201436
-4.091450253711029,18.68668725599589,-10.512886762628952,2.6266311153630415,26.732702326237522,-4.507373111830812
-4.094041689604378,18.687201294744373,-10.36492587109504,2.624873774963904,26.58426573505019,-4.502629040288627
-4.101529597637464,18.686077369955438,-9.93665502895002,2.6199620880310803,26.15722717842515,-4.489072680561545
-4.110927371523012,18.679272734743073,-9.397629325371767,2.6141381266404764,25.625137191457192,-4.472367544441844
-4.120298143621591,18.666642961123063,-8.858520651759509,2.6086957735526557,25.0987837885478,-4.4560388209915205
-4.1296903073561815,18.648268719537082,-8.316601471662464,2.603593776741286,24.575359665941374,-4.439987524725175
-4.139108940781005,18.624248496858193,-7.771944531173712,2.5988568633412004,24.054835635182627,-4.424228780168913
-4.1479257328386785,18.596779742552656,-7.260441603394336,2.5946882979803543,23.570906323693855,-4.4097067398051335
-4.151761018500674,18.590825301131495,-7.068920423432025,2.593430919002577,23.385359534751395,-4.4046448175527475
-4.1708602668953745,18.859187705212367,-7.3781688591782935,2.606134628079579,23.42535482219053,-4.4270378366635965
-4.2070341925074075,19.36138831621099,-7.953775802441284,2.6301388749321077,23.49706549363967,-4.469301638050685
-4.245800887122595,19.89099174688261,-8.556395928532039,2.655781988421935,23.56825254222209,-4.514382096770779
-4.285453767444962,20.423795489015344,-9.158091081950891,2.6819245636464237,23.63525920341897,-4.560269395970137
-4.325445235003759,20.952319633477103,-9.750415529179572,2.7082022864829205,23.69714511206354,-4.606323419145278
-4.352405230237187,21.30375890821345,-10.141770346272404,2.7258677272735192,23.73576242215449,-4.637244841204445
-4.309905013611027,21.334696772214524,-10.174827639281734,2.6993692013646537,23.739855432438393,-4.591855170275956
-3.9124897627226747,21.171189539694,-9.9824999681536,2.450528558627193,23.728601998004464,-4.164966655279936
-3.3455515271000906,20.932809034153976,-9.70337293409496,2.0954512878912492,23.70992106668003,-3.556247470801587
-2.7724166856514647,20.685601814867617,-9.41537267878947,1.7364287543080918,23.687949459088134,-2.941209652431515
-2.2020911648458648,20.433281317959246,-9.122794248796184,1.3791477331320732,23.662914776274953,-2.3295538817302783
-1.6293310110751633,20.173411883728452,-8.822765614041606,1.0203714652585596,23.634498377930978,-1.7156919549425915
-1.0660799805153969,19.911412450695224,-8.521481350250042,0.6676259794497128,23.60335436289712,-1.1124433809952616
-0.5064504565347737,19.64464182094797,-8.215814463845135,0.31726782612858156,23.56917674654389,-0.5135247006693008
0.04847213423840642,19.37363436133905,-7.906305646939787,-0.02998095542358147,23.532040491391353,0.07987805909944215
0.6013629369892658,19.09706947632451,-7.591376090686603,-0.3757498890387152,23.49173028372541,0.6705939441446707
1.1548763304077294,18.813510801657532,-7.2693412931992345,-0.7216594067560778,23.448062679179372,1.2614339451528886
1.7000173995873114,18.527567459416527,-6.945361285780599,-1.0620468911529262,23.401717455466176,1.842765785313057
2.2483265979583287,18.233136962832845,-6.612454739406273,-1.4040776334520884,23.351691459644663,2.4268653284619837
2.7899439226235727,17.935433301407823,-6.276451925214463,-1.741560031591784,23.298845493778177,3.003195047850015
3.3325129392435606,17.6302119366123,-5.9324912492135695,-2.0792182577033675,23.242413739865885,3.5798571859367474
3.838344009115211,17.339211438519637,-5.604963142426698,-2.3935972465965705,23.186582676095107,4.116820995006748
4.055914299834352,17.211194998874884,-5.462901473643602,-2.5287177194099413,23.163385363000774,4.347662193230955
4.041275788973363,17.08852962587438,-5.6030969359459615,-2.5245912281233345,23.426622726295772,4.344684444702607
4.012584552892615,16.841379835717394,-5.876968278568923,-2.516723519003121,23.948377356894007,4.339008675173845
3.983374549514515,16.580344728892978,-6.154419946538779,-2.509023108935568,24.487604680483912,4.333457819435461
3.954602418111356,16.313607571891875,-6.426192099645095,-2.5017560280234807,25.026837181646204,4.3282260729329645
3.926309083203778,16.04167845755426,-6.691799498401197,-2.4949302863999807,25.565078665800783,4.323321333341566
3.898305076859305,15.762801576444154,-6.952913163735206,-2.4885001841210874,26.105760802925875,4.318712895996089
3.870918301094204,15.480392296510528,-7.206386919624713,-2.482538311721125,26.642314117499392,4.314454731323218
3.8438257600642256,15.191284010312653,-7.455126986222047,-2.476971317803778,27.18081951184369,4.310496299571196
3.817178097840716,14.897168081488603,-7.697653967321134,-2.4718299677428046,27.718102686605018,4.3068613965538916
3.7996193412951307,14.697928179507958,-7.856217826213048,-2.468629999697533,28.076325022087328,4.304612457054647
3.792405928563422,14.614798639761684,-7.921056822188338,-2.4673597882306457,28.224464741305997,4.303723264204965
3.6281029259999986,14.617169196107824,-7.9335746763537935,-2.360909256368104,28.24148901794195,4.119153498411791
3.142033948454682,14.643243551077443,-7.952227641172534,-2.0449730099924093,28.25263897455016,3.571210930246721
2.5873313492522287,14.668405005868232,-7.9702196859289325,-1.6842114951742138,28.26341373409862,2.9458169535530985
2.0311767977305517,14.68872581634718,-7.98474067138368,-1.3223141802368814,28.272092542968917,2.3187119799988327
1.476661161040772,14.704106571871728,-7.995731229311769,-0.9613349207051483,28.278692443300667,1.6934001277233086
0.9229612464033065,14.714607490669431,-8.003229842775733,-0.6007784047620222,28.283173090997646,1.0689659125677469
0.36700480196860175,14.720274975209845,-8.007279116761067,-0.23868467018620443,28.285613649406354,0.44196234300196774
-0.18755485857005177,14.72106215920733,-8.00784303880359,0.12252658727773719,28.285962613610973,-0.1834763128444794
-0.7410264376604621,14.717001211098571,-8.00494086103066,0.483014433622323,28.28420144084231,-0.807683210273817
-1.2963626793609315,14.708060716352678,-7.9985571303775895,0.844663446847374,28.280382037518482,-1.433971911588132
-1.8492782307723912,14.69431156867749,-7.988736811528862,1.2046416175853374,28.27450401406091,-2.0574949035884846
-2.4045154846153025,14.67563007466002,-7.975385018436034,1.5659934592207974,28.266485559308798,-2.683584508225158
-2.9595366362838056,14.652067009279353,-7.958542033067602,1.927030298305183,28.256415991479358,-3.3093636464914087
-3.4895011387083996,14.6249950326477,-7.9391811249421105,2.2715658158950838,28.244852686472818,-3.906815137322379
-3.7731592482620417,14.608664899202063,-7.9274957454355865,2.455879732689002,28.237867063197136,-4.226559074880183
-3.7940590254248403,14.61246886826848,-7.788756690861312,2.466162394223509,28.094565893444987,-4.2431373791615705
-3.801363636841878,14.626138473023847,-7.313214894310101,2.4597786066513416,27.60549472068327,-4.22755208510929
-3.809486182418486,14.63546153776208,-6.7823625559155944,2.4530395110986625,27.065470390960034,-4.2105465700591544
-3.8176127676942633,14.638724177761839,-6.249128961555999,2.4466630206434914,26.52912041841735,-4.19386078791185
-3.825799605745342,14.636009855816553,-5.709857057650265,2.4405964300257983,25.992705474154764,-4.177368880902542
-3.833974463348484,14.627418695195496,-5.169340805922505,2.4348841510449857,25.460918320053267,-4.161205486876648
-3.8421162882459896,14.613146609644547,-4.629040933130376,2.4295264667097687,24.935023663513142,-4.145396738975184
-3.850278209025351,14.593236596819676,-4.085486602351302,2.424476609378702,24.41150875261092,-4.129826367516539
-3.8584277346902103,14.567878714789039,-3.5408868399434636,2.4197447177207976,23.89239222926715,-4.114544919824625
-3.8666114305043027,14.537022690429731,-2.9921688173250134,2.415295024681233,23.374652426697484,-4.099454745940685
-3.8745444154446704,14.502062190682183,-2.4585482359710884,2.4112615711445335,22.87610744141682,-4.085060772353373
-3.8784608710327038,14.48300103560731,-2.19449426577747,2.409369312425926,22.631170279807797,-4.078036493238972
-3.891026085150254,14.683265663037462,-2.436507175487611,2.4178921735575556,22.672364621307963,-4.093233807784056
-3.920617943114108,15.151481860559556,-3.004244137866142,2.4380103268245468,22.77057116165153,-4.129132463162559
-3.9532653146854217,15.660227951668947,-3.6172468844329124,2.46014675319796,22.8733689517992,-4.168566808354517
-3.9867049155966625,16.173080736677804,-4.231091832593882,2.4827562203018565,22.972857151954653,-4.208775138876885
-4.020749512359581,16.686918963408083,-4.8419649622761955,2.5057082133294766,23.06835083200657,-4.249523983361232
-4.047034732509597,17.078087075298022,-5.304206555593054,2.5233832296384797,23.138227445774,-4.280858412295212
-4.0555497408316326,17.203788441466198,-5.452232882504288,2.5291004525766265,23.160163395581936,-4.290985631277273
-4.0561095603472985,17.212035797860047,-5.461936415003149,2.5294761883554053,23.161593974510883,-4.291651053804885
-4.0561095603472985,17.212035797860047,-5.461936415003149,2.5294761883554053,23.161593974510883,-4.291651053804885
-4.0561095603472985,17.212035797860047,-5.461936415003149,2.5294761883554053,23.161593974510883,-4.291651053804885
-4.0561095603472985,17.212035797860047,-5.461936415003149,2.5294761883554053,23.161593974510883,-4.291651053804885
-4.0561095603472985,17.212035797860047,-5.461936415003149,2.5294761883554053,23.161593974510883,-4.291651053804885
-4.0561095603472985,17.212035797860047,-5.461936415003149,2.5294761883554053,23.161593974510883,-4.291651053804885
-4.0560245228848295,17.21187589971421,-5.461523579400868,2.5294232232073495,23.160609783767956,-4.2915611486377845
-3.9689453265112027,17.048138628669566,-5.038775869894426,2.475186391644366,22.15278880129212,-4.199497374935859
-3.8824693269276827,16.885535564191226,-4.618956529872534,2.421325258113368,21.151948985466294,-4.10807132614522
-3.7957269394483335,16.72243160364449,-4.197843943271754,2.3672982062455192,20.148026099032606,-4.016363640913502
-3.6842572552495345,16.512832265857686,-3.6566865183426427,2.297869884234727,18.85791903185798,-3.89851322189182
-3.5361083003475247,16.234263944215286,-2.9374604120074945,2.2055960662865655,17.143300253780577,-3.741883941578364
-3.387551515980648,15.954928770254416,-2.2162543956671854,2.1130682338445457,15.42396141501037,-3.5848234868727906
-3.2389196312410515,15.675452383115248,-1.4946837858088726,2.0204936255199364,13.703753393535546,-3.427683632907613
-3.0903084007005055,15.396014832602155,-0.7732134469188764,1.9279318815574444,11.983784415782381,-3.2705656154267695
-2.9416905344397217,15.116564804772223,-0.051710893267505616,1.8353660045705804,10.263738638766373,-3.113440582384553
-2.793000097043362,14.836978319554182,0.6701439750883909,1.7427549270235316,8.542852951459496,-2.9562388240981785
-2.6446839362489243,14.558095596336331,1.3901818241931514,1.6503769657414666,6.826298996970275,-2.7994327667118597
-2.496272558512689,14.279033834233685,2.110681927725232,1.5579396990747716,5.1086430383764325,-2.642526041986529
-2.347749447307177,13.999761976791333,2.83172446929279,1.4654328397888807,3.3896939197688156,-2.485501187957545
-2.1991620685273823,13.720369275362497,3.553079013852508,1.3728859517734366,1.6700009930812885,-2.3284083875571935
-2.0501633493510645,13.440203119919357,4.2764305131120794,1.2800828624983307,-0.05445262846586336,-2.1708807008607227
-1.9018432008867878,13.1613128985825,4.996487721356116,1.1877024175165256,-1.771052734705472,-2.014070427542828
-1.7536562866352738,12.882673200990874,5.715898110834949,1.0954049567819,-3.4861108396313587,-1.857401015015156
-1.6052484213158615,12.603618043376667,6.436381162462229,1.0029698778060374,-5.203726146869645,-1.700498003764008
-1.4567887875764927,12.324465544259974,7.157115536814943,0.9105025551348904,-6.921940601803757,-1.5435402607709718
-1.307973775968425,12.044644818921249,7.87957518179782,0.817813887177975,-8.644268062917277,-1.386206797410212
-1.1592453361527564,11.764986876768718,8.601614542390527,0.7251791400186551,-10.365593575545919,-1.2289648613744195
-1.010937998727598,11.486120744360925,9.321609556245216,0.6328066743269646,-12.082045411767337,-1.0721681324236683
-0.8627419046670428,11.207463785736314,10.041064511399979,0.5405034959952838,-13.797209760257154,-0.9154890146173835
-0.7141161358396984,10.92799889850555,10.762605430034625,0.4479326969353038,-15.517346998525978,-0.7583556266508027
-0.5652089872614777,10.64800492563259,11.485512376953157,0.3551866419383258,-17.240740817342015,-0.6009247522260576
-0.41656731160297444,10.368510128374709,12.207130519272882,0.2626059353900112,-18.96106215513029,-0.4437745468913206
-0.28496783043614676,10.121060211350981,12.846013071619925,0.1806398724144588,-20.484143716813485,-0.3046420633822871
-0.1983048006213729,9.958105469078818,13.266740396616003,0.12666224806163184,-21.487148148291098,-0.21301827839743953
-0.11133740229644028,9.79457841480424,13.688945354570048,0.07249504934080392,-22.493675223335917,-0.12107270227523442
-0.024747451334255637,9.631761084593654,14.109317900022535,0.018562941777104065,-23.49583386840206,-0.029526179314238187
0.004388783178242428,9.576975467290483,14.2507670281352,0.0004155873061969463,-23.833045392105618,0.0012778681780654508
0.004388783178242428,9.576975467290483,14.2507670281352,0.0004155873061969463,-23.833045392105618,0.0012778681780654508
0.004388783178242428,9.576975467290483,14.2507670281352,0.0004155873061969463,-23.833045392105618,0.0012778681780654508
0.004388783178242428,9.576975467290483,14.2507670281352,0.0004155873061969463,-23.833045392105618,0.0012778681780654508
0.004388783178242428,9.576975467290483,14.2507670281352,0.0004155873061969463,-23.833045392105618,0.0012778681780654508
0.004388783178242428,9.576975467290483,14.2507670281352,0.0004155873061969463,-23.833045392105618,0.0012778681780654508
0.004388783178242428,9.576975467290483,14.2507670281352,0.0004155873061969463,-23.833045392105618,0.0012778681780654508
0.004388783178242428,9.576975467290483,14.2507670281352,0.0004155873061969463,-23.833045392105618,0.0012778681780654508
0.004388783178242428,9.576975467290483,14.2507670281352,0.0004155873061969463,-23.833045392105618,0.0012778681780654508
0.004388783178242428,9.576975467290483,14.2507670281352,0.0004155873061969463,-23.833045392105618,0.0012778681780654508
0.004388783178242428,9.576975467290483,14.2507670281352,0.0004155873061969463,-23.833045392105618,0.0012778681780654508
0.004388783178242428,9.576975467290483,14.2507670281352,0.0004155873061969463,-23.833045392105618,0.0012778681780654508
0.004388783178242428,9.576975467290483,14.2507670281352,0.0004155873061969463,-23.833045392105618,0.0012778681780654508
