RAMEL-ESPOL/ARCHIE/matlab/data/joint_goals_square_t35_h35_p12.txt
Joint0,Joint1,Joint2,Joint3,Joint4,Joint5 
0.0005978632638292781,9.579267018438053,14.251141797439988,0.000732909762841758,-23.822498736949655,-0.004395407179220875
0.0005978632638292781,9.579267018438053,14.251141797439988,0.000732909762841758,-23.822498736949655,-0.004395407179220875
0.0005978632638292781,9.579267018438053,14.251141797439988,0.000732909762841758,-23.822498736949655,-0.004395407179220875
0.0005978632638292781,9.579267018438053,14.251141797439988,0.000732909762841758,-23.822498736949655,-0.004395407179220875
0.0005978632638292781,9.579267018438053,14.251141797439988,0.000732909762841758,-23.822498736949655,-0.004395407179220875
0.0005978632638292781,9.579267018438053,14.251141797439988,0.000732909762841758,-23.822498736949655,-0.004395407179220875
0.0005978632638292781,9.579267018438053,14.251141797439988,0.000732909762841758,-23.822498736949655,-0.004395407179220875
0.0005978632638292781,9.579267018438053,14.251141797439988,0.000732909762841758,-23.822498736949655,-0.004395407179220875
0.0005978632638292781,9.579267018438053,14.251141797439988,0.000732909762841758,-23.822498736949655,-0.004395407179220875
0.0005978632638292781,9.579267018438053,14.251141797439988,0.000732909762841758,-23.822498736949655,-0.004395407179220875
0.0005978632638292781,9.579267018438053,14.251141797439988,0.000732909762841758,-23.822498736949655,-0.004395407179220875
0.0005978632638292781,9.579267018438053,14.251141797439988,0.000732909762841758,-23.822498736949655,-0.004395407179220875
0.0005978632638292781,9.579267018438053,14.251141797439988,0.000732909762841758,-23.822498736949655,-0.004395407179220875
0.0005978632638292781,9.579267018438053,14.251141797439988,0.000732909762841758,-23.822498736949655,-0.004395407179220875
0.0005978632638292781,9.579267018438053,14.251141797439988,0.000732909762841758,-23.822498736949655,-0.004395407179220875
0.0005978632638292781,9.579267018438053,14.251141797439988,0.000732909762841758,-23.822498736949655,-0.004395407179220875
0.0005978632638292781,9.579267018438053,14.251141797439988,0.000732909762841758,-23.822498736949655,-0.004395407179220875
0.0005983199367817901,9.579267967659389,14.25113947186144,0.0007329109858600568,-23.82249289446442,-0.004394945928073842
0.018657048156778388,9.616721761086687,14.159282704800267,0.0007203065256582514,-23.591613082663574,0.01382010072976648
0.05989131718356257,9.701626278831448,13.95033304438835,0.00023697562121149934,-23.06559221492001,0.05523038768359216
0.10290330126378328,9.789288727076626,13.733527835755993,-0.000931195301334194,-22.51856425232139,0.09817035413747188
0.14642456623914338,9.87706220686591,13.515330451172554,-0.0027918814525796803,-21.966742433432813,0.1413686038536521
0.18982215382338086,9.963668618240868,13.298907151512728,-0.005316066768925377,-21.41812204941544,0.184208841852261
0.2334634057808072,10.049847543739054,13.082408796643106,-0.00851749811774489,-20.868014848287476,0.22706766075154622
0.27717960399749286,10.135265892900463,12.86666333375848,-0.012381076809628855,-20.318514905738393,0.2697915521112702
0.32107705595990277,10.220133037253479,12.651135190764174,-0.01691254459373741,-19.768250825967456,0.3124968758016495
0.36491250405049835,10.303984186099212,12.437003216762411,-0.02208059761987789,-19.220230861114022,0.3549600730605166
0.4089050446921481,10.387244405446186,12.223181222343998,-0.027904763583168055,-18.671674621602342,0.39740638583289045
0.45331020231987956,10.47038860487011,12.008429079083294,-0.0344232515481417,-18.119378172049434,0.44009255105580836
0.49748087005860525,10.552208040321021,11.795864313771636,-0.041537382019753884,-17.571354337648533,0.48240868258018615
0.5418680205514067,10.633546562578722,11.583298124472602,-0.04931232990902522,-17.021964022965193,0.5247997881058832
0.5863892876372592,10.714250438386003,11.371119861925706,-0.05773443787129733,-16.472200214432547,0.5671983018072009
0.6311532385586369,10.794512646094308,11.158808207902181,-0.06682592760152312,-15.920697225428595,0.6097186221183422
0.6757808219786944,10.87365755878331,10.948148056035775,-0.07650615734436289,-15.37208913857322,0.6520125832777993
0.7205095672094268,10.952114238676376,10.738001018458647,-0.08682051386590611,-14.823415255684061,0.6943174565064454
0.7655201051850568,11.030194917253995,10.52751556654884,-0.09781347777620193,-14.272436270581899,0.7368149450361952
0.8105154351549403,11.107382968777232,10.318074122048625,-0.10941328447009206,-13.722760112571232,0.7792357655668766
0.8555038481535211,11.18369927661828,10.109622656285637,-0.1216173499607018,-13.17424770982258,0.8215993774169476
0.9007039343938064,11.259514568143695,9.901140522813392,-0.1344851965951228,-12.624204991086698,0.8641227687796176
0.9458199447917358,11.334334668751744,9.693981951174695,-0.147931657135496,-12.07619995161446,0.9065388592727343
0.9912818982391173,11.408870605173988,9.486166944382317,-0.16208694902971782,-11.524983135580573,0.9492630015877339
1.0367288971890156,11.482526424581131,9.279342119058759,-0.1768424632739378,-10.974906772115704,0.9919670626751643
1.0822817763937358,11.555500295609445,9.072947377053678,-0.1922367406855216,-10.424477387092965,1.0347757174928587
1.127587159608447,11.62723474168854,8.868567103303151,-0.2081453977781257,-9.877927825185829,1.077367789178917
1.1732441337795696,11.698679834952385,8.663489627210073,-0.22477907408301784,-9.32800162287094,1.1203174784023266
1.2189843258176944,11.76940777401165,8.458921188942721,-0.24204711906158666,-8.77791171465123,1.1633836365917019
1.2647151183030423,11.8392773179438,8.255266569983402,-0.2599149026976621,-8.22874265981968,1.2064900312176687
1.3105090137075743,11.908401616689536,8.05219312429026,-0.27841099205822817,-7.679594417900195,1.2497159227181196
1.3564107627536761,11.976847176591964,7.849496215194515,-0.29755635178195666,-7.129904385376225,1.2931147151845577
1.4025185542224032,12.044755248748855,7.6467402513746965,-0.31739801009877555,-6.578474418560262,1.3367908657365306
1.4483796505971593,12.11146344878408,7.445904556480455,-0.3377404918313124,-6.030688808935936,1.3803261957607302
1.4946943721377275,12.1779878496158,7.243917729880072,-0.3588990942278333,-5.4781582014808325,1.4243970753282438
1.5406127417879807,12.243108960452624,7.0444783268652165,-0.3804874535239201,-4.9309956214290365,1.4682057096351697
1.586883181287327,12.307892168178299,6.844324816255048,-0.40285769929207876,-4.380253831386456,1.5124768816887264
1.6331267386516208,12.37180066605381,6.645095613341981,-0.42583459813593566,-3.8304221764211515,1.5568602963534461
1.6792988168075509,12.434777901620379,6.44697113642905,-0.44939581627187936,-3.2820018414781855,1.6013236675418816
1.7255592266520905,12.497043596349362,6.249257219973749,-0.47362540355545163,-2.7330681840531343,1.6460319906924696
1.7721096872610902,12.558861200866856,6.051092627522621,-0.4986391072124072,-2.1812074421322776,1.6911933580638638
1.8183947512341794,12.619494363471546,5.85483405815561,-0.5241417535461841,-1.6329787879914084,1.7362802209670545
1.8647127321166574,12.679341843139232,5.659202606956809,-0.5502961170524582,-1.0848195070045443,1.7815930424786612
1.9113521493466539,12.738768621119187,5.462980341398649,-0.5772758156998605,-0.5332947134545281,1.8274277283088385
1.9577559607581023,12.79706403639105,5.268505220951995,-0.6047642335830276,0.015032285083364835,1.873248920555721
2.004330910963438,12.854742172357854,5.074063369703054,-0.6330050876602744,0.5649935093351631,1.9194694302124538
2.050956109394301,12.911648561884965,4.880157411315137,-0.6619342266072841,1.1151833092853392,1.965982718482872
2.0977256480667315,12.967893821052478,4.686393471167219,-0.6916190724192832,1.666734150908551,2.0128961902172584
2.144167103490682,13.022915715839755,4.494717337893996,-0.7217609695847003,2.2141007072556036,2.0597464504621854
2.1908591531274797,13.077402575478134,4.302732085798842,-0.7527394677997051,2.7641278196651067,2.1071288591705546
2.237599141513619,13.131110666506503,4.111271176814684,-0.7844324253656684,3.3144489513304047,2.154852835643103
2.2843153416556143,13.183957273883511,3.920622618757282,-0.8167981594061009,3.8642425757070136,2.2028580408024427
2.3310738531376525,13.236017180085119,3.7305106501252183,-0.8498894423591784,4.414309502419442,2.251225349401255
2.3777241183626807,13.287124595530072,3.541539936235798,-0.8836054202913242,4.962901661037001,2.2998113831103115
2.4243879496109613,13.337415703301167,3.3532088977160135,-0.9180393250389973,5.511474532490643,2.3487551296958724
2.47117081636594,13.387000581488406,3.165089071755593,-0.9532798528767727,6.061289447322309,2.3981821281047724
2.517978003568688,13.435774763840675,2.977558948448575,-0.989267298569781,6.611254576412767,2.448007722700999
2.5647778382448108,13.483704608705558,2.790740256898726,-1.0259863022371247,7.161019553361306,2.4982123495086634
2.61187344172543,13.531092297137237,2.603424017212617,-1.0636908182290565,7.714165991200341,2.549139240663058
2.6593426948777883,13.577997626154072,2.4153097391042646,-1.1024691062555327,8.27162871097026,2.6008962581401445
2.706382973695679,13.62362832507778,2.229571830389043,-1.1416743707350943,8.824003785241452,2.6526227397406643
2.753801203334556,13.668767703191005,2.0430180927868706,-1.1819886851280084,9.380788386956608,2.705220973959175
2.801125333976594,13.712957793296509,1.8575069069294055,-1.2230291105739792,9.936460948500258,2.7581874510279474
2.848334982238632,13.756184129763172,1.673109135563507,-1.264784455706405,10.490803410818739,2.8115126080780204
2.8957133648111597,13.798703472715918,1.4887151152131515,-1.3075188465841618,11.047162492780316,2.865533921742748
2.9428977947610053,13.840189732642445,1.3057315336668371,-1.3509172601618409,11.60130000746893,2.9198545447891933
2.9902651247887766,13.880973146401733,1.1226924885798066,-1.3953393991753786,12.157662483739555,2.9749257435073417
3.0373293679743556,13.920637008320494,0.9414694651103774,-1.4403400969847722,12.710561770901219,3.0301983337008447
3.0846315348551974,13.959637498718795,0.7599739573575299,-1.4864492259555666,13.266373654225479,3.0863249001814492
3.131777055909774,13.997645333644227,0.5797177990396928,-1.5332994358625838,13.820482248386508,3.1428575775608234
3.179165406765478,14.03497827046603,0.39917177046867763,-1.581305960574059,14.377603155512537,3.2002965503064638
3.2263553644825373,14.071285575186758,0.22001424450419238,-1.6300393651045195,14.932569231408111,3.2581277914990805
3.2734532955297393,14.106655077022738,0.041832175036936224,-1.6796177798738459,15.486649354565813,3.3164961848959797
3.3205258500019568,14.141137802448164,-0.1356320763071341,-1.7301254619147528,16.040646328799777,3.3755028755833294
3.3677278568822278,14.174842133827783,-0.3129633470963487,-1.7817498479534335,16.596402373576087,3.435365660328156
3.4148578939833953,14.207620174470929,-0.48940670141632475,-1.834291526968155,17.151565611747387,3.495852642561857
3.462046912000487,14.239560915160045,-0.6654555383525815,-1.8879158075352458,17.70769755884339,3.557154471839421
3.509034611356575,14.270489566025155,-0.8401442605749038,-1.9423427157310096,18.261748142443686,3.6189531029576454
3.55610080426363,14.300590998567479,-1.0145180872318345,-1.9979136354922127,18.81703434461127,3.681637805057974
3.603081171915595,14.329757619720294,-1.1879709010708361,-2.054456242688433,19.371635978203766,3.7450143425287936
3.6501706802839218,14.358106833895771,-1.3612243727985105,-2.1122290692334103,19.92787337293417,3.8093721481938627
3.6972071187713698,14.385536509986355,-1.5336829228429723,-2.171058820001185,20.483849374277476,3.87451748241859
3.743919771964308,14.411896255337822,-1.7043631907345522,-2.2306181067113764,21.036377764307193,3.9400922876795277
3.7909031869411494,14.437520000435757,-1.8754406189795305,-2.2916885371784685,21.59250826484607,4.006957707574033
3.8372242626907225,14.461906644323285,-2.043526728440953,-2.353068848955272,22.141208504631603,4.073802921836194
3.865700338549446,14.476465433416976,-2.1465735167435587,-2.3913911356054545,22.478733585086125,4.1153633724187095
3.876854971130935,14.48207827134205,-2.18687990223201,-2.406526659601792,22.610993267881295,4.1317422800501875
3.8703081460051525,14.411365735379748,-2.276315850298468,-2.4063364303476287,22.784798185605737,4.1325226199280225
3.8452490416749314,14.184761388346404,-2.5354108674909375,-2.3994134775152847,23.271098496640032,4.128031329607047
3.818171747560925,13.931082003908658,-2.813805420928931,-2.392204214817256,23.803816906236342,4.1233670437035554
3.7913768571694377,13.670725842411954,-3.0875293760085816,-2.385357977253547,24.33852968580903,4.1189538578648
3.771101653866829,13.467363968118104,-3.293375484705829,-2.380374688525841,24.74821296291442,4.115754513633406
3.7633593473323996,13.388230204551505,-3.371671175609212,-2.378517777410079,24.90582312209494,4.114565725736174
3.7541586145395227,13.293111682231729,-3.46448408277015,-2.376344738755632,25.093968721303476,4.113177199127442
3.730282332262667,13.040718453501103,-3.7041103415700296,-2.3708796206178797,25.586541043861843,4.1096996277782
3.704768989286205,12.761936112465108,-3.958079560558429,-2.3653255873756693,26.11987856783529,4.106191581806409
3.679582944664003,12.477235559589792,-4.206502180904099,-2.360143420467763,26.653575243672062,4.102949227634039
3.6553985932602617,12.19470023431556,-4.442733098611319,-2.3554593013495486,27.17288745461148,4.100051996664406
3.642536650487445,12.040689069784175,-4.567385457737996,-2.353088440811877,27.451839418616444,4.098600850290501
3.636414290217251,11.966447799153414,-4.626470805165719,-2.351989888713501,27.585302861340036,4.097932561551556
3.6473670643182703,12.159985754082117,-4.8738574774768235,-2.360219411584796,27.63865938438914,4.112680240102446
3.673139197718155,12.610041288229509,-5.442352544779322,-2.379442514171611,27.75594027735626,4.147062318165104
3.7015235493880168,13.098830578808201,-6.05614969513771,-2.4005526044230687,27.879664667508045,4.1847748287329045
3.730422811543432,13.589296487647173,-6.6682375011056,-2.4219791705618503,27.999971885825122,4.223007063493163
3.760021713062863,14.084345822196786,-7.282148179694402,-2.443854627330303,28.11747846858372,4.261994946271067
3.790245492155401,14.58246843003258,-7.895897039597806,-2.466118721463075,28.23171277852192,4.301630574695816
3.821034567913483,15.082478957347563,-8.507942700995912,-2.4887229720756783,28.342321063477605,4.341827495314096
3.8525953072293824,15.587480538575697,-9.121978888762815,-2.5118136810283516,28.449883810494878,4.382845486139149
3.8847345762672147,16.094137578192097,-9.733847252677922,-2.5352442227320293,28.55358671948285,4.424423729969323
3.917725807871816,16.606496424164888,-10.34832226333216,-2.5592082280821313,28.65414448422634,4.466905394891755
3.951333304407583,17.120627314178925,-10.960576556704961,-2.5835285637049323,28.75067001607575,4.509976019849007
3.9857348132033175,17.639009829093137,-11.573466320642211,-2.6083281018214146,28.843530869539666,4.553852934444872
4.020202578359619,18.150630379693084,-12.173982551484512,-2.633078728106171,28.930766110952767,4.597602496258675
4.046276741032335,18.532648736987362,-12.619530752104085,-2.651737905436782,28.99303267317965,4.630558820432943
4.041351686559554,18.62115276133957,-12.722069137218815,-2.6488781825013112,29.007279295275,4.625705542463063
3.7112843499832597,18.640536571764102,-12.734917741058098,-2.432878510492716,29.015332468234295,4.250320468944345
3.1584335682706546,18.66928229209094,-12.753955918810403,-2.0708766151107496,29.02722807406537,3.6214960278385413
2.586686927717512,18.694122650651078,-12.77040273669675,-1.696266524145268,29.037549571968636,2.971105415912292
2.0142387739265923,18.71402506450041,-12.78357094562706,-1.3209982531619453,29.045797720932253,2.319853422913032
1.4396412874547286,18.729014061851686,-12.793488363857263,-0.9441663971796627,29.05204235549785,1.6661078455595615
0.8697125266905561,18.738950125054178,-12.800057783832846,-0.570286620308016,29.05615682982896,1.0176389803971082
0.29699642811168375,18.74399414108283,-12.803395364661522,-0.1945114969241649,29.05827054880356,0.3659778343827858
-0.27572762274798873,18.744086309271555,-12.803454765704624,0.18129076043885042,29.05829290277322,-0.28569946322830325
-0.8473345052679555,18.7392423583174,-12.800254141299153,0.5563401297357248,29.056294707260538,-0.9360992055234869
-1.4197130357493364,18.729447078289244,-12.793775471986352,0.9318296918994385,29.052212428694634,-1.587356023900531
-1.9917549803385817,18.714710127892314,-12.784028887519307,1.3069911742962288,29.046099269242404,-2.238195997934888
-2.563063703649959,18.695048056654013,-12.771020696740674,1.6815205919137115,29.0379507151237,-2.888154027282168
-3.1354103410165686,18.670385325175474,-12.754692587995915,2.05653168700254,29.027702787361626,-3.539229657029628
-3.6866404954549186,18.641925049504326,-12.735844316167434,2.417483672551707,29.015921892961817,-4.166213940792391
-4.01261695866588,18.62291571391653,-12.723247482099978,2.630814995225795,29.008046444811217,-4.536949772466447
-4.053875079082414,18.624835241344314,-12.642703719318542,2.655671550335415,28.923781711996426,-4.57945720751306
-4.061533688736134,18.64593656325714,-12.21111175376119,2.649193506681149,28.47122090452665,-4.564245438504686
-4.070933071725725,18.66578377149584,-11.67963892242398,2.6416475423413215,27.920057336047332,-4.545954743124176
-4.080345192092664,18.679128780196056,-11.145541983981635,2.634521984686463,27.3727656156661,-4.528039854752939
-4.089932935829639,18.68616942828558,-10.599588049730981,2.627689699130447,26.819917739823747,-4.510184382403958
-4.099483921594155,18.686768699474488,-10.05389537961822,2.6212952279644397,26.27376590433339,-4.492774701014872
-4.109115649944036,18.68104889215246,-9.501802149025764,2.615247315138803,25.72752796500245,-4.475582134580211
-4.118672913948192,18.669250144169112,-8.95226443265521,2.6096292975978215,25.189917950817616,-4.458867923065722
-4.128202433725256,18.651560955472526,-8.40268152903693,2.604393990891501,24.658147643734583,-4.442529610598569
-4.137687311874775,18.62822205280092,-7.85410175561563,2.599533823774455,24.133024724088088,-4.4265781499292585
-4.146810932386355,18.60050399529319,-7.324986081196463,2.595177651032218,23.631736194721363,-4.411513704342189
-4.151308375752027,18.58497640352651,-7.063659111548398,2.5931422177471948,23.38598907664748,-4.404185014927886
-4.166489160923284,18.798018214223493,-7.307784008762088,2.603211053834973,23.416366086963645,-4.421912161199926
-4.201559749174195,19.285940597369358,-7.867561075208037,2.626492894476191,23.48657832378923,-4.462912359554783
-4.240072656466085,19.813335550217754,-8.46831854220756,2.6519802245090163,23.558125028498385,-4.50772900905175
-4.279580408273685,20.345483412169774,-9.06994341252804,2.678039860539497,23.625726152778274,-4.553481050287483
-4.319959621918922,20.880385207079076,-9.670066064397425,2.7045850003989673,23.68901601572535,-4.600013731062326
-4.350204122427663,21.27525968569614,-10.110111691427774,2.7244089703337413,23.73273176610989,-4.634718351695829
-4.34033668336511,21.342439019274654,-10.18428707894873,2.7183926601075616,23.740180276435044,-4.624517534928925
-4.010037648874614,21.109641178339288,-9.916690141588568,2.511376663588722,23.720216662725257,-4.269186618900514
-3.49456013227797,20.74006884879651,-9.491606764923539,2.1882684139659165,23.685479417868653,-3.7149598083037363
-2.9721665667361066,20.357577004367908,-9.05125606831027,1.8608271593509986,23.6457514790497,-3.153732483361185
-2.449773182944342,19.966855162622675,-8.600926072522329,1.5334369493379263,23.601334535739984,-2.5930007658507246
-1.9318238105681855,19.571109907483446,-8.144211485915418,1.2089314466100827,23.552527181750552,-2.037587675606306
-1.4244517027137649,19.175164659374033,-7.686595671125053,0.8911970055788566,23.499973896785583,-1.4941060080308641
-0.919169337016961,18.772477197525,-7.220430633791294,0.574960799506536,23.4428292089701,-0.9535033027849298
-0.4162913658851377,18.36317687957146,-6.745760934168651,0.2604649063026609,23.381046063982843,-0.4161704553272003
0.08570008255521167,17.94586960977787,-6.260857460829417,-0.053193911181884886,23.314331821025036,0.11945554926006999
0.5085859452010925,17.587369223692402,-5.843473257844728,-0.31716909673719285,23.254098766726695,0.5700347020733765
0.7058364712296332,17.41792911293677,-5.645930929052781,-0.44021122282633385,23.22472882983345,0.7799940121310248
1.1445062900159215,17.03593228163594,-5.199906951295924,-0.7136193526840484,23.156370335263468,1.2464030173237106
1.6414129377439792,16.594403954195553,-4.683174935173862,-1.0229189512740082,23.073797439895554,1.7738213845408155
2.130654332669936,16.150268236510858,-4.162035669057483,-1.3269780104465851,22.986985746031184,2.292084546594678
2.6099392344014447,15.705832757557506,-3.639125532829159,-1.6243497178485236,22.896455092944784,2.7987436124238245
3.0771287239600804,15.263449095044715,-3.1171690102202927,-1.9137035548292232,22.802835808167053,3.2915474409487686
3.5328512948808037,14.822937903014887,-2.5959174123579585,-2.195408409099748,22.706165380224483,3.771141261504871
3.825231472362841,14.535519826573031,-2.254988137578431,-2.3758396121973275,22.64128401717827,4.078223742692319
3.8770752155718693,14.471233884929523,-2.2061422341253913,-2.4082484476470545,22.654598226186213,4.133767071068533
3.8580931361913087,14.30186177645914,-2.4027907331370137,-2.40293450423756,23.021075316041973,4.130316659637962
3.830832324499096,14.050845141590917,-2.683861589691513,-2.3955415493395535,23.553814061669605,4.125526643148523
3.8039640577777947,13.794196705347815,-2.9591858157283815,-2.3885398952242682,24.08642352575051,4.121004910807005
3.778412808849212,13.541328383689695,-3.2192908955605586,-2.382153851926649,24.599997741822456,4.116897495562725
3.7657594289005227,13.41284131961495,-3.3474280308602267,-2.3790928107643903,24.856917721034574,4.114935792169678
3.7593003878018623,13.346405197884533,-3.4126566413745616,-2.377556736849702,24.988732983869,4.11395340775445
3.742310612859913,13.168872245646266,-3.5836274181436005,-2.3736032008065724,25.337631189439474,4.111432008334479
3.716765895633043,12.894206234925742,-3.8389443367067706,-2.367901829731109,25.868203143491115,4.107817123982143
3.6914022052988207,12.612027777537243,-4.090223364676428,-2.362539420969459,26.402240531274522,4.1044461132796295
3.666475540230715,12.325234763124406,-4.334831033240633,-2.3575705350170146,26.934206214161723,4.101355272202879
3.6461948476971044,12.084758281089695,-4.532007089015473,-2.3537560975855802,27.372314776458882,4.0990102520943354
3.6380995345344656,11.986941029897272,-4.6102265329486505,-2.3522922923977996,27.548532566445505,4.098118157077507
3.555905444975493,11.970240290001417,-4.630769872399523,-2.300029836765769,27.589060398474118,4.007941212914414
3.1296081222784453,11.993534457805668,-4.648263638732883,-2.024607266527911,27.599219691761256,3.5309657084858443
2.586277038782378,12.018899061793832,-4.667304926387904,-1.6733755707020865,27.61029811655585,2.922961338130565
2.0441453331745163,12.039387280174845,-4.682679338405537,-1.3227356286474543,27.619254171799085,2.316221717463952
1.5030451219961436,12.05504358600735,-4.69442432130014,-0.9726182354459539,27.62610350593434,1.7105755719625177
0.9603441415368239,12.065943735441568,-4.702596017955164,-0.6213584359180949,27.630845167657327,1.1030915690950112
0.41784753528856095,12.07203861779617,-4.70716733495556,-0.27016290927376824,27.63351874542138,0.49580895703674727
-0.12320825847615015,12.073338816631878,-4.708143588285906,0.08012962138136466,27.63409610559003,-0.10987332749075202
-0.6665778454131909,12.069841640701851,-4.705523058809119,0.4319115466314891,27.63257616924482,-0.718142171584234
-1.2091201376526104,12.06154569565968,-4.699300168160262,0.7831092150640633,27.628927129012016,-1.3254653554935412
-1.749970503516096,12.048495431761484,-4.689514229329405,1.133127676728122,27.623232919279523,-1.9308582860136132
-2.294710197910634,12.030520199248357,-4.67603090019048,1.4855385777958543,27.61539018632904,-2.5405522232569715
-2.8356833357625018,12.007863265069115,-4.659028870807796,1.835350507482062,27.60550613748661,-3.1459621840822383
-3.352120930054569,11.981754787436484,-4.639424229351979,2.1691081862322577,27.59409328995463,-3.72383513820192
-3.6122670071072513,11.966944297526389,-4.628302872064909,2.337156015570874,27.58765502950447,-4.014895283570089
-3.640547451164319,12.003721836953899,-4.524339895893867,2.3524005419440264,27.445886777708814,-4.039998303286664
-3.6545770277880094,12.132140032079558,-4.167510579588576,2.3511897680338314,26.96047737490938,-4.033229728275911
-3.670335814321845,12.269511530158427,-3.7651570820863762,2.3501510403392314,26.420566719565034,-4.025896312575698
-3.686182057573848,12.400499000056957,-3.359020008621711,2.3494370157296935,25.883251584964288,-4.018796934030007
-3.7023133924630005,12.52667913000093,-2.944077878311854,2.349037983174751,25.34193145957364,-4.011839809669422
-3.718529682449855,12.646435469888615,-2.525524237501368,2.348958019500958,24.803418831638663,-4.005107898771149
-3.734882647932034,12.760199472206263,-2.102090134539685,2.3491916483918707,24.266012739803138,-3.99857277115392
-3.7514935137322207,12.86875785469683,-1.6706822567684128,2.3497403536824804,23.725831645023046,-3.992182980092885
-3.768181684895068,12.970913954516858,-1.2360442152720323,2.3505963301426283,23.18881820996769,-3.9860036624997925
-3.784633014022315,13.06503152404954,-0.8064624963819113,2.3517285493000335,22.664899498316952,-3.9801365710964403
-3.7933388414082265,13.11225198979297,-0.5787149201022932,2.3524401710730554,22.389814087402765,-3.9771183917533013
-3.7968587138199137,13.146019285673388,-0.5486314874073336,2.353539466937109,22.32587614525681,-3.977995790054124
-3.8160888989093458,13.465999429662045,-0.9445980968063964,2.3667241815523004,22.40102547015751,-4.00165778839384
-3.8461028872776524,13.95910654355282,-1.5517214403593473,2.3872596795812746,22.513728552730274,-4.038457242834789
-3.8697437339622347,14.34222788465077,-2.0208366574148293,2.4033978480163465,22.598682495217236,-4.067331331865934
-3.87776465518659,14.471179379601507,-2.178220787310406,2.4088658625977666,22.62676117612022,-4.077105750492078
-3.869134859933168,14.400035894055854,-2.2895250035235786,2.4067218401357393,22.809402180503795,-4.076278895822766
-3.843546144010647,14.168106973579825,-2.5540683977407372,2.399670566825312,23.30648792446133,-4.0717108854995665
-3.8164649169381124,13.91371225908393,-2.8324478592674147,2.3924828939728107,23.839906379074307,-4.067067903486925
-3.789721798000881,13.653172165107414,-3.1055773260515034,2.385672945202043,24.37420709447858,-4.062685684730189
-3.769243971145736,13.447213469005698,-3.3134172137717095,2.380658843228692,24.788485487046195,-4.05947265924088
-3.761363889255721,13.366431971228787,-3.393075785698804,2.3787769245438293,24.949109375683427,-4.058270317234505
-3.7524138477779787,13.273636891483278,-3.4833251845544173,2.376672127425555,25.13236207609415,-4.056928215373536
-3.7287035112523563,13.02234137333101,-3.72120147842549,2.3712673578248884,25.622082615153413,-4.05349658080801
-3.70320740573069,12.743051397415167,-3.9749033247193815,2.365741029264531,26.155659730505704,-4.050014454145601
-3.6779870137328037,12.457246467370226,-4.223555922790484,2.3605766004834012,26.690691262541655,-4.046792006460577
-3.6540596743051736,12.177052538679618,-4.45717102528513,2.3559654428110237,27.205040207519236,-4.043948583095332
-3.642246747657075,12.035334981199302,-4.571674285884678,2.353827337586899,27.46150276096181,-4.042622403026452
-3.636575083390169,11.966984243792453,-4.629096104490574,2.352858912247946,27.587400203011477,-4.042108801291316
-3.6490115874630416,12.186170251213955,-4.907028633010862,2.3621528063905104,27.645589777874157,-4.058745015995779
-3.675317242815188,12.645120085530777,-5.486536926765866,2.381770596689493,27.764965271531135,-4.093830417706617
-3.7036129388668115,13.131886519529528,-6.09753132062752,2.4028107119019073,27.887913345817683,-4.13141489570703
-3.7325955185647266,13.623274363089344,-6.710507343473613,2.4242948794773773,28.00818262251434,-4.169746972856249
-3.7622736199185725,14.119140092282624,-7.325157441897052,2.44622436809063,28.12560813981816,-4.2088281759800745
-3.7925355231547893,14.61737426090881,-7.9387641444721915,2.468511775002896,28.239586485219007,-4.248502335819035
-3.8234699513375903,15.119211167278976,-8.552754322250257,2.4912175963381316,28.35030564436826,-4.28887686478594
-3.8550069821311297,15.623291099046867,-9.16537224508386,2.514285531050796,28.45737232769142,-4.329851398004734
-3.8872430433520346,16.13092892748847,-9.778123903296688,2.537780972251286,28.560972624638463,-4.371541850255463
-3.9202702691790225,16.643290012082815,-10.392291936405709,2.5617651154117578,28.661218865487378,-4.4140562496585565
-3.953888959843651,17.157037680871337,-11.003779519304583,2.586087353180438,28.7573597522308,-4.4571273480206415
-3.9881706008840094,17.67307815456295,-11.613598562755543,2.6107942924807124,28.849497045898644,-4.500837689031201
-4.022664679715202,18.18457791117812,-12.213683444441912,2.635557715895368,28.936419861084975,-4.544607305212748
-4.047861637552718,18.553447233561265,-12.643727184274706,2.6535855587512684,28.99637315526545,-4.5764470945853875
-4.052974327229255,18.62206303014094,-12.693244895453061,2.656436907902334,28.977060060327606,-4.5812430706459875
-4.0594463306217525,18.640632605721283,-12.328741725846305,2.6509129522239134,28.594100020769382,-4.568341671365952
-4.068267421728484,18.660826458954915,-11.830428397555822,2.643727051359003,28.075741251993332,-4.551079079325362
-4.0727235197248675,18.6688224046272,-11.578052442503669,2.6402433501025646,27.81544212013863,-4.542495189218205
-4.078365778863392,18.6768576547595,-11.25788926389965,2.635969653491703,27.487333776538563,-4.531753908255472
-4.0815040855128135,18.68032829290346,-11.079520751586909,2.63365778046738,27.3055437620399,-4.525839823979742
-4.086656946650605,18.684497202003122,-10.786212675169935,2.6299610823247783,27.00814598506856,-4.5162208674397695
-4.08965687657567,18.686056976552376,-10.615203703530184,2.6278648720512274,26.835622528257137,-4.510672297455738
-4.091463253057928,18.68669099734892,-10.51214522426269,2.6266222603333524,26.731957010985273,-4.507349260267865
-4.094098856712175,18.687207288517786,-10.361660673975727,2.6248353841133256,26.58099515599135,-4.502524712163624
-4.101625358358043,18.6860380869335,-9.931171297187861,2.619900887188268,26.151783863652543,-4.488900762077073
-4.11101110284264,18.679185415826936,-9.392819640735,2.614087944165182,25.6204157407297,-4.472220230179446
-4.120385758076121,18.66649802774157,-8.853473020185808,2.608646586661708,25.093882011273156,-4.455887653053716
-4.129814620858918,18.6479876077629,-8.309418639723749,2.603528604718466,24.56845928356622,-4.439777144174901
-4.139212561759676,18.62395361570689,-7.765941580710817,2.598806308179023,24.049128768233746,-4.424056748157901
-4.148014765308888,18.59647820424195,-7.255270946913321,2.5946477744416447,23.566038191852652,-4.409561464976889
-4.151812280512243,18.59154847227218,-7.069755388729268,2.593465140853741,23.385468890497567,-4.404705051357513
-4.171220650985355,18.864229364953022,-7.383967433114671,2.6063742291587655,23.426094846515245,-4.427459894203434
-4.20756907793491,19.36875545495874,-7.962189783862483,2.630493359366124,23.498087127734557,-4.469925188060245
-4.246161068608302,19.895871301964924,-8.561927240438042,2.6560199412480996,23.568887187649306,-4.514799975879688
-4.285898860709764,20.429726143831108,-9.164762911946426,2.6822176116486163,23.6359790951932,-4.560783263344967
-4.325946915577256,20.958894036258275,-9.757754820428872,2.7085314658067596,23.697885846035003,-4.606899777669173
-4.352531496478835,21.305395627012235,-10.143588292901596,2.7259504662341274,23.735937503197196,-4.637389481540167
-4.307796877924993,21.3338373156605,-10.17381467164273,2.698049467386292,23.7397996401098,-4.589590363318536
-3.9051813540447804,21.168154098387525,-9.978934603832979,2.4459515599715522,23.72836203545506,-4.157119140572849
-3.3383343799967817,20.929735549860983,-9.699783433277894,2.090930733353154,23.709664494737154,-3.548500494303747
-2.76498100903308,20.682352984931494,-9.411596992864945,1.7317707649212017,23.687643798586283,-2.933232722047079
-2.1931286814841253,20.42926531494659,-9.118147990195274,1.373533352316705,23.662496335352778,-2.319944986665781
-1.623567412198822,20.170763503661824,-8.81971434651481,1.0167615215126524,23.634196208081907,-1.7095168922374973
-1.05758472903311,19.907410999450306,-8.516888646867637,0.6623065433281895,23.602860031248166,-1.10334827066086
-0.5008879039068012,19.64195739067535,-8.212743901744293,0.31378616626306977,23.568820855398627,-0.5075740002502686
0.05539508640165254,19.37021210034755,-7.902403243755613,-0.03431182775134934,23.531556915544495,0.08727794444619684
0.6092680694285381,19.093066996786053,-7.586824821437107,-0.3806919348178049,23.49113062950188,0.6790361227528098
1.1613223039325717,18.810168873228278,-7.265550608390732,-0.7256860550045735,23.44753453236553,1.268311285034569
1.706385900456857,18.524186982705466,-6.941535342640438,-1.0660215063353222,23.40115630096023,1.8495535814389905
2.2537929516869437,18.23016655522146,-6.6090993957643915,-1.4074856489329097,23.351175400194506,2.432685288758318
2.7979555123747946,17.930977937869425,-6.271427517641337,-1.7465491050596809,23.29803841657186,3.011715220787497
3.339564055484537,17.626198330431325,-5.9279713897343305,-2.0836034704513478,23.24165724019435,3.587346742800025
3.843484861494098,17.336221628093995,-5.601599841198511,-2.3967901901393747,23.185999410387534,4.122274969088231
4.055874011425918,17.210860576195866,-5.463287720832169,-2.528706253666497,23.164107044524947,4.347653912043384
4.040978715269529,17.086016401137613,-5.605938918775409,-2.5245082573491353,23.431985532327822,4.344624572572258
4.012163014541685,16.83768105120212,-5.880982482472282,-2.516610136148713,23.95610105044793,4.338926901988925
3.9830403939369825,16.57730198611588,-6.157585202433124,-2.5089368775343517,24.49382108710434,4.333395690919405
3.9542278974028116,16.310071147146047,-6.429718971162551,-2.5016635638273543,25.03390982323374,4.328159559075057
3.9260127293453175,16.038778598027868,-6.694572327064009,-2.494860508040958,25.570758678451085,4.323271249036844
3.8980558009367723,15.760274957530218,-6.955229001707938,-2.488444427805897,26.110609361348505,4.3186729955881695
3.870406665412656,15.475023249777118,-7.211103389086309,-2.4824300828666903,26.65241207100383,4.3143775895018175
3.8433999695761814,15.186661290629715,-7.45901926005931,-2.476886520176884,27.189344756058436,4.310436163511849
3.8168402754977104,14.893375921379945,-7.700714200735985,-2.471766971150569,27.724963131465724,4.3068170080640105
3.7995324421872736,14.696931011603704,-7.856999940498633,-2.4686145415287606,28.078106342298504,4.304601619217911
3.7923288113167457,14.61390603420942,-7.921749060016617,-2.467346336702851,28.226051385642915,4.303713854749995
3.624467494156809,14.617378322691014,-7.933724341459185,-2.358547027493215,28.24157861027914,4.115055584506669
3.1339499665368096,14.643645392453376,-7.952515074472284,-2.0397170002817004,28.25281118935213,3.5620973240481266
2.579330764570919,14.668732320074126,-7.970453605892998,-1.6790066536732193,28.26355333115563,2.9367961682596677
2.0239540907709297,14.68895751010602,-7.984906052000362,-1.317613168000179,28.272190257040023,2.3105673777236646
1.4712886739977151,14.704231491657033,-7.995820156799205,-0.9578369017225505,28.278743376156388,1.687341374000745
0.9170123369442736,14.714694959407792,-8.003295649686379,-0.5969040993775805,28.283238239273693,1.062257863190097
0.3614246213477749,14.720307006592812,-8.007301475435474,-0.23505016193066242,28.28562306637496,0.4356688498571514
-0.19388297562608106,14.721042774515428,-8.007828684616715,0.12664827557901867,28.285950023934863,-0.19061333087702362
-0.7488690569978801,14.71690976366668,-8.004878928271982,0.48812331212264265,28.28419021412821,-0.8165276470255973
-1.3013716379060323,14.707957672286044,-7.998483002632991,0.847924805859003,28.28033350691551,-1.4396207275406332
-1.8558164724288517,14.694119908018136,-7.9885993594416105,1.2088973633549933,28.27441761851451,-2.0648678033457086
-2.410705813490119,14.67539524088656,-7.975220503873678,1.5700233494473201,28.266412576147115,-2.6905646554145024
-2.9669853362640226,14.651717477037854,-7.958291610370747,1.9318738620898108,28.25626238117246,-3.3177613688758414
-3.495800173020136,14.624645960785376,-7.938930888406771,2.275659104328181,28.244699289757207,-3.9139156977205793
-3.7742584632325107,14.608598998985721,-7.9274480251190615,2.4565933507413846,28.23783427594874,-4.227797953557709
-3.7941333964761093,14.612633436006785,-7.783920368127658,2.466095259527969,28.089562210300866,-4.242977002177107
-3.801443253844873,14.626259898333318,-7.308018404827435,2.4597101524078413,27.600174069509897,-4.227383478865385
-3.809553026977672,14.63551258603695,-6.777981289764572,2.4529850431456808,27.06103505698596,-4.210407758501419
-3.817736963218454,14.638727642751139,-6.240959950927532,2.44656778337026,26.52094589928549,-4.193607999716439
-3.825923007171442,14.635923305635457,-5.701709041730849,2.440507121239413,25.984641881082954,-4.177122420990326
-3.8340674750757775,14.627287341594535,-5.1631756332918615,2.4348205600521915,25.454881802960788,-4.161023047425501
-3.8422104050511288,14.612948707413713,-4.622780204534764,2.429465875667611,24.92895810968459,-4.1452153923078825
-3.8503599607305263,14.59300884579146,-4.080028784057228,2.42442709048239,24.406275718918987,-4.12967155271895
-3.858542450271856,14.567482783439337,-3.5332037902553206,2.4196797555959093,23.885102605999965,-4.114331437012407
-3.8667314538604756,14.536529999883594,-2.9841037839119715,2.4152314546558333,23.367077606349017,-4.099235073102995
-3.8746274333871473,14.501669892358798,-2.452951154355476,2.411220276680104,22.87089960257269,-4.084911120607196
-3.8784700332791187,14.482954672749738,-2.1938720780570544,2.4093644433787187,22.630590341168627,-4.078019915581615
-3.891265406346034,14.687080609839056,-2.441146358682524,2.4180546212745693,22.673174014293643,-4.093524675056544
-3.9209839240262,15.157230869760221,-3.011193551430875,2.438258360057698,22.771751018692875,-4.129575460727268
-3.9534977702927248,15.663821773910275,-3.621562113910878,2.4603036763266,22.874075692396676,-4.168846879870031
-3.9869862713700055,16.177361385785716,-4.236197353770082,2.4829457031190163,22.973665082929603,-4.209112593135956
-4.021136450267572,16.692712189025695,-4.848827761317214,2.5059682130554,23.069398585197813,-4.249985968692747
-4.047257985895188,17.08138990296664,-5.308098793112364,2.5235327049749037,23.138802420136987,-4.281124014731367
-4.055587866483655,17.204350704934424,-5.452893932091134,2.5291255621330824,23.160256194131872,-4.291030876469424
-4.056109508214444,17.212035619860732,-5.46193571691502,2.5294756739549675,23.161589212498757,-4.291650919412352
-4.056109508214444,17.212035619860732,-5.46193571691502,2.5294756739549675,23.161589212498757,-4.291650919412352
-4.056109508214444,17.212035619860732,-5.46193571691502,2.5294756739549675,23.161589212498757,-4.291650919412352
-4.056109508214444,17.212035619860732,-5.46193571691502,2.5294756739549675,23.161589212498757,-4.291650919412352
-4.056109508214444,17.212035619860732,-5.46193571691502,2.5294756739549675,23.161589212498757,-4.291650919412352
-4.056109508214444,17.212035619860732,-5.46193571691502,2.5294756739549675,23.161589212498757,-4.291650919412352
-4.056053227726738,17.211929866945972,-5.4616625353898245,2.5294406483292167,23.160937952310523,-4.2915914908064625
-3.9692702494325767,17.048861754350835,-5.040424068242445,2.475432087933789,22.15671249010011,-4.1999542000649885
-3.8824209749035723,16.88566906891779,-4.618863803838367,2.4213822687077267,21.151719868610446,-4.108246904727373
-3.7958128768258876,16.72292956208604,-4.198474192950259,2.3674825433502216,20.14951806552853,-4.016794276342012
-3.684244846577626,16.513289509668464,-3.656930828476997,2.298049241816855,18.858487739694414,-3.898985551333074
-3.5359397832690593,16.23461934603273,-2.937068491803787,2.205752997483108,17.142347965781983,-3.742384862212059
-3.386743394943268,15.954274352941672,-2.212879726245947,2.112902045510016,15.415894057750196,-3.5848429907145674
-3.238885965286312,15.676445307877081,-1.4951901718043947,2.02088438171802,13.704934160347248,-3.4287149741830927
-3.0896774840744636,15.396077591849522,-0.7709427082289692,1.928025903852411,11.978340317223017,-3.271160333369114
-2.941190207422913,15.117065043260956,-0.050195920816670216,1.8356162607792685,10.260092027537373,-3.114367238578044
-2.792576734608411,14.837815367870405,0.6711634138864264,1.7431280807254608,8.540383435352785,-2.957440888686699
-2.6446284630364985,14.55981562781576,1.3892939085879372,1.651053882332477,6.828372343742995,-2.8012169488862146
-2.4958721045333774,14.28029746544749,2.111346800364489,1.5584767787305818,5.107010323092156,-2.644139720819814
-2.347575255558478,14.00164273681887,2.831169265240367,1.4661856465091931,3.3909656028778703,-2.4875477055113056
-2.198882028591551,13.722243200714122,3.5529157209846662,1.3736478322178578,1.6703341206040514,-2.330537140321094
-2.0505274356732612,13.443479969288667,4.273018470896609,1.2813207636030037,-0.04637879444960748,-2.17388415109082
-1.9017553763551567,13.163932304565026,4.995147573323756,1.1887338887483714,-1.767922500017155,-2.0167903439650723
-1.7533449081429786,12.885064081597518,5.7155215379786295,1.096372046676281,-3.485281986483014,-1.8600783539877406
-1.6049091834542482,12.606148400867635,6.436018095792638,1.0039944864764416,-5.202933732990388,-1.7033396947818298
-1.4561520956133633,12.326628868049363,7.158074527723347,0.911416928978133,-6.924304193309543,-1.5462616965812632
-1.3076409253150032,12.047571422500988,7.878937293215156,0.8189924159213586,-8.642828972797485,-1.3894433716229115
-1.1591518104282668,11.768555419807155,8.599693003291636,0.726581628840048,-10.361098533965343,-1.2326483357727138
-1.0101807429089016,11.48863381203145,9.32278807751759,0.6338709031258545,-12.084945100149374,-1.0753443886776164
-0.8618891920676159,11.209989038772715,10.042584825625893,0.5415830681474842,-13.800928512019771,-0.9187579678603306
-0.7131418656534072,10.930487848000956,10.764593876278719,0.44901158558014154,-15.52218601616471,-0.7616902771038266
-0.5651520124728118,10.652409974715814,11.482926205181444,0.3569115092688375,-17.234678277135355,-0.6054224297763212
-0.4160196484164041,10.372185285363736,12.206804201442983,0.2641004021903064,-18.96039131636108,-0.4479481638243338
-0.284413076355031,10.124892144093337,12.845613237170484,0.18219630492000155,-20.483301376099746,-0.3089800165616564
-0.19769358950502863,9.9619433340408,13.266543521317692,0.1282272578204292,-21.486792135190836,-0.21740976873622844
-0.11102157427925177,9.799083724754547,13.687243381542896,0.07428775423427905,-22.489733567504757,-0.12588964791861507
-0.024077484819885905,9.63571287890291,14.109263870944007,0.020178927838913674,-23.49582335769198,-0.03408223406109071
0.004949751761429836,9.581169732583094,14.250160033802022,0.002114103482455705,-23.831717454040643,-0.0034313233605237398
0.004949751761429836,9.581169732583094,14.250160033802022,0.002114103482455705,-23.831717454040643,-0.0034313233605237398
0.004949751761429836,9.581169732583094,14.250160033802022,0.002114103482455705,-23.831717454040643,-0.0034313233605237398
0.004949751761429836,9.581169732583094,14.250160033802022,0.002114103482455705,-23.831717454040643,-0.0034313233605237398
0.004949751761429836,9.581169732583094,14.250160033802022,0.002114103482455705,-23.831717454040643,-0.0034313233605237398
0.004949751761429836,9.581169732583094,14.250160033802022,0.002114103482455705,-23.831717454040643,-0.0034313233605237398
0.004949751761429836,9.581169732583094,14.250160033802022,0.002114103482455705,-23.831717454040643,-0.0034313233605237398
0.004949751761429836,9.581169732583094,14.250160033802022,0.002114103482455705,-23.831717454040643,-0.0034313233605237398
0.004949751761429836,9.581169732583094,14.250160033802022,0.002114103482455705,-23.831717454040643,-0.0034313233605237398
0.004949751761429836,9.581169732583094,14.250160033802022,0.002114103482455705,-23.831717454040643,-0.0034313233605237398
0.004949751761429836,9.581169732583094,14.250160033802022,0.002114103482455705,-23.831717454040643,-0.0034313233605237398
0.004949751761429836,9.581169732583094,14.250160033802022,0.002114103482455705,-23.831717454040643,-0.0034313233605237398
0.004949751761429836,9.581169732583094,14.250160033802022,0.002114103482455705,-23.831717454040643,-0.0034313233605237398
