RAMEL-ESPOL/ARCHIE/matlab/data/joint_goals_espol_t5_h20_p21.txt
Joint0,Joint1,Joint2,Joint3,Joint4,Joint5 
0.0014072288719416007,0.004841245340781031,-0.003895667796910085,0.0009411361226496956,-0.001471446393227382,0.0010237758540740216
0.0014072288719416007,0.004841245340781031,-0.003895667796910085,0.0009411361226496956,-0.001471446393227382,0.0010237758540740216
0.0014072288719416007,0.004841245340781031,-0.003895667796910085,0.0009411361226496956,-0.001471446393227382,0.0010237758540740216
0.0014072288719416007,0.004841245340781031,-0.003895667796910085,0.0009411361226496956,-0.001471446393227382,0.0010237758540740216
0.0014072288719416007,0.004841245340781031,-0.003895667796910085,0.0009411361226496956,-0.001471446393227382,0.0010237758540740216
0.0014072288719416007,0.004841245340781031,-0.003895667796910085,0.0009411361226496956,-0.001471446393227382,0.0010237758540740216
0.0014072288719416007,0.004841245340781031,-0.003895667796910085,0.0009411361226496956,-0.001471446393227382,0.0010237758540740216
0.0014072288719416007,0.004841245340781031,-0.003895667796910085,0.0009411361226496956,-0.001471446393227382,0.0010237758540740216
0.0014072288719416007,0.004841245340781031,-0.003895667796910085,0.0009411361226496956,-0.001471446393227382,0.0010237758540740216
0.0014072288719416007,0.004841245340781031,-0.003895667796910085,0.0009411361226496956,-0.001471446393227382,0.0010237758540740216
0.0014072288719416007,0.004841245340781031,-0.003895667796910085,0.0009411361226496956,-0.001471446393227382,0.0010237758540740216
0.0014072288719416007,0.004841245340781031,-0.003895667796910085,0.0009411361226496956,-0.001471446393227382,0.0010237758540740216
0.0014072288719416007,0.004841245340781031,-0.003895667796910085,0.0009411361226496956,-0.001471446393227382,0.0010237758540740216
0.0014072288719416007,0.004841245340781031,-0.003895667796910085,0.0009411361226496956,-0.001471446393227382,0.0010237758540740216
0.0014072288719416007,0.004841245340781031,-0.003895667796910085,0.0009411361226496956,-0.001471446393227382,0.0010237758540740216
0.0014072288719416007,0.004841245340781031,-0.003895667796910085,0.0009411361226496956,-0.001471446393227382,0.0010237758540740216
0.0014072288719416007,0.004841245340781031,-0.003895667796910085,0.0009411361226496956,-0.001471446393227382,0.0010237758540740216
0.0014072288719416007,0.004841245340781031,-0.003895667796910085,0.0009411361226496956,-0.001471446393227382,0.0010237758540740216
0.0014072288719416007,0.004841245340781031,-0.003895667796910085,0.0009411361226496956,-0.001471446393227382,0.0010237758540740216
0.0014072288719416007,0.004841245340781031,-0.003895667796910085,0.0009411361226496956,-0.001471446393227382,0.0010237758540740216
0.0014072288719416007,0.004841245340781031,-0.003895667796910085,0.0009411361226496956,-0.001471446393227382,0.0010237758540740216
0.0014072288719416007,0.004841245340781031,-0.003895667796910085,0.0009411361226496956,-0.001471446393227382,0.0010237758540740216
0.0014072288719416007,0.004841245340781031,-0.003895667796910085,0.0009411361226496956,-0.001471446393227382,0.0010237758540740216
0.0014148322632047089,0.004855844115101733,-0.003912687450083491,0.000941136503761753,-0.00146565415854923,0.001031398482826767
0.11488183740638161,0.2219502107920889,-0.2566866534336664,0.0008474812388195463,0.08437373958439508,0.11478472456294804
0.3623633938294244,0.690197105278657,-0.7997030502680845,-4.0708862451308264e-05,0.26749981520367017,0.36288776388396027
0.624435004121249,1.1783741950229083,-1.3626517476875422,-0.0019865385534590563,0.4554764594789234,0.6256186010621747
0.8944215756331214,1.6732686347303567,-1.9300338886259147,-0.005050666884140838,0.6429634070227233,0.8962923677531472
1.1710310772136274,2.172093408885698,-2.498548369361615,-0.009282149262553994,0.8287962582698886,1.173621110369789
1.45132244593595,2.6693229681149124,-3.0618767826320292,-0.014673879615015149,1.0108866658917581,1.4546632578669076
1.7408040802779376,3.1744019351505472,-3.6306588241342115,-0.021384171631501657,1.1926260492018539,1.744949487143122
2.0348842000666507,3.6789587560696972,-4.195396325805539,-0.02936365009106107,1.370924727951292,2.0398829282000768
2.337324328361998,4.189132418280889,-4.762913044339053,-0.03876570382789728,1.5478959430264927,2.3432436234800536
2.6451596410262366,4.699580826592522,-5.327211866576802,-0.04955329975590579,1.7216232908512619,2.6520654196893148
2.961830264026726,5.215655904494669,-5.894155133113716,-0.06190407933129422,1.8938646074986563,2.969807258724104
3.2852220593187957,5.733512555501723,-6.45945010281562,-0.07579950671962872,2.063258541154405,3.2943558875140577
3.6182021671703506,6.257319785568055,-7.027576166008996,-0.09143023055635459,2.2310871063368136,3.628596895042857
3.9581808341507814,6.782579906229021,-7.5935883295577975,-0.10874263090093818,2.3958312689664165,3.969938830170873
4.30637729348008,7.31082018503483,-8.159097805260943,-0.12785745740798726,2.5579221707303543,4.319613253144113
4.664839025867021,7.844664790044777,-8.72683717874256,-0.1489638918472169,2.7180754298092284,4.679684648930072
5.031219083629124,8.380158746605103,-9.292538811157891,-0.1719975607075408,2.875028538658879,5.047803433246199
5.406404838091266,8.918211726303053,-9.85713637441782,-0.19707778332117515,3.0290043350682607,5.424868140298336
5.793759227576798,9.463095011463617,-10.425031102333431,-0.22451682342810275,3.181127677612877,5.814266747340101
6.189431208185699,10.008871857486131,-10.989974497934906,-0.2541248183307932,3.3296615696895655,6.212135397106769
6.596412844259684,10.559197426965092,-11.555715386194032,-0.2862017255904495,3.475545582223976,6.621489364951864
7.014981240338335,11.113854274260905,-12.121961443380467,-0.3208630844841472,3.618631253541757,7.042614689290107
7.446858567631664,11.674464764706487,-12.690287682061658,-0.35835520941968674,3.7592314994841387,7.477251517877744
7.889186763595055,12.236718793125611,-13.25627497334566,-0.39852478597435836,3.896189102473064,7.922529719994663
8.345542638038296,12.804549431083016,-13.823840333033946,-0.441793263429385,4.030390826445653,8.38205556622347
8.80892706129344,13.368783908834049,-14.383831679389836,-0.48757099994508124,4.159655072481524,8.848784602643875
9.277412894085009,13.926978191890058,-14.933964656806854,-0.5356862583113673,4.283535208408533,9.32077459053452
9.750404301151637,14.47842498677275,-15.473715374691709,-0.5860807083743487,4.40202052727958,9.797422399634776
10.227546073188597,15.022747609682735,-16.002897492186914,-0.6387133219762504,4.515186265978199,10.278366330935238
10.70863640829831,15.559771892264365,-16.521527359743214,-0.6935550433345835,4.623156375192908,10.763398560726898
11.192807622198623,16.088622089356928,-17.028952675150386,-0.7504938387941898,4.725923909885195,11.251639132528545
11.682710215707274,16.61221766254467,-17.528146009783363,-0.8098378028272197,4.824202086628477,11.745755885322804
12.183881723830646,17.13621782317301,-18.024596262674553,-0.8722959676579066,4.9191135794491565,12.251330951197675
12.694148636108782,17.65798014540463,-18.515868006564585,-0.9376515271719187,5.010210380097436,12.766168978075838
13.214102734459377,18.177804060587658,-19.002334621224126,-1.0060238030991382,5.097598862199767,13.290863198778618
13.73126156862982,18.683311139789957,-19.472606121032996,-1.0757531496159125,5.179368051464909,13.812810411197416
14.249480098153333,19.17864884695337,-19.930797691854398,-1.1472987547874607,5.256432710621385,14.33589255322581
14.76687580108145,19.66231519157558,-20.375747087068945,-1.2203518987560036,5.328772087121969,14.858201485446212
15.284033800508174,20.135181872710543,-20.808480765244983,-1.2949418756364441,5.396729806399169,15.380320074327003
15.677441752851456,20.48798525176818,-21.12990682917017,-1.3527061032472385,5.445658523896631,15.777530341609475
15.713082895880248,20.507077944328724,-21.280547520403257,-1.358556636289525,5.585301652443537,15.816750028307682
15.698168515966834,20.44528417719077,-21.703340326376257,-1.35847101391301,6.070105538615927,15.813314920413788
15.681365331359201,20.36901204594504,-22.17689654884768,-1.3585015622200511,6.620177555220876,15.809536524521077
15.6646708524978,20.286117811866422,-22.64441855404656,-1.3586683942520872,7.170834601593461,15.80588340336101
15.648570163460258,20.199319599698487,-23.092453408838335,-1.3589614338895482,7.705898652281674,15.802459988932114
15.640540747237136,20.15347805089309,-23.314823119741224,-1.3591570901973828,7.974224626330272,15.800790758155602
15.637299595214419,20.134486663673897,-23.404381824442147,-1.359245539377324,8.08282093181694,15.800124309427048
15.70045121129955,20.10877094595978,-23.42251381548213,-1.3647433939718754,8.125157743112963,15.864842523763873
16.151495409246465,19.970833811127157,-23.33779002206451,-1.403089385668936,8.167481263290382,16.320875723857096
16.734453171949635,19.786141394880087,-23.223957076307762,-1.4525411016163299,8.223819165488193,16.910411596792006
17.314870764245516,19.59499538888368,-23.105674267663822,-1.501651300784646,8.281724647492627,17.497527885086303
17.897130168179416,19.39588253291715,-22.98194976401312,-1.550786776261791,8.341608424106536,18.086660629327703
18.479159938420263,19.189393633465247,-22.85308937009691,-1.5997679878638176,8.403239939854766,18.675718143758488
19.06041450638924,18.975647966709865,-22.719103482022884,-1.6485392922259692,8.466500310990321,19.264156305560018
19.63004377995775,18.75878936328853,-22.5825509381341,-1.696202092187944,8.530184622855197,19.840978813861305
20.03480157694089,18.600199988940926,-22.48229453607187,-1.729984011083987,8.576419066953875,20.250944659991827
20.290138385522813,18.49821631857635,-22.41764635565072,-1.7512576728848341,8.605999681109184,20.509608754192644
20.824076937931537,18.280061412211094,-22.278891578650754,-1.795648334647762,8.668877357891223,21.050610823645563
21.394771634438285,18.03948820458135,-22.12514225315129,-1.842949702500496,8.737584686334843,21.62901526486243
21.964933042389585,17.791401220287913,-21.965781094995904,-1.8900532781727029,8.807741213692566,22.20704629628585
22.519705894379587,17.54247829498298,-21.805051575527745,-1.9357271854904692,8.877389816106461,22.769644144377562
22.835323010617127,17.397510177447526,-21.711064430220187,-1.961647670892657,8.91763904367211,23.089781588926275
22.8184374039454,17.354997598781328,-21.49330653511238,-1.959345277169889,8.743072677999272,23.06668164328918
22.765773244478765,17.253426300275116,-20.96246308796874,-1.9528739321660054,8.315844708278732,22.998765023195336
22.710306686810775,17.141433168901347,-20.397949035829306,-1.94618710393752,7.865469792102047,22.92732479803755
22.65503067500016,17.02470147012493,-19.829767747085715,-1.9396533043358999,7.416151822522177,22.856217931534673
22.60065176057194,16.904867569188944,-19.26527175859856,-1.9333509243672349,6.973580007602734,22.786346531322433
22.54616659025293,16.77982226474791,-18.694090638946157,-1.92715973479943,6.529531909272027,22.716415459557627
22.492257349237462,16.651185647869124,-18.123370354182033,-1.9211546035879425,6.0895074217136305,22.6472952802489
22.4385782474521,16.518231593568576,-17.54949648395412,-1.9152933592253267,5.650631674244081,22.578537083791435
22.3856291665511,16.382315396916674,-16.977883416353336,-1.909626604895915,5.216944961892182,22.510775582049263
22.33279760656185,16.24196445139649,-16.40197099149611,-1.9040853288158837,4.783383197084375,22.44322172141269
22.29161263957795,16.129261286880446,-15.94910586563295,-1.8998434415837666,4.4447760149272275,22.390597231533658
22.27822275174379,16.091996866732096,-15.801126616019191,-1.8984789737850039,4.334565900457968,22.373494879340615
22.26694399493735,16.060181225765536,-15.665835636628676,-1.8973102301836502,4.231520990115038,22.35875382838976
22.358288378149588,16.301167057332105,-15.84266156330658,-1.904535683639347,4.164366092124321,22.448157178658114
22.568480254652325,16.849305926738932,-16.241806209870077,-1.9211458310644334,4.008438306606139,22.653772664123657
22.793036957989923,17.4252697673653,-16.656652631572047,-1.9388669169296775,3.8398491720725456,22.87327464906023
22.97895234487142,17.894771441613656,-16.991373962323458,-1.9535204164217324,3.6988326427059035,23.054878970637468
23.051843023073438,18.077062353725605,-17.120503111046457,-1.9592611701705762,3.6432135040079308,23.126048864663986
23.058699398786572,18.097892895998537,-17.25932692676338,-1.9600726946364377,3.7609032846146224,23.136958577346892
23.037819156400676,18.056594318938853,-17.696032584911134,-1.9595365391109276,4.239341919360827,23.132429431665113
23.01421833208723,18.00365495533447,-18.1867698135338,-1.9591037832189884,4.783507526906407,23.127417170041966
22.990752303737935,17.944314717096635,-18.671641077550387,-1.958859505462867,5.328203069619776,23.122551973536552
22.96718571202714,17.877868176528334,-19.15546764895556,-1.9588049445798312,5.878960005723218,23.11779107211096
22.94395802774203,17.805533246090185,-19.62922493787871,-1.9589424614461857,6.42552674366817,23.113227680371377
22.92073433218936,17.726292235386556,-20.099762111016013,-1.9592742218590253,6.975776931232396,23.10879959759365
22.897677347856924,17.640650532106253,-20.5637652669313,-1.9598003235941373,7.525887894554245,23.10454290027215
22.874648942193286,17.548056261324312,-21.024001395694263,-1.960526182805503,8.079181216402299,23.10043699641441
22.854647427657444,17.461807438256063,-21.421112213693444,-1.9613230493623375,8.56294073563755,23.096994132820416
22.84729845714983,17.428739067618775,-21.566396640110067,-1.9616554234619954,8.741439927597808,23.09575894005181
22.843153164538652,17.409757268153864,-21.648197922962684,-1.9618523853314884,8.842305458598865,23.095069410189836
22.849570682990546,17.42024318682188,-21.72742078283944,-1.962767858539854,8.910774489210093,23.103934250763515
22.995271242574237,17.799149412576092,-21.996631850140552,-1.9739982515126353,8.796152721883253,23.247086256361563
23.22279642547077,18.383185923208433,-22.40764774836206,-1.9915027515696198,8.615382986603954,23.470478396179516
23.456456558640657,18.973459642630818,-22.818219607820364,-2.009439122710668,8.427652412892245,23.699704099952083
23.693149794566096,19.5618122271347,-23.22264501146782,-2.0275686251603697,8.235519449511358,23.931714341172334
23.933762963885503,20.15026660145132,-23.622362412607572,-2.0459591776060884,8.038365786101883,24.167375265656677
24.17962622455988,20.741767600536477,-24.019360198757692,-2.0647119570112356,7.8351842681766355,24.40798409558757
24.430410496201773,21.335162007913006,-24.4128310669772,-2.083801203050607,7.62632769474807,24.65321228322303
24.686595764474504,21.931223681450113,-24.803260562556694,-2.1032628338854127,7.411485774670712,24.90352279949777
24.946529031445927,22.52582132182878,-25.18795615844091,-2.122970982149559,7.192152331834542,25.15729580242299
25.210929613632647,23.12037674111959,-25.5678841385454,-2.1429801423532906,6.967841773927611,25.415230141848788
25.48037090175014,23.7158873948814,-25.943699639685406,-2.163333422813566,6.738186105843705,25.677880558674655
25.75424791781617,24.310732130150956,-26.31440450961884,-2.1839848759838407,6.503825956827347,25.94465298174756
25.990674551724794,24.815952561380975,-26.62559679288728,-2.201783783083079,6.300897577768428,26.17478768592281
26.094451480868106,25.035333701085232,-26.759683226623952,-2.209588317496076,6.211673565948416,26.27575743547709
26.080877107022506,25.128292642579122,-26.814889800284348,-2.2083632083016433,6.174472865429013,26.260655837860586
25.666197323218295,25.334220673800825,-26.927448969276362,-2.17531587783668,6.097032144637949,25.840469404916483
25.078020466918126,25.61905387243957,-27.08226728432434,-2.1282789595664373,5.989195064529604,25.24472160210447
24.48342211379136,25.898481714169296,-27.23316886758697,-2.080537418058643,5.882592798723225,24.642751713850746
23.8835433768223,26.171860152945424,-27.379868149333436,-2.0321809058304843,5.777525067548747,24.03571899886515
23.282970986974867,26.437108580252033,-27.52131990345763,-1.9835705511627533,5.674826058503735,23.428265870707772
22.681191288111535,26.6945583991299,-27.65778738490731,-1.934687131353868,5.574494083905517,22.819866320106215
22.071495707616663,26.947020856400684,-27.790820912622053,-1.8849756737246206,5.475458443649267,22.20374032047914
21.465713090308817,27.189644678225246,-27.917934469699013,-1.835402880753036,5.37968164547024,21.591838658640956
20.852459162087428,27.427041957739466,-28.041610778399953,-1.7850311253043853,5.28537183324312,20.972659921468775
20.24097274058016,27.655651324070902,-28.160062699121582,-1.734638567447556,5.19405479543529,20.355527102101124
19.623261524571067,27.878489207578816,-28.274912738848652,-1.6835601270406488,5.1045483936856515,19.732371901300706
19.001743678128207,28.094602147321172,-28.385721454355153,-1.6319961019393299,5.017279043154581,19.105633460218254
18.407152587458512,28.29385192115415,-28.487380038544813,-1.582502333365411,4.936386600832704,18.506283903902638
18.076945910555065,28.401377040717463,-28.54204247858839,-1.5549560142299685,4.8925891954371306,18.173530830901605
18.026648942935275,28.319556722159003,-28.3721596141097,-1.5505722225697123,4.805922600717342,18.12067628877074
17.940079294393858,28.0494428621381,-27.8447718468079,-1.5428055616815464,4.5510799272789235,18.026879782040275
17.844849831017328,27.74833913359887,-27.257287807182134,-1.5342927656539134,4.2673606136285,17.923689923389507
17.750491224657615,27.445800616288853,-26.66742262713873,-1.5258903385838571,3.9826567314805,17.821431764197516
17.65745652009333,27.143335057083753,-26.078101702803405,-1.5176382392041536,3.698373821669682,17.720595664906334
17.56579662104525,26.841199075299045,-25.48980797744776,-1.5095403236223028,3.4147373894393507,17.62123631991008
17.475000316150503,26.537768826549446,-24.899366005345062,-1.5015510055427574,3.1302103772863155,17.522799027300778
17.385778471972845,26.235497008697326,-24.311534065974016,-1.4937322936039583,2.8470794314559233,17.426054008842886
17.296432447795258,25.92863803968522,-23.715130488078746,-1.4859353261366695,2.5599550170466494,17.329158690942272
17.20856675096924,25.62270689444346,-23.120866647674468,-1.4783001611744198,2.2739903582244376,17.233852441262805
17.121942413803215,25.31697298951694,-22.52730861394053,-1.470805312901748,1.9884891085972647,17.139875736652368
17.03735545920014,25.014389740921033,-21.940172881583,-1.463518600777774,1.706193663483653,17.04809206109559
16.98525598701899,24.825995322869854,-21.574758858295123,-1.459046515057223,1.5305587233956979,16.99155096642197
16.96111575056251,24.73817204315745,-21.40445289909264,-1.4569785821267767,1.448716203308387,16.96535030254337
16.954258570818233,24.688294704374076,-21.310319678786765,-1.4563785977512793,1.4046487540685424,16.957379302365908
17.276255618199702,24.592153473125336,-21.257029208972103,-1.4832396916352266,1.4392409339812906,17.27991590925535
17.864466069860452,24.411204884168633,-21.15640877041726,-1.5321923778428106,1.5040911423130583,17.869257239498374
18.468592679852318,24.218120748362143,-21.048576120147292,-1.5823094430926703,1.5729202997422722,18.47474554416224
19.07378280256737,24.01723906450435,-20.935879496144995,-1.6323470083399847,1.644121558862344,19.08150891003797
19.528216491982864,23.861423418148984,-20.848104055283756,-1.669801817764394,1.6990310880716923,19.537278816030664
19.59305851727978,23.83427251203411,-20.915716859125247,-1.675214380742372,1.7918645817594763,19.604803740445927
19.57385482543334,23.813295895168615,-21.354455645870026,-1.674109558849552,2.2519442162056484,19.599062484360633
19.55101649776901,23.781912947883043,-21.87372812602629,-1.6729407066493853,2.803031247496841,19.592327645727895
19.528357734770953,23.74371978876507,-22.386177918994854,-1.6719401361310156,3.354100655400503,19.585751149575675
19.506072849482702,23.69914672735836,-22.887456773618343,-1.6711142451493501,3.900370206839037,19.579391332279993
19.483769135646256,23.64741933663816,-23.386408091935383,-1.6704484843663896,4.451465052553419,19.573139428929437
19.46165631584299,23.588950322955235,-23.8783163777333,-1.6699511523326627,5.002253017346825,19.56705886770523
19.43979903148991,23.523970090390183,-24.361770351249522,-1.6696228452490942,5.551091192637706,19.56116988572098
19.418770331835425,23.454562545122073,-24.824244192728575,-1.6694641036952882,6.083359326953041,19.555623688620013
19.407858525343972,23.415835741087907,-25.063179014388886,-1.669443770911786,6.361220873447066,19.552793847133486
19.395531063892264,23.369823219826124,-25.332242491172746,-1.6694727169721917,6.676522084604013,19.549637702544274
19.39035269783988,23.3497720433462,-25.444989349920093,-1.6695015078148925,6.809414516781858,19.548325107136762
19.385953004274867,23.33239810328707,-25.54065250994887,-1.6695337578231741,6.922531721587089,19.54721610994728
19.479335505356644,23.29251539218161,-25.54874206122144,-1.677430113586776,6.967758607144922,19.64258873845574
19.962654028471484,23.11205861275527,-25.44538363679026,-1.7176283134849393,7.0305178632075895,20.13123246586493
20.55843494730411,22.88249468548469,-25.313299213404676,-1.7670381682903604,7.109854069132024,20.733768164294993
21.152055925579635,22.645845294891675,-25.176434000439897,-1.8161090670611444,7.191048681694494,21.334332680189714
21.743714305912754,22.402001359463018,-25.03465842180194,-1.8648548660967217,7.274081979523419,21.9331275764351
22.290810355097427,22.169336093949028,-24.898671579354797,-1.909781036439337,7.352710153000912,22.48701781923789
22.551436518883737,22.05603850072849,-24.832196958068188,-1.9311299513215374,7.390753553555852,22.750955260973118
22.952873233728255,21.878399077835223,-24.72764393555808,-1.9639506165058715,7.45017190597804,23.15756544986565
23.529910645322346,21.616325029984257,-24.572652511099125,-2.0109866709962936,7.5372039773174,23.742222337971477
24.085817518782513,21.35623829920338,-24.41795891399231,-2.056139480739125,7.62283190729451,24.305676152085784
24.37953022003904,21.21559029747246,-24.33359246645277,-2.0799297071935605,7.668493453078602,24.603448771203986
24.3399084157894,21.133883935448456,-24.08886178084058,-2.0759729686996713,7.507011393389305,24.557594833290402
24.2522829493534,20.9501960658758,-23.543456564903245,-2.0672824348183436,7.148695234497579,24.456223131069848
24.16030591415087,20.752926741263003,-22.96470075445214,-2.058248990862691,6.770764661460342,24.349868866011796
24.069884190516078,20.5544983874672,-22.389362304695293,-2.049456678622329,6.397336238969181,24.245361736237445
23.979427387808126,20.35149024029952,-21.807365696204055,-2.0407485228047637,6.021816856866219,24.140859479989096
23.88969485319934,20.14561147846705,-21.22355043375475,-2.03219661017209,5.647307926372094,24.037235978913753
23.800822154395583,19.937244973223557,-20.63885004337039,-2.0238116143440625,5.2743553348379,23.93464386324687
23.713262778161692,19.727568786501962,-20.056364797858883,-2.015633330929807,4.904864574673081,23.833602492076157
23.626604782948302,19.51571364171841,-19.47347746966624,-2.007620325744105,4.537103841983072,23.73363251915135
23.54037978867872,19.300584976497582,-18.88706481318094,-1.9997276429478792,4.1690624712005455,23.63419025561447
23.455214748528512,19.083808373588866,-18.301436016612453,-1.9920108799670169,3.8034008540470206,23.535995438862404
23.400575798508267,18.942461536598753,-17.922297459745963,-1.9871015137814738,3.5676497415428816,23.473008920459037
23.379329407070074,18.88701578706479,-17.77413871671615,-1.985201276715096,3.4757289008845507,23.448518897293955
23.36556170132935,18.850418792349767,-17.66317348420157,-1.9839431976054822,3.401882116904607,23.432156897056167
23.482053412447982,19.133037952850074,-17.859415581796416,-1.993097134762761,3.3115153793037417,23.54574953160692
23.715736649856733,19.692728137978275,-18.24478372397598,-2.011443134467564,3.1291365074121535,23.7734937395863
23.96251080024901,20.273502320510698,-18.640101086657722,-2.0307933359811288,2.9350940895519986,24.013821574886006
24.213768471633855,20.854274191229973,-19.030785815324624,-2.050471359557513,2.736183803666551,24.25833699221267
24.457595804364352,21.40795628727853,-19.398954903000607,-2.0695455525639206,2.542030046536379,24.49545409321048
24.57785142151296,21.67751331036806,-19.576685174276548,-2.078945282179618,2.445913239795841,24.6123410231507
24.621449295170894,21.804474271190877,-19.65972281083117,-2.082335771861685,2.40043709479132,24.65432324720325
24.275092947048343,21.876820045525374,-19.697828749963005,-2.054782186190506,2.3787181085325035,24.306900545684755
23.687069232810263,21.99444771133356,-19.759336369900907,-2.007837812583243,2.343470419050011,23.717191753262714
23.089574632606695,22.107320313114883,-19.817781039485823,-1.95992800330629,2.309753156834292,23.118142052130235
22.489108635455295,22.21405905243492,-19.872461301797408,-1.9115721906039678,2.2780008255068127,22.516267395327567
21.888692697095312,22.314128793101947,-19.923125038408713,-1.8630092029397751,2.2483616737475103,21.914596464575876
21.28313792020012,22.40836735945018,-19.97022319106628,-1.8138378886256952,2.2206652054066653,21.307916640585493
20.677140049245885,22.495997848176877,-20.01338177825609,-1.7644337443601819,2.195127714993258,20.70093304522466
20.07200776516942,22.576883207565405,-20.052558723292517,-1.71490881323826,2.1718019790358594,20.094950411762518
19.462344094135943,22.651727548809017,-20.08811175651029,-1.6648249222280185,2.1504990058216436,19.484559304762573
18.853598218415094,22.719838756294656,-20.119723302748735,-1.6146267643592365,2.131398682323566,18.87521421509778
18.239276902388244,22.781910311171618,-20.147732671549416,-1.5637957553553397,2.1143794585894833,18.260402872468617
17.625932840757113,22.83723631904081,-20.17182619596691,-1.512870702609202,2.0996167471867344,17.646681879251904
17.01446300502568,22.885812002371978,-20.192024943570246,-1.4619327929475692,2.0871144486109943,17.034941486291093
16.402691613375595,22.927859563842734,-20.20843661755485,-1.4108014549583507,2.076787525782299,16.423001081894395
15.788444759689096,22.963513500833432,-20.22112565150606,-1.3593107757183365,2.0686702110271296,15.808674043098994
15.176264388688564,22.992521018085245,-20.2300083303802,-1.307841145375265,2.0627922653531834,15.19649940185566
14.562292514060555,23.01508672165407,-20.23515847599771,-1.2560739503889766,2.059111636335256,14.582612415584531
13.94988441871282,23.03109484522492,-20.236552780133206,-1.2042932589231938,2.057616133492564,13.970363515735443
13.333852576144608,23.040664659170798,-20.234201876371444,-1.1520746016843348,2.058360093743351,13.354555396646749
12.722885086915388,23.043688951807216,-20.22815207909089,-1.1001558980752308,2.0612912681631936,12.743868271005041
12.10871441291254,23.04024252928152,-20.218339671136288,-1.0478409055393274,2.0664348875214027,12.130031262616418
11.497243228893012,23.030349116418872,-20.204847474799372,-0.9956347284863171,2.073709594232164,11.518938582897709
10.883751162099115,23.013947007508552,-20.187581439598567,-0.9431470992111471,2.0832229809387575,10.905862761799677
10.269313824505998,22.991009718075812,-20.16653061686595,-0.8904714619375702,2.0949392661541273,10.291873535224969
9.657600749805074,22.961694098019827,-20.141824322111713,-0.8379286263788353,2.1087736294475348,9.68063071519877
9.042728255737828,22.92569707524298,-20.11319999594763,-0.7850168464485945,2.124825588373667,9.06624894345691
8.431725693807197,22.883432198863098,-20.08098112989567,-0.73235135604662,2.1429619076201125,8.455743569379553
7.815927874860575,22.834264997159927,-20.044674325075647,-0.6791885204087866,2.163408151674086,7.840450220959232
7.204535010089876,22.778901918430666,-20.004791087015562,-0.6263283017774897,2.185854629664716,7.229554656116605
6.58923253674653,22.716573283845825,-19.960762855332536,-0.5730577609522483,2.2105971144119265,6.614742107133602
6.118310480874143,22.664369662211687,-19.924403654759093,-0.5322411393825176,2.2309577188792993,6.144183478181262
6.036402917618454,22.651290000577756,-19.98768202734785,-0.5251649056198265,2.308068870595138,6.063011768760367
6.0307704735870775,22.62653203860031,-20.403242651630737,-0.524854108104062,2.7484205314817096,6.061419444314447
6.023860780526423,22.59001316443714,-20.910605671123342,-0.5245168420837701,3.2923428536402617,6.059493937923645
6.0169830084778475,22.546800969375994,-21.412914737313187,-0.5242302933927536,3.837904189521917,6.057609483677151
6.010172323243313,22.49711768124927,-21.907607464959565,-0.5239959803814983,4.382319717246111,6.055776774718382
6.003416121686221,22.440908745674967,-22.3956185197464,-0.5238132988173931,4.926578727031531,6.053993294299247
5.996623115427699,22.37729207172262,-22.883497281633986,-0.5236807974983402,5.478113209910698,6.05223663131937
5.989939328839852,22.30759804702744,-23.360744422788027,-0.5236017637811791,6.02509260616641,6.050545804391599
5.983262518258528,22.230794766397384,-23.834675972955843,-0.5235749510603182,6.575865432533317,6.04889584080153
5.9767783735503,22.149191208668864,-24.292180350844326,-0.5236000869743712,7.11501007309131,6.047332720046822
5.973293030718024,22.10242026255633,-24.53695706328199,-0.5236348980927406,7.4065773793961585,6.046509131771786
5.972266599298059,22.088254152299083,-24.608889926842462,-0.5236480314032209,7.4926821283175835,6.046268858405475
6.262657214585607,22.055204674536657,-24.591625022070865,-0.5490477165993776,7.505750990752586,6.3390157773916735
6.838353507965745,21.985788563432173,-24.550774927767534,-0.5993606791849212,7.528553200122882,6.919386971243954
7.439138790996169,21.906715302989753,-24.504166150049393,-0.6518111845101614,7.554464175856454,7.525120956134783
8.04131740773688,21.820626952492855,-24.453330763963724,-0.7043220025125937,7.582597055075386,8.132337570998326
8.645885633624049,21.727279538099772,-24.398100854780676,-0.7569744953487765,7.613011629453936,8.742048232590284
9.246921202288116,21.62756255598496,-24.338974919861833,-0.8092455817290684,7.6453665888394875,9.348287982027209
9.846918087602647,21.521103259433072,-24.275712741770583,-0.8613530141341977,7.67982338186494,9.953573307020836
10.45049737318767,21.406987516880413,-24.207738020134606,-0.9136904749355164,7.716621841422562,10.562574438563203
11.051034610771287,21.28640812653674,-24.135729915661166,-0.965678609003816,7.755350967883961,11.168613278502873
11.652548720875824,21.1585383760453,-24.05915908283137,-1.0176573254636059,7.79621798223487,11.775753314639497
12.255669326653846,21.02314601343144,-23.977855564865063,-1.069682591405637,7.839327696143817,12.384630967655298
12.851184812674028,20.88234479880009,-23.893051352951836,-1.1209532091292238,7.883947188881599,12.985952967060452
13.264183276876128,20.780511279064335,-23.831556525656215,-1.156450098682978,7.916082642083046,13.403052307140456
13.522168743933829,20.71514918420111,-23.7920147676081,-1.1785980118447734,7.936648933587061,13.66363106005231
13.81855411070294,20.638263155171426,-23.744575499704546,-1.204015167608903,7.959936746327553,13.963009255207652
13.80846869168921,20.607586364608835,-23.502468159306037,-1.2025409296861658,7.7487644507481335,13.948361487299612
13.786579615847748,20.537270074110598,-22.973703483829954,-1.1994034978656685,7.2908753385445015,13.916616906923428
13.763716949834468,20.458391038992772,-22.416558384052856,-1.1962163372858505,6.813191647980879,13.883525681990882
13.740996081928177,20.374527499840372,-21.85790033002208,-1.1931385436204145,6.33897413583346,13.850702570477603
13.718478748761429,20.28605719374391,-21.299311010611394,-1.1901752256838236,5.86942526158925,13.818232177466884
13.696057109724215,20.192686223715363,-20.738163057057328,-1.18730934606385,5.402214352110226,13.785954769257236
13.673871420340213,20.0951357319212,-20.178024254445255,-1.1845559511628718,4.940184578525518,13.754068096661351
13.651577145999243,19.991952775197674,-19.610183572574396,-1.1818706604580191,4.476086573368196,13.722073637370512
13.629515248635133,19.8847741888428,-19.043311579943346,-1.179293031221075,4.01694555383849,13.690457483001163
13.608127343469326,19.776066664381112,-18.48900242440076,-1.1768691048466504,3.5718780391837748,13.659847149847309
13.595546010178838,19.709915251380703,-18.1607237564441,-1.1754774608943876,3.3100643453570506,13.641858118691523
13.591106907307912,19.68618552812657,-18.044503074900025,-1.1749924654479171,3.2176839115158002,13.635513949299131
13.643720937169302,19.911439795361918,-18.193492783724345,-1.17936871769372,3.1403547374455627,13.686606103923406
13.773857804561857,20.46283558914832,-18.565478074455676,-1.1902051870346884,2.9582924516420457,13.813119947083017
13.90389053468876,21.005087184368836,-18.92719961974259,-1.2010340310249896,2.7750894400512136,13.9394373737241
13.96034356758398,21.23784775468095,-19.08122658365804,-1.2057358035718773,2.695188134761831,13.994248384033083
13.959137232958897,21.243102071808014,-19.26214643692286,-1.2058130407528644,2.870840119244718,13.996743325169632
13.94479660189507,21.208485473773635,-19.730781937317097,-1.205175043733187,3.3742823847829064,13.992996331458755
13.929352722744985,21.164659602922345,-20.23275308089066,-1.2045967922590664,3.920283382066554,13.989030159829646
13.91408700608112,21.114532908588433,-20.726115113727772,-1.2041385273893186,4.463972871531172,13.985183966894787
13.898900188738658,21.0578121130089,-21.214095821899775,-1.2037969694816515,5.008873205320463,13.98143483049755
13.88365969479382,20.99387728701472,-21.700909011459743,-1.203571549034993,5.559819816536773,13.977753908470957
13.868548192909733,20.92340412239228,-22.18068706952062,-1.2034668994539326,6.110266986496135,13.97418886335823
13.853579673783232,20.846504992027192,-22.65300887701592,-1.203482824405705,6.6596810268054805,13.97074491476405
13.838703430286794,20.762942683904694,-23.11948683211017,-1.2036195670548262,7.2099121836315625,13.967412590572662
13.826161389454617,20.68685745094522,-23.51045728741072,-1.2038308055918323,7.677127992795236,13.964676347423055
13.821967204860359,20.660247098709515,-23.64072288771634,-1.2039213976623575,7.834057319132513,13.963776765705266
13.819125388341439,20.64188178978927,-23.728848247847765,-1.2039885271063049,7.940584102272196,13.96317173236692
13.845599080660064,20.755570838189644,-23.823393132094623,-1.206193327712324,7.920888065542242,13.989450227119953
13.962408648076874,21.258270081156805,-24.155375895294412,-1.2156674057937686,7.74774392333941,14.103532739985644
14.106869298329265,21.87093431772179,-24.555313655869437,-1.2273772388957906,7.531989128895837,14.244506010854595
14.253976989961291,22.484797025411808,-24.95091988977266,-1.2392949625218073,7.31061934140553,14.387935057190264
14.40302617990389,23.096698065786967,-25.340197824043422,-1.2513643954508846,7.084811496903917,14.53312932036757
14.555423929364364,23.712131390289215,-25.726652617998596,-1.2637004806686074,6.852545131205398,14.681456008739241
14.707443986253471,24.31600509240497,-26.100936442715064,-1.2760027247057493,6.619643819836764,14.82928801172979
14.800836776840077,24.6821290243839,-26.325505117386445,-1.2835594556950078,6.476038488964611,14.92004638410729
14.788650846448137,24.786101331134827,-26.38839631278803,-1.282422447441945,6.4352409056284365,14.906864949981962
14.378991395023474,24.895161663812356,-26.448607927488528,-1.2475444347214424,6.395451497862097,14.49379452608442
13.774014543462778,25.050154249530532,-26.533922623484166,-1.1959375343528569,6.33869460526751,13.883918609315621
13.159357750729932,25.200286000509248,-26.616275738635867,-1.143387439066461,6.283483824862492,13.264447363634421
12.544435097080612,25.343147106331557,-26.69437652790189,-1.0907008726271603,6.230702431137737,12.644869320051912
11.921020932586842,25.480567906640832,-26.769266491580915,-1.0371766153070254,6.179765923406044,12.016886228380375
11.302082725645983,25.60968092456647,-26.839415082785287,-0.983931574435993,6.131734869166912,11.393558393223158
10.680600462650627,25.732048364055306,-26.90570772856465,-0.930367609170345,6.0860582296783265,10.76780814301824
10.060148353720118,25.846995854842472,-26.96780833955271,-0.8767984465909331,6.042982859328908,10.143230435245734
9.4358390082263,25.955441204529244,-27.026249168687958,-0.8228056403967369,6.002252556455443,9.51489303935747
8.81620205542113,26.055965844513818,-27.080291650081307,-0.7691328476225996,5.964392369065107,8.891375860535593
8.191630014340149,26.150170187291877,-27.13081982120409,-0.7149547630810111,5.928789877173216,8.263006172980807
7.564930417995471,26.237560646348758,-27.177598274505684,-0.6605164297883103,5.895713193080671,7.63259803861063
6.93848493422488,26.317812706294387,-27.22047275081427,-0.6060311628437947,5.865271976486922,7.002542268620891
6.48237077201587,26.371799251965903,-27.24927031322291,-0.5663203178980892,5.84475819811001,6.543855827734434
6.421053724821493,26.36078146554138,-27.15516208271684,-0.5608998889652186,5.762275979755535,6.48141046185475
6.4112868373333045,26.274326038632562,-26.68979582022974,-0.5596880218076795,5.383478880253592,6.4678737278803755
6.399632563637461,26.166359747118246,-26.13014130805607,-0.558276290412184,4.931925990432924,6.451746268923386
6.388069804271402,26.05410383219691,-25.570147778167915,-0.5569120902448182,4.484322237834964,6.435771178843675
6.376467760867184,25.936350491344637,-25.00346153030008,-0.5555792947729562,4.03552324906178,6.419766194930452
6.36496576788129,25.81457837682863,-24.43687314419056,-0.5542932232441086,3.590839353509177,6.403922000665889
6.353584138054452,25.689168323130826,-23.871467038508882,-0.5530547769557531,3.1509739194761712,6.388264637978928
6.342284805308815,25.55985007048168,-23.305423928785654,-0.5518585878235335,2.7143783755301474,6.37273994176592
6.330976562185182,25.425642873218678,-22.73416449808275,-0.5506943924178996,2.2774552040614244,6.357221191309138
6.319740077324776,25.28755757061659,-22.16174560843906,-0.549569973624625,1.8432495162571998,6.34181775080519
6.310057942646373,25.164800945361627,-21.66463866536971,-0.5486268253544447,1.4690091350947243,6.328557637992426
6.306250723206496,25.11557518554729,-21.468174875684124,-0.5482624551363066,1.3218142670061552,6.323346493204042
6.3178062191677,25.215596075242505,-21.511122968113938,-0.5492513884435916,1.264633576925197,6.334333741249517
6.374247258394941,25.70788389320741,-21.807345854947908,-0.5541030519767121,1.0680351606223848,6.38877108320201
6.444983270659053,26.314545475918052,-22.167964253410307,-0.5601910616393602,0.8213170627170757,6.456945800765735
6.492218350484345,26.713409372229023,-22.40240896871294,-0.5642612833239534,0.6564432887286726,6.502440178767488
6.497252371943861,26.76516738725698,-22.518311835682994,-0.5647047757368467,0.7205355343628945,6.508092585446979
6.490425621441349,26.75521796342966,-22.963145168997247,-0.5641872595920405,1.1753633100034457,6.505764587724207
6.482205986050818,26.7367433646962,-23.49648190410412,-0.5636123649109093,1.7272286618458776,6.502992836535428
6.474034269174661,26.71117661613269,-24.024211056859045,-0.5630941812837361,2.280578056119318,6.500273010874971
6.465984938211414,26.678799104587597,-24.54154367414752,-0.5626370249957621,2.830340662441008,6.497630844236513
6.458001313336093,26.63945932138417,-25.052151554681,-0.5622371056840387,3.3803401557157757,6.49504851123628
6.450104793836025,26.59329428978597,-25.554678611413973,-0.5618952981132669,3.929083283460212,6.492533921301969
6.442269933604382,26.54018507039095,-26.050755326894304,-0.561610357862244,4.478319628850873,6.490079954757195
6.434648567251266,26.48137215486309,-26.530841128758162,-0.5613863544692594,5.017267153602498,6.48773408291184
6.43019197614045,26.44364631729576,-26.810417413814744,-0.561280226940104,5.334597707692555,6.486381998133079
6.425955779074497,26.40546620330873,-27.075364834688255,-0.5611966814700751,5.637752191523661,6.485110705190219
6.423566389894129,26.382921995147445,-27.22445676220161,-0.5611571114866741,5.809403494002575,6.484399774448612
6.428944382505439,26.430960091052214,-27.28363969552422,-0.5616363604212692,5.820495073472152,6.489914586393957
6.477523237445251,26.864582444192784,-27.536844538115485,-0.5656861402479965,5.639608152209954,6.536946678526115
6.548811137460094,27.491726536366702,-27.898746605340186,-0.5716335356765511,5.373671286969656,6.605913353663314
6.621816235784181,28.122914160544138,-28.257871687400826,-0.5777302668067759,5.100889779521486,6.676479451553202
6.696541391246331,28.757672920351617,-28.613892109943144,-0.5839776350608381,4.82140779877726,6.748645041905186
6.773023275046147,29.395818872505643,-28.966654483934185,-0.5903798336950994,4.535254990793385,6.822442873512909
6.850814886757077,30.03322957926641,-29.31388220781265,-0.5969005577613833,4.244281198528515,6.897439556305104
6.921759654352424,30.604540036853916,-29.620774925638553,-0.6028556844425786,3.979134864064976,6.9657798465468534
6.9603359143878984,30.810397541228472,-29.730435145545453,-0.6061311775368482,3.8825358920954174,7.003421242823305
7.304769873288085,30.769090329515297,-29.71063856346261,-0.6360025491174794,3.900313770747659,7.348804067715946
7.92640253843872,30.68936892797305,-29.67237505193246,-0.6898610182783002,3.934580044355287,7.972228732644935
8.572368204911696,30.599441608373702,-29.62912313451496,-0.7457499644515302,3.973162855789969,8.620172690735483
9.22141265010618,30.501762250568564,-29.582031532059077,-0.8018179243755879,4.014956233854628,9.271335344847445
9.869395640589289,30.396872789715253,-29.531341837549807,-0.8577027863549505,4.059769937284246,9.92156941742983
10.520959483782006,30.28391860293691,-29.47660930165988,-0.913797072931335,4.107915656936021,10.575545585112893
11.169374979803095,30.163994380739812,-29.418331024873883,-0.969512923706296,4.15887204110254,11.2265217935078
11.815903180640744,30.03689606763223,-29.356383798819365,-1.024957790702231,4.21276400859197,11.875766707388372
12.463905423927752,29.90189685889392,-29.290375836379816,-1.0804120650883045,4.269841491541755,12.526667393672616
13.113489985999022,29.758842965437935,-29.22019012766416,-1.1358750885386446,4.330107816052181,13.179346135640996
13.760571244996129,29.608579501735306,-29.146208392214987,-1.1909979515782325,4.393237695791099,13.829700585164424
14.395944509144535,29.453414189101096,-29.069530914352754,-1.2449923247471681,4.4582042617064035,14.468484951375297
14.930772644498749,29.31688942253132,-29.00182737850811,-1.290337503205262,4.5151783603330475,15.006342071762422
15.175102485965155,29.2527029930243,-28.96991683012483,-1.3110162148768791,4.5418726237288185,15.252108622626809
15.669958187269435,29.119195658026275,-28.903391735762312,-1.3528408020183065,4.59733560429898,15.74996453947485
15.98407962644992,29.031993031240184,-28.859824518865427,-1.3793440212597736,4.633470729534604,16.06605960686068
15.952277214442942,28.9103768012501,-28.628599134021293,-1.3764601097319362,4.524658363593427,16.031519947124398
15.871884597924973,28.623636111000852,-28.081236729074874,-1.3692232518028769,4.266038256583254,15.944651277736082
15.786199669149214,28.313992049882827,-27.490238962711196,-1.3615371592296144,3.9868068288991005,15.85205079617132
15.701751389852543,28.00465931375056,-26.899918544222697,-1.353990114158976,3.707899590424859,15.760772641269357
15.618636650203614,27.696089313212894,-26.311131558837104,-1.346590189404603,3.4297193407749833,15.670921333994357
15.536629520471276,27.387531533419857,-25.72244103533901,-1.3393167404339765,3.1515856370836146,15.582252417095425
15.455799534515721,27.0793265611535,-25.134492322864247,-1.332175469177826,2.8738019874384517,15.49484084083284
15.375202123414192,26.767887058936886,-24.540438850406474,-1.3250829015298542,2.5931323351076547,15.407664652899264
15.295371795937712,26.45526098785991,-23.944184463337173,-1.3180862727432752,2.3114198598893605,15.321301393301244
15.216893193553062,26.143809632310703,-23.35022901259135,-1.3112364134208307,2.0307894966045787,15.236383311984454
15.139361678301388,25.832014304027528,-22.755672579721697,-1.3044974913845355,1.7498701014557778,15.15247241013425
15.06365808084888,25.52354487768106,-22.167509212849293,-1.2979452736960182,1.4719654278279704,15.070522033824457
15.01680056432199,25.33058223276552,-21.79960883902601,-1.2939037994737883,1.2981307199013858,15.019788800941456
14.994978706984035,25.240180102753943,-21.62725540134764,-1.292025396094924,1.2166919316582572,14.996159515368841
14.819837124240081,25.208923154935864,-21.59319838243725,-1.2772684689741716,1.217814305033989,14.821308241523578
14.279834645101701,25.138524313341314,-21.543232136793097,-1.2317086588389539,1.25005036145639,14.282827241749384
13.66158475542226,25.051739199274873,-21.48251179279918,-1.179413903578836,1.2891023399624155,13.666320176073206
13.039225151161418,24.95767018302606,-21.417553150937625,-1.1266336211879322,1.330717110836208,13.045708580710494
12.4200296502837,24.857355125838392,-21.349050115664497,-1.0739856128194014,1.3743743583145804,12.428237755838728
11.80062137834307,24.75025469882667,-21.276610714170165,-1.02119946044207,1.4203439352902243,11.810533587906477
11.181549416790038,24.63641186538341,-21.200235462508896,-0.9683229112805071,1.4685447332808026,11.193135619574466
10.562254144509794,24.515672546280495,-21.11979297704603,-0.9153141726510368,1.5190081590656932,10.575478174557823
9.942417243583,24.387901133302492,-21.035161183918234,-0.8621481984427511,1.5717228566449442,9.957234955276935
9.324081487170393,24.25347897671684,-20.946565188306604,-0.8090137766012504,1.6265568476611438,9.340438422033289
8.706196205170745,24.112142573564753,-20.853792413069566,-0.7558231575830312,1.683550175799261,8.724032107875644
8.08486939144466,23.962880914367805,-20.756145068297805,-0.7022465584895474,1.7430639865101347,8.104125388269958
7.476676613094965,23.80977029573539,-20.656244738259666,-0.6497210983564756,1.8034452925185196,7.497250291748444
6.871949214094521,23.650585952454154,-20.552587335976327,-0.5974186012045413,1.8655226186349407,6.893753183912899
6.2708278729808065,23.48541631998768,-20.44519195695168,-0.5453623655242745,1.929290295583096,6.293772844832719
5.66902618198768,23.313052410155137,-20.33322543991661,-0.4931847360193412,1.995141984315877,5.693023019879485
5.068254922073045,23.13390668371224,-20.216910181850643,-0.4410394445928789,2.062871843590701,5.093204960700493
4.480543395543341,22.95172761249611,-20.098628972345175,-0.38997685817611294,2.1310063543606397,4.506323430959266
4.1054376796344085,22.831834010484165,-20.020770314187345,-0.3573634596017003,2.175490047299423,4.131694627304632
4.086077336621798,22.81776175072586,-20.17312707846546,-0.35571988652175907,2.3420365157802108,4.11337870056095
4.081734234306939,22.788905214075942,-20.6443066235908,-0.3554822339539822,2.8420898958281575,4.112143490593197
4.077045417668501,22.75122086574103,-21.150424801676223,-0.35525730671824723,3.3859110254870703,4.110830200660862
4.072383453290487,22.706885964894088,-21.65095066828041,-0.35506695806904504,3.930790212182976,4.1095464202160885
4.067782060452596,22.65626801005957,-22.142287323954786,-0.35491238328258484,4.47276292346659,4.1083019973906625
4.0631499898662335,22.59828021009084,-22.634150044660505,-0.3547909908331958,5.022631582635824,4.107073253095129
4.058565516349349,22.533790308830557,-23.118186586021206,-0.35470547348315085,5.571175891834661,4.105882058437707
4.054008839490545,22.462542615739505,-23.596498917740696,-0.35465547150924326,6.120753586945673,4.1047239148976
4.049488425875133,22.384667810587498,-24.06819928582446,-0.3546412322079677,6.670346199555693,4.103601705655843
4.045362470563314,22.307203228229074,-24.496249065205845,-0.35465977062750265,7.175876397194549,4.102601758392161
4.043747089569266,22.275187547046833,-24.663180121226215,-0.3546753941359814,7.374829312520036,4.102216819802119
4.044620132329759,22.28551155908822,-24.727871928477896,-0.3547956479786361,7.429190655849783,4.103436042987809
4.0697241626193685,22.657073793926962,-24.96536288314061,-0.35688853054995595,7.294966024975677,4.127886625658373
4.111624055241276,23.269385891409424,-25.352666655985836,-0.3603821222104812,7.06969976960686,4.168666014647672
4.155116852100337,23.894821687285727,-25.743072869166635,-0.36400949720508413,6.834399831267729,4.210957029526623
4.199190845321183,24.51832286480631,-26.12707364953513,-0.36768676299637115,6.5946227449484285,4.253773965289868
4.244406735321054,25.14747881791183,-26.509328954168918,-0.37146120739157124,6.347435393548454,4.2976602230231
4.290519628198855,25.778436194602268,-26.887437012423025,-0.37531294609761073,6.0942907175038785,4.342376419199577
4.3372986608205615,26.407765397258725,-27.259374047876538,-0.37922324734809865,5.836595865963753,4.387697668440007
4.38508573420939,27.03976390162931,-27.627700288881353,-0.38322127976101034,5.572611214401683,4.433954091865164
4.433659179445571,27.67116477719829,-27.99051985433201,-0.3872891242978991,5.303709081610564,4.480929879061214
4.4837628521574855,28.311134502879497,-28.35303637993694,-0.3914898060630528,5.025921473663264,4.529342550955332
4.5345797975944455,28.948769852444624,-28.709031957843546,-0.3957555868369872,4.7439389269014836,4.578400998548742
4.586250153358929,29.585598681602452,-29.05943248594641,-0.4000989105632172,4.457158371297699,4.628239696044769
4.639056744267184,30.22474352263352,-29.40597239674548,-0.40454432600766826,4.164189562959671,4.67913013508951
4.687556400667571,30.80161132480699,-29.714358274918098,-0.408633385646273,3.895369987012802,4.7258315955873265
4.706920978533527,31.02919866530904,-29.833015962681515,-0.4102668984839758,3.786304643415598,4.744455024536112
4.694550598176112,30.8756951956647,-29.560457414709877,-0.4091345829580407,3.667341148995101,4.731208067394364
4.669428627262229,30.56126501508103,-29.00149231147355,-0.4068401689954535,3.4229914700182564,4.704300793846421
4.643287250697031,30.230165743292417,-28.411947002046176,-0.40446010897761464,3.1647371309248866,4.676294234988029
4.6174622504375025,29.899057461851626,-27.82144014631058,-0.40211655177985933,2.905526871793506,4.64861899764868
4.591925600651761,29.567618995859988,-27.229423577794627,-0.3998069196187612,2.6451339427402694,4.621245122593725
4.566649910974783,29.23552185840308,-26.635331814234604,-0.39752872139956696,2.383321580606281,4.594143295588714
4.5416733616731495,28.903298950897714,-26.040139599527713,-0.39528537583184686,2.1205313863704913,4.567354503848577
4.516985085812685,28.570845810680748,-25.443682339031945,-0.3930758664838368,1.8567033411255067,4.540867151258925
4.49276534770943,28.24067458349962,-24.85049792906766,-0.3909161976659225,1.5938619543902752,4.514874777384061
4.468726514089557,27.908924159506583,-24.2536743936293,-0.38878064016246294,1.328958438003704,4.489068783975379
4.445140185533548,27.57940209924309,-23.660085361621466,-0.3866932416754206,1.0650569805413108,4.463740818821582
4.421698183407816,27.247854357581023,-23.062089330406977,-0.3846266627833088,0.7987723209609046,4.438560008480289
4.403846050761281,26.99259975317116,-22.601194147100703,-0.3830584003726458,0.593255771018611,4.419378311313907
4.391495300168045,26.83431667207393,-22.46233974274684,-0.3819863916551736,0.6127663274702212,4.407193108625994
4.351005616602569,26.327770454794198,-22.16513204727806,-0.37848475465016906,0.8223685072320054,4.368203877742075
4.30242133902648,25.709326793297784,-21.797669522455376,-0.3742890017090734,1.0736629653313856,4.3213848758053945
4.254747691928096,25.090903608538774,-21.42513738314142,-0.37017791127021243,1.3198582285920366,4.275405176582219
4.207702378583761,24.46907639601142,-21.045404890050648,-0.36612656919314757,1.56225001782201,4.229993319222834
4.1617808786274635,23.850721391808765,-20.662646496609398,-0.3621770537892735,1.7981335943303784,4.185628686048868
4.117526942434117,23.243885331591787,-20.28200455167661,-0.358375403568298,2.0246014425190366,4.142839015133582
4.08936161057123,22.851939682615445,-20.0335026378319,-0.35595799537921435,2.1682179565328523,4.115586743154155
4.086238475017177,22.81872376728705,-20.15553626039313,-0.3557240327949998,2.3234838880186377,4.113430368336561
4.081975070444219,22.790660026735956,-20.618166776138263,-0.3554894645630864,2.814195128037205,4.112216937749039
4.077280220174822,22.753276244354762,-21.125066370140235,-0.3552625544721822,3.3584971355014797,4.1109007657764485
4.072626808963081,22.709378898671872,-21.62480665402506,-0.35507082473384566,3.9021531545995787,4.109618088852452
4.068007348802486,22.658916151476685,-22.118204182215756,-0.35491392026369667,4.446031605977818,4.108367499291787
4.063375682674858,22.60128280329647,-22.610153597403563,-0.35479083324136795,4.9956325104404256,4.107137560232179
4.058777748639325,22.53694771006506,-23.09573882381329,-0.3547033794251814,5.545570753327547,4.105941549304847
4.0542276565769315,22.46614566555874,-23.573486844211313,-0.35465176462501175,6.094138467277614,4.104783731326897
4.0497137311524325,22.388740621823707,-24.044643020990843,-0.35463577732374313,6.6427171066967645,4.103661692998946
4.045501993325075,22.309945845171345,-24.481695370368964,-0.3546533084567995,7.1585804015117445,4.102639787872035
4.04370471047415,22.27435830655885,-24.667434192160368,-0.3546705236263856,7.379913636179067,4.102211335096045
4.02281146398184,22.26659657882508,-24.715645724000208,-0.35288378219994804,7.436015041055594,4.081510144049548
3.6313490816469876,22.294020004460346,-24.73169303347536,-0.3185459950683413,7.426937518482769,3.6870297626233617
3.030396343861254,22.330634743165287,-24.753103855685946,-0.26580797160954334,7.414805947066997,3.081475087424255
2.420484115268071,22.36101938619062,-24.770858651126982,-0.212257942693646,7.404729012458117,2.4669251225570727
1.810666049179112,22.384587968866,-24.78462260486336,-0.15869541605133983,7.3969073596763755,1.8524964917853146
1.2025661155491878,22.4013157076307,-24.79438431669505,-0.1052705315793758,7.391323526731004,1.2398175678681504
0.5960728934922851,22.41127379612913,-24.80019596401049,-0.05197458112426887,7.388019116651926,0.6287716966588301
-0.013199101898287439,22.414516580781807,-24.80208873345068,0.0015707386215098348,7.386947418940949,0.014932703422670255
-0.6230087296712188,22.410978255206317,-24.80002506308059,0.05516332022757768,7.3881309831923065,-0.5994480702141876
-1.2310528974622434,22.400688411611608,-24.794018156662943,0.10859223072716163,7.391528155719835,-1.212058741898475
-1.8389754399130251,22.38365150839056,-24.784074231005942,0.16200319325979895,7.397197342359574,-1.8245583387905433
-2.4463532840521336,22.35988034132445,-24.770193193561777,0.21535086124655348,7.405099562833416,-2.436529047471188
-3.0565391914852045,22.32919528821355,-24.752263894238588,0.2689244523777049,7.415289324435353,-3.051355713696333
-3.652186296971071,22.29264788558573,-24.730890170004354,0.3211921147900991,7.427380495587743,-3.6515676838949354
-4.0255661954279685,22.26641290593015,-24.715538980775232,0.35394380071650056,7.436072714087623,-4.027826370272243
-4.041400865969176,22.24028879319884,-24.544552057850396,0.3552160132345745,7.2911150837423335,-4.04287521913614
-4.035098752209,22.164005041826186,-24.039121441370025,0.3543340060357188,6.862015366994506,-4.033852868478102
-4.028151248678821,22.07465954625751,-23.47718432494556,0.3533868525167211,6.38947556679789,-4.02392489912621
-4.021286668424351,21.981001131636887,-22.917018596468,0.3524765754230731,5.923019297416669,-4.014133403141564
-4.014465843402441,21.882668869647752,-22.355513564826495,0.3515969383550353,5.459897094710428,-4.00442110306545
-4.007715467842685,21.78020109672841,-21.794937557410055,0.3507504616434536,5.001838758434978,-3.994824715784687
-4.000943352824425,21.672274776630363,-21.22763467797914,0.34992504279584935,4.542512114507299,-3.985212153951408
-3.994250206138697,21.56057633756185,-20.662048098510276,0.3491324092347945,4.088673168943792,-3.9757253498644816
-3.9876172800694625,21.44496402521479,-20.09669015665748,0.34836939880917744,3.638976158441384,-3.966336503569938
-3.9809996866950823,21.32475144746888,-19.527760207501817,0.3476302678421215,3.1903071640466543,-3.9569810798334752
-3.9759134935328575,21.22905965909522,-19.08713891759532,0.3470770844553874,2.8454147580266165,-3.949798098335705
-3.975015555961621,21.209541263197433,-18.969402690628204,0.34696983381103036,2.747204150285834,-3.948304521998115
-3.996470291032424,21.523034452472036,-19.17536710493114,0.3488065649436816,2.639547357885056,-3.969112295572276
-4.0369044328124,22.106273894374297,-19.554964049918205,0.3522702176730826,2.43566183108611,-4.008302283689044
-4.074870537490565,22.645091487775424,-19.90151572945192,0.35552513799459823,2.24316562282668,-4.045071182358155
-4.087595793756121,22.82514892079178,-20.034262990734103,0.3566208290861636,2.1957774731711353,-4.057496922484476
-4.084540694530016,22.806615185068576,-20.36673797607415,0.3564452079844709,2.5467983909484624,-4.0566272595014645
-4.079841418332145,22.772530342512038,-20.875948013805417,0.3562021210558773,3.0901119712528193,-4.0553066189689035
-4.075191631890156,22.732024673538216,-21.377132862014342,0.3559944884243677,3.6318209161829276,-4.054021252470428
-4.070542363266973,22.684633563842258,-21.875561570509355,0.3558203408806973,4.177659081712067,-4.0527584639452705
-4.065930749799842,22.630672166726605,-22.367232545537117,0.35568143472046093,4.723309571718567,-4.05152926678654
-4.061326700236657,22.5697403841171,-22.855338984806146,0.3555771795824225,5.272365797848477,-4.050326527289193
-4.056757539085324,22.502146175998575,-23.336965988628524,0.3555085635362045,5.821604791141164,-4.049158295764886
-4.052209617896477,22.427665809652193,-23.81354578751882,0.35547562189199433,6.372682565876772,-4.048021890516079
-4.047690771975877,22.346392993513238,-24.28424507282939,0.3554787409358472,6.9246720723982325,-4.046920129271604
-4.044570162641143,22.285957562923404,-24.60761885753505,0.3555022513475411,7.3084932518054115,-4.046175903375534
-4.043619990558029,22.26684723098887,-24.705804351801735,0.3555129340785978,7.425792711648888,-4.045952078150051
-4.0530259143814185,22.40608309433658,-24.805143187901812,0.3563053132322347,7.385838151817369,-4.055178793917435
-4.088441300616241,22.927630580335308,-25.13712107400316,0.35925778981990825,7.196051550124379,-4.089660873461167
-4.131501662648801,23.552405826761497,-25.52998167973041,0.36284830587911093,6.963870680424326,-4.131550819133037
-4.17551528421855,24.18065055482961,-25.91975191744295,0.36651949882021445,6.7251213648132815,-4.174328631310351
-4.220066002144278,24.806159091200172,-26.30260463399861,0.37023713730977575,6.482184584724869,-4.217588814935222
-4.265255463608614,25.430209295444076,-26.679406426382016,0.37401018757392285,6.234648326626942,-4.261429507337626
-4.311696758831187,26.060877901006155,-27.05500257819219,0.37789039849857897,5.9792770550027186,-4.306444027155279
-4.3450883193322785,26.50780000265053,-27.31802047388103,0.3806821797032249,5.795156120054755,-4.338784855053638
-4.262751104269109,26.58151456075792,-27.36079508389629,0.3734693408165259,5.76475895216735,-4.2558320833005405
-3.7851619218299355,26.615211899288,-27.378664877561256,0.3317283080767008,5.751872058947209,-3.7757751317017676
-3.157166432936129,26.65340261144731,-27.398900728170574,0.2768114501772975,5.737254197568942,-3.1445773535382577
-2.52694179005311,26.68475685922964,-27.41550089578179,0.22167027747358906,5.725243602591019,-2.5111802627942565
-1.8978028762865493,26.70910628603173,-27.428384231761402,0.16660055539859614,5.715911175593296,-1.878907366463948
-1.2711452774207914,26.726464861019892,-27.437561270691337,0.11173140917222342,5.709225584588653,-1.249153573455428
-0.6407426334857107,26.73699817864777,-27.443130288948062,0.056521756262435385,5.70518890342022,-0.6156521087232983
-0.01403679585745261,26.74058335111104,-27.445025840272532,0.0016298076551722331,5.70381935065093,0.014125992767701509
0.6157605948010882,26.737270964943903,-27.443275586762685,-0.05353318371769583,5.705098310893144,0.6470105795435286
1.2427712262754536,26.72708233701993,-27.437886811372497,-0.10844441897215017,5.708985810363079,1.2771027441839315
1.8721913087698214,26.709940297266677,-27.428822405294582,-0.16355713318504447,5.715571563622212,1.9096322413024174
2.5018522366370157,26.68584902187908,-27.416077043337122,-0.21867371759710125,5.724819348323987,2.54242815553674
3.130019789496157,26.654883320467757,-27.399684172701637,-0.2736366154221387,5.7366955257342935,3.1737557283648012
3.75742116385761,26.617027427686434,-27.379624448379467,-0.3285005093792086,5.751168796867052,3.804354700055693
4.253171978966031,26.58221095232225,-27.361162576853648,-0.3718303746371863,5.764495186047346,4.3026653044015
4.347381701329365,26.542325606577073,-27.293300383480695,-0.3800409353412549,5.735901194631114,4.397156333103386
4.330341094188817,26.316808166928844,-26.850577682680857,-0.3784110450924866,5.518813619125896,4.378589103946713
4.3080329414212555,26.018011686547343,-26.264254682746028,-0.3762853671843224,5.231440445856945,4.354280151898913
4.285780742339784,25.715850712492028,-25.671619431463412,-0.3741742670593117,4.941118319725653,4.330029384095331
4.263656388128736,25.411260008268005,-25.074505239992536,-0.3720846333682425,4.648745307533788,4.3059149359562525
4.241986494798972,25.108807328326126,-24.48185906861786,-0.3700471326958469,4.358698425687386,4.282292672697981
4.220408218409147,24.80349102383125,-23.883873574058338,-0.3680274879917186,4.066174464411807,4.25876692624615
4.199319893591122,24.50102197600117,-23.291726685495224,-0.3660627967572536,3.7766378218107572,4.235771865182613
4.178395619916146,24.1968241442477,-22.696451323445846,-0.3641224612077756,3.4856996756681595,4.212952030617512
4.157758679830781,23.892730133631787,-22.101629010430013,-0.36221780953643196,3.1951081457786508,4.190441735972955
4.137130857526774,23.58463567939659,-21.499229824832167,-0.36032316191003494,2.9009394348397044,4.167937329734291
4.116818340842453,23.277118324571315,-20.898201766717538,-0.35846662101257204,2.6075619977316578,4.145772683947031
4.0989761506390705,23.00354228413998,-20.363709316794978,-0.35684351112639434,2.34676209497437,4.1262999333446615
4.0910631418027394,22.881158100990163,-20.124663723562612,-0.35612598973564613,2.2301521904358275,4.11766261661667
4.071325708233308,22.82717601524994,-20.017664134217977,-0.35439617563146486,2.177258228446355,4.097605048068698
3.711040432326537,22.85140745928801,-20.03167114141387,-0.3230429163164117,2.1691675350638144,3.7374411866327146
3.11147304306497,22.886732026929423,-20.052076945941298,-0.27083992775461857,2.1573628572953796,3.138107177353089
2.5003062459687446,22.916325946289202,-20.069159991483755,-0.21759772744334555,2.1474645007199946,2.527212780762058
1.8858624969267719,22.93956555895741,-20.082567208216645,-0.1640460550331542,2.139686639123146,1.9130711649154768
1.2734056620093066,22.956239726059096,-20.092179504123354,-0.11064902930077307,2.1340737510724237,1.3009385424427398
0.659970604370035,22.966459245145508,-20.09807125958866,-0.05715514653575033,2.1306537895446658,0.6878409041559406
0.044457036968415645,22.97019586758771,-20.10022564529816,-0.003473548625369409,2.1294074530280045,0.07267343064155396
-0.5659441449357787,22.967455754379177,-20.09864714760522,0.049762744722166075,2.130333343206926,-0.53738397440792
-1.1794596184791424,22.95822972270027,-20.093326646734493,0.10326460989984931,2.1334030294063555,-1.1505592782190348
-1.7927389365426971,22.942523822318666,-20.084271581936235,0.15673521971737597,2.1386746885279173,-1.7635128280718844
-2.4081685637148667,22.92023571127932,-20.071415792560728,0.21037623659126867,2.146148400185917,-2.3786358658010167
-3.020221858692581,22.891574250680268,-20.0548741346741,0.2637001674072493,2.1557496510849097,-2.9904113458524875
-3.63280696955402,22.856384488257245,-20.034546810163715,0.3170398907390597,2.16749358260176,-3.6027520952797305
-4.24689444112061,22.814566567492555,-20.010373380121358,0.3704775286522602,2.1814684027504594,-4.216635780693834
-4.857276234682799,22.766487302364226,-19.982552248211856,0.42355264812969506,2.1975121176064536,-4.826862445617989
-5.472742779535499,22.71140760699722,-19.950643212112002,0.47702364462654745,2.2158613248639756,-5.442227297854471
-5.950733986325784,22.664041918420146,-19.92317142831194,0.5185151731009339,2.2316148495939134,-5.920181809543826
-6.036707876602013,22.6515338093288,-19.983158554303742,0.5259963314422154,2.3032977248867006,-6.006785128288998
-6.031121626045339,22.627027127566777,-20.395612047631314,0.5256878747032788,2.740290721679088,-6.005211360477705
-6.024236577420249,22.590726547176118,-20.90154798078818,0.5253513846880367,3.2825675430831818,-6.0032993928096525
-6.01737308406762,22.547704314997276,-21.403200628676615,0.525064954125692,3.82728243868803,-6.001425467820901
-6.010555710455415,22.498069151549274,-21.898762099753615,0.5248299947487046,4.372518648182301,-5.9995975697655375
-6.003819583840154,22.442123341001746,-22.385701788300207,0.5246474799553741,4.915443075046256,-5.9978259440207005
-5.997044680387722,22.378786251922577,-22.87266668622215,0.5245148952232546,5.465784030171522,-5.996080512111716
-5.990340660355498,22.30898284393294,-23.35173813105522,0.524435281182828,6.014697254197677,-5.994391112575619
-5.983684769903122,22.23251489944489,-23.82455932720987,0.5244082965148731,6.564024296466263,-5.992752877807635
-5.977175256756099,22.150675593642312,-24.284216607177587,0.5244333841329182,7.105557755467517,-5.991190135870273
-5.973596974608259,22.102664584707046,-24.53570487258786,0.5244693436868787,7.405077214126819,-5.990348392589644
-5.972560052787304,22.088346284706027,-24.608422640427353,0.5244827469776022,7.492119119506674,-5.990106823993348
-6.252744831430252,22.05637809422297,-24.59231646021994,0.5489907220499494,7.505363095582649,-6.272570841419246
-6.827561766769487,21.987182453799896,-24.551597434296855,0.5992277270587147,7.5280941623837,-6.852054497356687
-7.4286914730059,21.908186983102542,-24.505036154767083,0.6517093483888307,7.5539812021247625,-7.45813453178811
-8.032421284873477,21.82199061292663,-24.454138749476712,0.7043564771910145,7.582151037015679,-8.06691413142873
-8.633415387313871,21.729320501059203,-24.399311798371013,0.7566989382183467,7.612346971197738,-8.673018848583705
-9.236475187786423,21.629403330934643,-24.340069858357012,0.8091474505181152,7.644769296314885,-9.281298947230594
-9.83570179425011,21.523208919030893,-24.27696797914838,0.8611894239079769,7.6791429579727675,-9.88580557887791
-10.439482569587438,21.409188685138453,-24.20905351635783,0.9135459379324712,7.715913620762954,-10.495008226218145
-11.04037192570386,21.288669300617453,-24.137084919350904,0.9655661831041675,7.75462673294652,-11.101400589838525
-11.64219013515335,21.16086545013925,-24.06056066791076,1.0175764846842492,7.795507114616473,-11.708843047502164
-12.243517342842692,21.026010935904438,-23.97958172494539,1.0694452666880132,7.838418753329442,-12.315911127955733
-12.840779934860688,20.884934850216936,-23.894617141762097,1.1208682627212838,7.883129890298919,-12.918995104533927
-13.259323549791587,20.781801198589182,-23.83233993963156,1.156842739781178,7.915678059692159,-13.34169363355245
-13.514201739824557,20.71726117626819,-23.79329702222599,1.1787244190857389,7.935987038321252,-13.599133351852087
-13.818874153018115,20.638353915835616,-23.745313993835207,1.2048545855319135,7.960581907140262,-13.906896011220342
-13.809131933407969,20.608747493173563,-23.511505219128566,1.2034300625057885,7.756628985263823,-13.892745705268897
-13.787209110137153,20.538419404796787,-22.982093273425335,1.2002861818420625,7.298105194418939,-13.860949523595927
-13.764517943167494,20.460249916658114,-22.42931856287057,1.1971210114310271,6.824077912045896,-13.828103626757828
-13.741741858727119,20.3763163848233,-21.869510171385144,1.1940336058874295,6.348781396145726,-13.795197733972255
-13.719079300359436,20.287386371312532,-21.307505430628705,1.191049460581877,5.876280416642084,-13.762515239337588
-13.696711753036732,20.19434049600158,-20.747888269327326,1.1881889972297321,5.410273768095833,-13.730313212849389
-13.674477528809453,20.096678065721402,-20.186703263886958,1.1854280928800638,4.947310881804506,-13.69835434398008
-13.652249384552231,19.993906373080517,-19.620730891767618,1.1827492603412633,4.484668192490479,-13.66645237175392
-13.63022239007281,19.887014506147256,-19.054951876207333,1.180174049838103,4.026332491091005,-13.634883785453713
-13.60878713496819,19.778180406014496,-18.499607802988578,1.177743176441031,3.5803577525318047,-13.604203357462938
-13.595864730804985,19.71027939774077,-18.16252097685789,1.1763132571730168,3.3114939500585097,-13.585725471254332
-13.5913891367047,19.686361069218766,-18.045367788545366,1.1758242214223145,3.2183705048081497,-13.579328807542366
-13.641930679288537,19.90272805383765,-18.187585573840483,1.1800270276497093,3.143198883481932,-13.628389824640623
-13.771645254948536,20.452491241718924,-18.55854204146911,1.1908282448610614,2.9617493923071043,-13.754493455168449
-13.901988549592435,20.996195288320685,-18.921304639712595,1.201682855953949,2.778129016172641,-13.881112888829744
-13.95966238926673,21.23403578244095,-19.078714027488214,1.2064862651673787,2.6965050832611084,-13.937109080807264
-13.959599077125711,21.24357450908586,-19.255132228942234,1.2066511778220994,2.863348939333272,-13.940563341995894
-13.945340905403492,21.209248480015994,-19.72125292860289,1.2060155232868708,3.3639847979439486,-13.936843517809736
-13.929917350655433,21.165600461967184,-20.2227668344382,1.205436281764097,3.9093505006219815,-13.932888425575781
-13.914620612073087,21.115487330501704,-20.717331573651045,1.2049754473978038,4.4542296059330155,-13.929040266530833
-13.899434575047266,21.058875803024726,-21.205482496761118,1.2046324529767751,4.999190940166857,-13.92529722220485
-13.884217829440852,20.995151308932837,-21.691734525564982,1.2044058920800418,5.5493658148012495,-13.921627900113187
-13.869147152978757,20.924991837184063,-22.170417575681824,1.204299851559395,6.0984038224201855,-13.918078129461291
-13.854161342801165,20.848130501418396,-22.643486712701755,1.2043140945821547,6.648527689866383,-13.914635761862149
-13.839260826860693,20.764546594144285,-23.110921821131132,1.2044495896488048,7.19973797894427,-13.91130366846186
-13.82663911721275,20.68805254268222,-23.504532558518598,1.2046613361814211,7.670003961224384,-13.908555145757866
-13.822320845394476,20.66066527940232,-23.638699586976767,1.2047545876019115,7.831613222747795,-13.907630898303777
-13.819444226267562,20.642074028793306,-23.72793253887712,1.2048226632753123,7.939473991736358,-13.907019861561274
-13.84434870126014,20.748899355173517,-23.81896756998419,1.20690326605102,7.923164073994177,-13.931787751542682
-13.959752985121074,21.245679361164836,-24.147107082281746,1.2162632894818028,7.75212548338315,-14.04449810387016
-14.104559970320896,21.860005832385504,-24.548228369566967,1.2280011131591144,7.5358852741606945,-14.185810142888503
-14.251021647351676,22.471373438401862,-24.942327423063148,1.2398664030416173,7.315517668085038,-14.328610185199642
-14.400333774651415,23.084566265356067,-25.332532602051312,1.2519570152080846,7.089340300736027,-14.474061546370237
-14.552390121680157,23.698835290059822,-25.718361265571673,1.2642653308874439,6.857620128715553,-14.622056897417378
-14.7085203292572,24.31912377570188,-26.1028609195035,1.2769000003068256,6.6184305995031565,-14.77388510635316
-14.867174873247313,24.938879887789323,-26.481934542420277,1.289736748689616,6.374258198855786,-14.928034541866722
-15.028375439830876,25.557951285682417,-26.855535411229475,1.302778557218616,6.12520644410206,-15.084523527214158
-15.19261973128002,26.17796868866081,-27.224676389602376,1.3160669713423838,5.870644604122872,-15.243831967399876
-15.359557387325074,26.797322317071636,-27.58842790179359,1.329574981056714,5.611258849710618,-15.405616746629361
-15.531284226892742,27.423338152752805,-27.95105187891658,1.3434736189741723,5.343935089995561,-15.57190372280448
-15.70583200918158,28.04839008036547,-28.30809516360414,1.3576051184690336,5.0718887233775165,-15.740781777327728
-15.874219564450923,28.640908306419185,-28.64195144089793,1.3712434146837538,4.8092921993668005,-15.903569284635676
-15.96144260804688,28.943867028262243,-28.81093274732987,1.3783104100333838,4.673261531695405,-15.987842396849713
-15.978207474548231,29.00113538416385,-28.80187508927892,1.3795898539326936,4.606551472456007,-16.003056469292073
-15.914214090312813,28.77410419733302,-28.368466237059,1.3738209781359003,4.401770414779382,-15.933910715450253
-15.828473928171146,28.466323362681738,-27.780981952947137,1.3661159359927044,4.124196132786622,-15.84125567035424
-15.74376968871258,28.158130114627994,-27.192795432985264,1.3585319010188326,3.846295043885516,-15.749706295873102
-15.659843815792017,27.84862725231857,-26.602189986952556,1.3510456084996485,3.567254384477535,-15.65898381922187
-15.577285995122363,27.540054565034232,-26.013435058498363,1.3437092858429143,3.2890897430726005,-15.569725376553025
-15.495805570058575,27.231415789053074,-25.424624987528762,1.3364965631427357,3.010899302677908,-15.481616519844478
-15.415085254575207,26.92155500521662,-24.83355077066295,1.329379114921469,2.7316380460658336,-15.394313799069463
-15.33475014415064,26.609026981993676,-24.23745278465732,1.3223240035193655,2.4500008681167746,-15.307411184680692
-15.255708096468892,26.29739982420818,-23.643133363552213,1.315410790459305,2.1692004734222174,-15.221890370166538
-15.177677020448998,25.985647933502825,-23.048632740607164,1.3086142928655877,1.8883098746895801,-15.137445974324594
-15.100528168279311,25.67331316941132,-22.453074089589716,1.301922996315614,1.6069138009596882,-15.053938384107424
-15.03398021564269,25.40054260405166,-21.93299761153485,1.2961743614855175,1.3611771098284309,-14.98189039498333
-15.004672659642035,25.279412650917656,-21.70205766528486,1.293649635874221,1.2520560140491392,-14.95015604368996
-14.96429547209887,25.224578574332746,-21.604685466577955,1.2902283734508382,1.210437254700729,-14.908900213529243
-14.573223310886386,25.143527069631602,-21.55030140913425,1.257272208603818,1.245775125275477,-14.5192030824659
-13.96714416821746,25.01246678100514,-21.462793289787278,1.2060827284711666,1.3023213051716918,-13.915228898999338
-13.354568639333223,24.873217219873244,-21.370299288792754,1.1542082227543597,1.3616612152664112,-13.304742198387386
-12.739574195334935,24.72649128120221,-21.27326845583997,1.1019967482099298,1.4234338721249717,-12.69179821565661
-12.128793160936953,24.573828857095368,-21.172677922474556,1.050017934444183,1.4869184617149076,-12.082994980790465
-11.513375927405903,24.41294188042583,-21.066987048817744,0.997523986144495,1.55308399837502,-11.469514012226421
-10.899814646208918,24.2453993431411,-20.95718396742578,0.9450735762356677,1.6212000480897608,-10.85781422917949
-10.287627299315385,24.071040120974114,-20.843114088475236,0.8926334642328791,1.6912552720685272,-10.247402572519794
-9.676093268364136,23.889615330063673,-20.724573000145448,0.840145659781873,1.7633657071082993,-9.637564993230303
-9.066179255652006,23.70135896269237,-20.601660821523147,0.7877003668389273,1.8373556796890764,-9.029253088747996
-8.465086445859436,23.508589494044628,-20.47583859989932,0.7359246908773325,1.9122789117337948,-8.42964449943129
-7.866563019988456,23.309408764819203,-20.34581117339033,0.684290749668839,1.9888065981812977,-7.8324924534038045
-7.273959502193214,23.104996520277307,-20.212301301378126,0.6330891406542667,2.0665092393337194,-7.241148082041217
-6.675622583337042,22.891232569635537,-20.072557774578627,0.5813207224901009,2.1468597736183135,-6.643970073377208
-6.1682382692484286,22.70407761765575,-19.9500687386957,0.5373691610765221,2.216470954725775,-6.137475205245756
-6.037115071496023,22.65315957340973,-19.952873593479406,0.5260166019574334,2.271407210931677,-6.006904768024094
-6.032124979762774,22.631763962178233,-20.321514573651363,0.5257375091993715,2.6614731325748098,-6.005496781520879
-6.025208142119824,22.596274428415068,-20.830184070484826,0.5253924489131118,3.2056726800278903,-6.00357154854
-6.018339298870623,22.554192618726105,-21.33262257833118,0.5250988058051816,3.750233067642055,-6.001691594481323
-6.0115128909984,22.50547317727261,-21.8292377941872,0.5248564804199132,4.2956073764632885,-5.99985651840609
-6.0047462603341035,22.450246975722795,-22.31877555638675,0.5246661298333638,4.8404104686981455,-5.9980720079788155
-5.997949027241507,22.3876712843312,-22.807736951405914,0.524526098000278,5.391986676570308,-5.9963158288566785
-5.9912285225812205,22.3186554033378,-23.28837311900841,0.5244393317993605,5.9416772158720565,-5.99461719278524
-5.984563616920544,22.243040732433297,-23.76222024902747,0.5244053407062627,6.491176995376385,-5.9929715255760465
-5.978003086664929,22.161489253540857,-24.225854423010496,0.5244238224851263,7.036399835843068,-5.991391337088153
-5.973944892749826,22.107441496299344,-24.51123577436621,0.5244616457679587,7.375851846888879,-5.990434415941965
-5.972726232283502,22.09066645644741,-24.59672117373833,0.5244770084327788,7.478119148191972,-5.990150211431393
-5.983501769373699,22.19827539895477,-24.681904937642358,0.5253920277732117,7.455596369712351,-6.000800101988254
-6.0335251975967426,22.69744874607327,-25.00118693800648,0.529549640498539,7.2752529336383,-6.0495247733233315
-6.09659384618957,23.31772077537753,-25.393239672527333,0.5347919983427221,7.046458633935814,-6.110905038669225
-6.161410255164685,23.94487919693311,-25.78439504185867,0.540180799866075,6.809858812908917,-6.173928447554253
-6.227147761166785,24.570547784643406,-26.169393014063765,0.5456480049184763,6.568576915013151,-6.237789081338822
-6.293808213273863,25.194568053870267,-26.548206760794432,0.5511944598477437,6.322744325447983,-6.302487757682296
-6.362093394995837,25.823177721399727,-26.92461948567608,0.5568793222178047,6.069899584077755,-6.368703768633357
-6.431962939393154,26.455526511304736,-27.29805208849813,0.5627000926798912,5.810313790950579,-6.436395323092091
-6.502884144827808,27.08645481633421,-27.665461676307814,0.5686132539682056,5.546108380613311,-6.505044479322771
-6.575068419733592,27.717590095429752,-28.02784506180442,0.5746372981475204,5.276650317551573,-6.574854519535016
-6.649127396454753,28.353845290163438,-28.38799173034358,0.5808242716749672,4.999809686786245,-6.6464146050777355
-6.724526259678872,28.990182954896017,-28.743020950986505,0.5871305572156198,4.717747993217993,-6.719205584971408
-6.801688163741725,29.62976864384635,-29.094693330880645,0.5935926437568231,4.4290555732268535,-6.793633820440146
-6.8799837888459505,30.26703605104849,-29.439971822323454,0.6001589289565185,4.136267574531169,-6.869090456418743
-6.938985638175114,30.7396540810659,-29.69276166354906,0.6051136582720253,3.9158315428764765,-6.925910646201984
-7.034588548847434,30.801697078997805,-29.726269102913793,0.6133825226122865,3.8862828690767617,-7.021409681181995
-7.51852716450991,30.742462804711785,-29.69786875572481,0.6553405010764951,3.911766861103171,-7.50669965498562
-8.16509599696413,30.657020419381507,-29.65682988222923,0.7113324008416495,3.948469275932225,-8.155172994540456
-8.816465042890291,30.563610960842773,-29.61186582670986,0.7676574312356278,3.988517076266347,-8.808584080176036
-9.465877837093391,30.463102241697083,-29.563366275663054,0.823722416534214,4.031487720935969,-9.460165144735853
-10.113577493590313,30.355471234267892,-29.511300979178824,0.8795464845869583,4.077433302457256,-10.11016959989094
-10.76022405576644,30.240593914414724,-29.45557921789312,0.935179203700772,4.1263540576762665,-10.759267846426054
-11.41003621524316,30.117619103152347,-29.39575344152037,0.9909739105920417,4.178556527289474,-11.411704774423805
-12.059315266719251,29.987139654185498,-29.332084090060164,1.0466116252207698,4.233824182158246,-12.063777035548616
-12.704936718707815,29.849783341778807,-29.26484074765944,1.1018170571301624,4.291833339900683,-12.712354351436106
-13.352811762344807,29.704239047878236,-29.193341098501946,1.1570862754166271,4.353076938743671,-13.363384160690542
-13.988405106092111,29.553879151981352,-29.1192142191401,1.211183486702332,4.416170516399274,-14.002263687790848
-14.409140228248464,29.450179802595336,-29.067933799008102,1.2469211961844573,4.459560598619278,-14.425282833146083
-14.696198178185899,29.37750864975486,-29.031920693858904,1.2712701939804483,4.489907365731404,-14.713950309081037
-15.285810054201939,29.223317744009066,-28.955297320896225,1.3211890549792604,4.554099398224144,-15.30700314443599
-15.829179501055341,29.07531027944587,-28.88148226310128,1.3670876983570603,4.615534949878322,-15.853706887171263
-15.98317865827642,29.018655426106488,-28.835319937920378,1.3800551041728328,4.622335754114937,-16.00841446180756
-15.927064545137027,28.81985509233353,-28.455798694182704,1.3749946768843875,4.443015664321982,-15.947783207655398
-15.841952383894226,28.514961508861955,-27.873812551868753,1.3673418236903045,4.168038451565058,-15.855808815398955
-15.756839099352526,28.205933148541032,-27.284019576731104,1.3597167718237972,3.889377912312056,-15.763819492989812
-15.673139647680472,27.897917218784297,-26.696239646629955,1.3522462812465286,3.6116720188986404,-15.673344007026312
-15.590222407857995,27.588658671408623,-26.10616476636203,1.344873575554326,3.3328837903038004,-15.583699310035543
-15.508289605616861,27.278950485665582,-25.51530404389,1.337616443585427,3.0537247542319537,-15.49510364458084
-15.427775397592423,26.97052209398386,-24.92695235303522,1.3305128123759478,2.77575025066215,-15.408026278650398
-15.347149628247113,26.65751816435279,-24.329937178713546,1.3234277133294532,2.493680384507097,-15.320811819043515
-15.267873156235005,26.34561144707725,-23.73507580769172,1.316489591985262,2.212624750584178,-15.235039981993244
-15.189666533824782,26.03379811202902,-23.140449788280456,1.3096734188628056,1.9316758742398412,-15.150408289524375
-15.11256518665023,25.72229764354751,-22.546474186750554,1.3029818289912656,1.6510288937455577,-15.066954887625965
-15.04440280592531,25.443451364487885,-22.014807282260893,1.2970900010971922,1.3998167693991992,-14.993161436629286
-15.014381200930234,25.319587499909094,-21.778652621264648,1.294502262963172,1.2882321341114726,-14.96065488582331
-14.996916747597474,25.24723388758848,-21.640709101542498,1.292998973015738,1.2230523769939334,-14.941743485465855
-15.021379225802919,25.08204006660361,-21.51951030373119,1.295080547739956,1.2664850689343123,-14.967150997353334
-15.121741912282484,24.554662813123258,-21.20045819711609,1.3036429804890133,1.472485939652965,-15.07205754106481
-15.235646954330022,23.94581800619329,-20.827507297239592,1.3133779397248753,1.7057224856776798,-15.191182137319206
-15.347061566299102,23.33941118574116,-20.451113183216002,1.322917828912046,1.933115956810418,-15.307762543172162
-15.456510350047816,22.732952020080855,-20.06973529597117,1.3323065582322755,2.1556050263970135,-15.422339766529353
-15.56397967505174,22.126814699858812,-19.68358828634355,1.3415420042960489,2.3730315547762673,-15.534892179390996
-15.669903141204417,21.518797249310875,-19.29122595463362,1.3506605081054845,2.5861419269236685,-15.6458669241898
-15.762481094399579,20.978548421325158,-18.938360736566565,1.3586429247195384,2.771286949540603,-15.74288942191987
-15.799360504720907,20.76099296192724,-18.795134201772722,1.3618260806307465,2.844720362514741,-15.781546245579532
-15.79217692774019,20.74537795871665,-19.00842474781924,1.3615035329699732,3.0737318953253623,-15.779804890985648
-15.775669912558808,20.707408916290483,-19.48926545869578,1.360833460566885,3.592787250073281,-15.775623262010228
-15.758502550224998,20.66133240505473,-19.98656282750645,1.3602607252165537,4.136415516376743,-15.771353192487423
-15.741488536207859,20.608906912197618,-20.47657383798728,1.3598207099656299,4.679103039371768,-15.767204873951883
-15.724435799207592,20.549472029629776,-20.964807912368535,1.3595100579187505,5.22702244454397,-15.763135102352674
-15.70742095650807,20.483154837846392,-21.449018394817593,1.3593332259870823,5.77779881934437,-15.75916676237329
-15.690589225555449,20.410517131627564,-21.92507570389787,1.3592923091156974,6.326738636614692,-15.755336584401821
-15.673830269280586,20.33110275145397,-22.396112814027244,1.3593872595997083,6.877432610881262,-15.751622001750137
-15.657130550436117,20.244789776470014,-22.86248912108596,1.3596199613935893,7.430362216684635,-15.748023655291599
-15.644206198031137,20.17297862454623,-23.22134031168249,1.3598969531670846,7.861209624594841,-15.74531259892274
-15.640170720161771,20.149648447892574,-23.3330088965551,1.3600010707536954,7.996266000214481,-15.744479715656695
-15.637141693184011,20.131851196581287,-23.41670820812801,1.3600847820653665,8.097805754148956,-15.743858881384652
-15.672771196558044,20.266991768408953,-23.52770404886827,1.3630214130340774,8.072822955992716,-15.779198127712759
-15.80775727406471,20.779643632299997,-23.86988301480956,1.3738774710091866,7.899181203945131,-15.91114852305301
-15.970294867348196,21.387873971230153,-24.27118466804794,1.3869383802018433,7.688403842000025,-16.069901606612877
-16.13489838204279,21.99398600446633,-24.666070593331245,1.400154443653562,7.4732433840861585,-16.23053206499766
-16.30430789212634,22.60770187646301,-25.060835943199084,1.4137464083372988,7.250205056462894,-16.395708729933464
-16.47634338302843,23.220713839203665,-25.450081182164727,1.427540152182079,7.022247153531035,-16.56330039629988
-16.651542349946922,23.83468104221296,-25.8348870993346,1.441579773074302,6.7887762275336705,-16.73382726554394
-16.829731511228,24.4487142796319,-26.214714238466286,1.4558524263965087,6.550144135480979,-16.907116954865614
-17.01064114372466,25.061648522033774,-26.58888552690547,1.470337634414937,6.306843509799269,-17.08290414881431
-17.19656744112275,25.680859999196667,-26.961872201334092,1.485220366172735,6.055908953003408,-17.263414704816913
-17.38508281594219,26.29787951482305,-27.32855475001249,1.5003074986225837,5.800748833281148,-17.446286762769876
-17.57829598896646,26.91926241997803,-27.692834949053758,1.5157690879260062,5.538652882051525,-17.63356153739481
-17.773936090802902,27.53737907646539,-28.050258462718773,1.5314247609569804,5.272852360711012,-17.823033922203855
-17.962540446053335,28.122986152833516,-28.384366542920205,1.5465185693421561,5.016380749611055,-18.00554923461879
-18.057538984826888,28.407714715723806,-28.545268192260966,1.5541286635712832,4.890029942186127,-18.09750694886394
-18.313819654333376,28.324560518628235,-28.50301443820169,1.5755156371060537,4.9239211225143515,-18.355753669507912
-18.889104573358484,28.133000579483532,-28.405357613215344,1.6234236506280517,5.0017399847669965,-18.935603087261207
-19.509693906889076,27.918679432698784,-28.295570998376864,1.6749453484105215,5.08838162769868,-19.561356155892206
-20.12968137687251,27.696500542590623,-28.181171281199966,1.7262475698943571,5.177725123418719,-20.186757651561763
-20.751284132590317,27.465528580307996,-28.06160478194325,1.7775056878496625,5.270057380093744,-20.8140565792259
-21.36764731595124,27.228267410023836,-27.938109261286527,1.8281571693874383,5.364387326170763,-21.436329405911053
-21.976575367911995,26.98568896835479,-27.811135383526473,1.878019982855783,5.460252429140042,-22.05136261835118
-22.528417946052613,26.7587238874731,-27.691681812961335,1.9230522233323522,5.549414438336697,-22.608972017781657
-22.785376278949926,26.65069611572361,-27.634600681870005,1.9439656896148618,5.591638488695521,-22.86869833429205
-23.220688247767164,26.464260955727,-27.535757991613238,1.9793252196398408,5.6642882001150685,-23.30880350783497
-23.818817281742955,26.200975159655076,-27.395442404000708,2.0277520436743464,5.766285646425701,-23.913754342718832
-24.371195562473908,25.9504027698091,-27.26110782534084,2.072309256417231,5.8627029023219945,-24.472678940003703
-24.587568471417228,25.84634549309501,-27.198260012633177,2.0896999558394658,5.896033836489927,-24.691497463287874
-24.532228555567897,25.7273019511148,-26.883394697488406,2.08457034737149,5.702356543213545,-24.628754763849845
-24.434111828925197,25.51295524078004,-26.32032290215566,2.075532584293486,5.357421233477974,-24.517542403718927
-24.33453792791742,25.291092289345325,-25.742485565347444,2.0664351557501535,5.0052767940830245,-24.40471462094482
-24.235574952117375,25.066217817495833,-25.161680794762162,2.0574681403956054,4.6531369012368,-24.292612691540455
-24.137327844270054,24.83860799903754,-24.578530804486036,2.0486397917343306,4.3013439366486885,-24.181352267649274
-24.04011327307389,24.609061514165635,-23.994964472656545,2.0399768951200845,3.951016478246878,-24.071288641196684
-23.944178783618007,24.378265010808843,-23.412575688268625,2.031499270520425,3.603052949848447,-23.962698650752294
-23.848967819256686,24.14496018393422,-22.828063499771012,2.0231559064707634,3.2554322606043566,-23.854949148896463
-23.7551463905621,23.910867140104386,-22.245608481135736,2.0150032636683055,2.9105903115928466,-23.7487907846748
-23.66169252515825,23.673498770229106,-21.65892085114065,2.006951093867076,2.564763206077916,-23.643064342756134
-23.57170849378221,23.440937708775305,-21.087752650596773,1.9992630175116775,2.2295053148141224,-23.541276311957287
-23.523694246834058,23.315220036421323,-20.78042929162657,1.9951870906885116,2.0496814338775198,-23.48696804534142
-23.4981729319742,23.247932001860576,-20.616343133833087,1.99302808557884,1.9538289035039578,-23.45810233445624
-23.49094624526067,23.226514451278472,-20.536121552415505,1.9923812544799089,1.8953114188904214,-23.448837934829143
-23.644509964358598,23.578667351135422,-20.759208339415817,2.004513126880437,1.7609764689429412,-23.597707164587913
-23.901005405819156,24.158069575461806,-21.122646266010975,2.02476522105048,1.5361430777218998,-23.846222511162527
-24.16660306112659,24.746712392354468,-21.48730168472959,2.045721510981884,1.3028815249785424,-24.103378819050775
-24.437712913244354,25.336017721659363,-21.847768072172514,2.067098445935746,1.0644813602210723,-24.365691415825
-24.693517766766114,25.881641258191593,-22.177433007949386,2.087256121613525,0.8394138528456174,-24.613033738487932
-24.811794530017398,26.13057750204606,-22.32654116559294,2.0965725395343173,0.7353454105793945,-24.727345941870652
-24.86647750370431,26.24496457071294,-22.394785033517444,2.1008789946695527,0.6872356501063421,-24.780185129897106
-24.86647750370431,26.24496457071294,-22.394785033517444,2.1008789946695527,0.6872356501063421,-24.780185129897106
-24.86647750370431,26.24496457071294,-22.394785033517444,2.1008789946695527,0.6872356501063421,-24.780185129897106
-24.86647750370431,26.24496457071294,-22.394785033517444,2.1008789946695527,0.6872356501063421,-24.780185129897106
-24.86647750370431,26.24496457071294,-22.394785033517444,2.1008789946695527,0.6872356501063421,-24.780185129897106
-24.86647750370431,26.24496457071294,-22.394785033517444,2.1008789946695527,0.6872356501063421,-24.780185129897106
-24.866308286599963,26.24478598936345,-22.39463265253331,2.100864680449425,0.6872309924698355,-24.780016488390828
-24.20524008093694,25.547135165398124,-21.799336898302514,2.044944353409956,0.6690353412679655,-24.121196930001318
-23.549093407160413,24.854678224221864,-21.208473012086625,1.989440342977866,0.6509751533614384,-23.467282162730626
-22.43645331669118,23.6804661395336,-20.206534155900087,1.8953211625313335,0.6203501575955473,-22.358426757539565
-20.817390233642687,21.971806300405913,-18.748558457002403,1.7583632263819216,0.5757860613637105,-20.74487097578943
-19.193003457261693,20.25752816197395,-17.28578874137466,1.6209549544431605,0.5310754324955221,-19.12600960944111
-17.561785177387904,18.53604047390725,-15.816867217220292,1.4829687997591459,0.4861767690891812,-17.50033997720478
-15.935300608474668,16.81954845394825,-14.35220842724741,1.345383073749142,0.4414083992785552,-15.879387954040952
-14.308587474644002,15.102815220599146,-12.887343813240419,1.207778013236551,0.3966337383054153,-14.258208143431473
-12.679251827680307,13.383314347795535,-11.420117610943247,1.0699511120866283,0.35178689365465793,-12.634414740261699
-11.045881404184803,11.659555419396717,-9.949258068972368,0.931782905726052,0.306828993312791,-11.006600284997573
-9.422762249532184,9.946615051161082,-8.487629854064835,0.7944818629975385,0.26215325525106997,-9.389002228516734
-7.793736292260259,8.227441005856939,-7.020682529131687,0.6566811587645089,0.21731493469141827,-7.765517461618105
-6.165930153166331,6.509554281815077,-5.554833657544315,0.5189836399983614,0.1725101891636716,-6.143248363642074
-4.535770389778895,4.789183687102071,-4.086865333626643,0.3810870261326561,0.12764066102145627,-4.518633647310205
-2.914327467813131,3.07801231199774,-2.62674657597789,0.2439277773661576,0.08301106062759149,-2.9027061217504597
-1.5161116067682012,1.6024210807404136,-1.3676450816874755,0.12565149732182382,0.044525700275130954,-1.5092463422365965
-0.8577492575828528,0.9076258516819593,-0.7747859669122188,0.06996006100476039,0.026404526744775506,-0.8531234362566564
-0.20070246783604398,0.2142189833378918,-0.183111521043275,0.014379908990001609,0.008319563488146628,-0.19831161479251846
0.002854329728219219,-0.0006023714450361364,0.0001925560500827219,-0.0028391352680472667,0.002716739972327718,0.004552777004944725
0.002854329728219219,-0.0006023714450361364,0.0001925560500827219,-0.0028391352680472667,0.002716739972327718,0.004552777004944725
0.002854329728219219,-0.0006023714450361364,0.0001925560500827219,-0.0028391352680472667,0.002716739972327718,0.004552777004944725
0.002854329728219219,-0.0006023714450361364,0.0001925560500827219,-0.0028391352680472667,0.002716739972327718,0.004552777004944725
0.002854329728219219,-0.0006023714450361364,0.0001925560500827219,-0.0028391352680472667,0.002716739972327718,0.004552777004944725
0.002854329728219219,-0.0006023714450361364,0.0001925560500827219,-0.0028391352680472667,0.002716739972327718,0.004552777004944725
0.002854329728219219,-0.0006023714450361364,0.0001925560500827219,-0.0028391352680472667,0.002716739972327718,0.004552777004944725
0.002854329728219219,-0.0006023714450361364,0.0001925560500827219,-0.0028391352680472667,0.002716739972327718,0.004552777004944725
0.002854329728219219,-0.0006023714450361364,0.0001925560500827219,-0.0028391352680472667,0.002716739972327718,0.004552777004944725
0.002854329728219219,-0.0006023714450361364,0.0001925560500827219,-0.0028391352680472667,0.002716739972327718,0.004552777004944725
0.002854329728219219,-0.0006023714450361364,0.0001925560500827219,-0.0028391352680472667,0.002716739972327718,0.004552777004944725
0.002854329728219219,-0.0006023714450361364,0.0001925560500827219,-0.0028391352680472667,0.002716739972327718,0.004552777004944725
0.002854329728219219,-0.0006023714450361364,0.0001925560500827219,-0.0028391352680472667,0.002716739972327718,0.004552777004944725
0.002854329728219219,-0.0006023714450361364,0.0001925560500827219,-0.0028391352680472667,0.002716739972327718,0.004552777004944725
