RAMEL-ESPOL/ARCHIE/matlab/data/joint_goals_square_t35_h35_p12.txt
Joint0,Joint1,Joint2,Joint3,Joint4,Joint5 
-0.0015617132423739436,9.577866733384548,14.245612646192528,0.0016584997959752507,-23.82252222904913,4.191915685942363e-05
-0.0015617132423739436,9.577866733384548,14.245612646192528,0.0016584997959752507,-23.82252222904913,4.191915685942363e-05
-0.0015617132423739436,9.577866733384548,14.245612646192528,0.0016584997959752507,-23.82252222904913,4.191915685942363e-05
-0.0015617132423739436,9.577866733384548,14.245612646192528,0.0016584997959752507,-23.82252222904913,4.191915685942363e-05
-0.0015617132423739436,9.577866733384548,14.245612646192528,0.0016584997959752507,-23.82252222904913,4.191915685942363e-05
-0.0015617132423739436,9.577866733384548,14.245612646192528,0.0016584997959752507,-23.82252222904913,4.191915685942363e-05
-0.0015617132423739436,9.577866733384548,14.245612646192528,0.0016584997959752507,-23.82252222904913,4.191915685942363e-05
-0.0015617132423739436,9.577866733384548,14.245612646192528,0.0016584997959752507,-23.82252222904913,4.191915685942363e-05
-0.0015617132423739436,9.577866733384548,14.245612646192528,0.0016584997959752507,-23.82252222904913,4.191915685942363e-05
-0.0015617132423739436,9.577866733384548,14.245612646192528,0.0016584997959752507,-23.82252222904913,4.191915685942363e-05
-0.0015617132423739436,9.577866733384548,14.245612646192528,0.0016584997959752507,-23.82252222904913,4.191915685942363e-05
-0.0015617132423739436,9.577866733384548,14.245612646192528,0.0016584997959752507,-23.82252222904913,4.191915685942363e-05
-0.0015617132423739436,9.577866733384548,14.245612646192528,0.0016584997959752507,-23.82252222904913,4.191915685942363e-05
-0.0015617132423739436,9.577866733384548,14.245612646192528,0.0016584997959752507,-23.82252222904913,4.191915685942363e-05
-0.0015617132423739436,9.577866733384548,14.245612646192528,0.0016584997959752507,-23.82252222904913,4.191915685942363e-05
-0.0015617132423739436,9.577866733384548,14.245612646192528,0.0016584997959752507,-23.82252222904913,4.191915685942363e-05
-0.0015617132423739436,9.577866733384548,14.245612646192528,0.0016584997959752507,-23.82252222904913,4.191915685942363e-05
-0.0015578656006048918,9.577874775510601,14.24559322974558,0.0016585086113431707,-23.822473240813743,4.57978262376845e-05
0.016709461870924876,9.615972423663138,14.153518296354132,0.0016380314749658367,-23.590054825831476,0.01843520296972951
0.057855768344747115,9.7011748794218,13.94690853341609,0.001138238572639162,-23.06771182774363,0.05967621988312735
0.10041168183102223,9.788415526662115,13.734345601757756,-3.0327030383869262e-05,-22.52913482417537,0.10207954964189175
0.1436419785119741,9.876132615209995,13.519562975286785,-0.001884697175734132,-21.98369994093055,0.14490907989290064
0.18680326137346578,9.962809232470121,13.30625631648131,-0.004396300724947927,-21.440770730070025,0.18743801012473832
0.23020734799609022,10.049076459393769,13.092869902407303,-0.007576941785361998,-20.896384427115663,0.2299868108658318
0.27369203726213565,10.134611758796822,12.880192895364281,-0.011412302495185985,-20.35254446853566,0.2724082758216131
0.31749822246473186,10.219886231579412,12.667042065533328,-0.015923263356071676,-19.806211695744505,0.31494860559245036
0.3611623330515365,10.304001157065976,12.455660195071458,-0.02105728284718576,-19.263130536527314,0.3571700731303014
0.40494175660426945,10.387462071966326,12.24478118645003,-0.026835687279951496,-18.720053034866076,0.3993350619068607
0.4489542832544379,10.470491632179714,12.03383178934036,-0.03327365569398932,-18.175490903598902,0.4415681124401391
0.49302026981529967,10.552750621006506,11.823665305810298,-0.04034360399751499,-17.631637370181675,0.4837081623658459
0.5373821714417122,10.634689273389686,11.613120102428956,-0.048084773853684454,-17.08547382950034,0.5259980632384603
0.5820374183132626,10.716293220565534,11.402211648362957,-0.05650242999802328,-16.537016642502095,0.5684453316444746
0.6267908711617135,10.797201828982576,11.191858245308369,-0.06556169500870815,-15.988638594448307,0.6108753348864983
0.6718863766073161,10.877850354899111,10.980912152674923,-0.07531513158315153,-15.437329880159155,0.6535300378991681
0.7167200427079711,10.95716351186407,10.772184839548018,-0.08562820574686127,-14.890436987305417,0.6958500767154414
0.762089631707793,11.036551415867253,10.561955600708044,-0.09668487922612284,-14.338200532454096,0.7385997721956032
0.8072644249611813,11.114732111313847,10.353606297391327,-0.10830927125903837,-13.789490055967033,0.7811015950259758
0.852508591794714,11.192172664162289,10.145899625750044,-0.12056235928630812,-13.24105468210115,0.8236160277646257
0.898023310517027,11.269213755613116,9.937908357065162,-0.13350144563986954,-12.690431633480243,0.8663431138822325
0.9435579696245394,11.345428639598243,9.730772855684712,-0.1470575131718322,-12.140627236054458,0.9090586718620791
0.9892931772954285,11.421119011755913,9.523664537537446,-0.1612853794385878,-11.58943285488881,0.9519433384384889
1.0348796859970228,11.49571074864232,9.318153170185777,-0.1760744559392531,-11.04102472099445,0.9946808448745516
1.0806553807113486,11.569760688859805,9.112703723665101,-0.19153254402287465,-10.491305398907132,1.0375991187174503
1.1264077600064932,11.642925300402469,8.908262298360272,-0.20758893009297033,-9.942798829829128,1.080509996764189
1.1723478092087007,11.715542096344212,8.70387862905658,-0.22431898363501487,-9.39294784516746,1.1236224690171575
1.218355308077976,11.787418430071904,8.500083017466045,-0.24168241072062113,-8.843166684973491,1.166834919363239
1.2644051160695982,11.858516301319451,8.296978237904378,-0.2596706174081103,-8.293727207731536,1.2101348085100194
1.3106253289094048,11.929031706175936,8.093993948510247,-0.278336941090371,-7.743075687607626,1.2536538652776272
1.3567682339969473,11.998588062839108,7.892209515628423,-0.29758258833275825,-7.194135147756207,1.297169917003966
1.4030372403313314,12.067494348706182,7.690725942310727,-0.31749310870490477,-6.644456851487787,1.340885786585885
1.4492673172045167,12.135505919052324,7.490253742500009,-0.337999280199246,-6.095973981227386,1.3846566180984305
1.4956424390199916,12.202893871323448,7.289987741306537,-0.35918521222495375,-5.546477209174404,1.4286677874644849
1.542264384225597,12.269798646642295,7.089488915181585,-0.3811059443231973,-4.994740603906498,1.4730281758607793
1.5885711064327037,12.3354185003374,6.891162778622445,-0.4034968929552326,-4.447385859573034,1.5172136450802922
1.6351577191516447,12.400600516536718,6.692450057140476,-0.42664648517677156,-3.8973499671996987,1.561802880657008
1.6816593504729815,12.464831589818568,6.4949029214641865,-0.4503790146539934,-3.3489174097733447,1.606458493772708
1.7285297975373792,12.528733364335912,6.296591835699873,-0.4749338974123931,-2.796714379637414,1.6516288032068671
1.7750965787282957,12.591389624455639,6.100354904991082,-0.4999624726408345,-2.2486381617664253,1.696677187510353
1.8218760539117103,12.653499700669848,5.90400525121998,-0.5257431548161225,-1.698583361016557,1.7421139313855365
1.8687646973406502,12.71491955506189,5.707977085708441,-0.5522285318225703,-1.1477465513647735,1.787851747355394
1.915449158493121,12.775243083686252,5.513569953311455,-0.5792430381122521,-0.5997817636518012,1.8335957896231694
1.962321065474821,12.83497854129194,5.319144586003393,-0.6070166136206872,-0.05006657128954681,1.879741202726233
2.009269215388621,12.893978730883774,5.125160951761547,-0.6354929472743666,0.5001161222998168,1.9261920329455544
2.0562405342125265,12.952175724420995,4.9318331829805055,-0.6646463602395131,1.0501678155156897,1.9729083295411283
2.1030851017078103,13.009387775660324,4.7397685296901635,-0.6943863685744267,1.5983585903309039,2.019752087300762
2.150215989102753,13.066116253710387,4.547270004999047,-0.7249837757365777,2.1495446742135127,2.0671498114636067
2.1970586738347375,13.121670696259697,4.3566771560582565,-0.7560709989794391,2.6970309465069096,2.114535897806034
2.2442326534395654,13.176785535332444,4.165463573334432,-0.7880659637226567,3.2480811897535755,2.162549879923824
2.29154066465885,13.231218655522161,3.974432971776061,-0.8208513901379914,3.8004101534880776,2.2110080832739043
2.338396259454465,13.284304280380951,3.7859397481571575,-0.8540204125394552,4.347196856064174,2.2593194794443168
2.385611681269308,13.336965614356393,3.596707948805326,-0.8881529020237875,4.897943550775495,2.3083336363464624
2.432681721537612,13.388633805546233,3.4087611548069288,-0.9228958562337972,5.446778141497118,2.357541591892717
2.479838999200054,13.439565882843507,3.221163366334569,-0.9584274758047254,5.996435734904985,2.4071994014250864
2.526890661048139,13.48955420382449,3.034675574255798,-0.9946101024776043,6.544690659164977,2.457117407643474
2.5740614865031426,13.538837024278179,2.848401713915395,-1.0316256235341204,7.0941838841913425,2.5075482755432623
2.6212297378841454,13.58728402087998,2.6628195419839105,-1.0693901668572154,7.643518444967939,2.5583774753529642
2.6685772900026397,13.635076927288345,2.4772120840670384,-1.108063174362616,8.194833406897137,2.6098179347772907
2.715835232587498,13.681941498187431,2.2926302956530167,-1.147437145971474,8.745018687054456,2.66159361991596
2.7630411495796334,13.727918299710202,2.108919325550338,-1.1875502499186432,9.294533391816252,2.713758935590018
2.81016722260219,13.772982956017376,1.9261799467920084,-1.2283865077152636,9.843074813530103,2.766296807032927
2.857438937776859,13.817348698768697,1.7435344162759345,-1.2701541798782434,10.393288238824757,2.819475378635009
2.904558823209709,13.860735501955293,1.5621275522409692,-1.3126021722061856,10.941731758603458,2.872976155504374
2.9517561102023233,13.903355502872067,1.3810708627401638,-1.355947281081691,11.491093800223332,2.927074767366357
2.9989522735300307,13.945134616388104,1.2006629556387747,-1.4001322569844692,12.04048055074408,2.9816994400680414
3.046296268221699,13.986199538758507,1.0203333534056882,-1.4453139394570305,12.591646208648642,3.03704254969289
3.0934886739589125,14.026289346808575,0.8412184691539976,-1.4912204223933558,13.141124876785838,3.0927718981039822
3.1406930797275265,14.065545270671564,0.6626907905680939,-1.5380215399541146,13.690840639160104,3.149096525360148
3.1878919674098656,14.103951094439978,0.4848129562098537,-1.5857151225652708,14.240609021952316,3.206014391174802
3.2351424236742186,14.141550247852848,0.30736727043117607,-1.6343760443372128,14.791114565646449,3.2636146475740726
3.2824990429057443,14.178380292993179,0.13014828369283923,-1.6840814149269328,15.343013358327571,3.3219868208488617
3.329944676909867,14.214420569451201,-0.046779199896401454,-1.734836406322133,15.896125876267247,3.381134517528046
3.3776713039917157,14.249804921577232,-0.22412709992424043,-1.78687562223019,16.452711651422234,3.441326313651845
3.42524951530274,14.284209198563198,-0.4003002683727168,-1.8397538627744467,17.007783063335,3.5020457210995657
3.472743060158893,14.317683677034392,-0.5755423466665207,-1.8935541600001522,17.56210133333881,3.563391559482416
3.5202318772479613,14.350284811360531,-0.7501528965650233,-1.9483844938824098,18.116617701294192,3.6254883741380453
3.5677242625045213,14.382015854610842,-0.9241651594158736,-2.004275537740471,18.671447800911874,3.688371087261723
3.6154249301851373,14.413005252893285,-1.098327809265435,-2.061497299801146,19.22900378852663,3.752340940779626
3.662872435212207,14.442951795556782,-1.2709593947362707,-2.1195175742928867,19.783910132994176,3.8168036435577184
3.71027963229081,14.471995269753066,-1.442842389907912,-2.178610034963258,20.338671653982313,3.8820670021189367
3.7576673598735306,14.500147232333301,-1.6140557147887364,-2.2388231092626736,20.893549750979684,3.9481852762495584
3.804929922694575,14.527346021470626,-1.7842223719745893,-2.3000425983903168,21.44732315018256,4.015034841813295
3.851098914980381,14.553065236146812,-1.9498804374647285,-2.360994532390367,21.988648233151146,4.081238695536035
3.876742838497131,14.566986543072003,-2.0416496774121375,-2.3953493903640353,22.289481650957242,4.118405652271456
3.8880466754099685,14.57304030559758,-2.082046477627906,-2.4106079315151883,22.422126660037065,4.134880077811149
3.878701101412353,14.485550568807986,-2.1892489061807767,-2.4087070169332345,22.623344176347572,4.134063523419068
3.852729462360776,14.253216584546635,-2.4582068394596486,-2.401454650179794,23.12526032860936,4.129355285572095
3.82548351602896,14.00050527026136,-2.7387984199411854,-2.39412204636894,23.659213110508833,4.124607163598234
3.7986393058237535,13.742227360291551,-3.0135223204911585,-2.387184101885818,24.192850137979402,4.120129991061692
3.7750309074474258,13.507210984672774,-3.2535726732078123,-2.3813263346493008,24.66847125371396,4.116365312690047
3.7650064036728015,13.405134519826754,-3.3550287742830127,-2.378910105067482,24.872237995493222,4.114817530938595
3.7586128906230334,13.339308399337417,-3.4195822431788474,-2.3773916133823567,25.002766553817594,4.1138465626563345
3.73735042457308,13.116280317596715,-3.633362871754833,-2.3724703894031807,25.440068495777325,4.110710322065738
3.7117476135202905,12.839140975968238,-3.8888349991095144,-2.366814252766179,25.97326935660112,4.107129659931803
3.686509497745423,12.556491187960232,-4.138418416298888,-2.361537598456167,26.50607861981153,4.103818902993548
3.6626014046181457,12.279803016433267,-4.372622769133444,-2.356823255672696,27.017512222992245,4.100892579831796
3.650993703013783,12.142252847842741,-4.485501519545041,-2.354637237489628,27.268202192180066,4.099548308718909
3.6455786937915127,12.078234556692426,-4.54300385130208,-2.353729396944699,27.389840712191987,4.0991310732226545
3.6585979881809085,12.30683274357812,-4.832328832028396,-2.3634170900526126,27.44998479161513,4.116475271838445
3.6851706788334613,12.768615611857351,-5.414274902179984,-2.383148413843613,27.56895360816759,4.151769092758451
3.7136724658332496,13.25695538830597,-6.026022974586514,-2.4042500801503905,27.691073297505536,4.189468555286248
3.742930258208016,13.750972919087118,-6.6410281080638685,-2.425844303952821,27.810730058388074,4.228001406568638
3.772643117764237,14.245363289904834,-7.252594274622016,-2.447704493073156,27.926545998250358,4.266962963348108
3.803064746931959,14.744148534125818,-7.865618579593775,-2.4700129042881676,28.039384122762247,4.306677892319663
3.8341852586793466,15.246886450069598,-8.479436058685069,-2.492756946279264,28.149021559649963,4.34712313143395
3.8660416162827027,15.753894147269675,-9.09431310672487,-2.515958111491191,28.255405297293883,4.3883362873629235
3.8984659232444474,16.262272597261457,-9.706642956450827,-2.53948900459013,28.35783489081824,4.430090783027096
3.9315816965625965,16.77375784319736,-10.318441093968113,-2.5634342955064624,28.456583466977463,4.472536744105291
3.9660428947677673,17.297985742191596,-10.941011738488815,-2.58825866039714,28.553287607858007,4.516496284095231
4.0000290242655305,17.80720964743085,-11.541412328320531,-2.6126472175167317,28.64283761009864,4.559641676050271
4.034521820272545,18.31637575399567,-12.137439236879189,-2.6373044915202395,28.728036706320516,4.603221511042411
4.058919669550472,18.67200119618361,-12.5511692202087,-2.6546877675548357,28.784959348082925,4.633921279679823
4.038697562950954,18.74180207219302,-12.631366426495305,-2.641759438988219,28.79627554591841,4.6115508006104475
3.6730567443275945,18.763079162246193,-12.645430231755277,-2.402957391397943,28.805095894503207,4.196710371550474
3.1103055910677884,18.791859060134993,-12.664438211829374,-2.0352006306692787,28.816990877023834,3.5581673162895266
2.537556191064365,18.816226220519997,-12.680524513606574,-1.6606765570823259,28.82708206207051,2.908207535130004
1.9627601503267318,18.83569795449639,-12.693373822514028,-1.2846203649050736,28.83515516622602,2.2558652921449833
1.3906458066557585,18.85013143713949,-12.702894530218634,-0.9101693385164502,28.84113683627183,1.6065202395403273
0.8150395556829798,18.859679785698777,-12.709192777259592,-0.5333264365138373,28.845106344214503,0.953179117427285
0.24130127719814942,18.864237372349173,-12.71220048023427,-0.15764371431894184,28.847015406504973,0.3019388364531423
-0.3305035274068822,18.86385398758945,-12.711946120136941,0.21679044933448063,28.84684005421497,-0.34711238516725373
-0.9040951943720037,18.858530779625806,-12.708438300506632,0.592370717963177,28.84464662069791,-0.9981843285331182
-1.476583579529451,18.848281339379614,-12.701677203614242,0.9671581844126822,28.84037767960407,-1.6479821240058616
-2.0522193979489645,18.83299972703042,-12.691598720752307,1.3438950301802877,28.83405619409061,-2.3013180904609216
-2.625937066639405,18.812795273569808,-12.678264248261023,1.7192172966950818,28.82566690974633,-2.9524274651723412
-3.1981397874175976,18.787690244013735,-12.661692323321647,2.0933518826610777,28.815287959404838,-3.601757016580827
-3.7453032370049693,18.75904344216947,-12.64276797278659,2.4508848735041693,28.80342108557159,-4.22260074343495
-4.042039446647768,18.74160731502517,-12.631248566618915,2.6446789839236975,28.796240572967587,-4.559264028263159
-4.065984551385073,18.74640147821092,-12.507161578139732,2.6570196875013994,28.666369782751662,-4.579584666535551
-4.0742641160719675,18.76623627973291,-12.041485499170244,2.650234585828695,28.180998460290244,-4.5633703376748675
-4.083608630812327,18.782525986124874,-11.514136197206527,2.642982074583115,27.637510840875304,-4.545448855124641
-4.093033706245293,18.792559729514995,-10.980395662959117,2.6360865979940287,27.093882983719595,-4.527762013856547
-4.102559974174638,18.796332535105766,-10.439106934378389,2.6295292075246786,26.54896334564919,-4.510264766758364
-4.112118282592035,18.793839934400566,-9.894224544179153,2.6233507566515946,26.00671006558019,-4.493075074068313
-4.121652078219395,18.785242192222146,-9.349031451357217,2.617573660008528,25.4702453056268,-4.47627884021458
-4.131151735257317,18.77075248878772,-8.80415234114836,2.6121864334268072,24.939980758139416,-4.459874439928561
-4.14059979672276,18.75061876688852,-8.260665833749512,2.607181181623363,24.416747193585525,-4.443873150983446
-4.150006126256261,18.725040334291677,-7.718080046452057,2.602535479526308,23.89985385632431,-4.428240088028963
-4.15908007624141,18.69525658720302,-7.19329564377994,2.598362398350543,23.404958978408636,-4.413428730442414
-4.1632832929839,18.68058875366857,-6.953070859308595,2.596578005810971,23.17944710091268,-4.406778149009432
-4.179781316842017,18.911479412038894,-7.218818852143124,2.6075201227368003,23.21353532625557,-4.42605663002255
-4.2154461891072765,19.404980043924503,-7.783955878995189,2.631122627972871,23.283501111179984,-4.467595085342512
-4.254401324418491,19.935442276520213,-8.387056718148376,2.656822205877616,23.354302555641652,-4.512754637287568
-4.294195671514987,20.468387996934982,-8.988415281077323,2.6829894425134424,23.420825303539242,-4.55866346373047
-4.334743362360513,21.0024247773964,-9.58640147977976,2.7095634333662564,23.482835013238617,-4.605213060936284
-4.3641204791698165,21.383830653660826,-10.010652230903858,2.728761093965048,23.52426586086538,-4.6387969557521656
-4.3469649947837325,21.435865541801277,-10.067736015909151,2.718168827588878,23.530109292340956,-4.620735444857329
-3.998775653798775,21.1908490214846,-9.786519944820045,2.500303891524543,23.50950299716362,-4.247058796058437
-3.4770266525345903,20.817197309175363,-9.357386138501573,2.173806227646326,23.47491739264217,-3.6874411276296364
-2.9561576204611693,20.43621277647802,-8.919421599526729,1.8478582406090194,23.43587866308658,-3.1291963659945212
-2.43319290138346,20.045475478146923,-8.469740255832038,1.5206462949366693,23.392015659368585,-2.569193303118716
-1.9160164702886138,19.650740784370665,-8.014864093028375,1.1971514977775355,23.343900067306315,-2.015927891669297
-1.4065577819119897,19.25358043398121,-7.55651822705942,0.8786249070203952,23.291755975888897,-1.4715026913774636
-0.8987030027311927,18.849225980700744,-7.089105470251428,0.5612878469009739,23.23494446459891,-0.9294292540456267
-0.3947952674626111,18.439445825111754,-6.614566259490721,0.24664914825730294,23.17365803278054,-0.3922612233219083
0.10648363479420031,18.023092189157982,-6.131467373387519,-0.06607092579887043,23.107678440629275,0.14135496144690324
0.5309744473062052,17.663536586538296,-5.71345450918595,-0.3306341835666941,23.04777277633515,0.5925931072529529
0.7284710851635443,17.494022853117283,-5.516108136805841,-0.4536386573624608,23.01862663882516,0.8023274882164126
1.1702839202417035,17.10957157191985,-5.067852956487161,-0.7285799603269325,22.950356944840166,1.2709914372093112
1.6660399244080877,16.669372445537476,-4.553402884890341,-1.0366977256881358,22.86866669229224,1.7959883838755388
2.157106984700719,16.223878872007727,-4.031399723945319,-1.3414301185695185,22.782201972856637,2.3149961164696347
2.6386797769073143,15.777579772428785,-3.5070201868158843,-1.6397735993188922,22.691895037130795,2.822913511400945
3.1084090276685385,15.332995516069973,-2.9831752679096097,-1.9302593648732898,22.59836635979684,3.3172562821740024
3.5640355402594563,14.892757230046108,-2.4629485528760884,-2.2114988664319157,22.502365641571114,3.795676315839375
3.858910821920562,14.602985233606313,-2.1196831826930302,-2.3932041602928855,22.437330538660152,4.104679784994684
3.8841858705400636,14.53355834216872,-2.132299053801645,-2.4102760761660877,22.518268068363493,4.1350889540998175
3.8609077797510056,14.32725084171438,-2.373683694999545,-2.4037167400792065,22.966520784680498,4.1308282660135855
3.833535772753127,14.076152310171949,-2.6560676409655137,-2.3962646943573764,23.500657693667517,4.125998609379548
3.8066113454453023,13.819897131928595,-2.932143263818883,-2.3892197147526506,24.03362713535384,4.121447268469966
3.7806138977522323,13.563453503986686,-3.196959472127478,-2.3826960880785375,24.55549873195366,4.117249623348808
3.7664552119033456,13.419960867589575,-3.340399030111144,-2.379262181571608,24.842762043482175,4.11504832228277
3.7597464155696767,13.35100845127909,-3.408161145315177,-2.377665071609453,24.979632954340524,4.114026777428228
3.7447051457534597,13.194136582816743,-3.5595900402476857,-2.3741555562886414,25.288283112316844,4.111787771176945
3.719248736299613,12.921314110651847,-3.814229244458318,-2.3684457867521007,25.816332247641856,4.108164955245978
3.693904224540831,12.640287950092182,-4.065544311041523,-2.3630577215486888,26.34925342796682,4.104774703228402
3.66902961313759,12.355057413282253,-4.309884188612378,-2.3580685101532506,26.87938815983995,4.10166760330888
3.6526155370651114,12.16159143794163,-4.4697729795175745,-2.3549440207791714,27.23311260242463,4.099741862431681
3.6459288677583164,12.081557768252608,-4.534586074384936,-2.3537103712372867,27.378109338955593,4.098986613239908
3.4747879603621667,12.085364177331481,-4.54691343167495,-2.243602304013732,27.393440515124833,3.908452289807097
2.988264443790108,12.110974956710242,-4.566100380896966,-1.9297879249283234,27.404590544751755,3.365292918422546
2.4464149065799816,12.134941498931036,-4.5840479467257875,-1.5800897324263148,27.415036375325844,2.7602851426001007
1.9039666631751795,12.154133551621797,-4.598410936394763,-1.229832198609337,27.423376936914256,2.1545355329640357
1.361506342998793,12.168533362535417,-4.609187385969949,-0.8794338508920917,27.429663599052784,1.5487188266822975
0.8159944618082768,12.178185870079124,-4.616410022810405,-0.5269676311268233,27.433882538912115,0.9394540184152356
0.27343049430733046,12.18298847873569,-4.62000357825424,-0.17634828804716046,27.435983898452935,0.3334575084736043
-0.27122902356707346,12.182998038229082,-4.620008764056255,0.17564410571363245,27.43596865254207,-0.2748884041426059
-0.8132354602251156,12.178223885807602,-4.61643915586418,0.5259033946180932,27.433895475689866,-0.8802621759366305
-1.3568607267254011,12.16863867279445,-4.609269897138659,0.8771515837430222,27.429724640434884,-1.487420335796422
-1.9013480416604795,12.154218059250805,-4.598477111978232,1.2288590019723766,27.423416106847835,-2.095501772617173
-2.4448436808332716,12.135008100611628,-4.584099956335546,1.5797931418060507,27.415054977105054,-2.702419610495831
-2.989545411912615,12.110918215732811,-4.566063023176405,1.9313329860550728,27.404573913129514,-3.3106124834204236
-3.4664634494707984,12.085841656312189,-4.5472780766635506,2.238953530748968,27.393665025040438,-3.843049001018087
-3.6456200454584358,12.07588475054217,-4.538340932094204,2.3544298615218437,27.38755105681258,-4.042968322932204
-3.6528194797292635,12.142043984688755,-4.355615407432139,2.353794962113994,27.138583199441193,-4.039488653813096
-3.6679887933657387,12.27646091685643,-3.9694886225072397,2.352690687600486,26.61786161128341,-4.032353185658608
-3.6838627000836697,12.41004464937013,-3.5638786312524706,2.3518639419523337,26.078477856945725,-4.025160664090943
-3.6998651793135675,12.537577742929289,-3.1534781706971047,2.351358464140644,25.54034886954234,-4.018181057775047
-3.71604176024734,12.659416000042592,-2.737174084207927,2.351169865429719,25.00200519450291,-4.011389473602604
-3.732451370431108,12.7759313879165,-2.313491814165093,2.3512976483372108,24.461599599139973,-4.004758633037993
-3.7489962429335058,12.886388400870771,-1.8850042425345566,2.35174004467008,23.92244175120618,-3.998324452297518
-3.765634140069108,12.99055566328482,-1.4528710722246259,2.3524910236243493,23.385923361246878,-3.992096597751694
-3.782506490575604,13.08931100334098,-1.0134742575211586,2.3535548602342122,22.847546759799965,-3.986017538665824
-3.798123486594221,13.1747133778289,-0.6057934901722266,2.3548014662521988,22.354252938938686,-3.98059318674878
-3.804513423036881,13.208029009649707,-0.43873030493495063,2.355382158215105,22.15378713548984,-3.978427739825072
-3.810022561589306,13.288775133795998,-0.5077498091101511,2.3585889986340915,22.141849535812767,-3.9837028252484634
-3.8337857839001908,13.681442630468183,-0.9924411075685603,2.374821976847914,22.23283801633945,-4.01281647009154
-3.864009989140939,14.17399289339595,-1.5970681315190982,2.3954218591283087,22.343590746047564,-4.0497020877961045
-3.8831021792513614,14.481259560101606,-1.9723535577653182,2.4084075462665164,22.410768978561006,-4.0729204022447245
-3.8885625793805385,14.570804359966244,-2.08777954279827,2.4122360136341308,22.43640314806013,-4.07985960073984
-3.873285979424501,14.436906581635453,-2.246475779957473,2.4078865236510376,22.72936593156911,-4.077036068691614
-3.8463447555573707,14.193869224647965,-2.5251986353167335,2.400427256383768,23.251772635340153,-4.072202179242405
-3.819148944523373,13.939345838289789,-2.8049299733367716,2.3931799621703296,23.78667488406194,-4.067519093299175
-3.792440263159809,13.680090138267392,-3.077893621426967,2.3863493926478347,24.31952508820374,-4.063121705402218
-3.7706023388125534,13.461054265821367,-3.2996620261438667,2.3809835255816383,24.760841365133803,-4.059681886078136
-3.7617298854447045,13.370205230692441,-3.3893748499812526,2.3788613104347727,24.94161024837174,-4.058325754226568
-3.754146433175865,13.291689765197985,-3.4658680854919797,2.377074433227925,25.09679543634078,-4.057186078165332
-3.7313442079319405,13.050728831786808,-3.6947932309409484,2.371854376912217,25.567209600369047,-4.0538697013287415
-3.7057988845946372,12.771878884853235,-3.9492153900505067,2.366286457794789,26.101068641260955,-4.05035822661177
-3.6805322171505273,12.48653096068392,-4.198566660513327,2.36108135034527,26.636343401188405,-4.0471068321116865
-3.6583065081101402,12.227383865499005,-4.415918066752887,2.3567937475564866,27.1133361129571,-4.044435524673603
-3.6487210448100056,12.113252283251564,-4.5090141936354735,2.3550069450558473,27.32077915091562,-4.043341564442063
-3.6468296727292024,12.097582355746033,-4.56753189029782,2.355365647729983,27.39498117993093,-4.044664703181222
-3.664436302626607,12.406174948810405,-4.957813002752977,2.3684623466306656,27.475881163279325,-4.068108580532139
-3.6922465199731875,12.887887620520521,-5.564045030705775,2.389099183905925,27.59914894064725,-4.1050118955104455
-3.720910273782416,13.377250544673279,-6.176145301578353,2.410305266485598,27.720588553497702,-4.142886747363961
-3.7501669421450865,13.869496309180638,-6.788007827449294,2.4318825737044594,27.838872667576858,-4.181378470012085
-3.7801456112161644,14.366535963559471,-7.401896268950849,2.4539214395701974,27.954347500704877,-4.220647630643375
-3.810804231008274,14.867388265189037,-8.016474863571258,2.4763856880328188,28.066659902920804,-4.260629080245686
-3.8420814862305757,15.370813590604266,-8.630124266453207,2.499225422907736,28.175432460060147,-4.3012336371069315
-3.8739229651396885,15.875746814697717,-9.241475104213638,2.5223963089607198,28.280362972308684,-4.342382410506125
-3.9067900167631224,16.389180048734257,-9.858848992711293,2.5462278512045375,28.382758734610874,-4.384659726004993
-3.9399801228729463,16.89990715558882,-10.468678494480447,2.570205315714423,28.4802909052245,-4.427152146067183
-3.9740487610272948,17.416304296838504,-11.080907290295743,2.5947251779980767,28.574500220952068,-4.47056235314783
-4.008505014035227,17.930743324029923,-11.686425549047666,2.6194290412849583,28.663927841493503,-4.514255785742195
-4.042450295557618,18.43008808377525,-12.269969325367983,2.6436733149449463,28.74648916012725,-4.557096552573414
-4.061792788416636,18.71139501572382,-12.596878599665823,2.6574467356755975,28.791153644818678,-4.581417879389977
-4.065418067484865,18.744859825595604,-12.53885612063766,2.6574836625636014,28.69959762219074,-4.580686461788085
-4.073227947609999,18.7640372401572,-12.09973488633168,2.6510522251840563,28.241431085868957,-4.565362765611567
-4.0824097033170705,18.780793945238603,-11.581789586286911,2.643876504423083,27.706878574719028,-4.5477074146936785
-4.08751584031023,18.78745692579524,-11.292982866694967,2.6400608122961504,27.41148938889228,-4.538051447885828
-4.092270362825261,18.791982722368438,-11.023581682415841,2.636617350205845,27.13763574798436,-4.529161654102473
-4.095510319576291,18.7941502856364,-10.83973700846665,2.6343302237656063,26.95167260789288,-4.523158490590527
-4.098453241479671,18.79548072322833,-10.672565240597368,2.6322939498915496,26.7832143910562,-4.5177435297937185
-4.100159565570296,18.795975957781533,-10.575559647254048,2.6311310513532935,26.685738807090164,-4.5146201775821035
-4.104525284584625,18.79632739660152,-10.327106763693237,2.628214312520726,26.436998214121996,-4.506682528304973
-4.113529603459462,18.792946467963855,-9.813516273465638,2.6224595328449745,25.92691629484561,-4.490548871718274
-4.122917135252518,18.78364775284549,-9.276457009126332,2.6168233257832303,25.399283580548953,-4.4740575508022005
-4.132369798509902,18.76847035526942,-8.734065636794536,2.6115098556350187,24.87219317805909,-4.457776507752684
-4.141814430604533,18.747618808971627,-8.190580110489705,2.6065509154131656,24.349677752236737,-4.441820526458372
-4.151220359151994,18.721354808129476,-7.648155754441835,2.6019851624081034,23.833628233529367,-4.426260737432676
-4.16001129112278,18.69193480320693,-7.139591597681721,2.597976177096671,23.354586102872418,-4.411940763117049
-4.163802816608928,18.687830670788845,-6.96141950008277,2.596943762028087,23.18052862533373,-4.407392438724647
-4.18381223417775,18.967584184111796,-7.2832644845982255,2.610212222094341,23.221686894673283,-4.4307673375538155
-4.220502645971204,19.47428026486353,-7.863002865162629,2.634484189513566,23.293009104207453,-4.473475902664674
-4.2594126576897535,20.002993940089198,-8.463533389979224,2.660143226800749,23.362989231716526,-4.518555017217551
-4.299287341723202,20.535887204263677,-9.064252029953133,2.6863523064983954,23.428918967886617,-4.564528115779025
-4.33966030453575,21.06652708752417,-9.657869464633642,2.7128008654785654,23.48996344070067,-4.610849124986562
-4.365912574243216,21.406897751429817,-10.036234927335554,2.7299517522155963,23.526693868216586,-4.640848682354181
-4.316302067473507,21.429941198100977,-10.060299449136393,2.6990391128543574,23.530020185199717,-4.587913716033987
-3.9070419052325813,21.26183171671669,-9.862872500553038,2.4432009482572994,23.518725431255056,-4.149346447556014
-3.3365955856606355,21.02229256575948,-9.582858783710362,2.0865087223822236,23.50038455959958,-3.538310084243048
-2.76451029775956,20.77585891407796,-9.296236735973219,1.728724214311399,23.478887327683278,-2.9258492546979054
-2.189405170272201,20.521744055820687,-9.002067504126714,1.3690298573738828,23.454084557540945,-2.3105206121094257
-1.6177205074995833,20.26267848065899,-8.703464134106783,1.0115017034169484,23.426165538175184,-1.699250253345991
-1.052156907026483,19.999926130087108,-8.401813677329386,0.6578731406350441,23.395345383003576,-1.0949418408201945
-0.49179892523608426,19.733128208903725,-8.096620081923481,0.30761578856694755,23.361578039937967,-0.4966413328529177
0.06582802785103714,19.461114639110363,-7.7864743930407005,-0.040774314409844685,23.32471940654693,0.09826851304389499
0.6200872175182527,19.18416939964436,-7.471631342515208,-0.38685454469778063,23.284768828823463,0.6890759990945742
1.1718443392342524,18.901831571013098,-7.151507425141372,-0.7311287029226232,23.241714583772822,1.2766854318194418
1.7222085514872927,18.613462002624292,-6.8253117686820355,-1.074244583400342,23.19540476099456,1.8622414725990264
2.2693747243642504,18.31994671172908,-6.493980724430177,-1.415035898180191,23.14596345608385,2.4437920876030947
2.8157836852586047,18.019901024875143,-6.155884729416637,-1.7549819170555605,23.093135261195997,3.023898137319959
3.358948406093325,17.714612278216684,-5.812405910978168,-2.092494801133127,23.037122438131256,3.5998847023769187
3.8608815592446226,17.426133918446624,-5.488238426042088,-2.403980417915767,22.982191316288052,4.131512097190314
4.067190825797325,17.304143618736106,-5.3547062536546015,-2.5319463412715284,22.961950495037122,4.349993056721862
4.051874827055576,17.17757570181334,-5.501616437229102,-2.527570958265785,23.235823744436367,4.346835538429221
4.022764474044723,16.930104895235623,-5.779939276396119,-2.5194805795596453,23.76236379344056,4.340998191577668
3.9934090918263245,16.671111281516325,-6.059271798437094,-2.5116318292689366,24.301436357465995,4.335338588755106
3.9648235811448616,16.409479569988385,-6.32982866404199,-2.5043000650179614,24.834345621622848,4.330057543214149
3.946771601363784,16.23931616868763,-6.49987400137448,-2.4998338767630712,25.17500628715506,4.326844720895124
3.939134844751966,16.166153405738722,-6.571607604813772,-2.497983664397382,25.320093083837143,4.325514938111362
3.9259472938912374,16.038139682173995,-6.695183282039515,-2.4948444842691244,25.572010263705813,4.3232606593752
3.8989486935726174,15.769323448681966,-6.9469318606156065,-2.4886436023891503,26.093241867036753,4.3188164254837815
3.8714907726845533,15.4863970549813,-7.201107497743707,-2.4826589091287072,26.631016052835253,4.314541587950844
3.8444303574614573,15.197845016238134,-7.449597941079649,-2.47709123088959,27.16871492897518,4.310582231815885
3.8190180246764767,14.917794822605675,-7.6809787544537995,-2.4721733794940084,27.680756782628947,4.307104303496372
3.8072307416716717,14.78483492820299,-7.787607863058149,-2.4699978270390437,27.92062725633852,4.305573188562814
3.7918322815635954,14.722002980998901,-7.838183807019988,-2.4626169062927477,28.034588475328384,4.293807472200413
3.4881917470596133,14.739465030265725,-7.850649959905814,-2.265692863947082,28.04205505480673,3.9523310910067715
2.9513358418521816,14.766753456302395,-7.87011613735173,-1.9173333138832533,28.053675006619606,3.348506840902876
2.395424987449411,14.79019695796135,-7.886835188075191,-1.5563991110515634,28.063695678076378,2.7231740299845644
1.8413430279950387,14.808700344373637,-7.900026264944775,-1.196477769663611,28.071612459604385,2.099833403832662
1.2863113950537446,14.822375804058575,-7.9097692028437185,-0.835805031881291,28.077438054142686,1.4753730119592456
0.7287523387825565,14.83122407122984,-7.916074910513926,-0.4733958404979296,28.081234045018185,0.8480352926267151
0.17349665887008733,14.835169270894859,-7.918887146949688,-0.11243021831500324,28.08293372029087,0.2232691978816903
-0.38346699986909516,14.834248698269544,-7.918229309483048,0.24965767515825643,28.082519433381375,-0.40342419381497563
-0.9386135780794339,14.828470275050389,-7.9141147108878425,0.6105371545208412,28.0800598912746,-1.028061901822166
-1.4974167672353758,14.81774998381077,-7.906478519473644,0.9737247078438763,28.075488537937474,-1.6567883026489858
-2.052493866981951,14.802224533038522,-7.895412087499503,1.3343791867800354,28.06883331297726,-2.2812816627084307
-2.6073284178635534,14.781842465076673,-7.880883487449279,1.6947285674893966,28.06013977559067,-2.905446444693912
-3.1629749399005314,14.756547600553896,-7.862843365876506,2.055414179829376,28.049344329621334,-3.5304536915334364
-3.641522771536643,14.73083682335723,-7.844496036639132,2.3658678278886587,28.038366449965984,-4.068669335028363
-3.8018995709267784,14.721574387439464,-7.832799604498119,2.4697519747587227,28.02923013965449,-4.248776519727375
-3.806157592189825,14.729742817547223,-7.556668748676663,2.466028431703817,27.74501246412462,-4.2397035768741995
-3.814120832539252,14.740470155120288,-7.038666012484168,2.459344026327464,27.216431227112622,-4.22298845060059
-3.8223156315568447,14.745432766263052,-6.50348646561485,2.452833965314978,26.676437280974856,-4.20611890149763
-3.8305284294413737,14.744356233643906,-5.965037133667276,2.4466717007053966,26.13920821578354,-4.1895352639406385
-3.8387302350884336,14.737366829155881,-5.42527098603198,2.440866971797335,25.606570442792748,-4.17328260087018
-3.8468857420414646,14.724683048550814,-4.886585490866257,2.435429345722013,25.080702599727875,-4.157414482441968
-3.855067189227838,14.706337150389798,-4.344267045313069,2.430298245975207,24.556860233446923,-4.141776694829587
-3.863276265323522,14.68239053247533,-3.79823364268078,2.425465147477072,24.034900124543586,-4.126356701744638
-3.871471320359237,14.65306885615001,-3.251298078468783,2.4209452038740653,23.517408945547484,-4.111221839072813
-3.8796835169055615,14.618372453314345,-2.7014247967551106,2.4167117411293915,23.002351456557612,-4.096303609179716
-3.8869184598294604,14.583487087806136,-2.2155335056437817,2.4132201923051606,22.55144788806508,-4.083358120607723
-3.8901962537688997,14.594695535051597,-2.11053169781911,2.413223323461596,22.4352058880943,-4.081523795231097
-3.910175768459352,14.911986483276921,-2.49596613508552,2.426782052550548,22.502465101179126,-4.105730115472739
-3.941917755803966,15.409685191405208,-3.0973975445751525,2.448276152066204,22.604785715670413,-4.144048888720358
-3.9749450142170417,15.919440549448918,-3.70938772463871,2.470579372376369,22.70554189744712,-4.183741554597316
-4.008917231379639,16.435438018800635,-4.3247211031232125,2.4934557115519866,22.80334691199566,-4.224384061878162
-4.042723567016569,16.94078285503375,-4.923287349382604,2.5161550700991158,22.895034917713282,-4.264644255076655
-4.064043214713293,17.255416937158806,-5.293924053802112,2.5304368169111005,22.950065404988774,-4.289941060670298
-4.067466184454078,17.305646303959136,-5.352949039472466,2.532727421484167,22.95870457617553,-4.293995962638486
-4.067466184454078,17.305646303959136,-5.352949039472466,2.532727421484167,22.95870457617553,-4.293995962638486
-4.067466184454078,17.305646303959136,-5.352949039472466,2.532727421484167,22.95870457617553,-4.293995962638486
-4.067466184454078,17.305646303959136,-5.352949039472466,2.532727421484167,22.95870457617553,-4.293995962638486
-4.067466184454078,17.305646303959136,-5.352949039472466,2.532727421484167,22.95870457617553,-4.293995962638486
-4.067466184454078,17.305646303959136,-5.352949039472466,2.532727421484167,22.95870457617553,-4.293995962638486
-4.067427770745591,17.305573300436393,-5.352763764189847,2.5327034777607498,22.958262504502564,-4.293955406221496
-3.9803263853645854,17.140041040754635,-4.932660253523135,2.4784121436787903,21.95588453398188,-4.201995524056778
-3.893086462976688,16.974245497731285,-4.511888557354003,2.4240344578253747,20.951912255366068,-4.109889377320338
-3.8061092729858284,16.80894926579447,-4.092384060344549,2.369820536213818,19.950963547107733,-4.0180606181382625
-3.693550698633403,16.595036765119392,-3.549496573144997,2.299661432116614,18.65561979533441,-3.899223550406216
-3.5443468886304035,16.3114816446711,-2.829863422501935,2.2066609148488308,16.938556265167254,-3.741697183559304
-3.3950985434110623,16.02784188705011,-2.110015471593049,2.1136326382486526,15.220980215944538,-3.584123797331138
-3.2453045742189084,15.743165195644874,-1.3875358915145455,2.020264267707815,13.497125030653624,-3.4259743523407984
-3.0965153556578575,15.46039798755791,-0.6699023797921873,1.927522170238797,11.78483269128163,-3.268885702758443
-2.9468809018238966,15.176024447906004,0.051807832937117146,1.8342532275264027,10.062813236620181,-3.11090467085911
-2.7970713325827083,14.891318109310237,0.7743626544751829,1.740875133288633,8.338778523237691,-2.9527387556523124
-2.648135119378446,14.608271544524802,1.4927051441936137,1.6480414123024003,6.624794543813181,-2.7954949120967565
-2.4987630466544215,14.324396648354115,2.213149852075496,1.5549360148704177,4.905794616835822,-2.6377908968699644
-2.349391632612745,14.040523003979565,2.933591383030101,1.4618310280030116,3.186802270090085,-2.4800875770666817
-2.1996959511925867,13.756033104057913,3.6555969059177733,1.3685239214046736,1.4640781976625283,-2.322041902319393
-2.050339321731534,13.472187557112907,4.375967128543628,1.275428149942997,-0.2547440055446781,-2.1643541917775018
-1.9006259970659405,13.187664126997996,5.098057747544463,1.1821100460990008,-1.9776711195251944,-2.006289889648293
-1.7519931644809887,12.905194123414644,5.814936985413532,1.0894654258771812,-3.6881637417439657,-1.84936634921858
-1.602768113839263,12.621598636089175,6.534672582956362,0.996451669065524,-5.405471712894991,-1.691817556934623
-1.4531467918311711,12.337250052880846,7.2563194588498074,0.9031909115770759,-7.127340044208564,-1.533850389351617
-1.3039236515176178,12.053658196048021,7.976045842583142,0.8101783454957907,-8.844626030969014,-1.376303613953532
-1.1542030342656944,11.769120906701264,8.698171634860564,0.7168556960956125,-10.56763706930795,-1.2182316124590757
-1.0049023875021879,11.485381752351364,9.41827184424067,0.623794819318125,-12.28581501384458,-1.0606030073177148
-0.8551218715712315,11.20073062826307,10.140686537150795,0.5304348343557141,-14.009515376653649,-0.9024677660086267
-0.7062264959614359,10.917761673486508,10.858832060808036,0.4376265679299869,-15.723029389901576,-0.7452670379598859
-0.5573270341676715,10.634784953101363,11.576997292765244,0.34481575453697566,-17.436590427668985,-0.5880619958007021
-0.40770639922053237,10.350437675621427,12.298640854856995,0.2515554253018278,-19.158450852164993,-0.4300955536027634
-0.2818962109251973,10.111341079529215,12.905442934402743,0.17313643192097367,-20.6062964939153,-0.29726769971557576
-0.19485545435697216,9.94592404217529,13.325254022888277,0.11888288850233411,-21.60797673745903,-0.20537182822594394
-0.10774091255927055,9.780366779316196,13.745420988996225,0.06458335386867198,-22.61050611432313,-0.11339805578240111
-0.020924683525420606,9.615376446428147,14.164149146308853,0.010469761144571215,-23.609602455748103,-0.021739235925341584
-0.0020409007182848058,9.579488667769619,14.255228563900703,-0.001300726277973859,-23.82692032966217,-0.0018021197225147312
-0.0020409007182848058,9.579488667769619,14.255228563900703,-0.001300726277973859,-23.82692032966217,-0.0018021197225147312
-0.0020409007182848058,9.579488667769619,14.255228563900703,-0.001300726277973859,-23.82692032966217,-0.0018021197225147312
-0.0020409007182848058,9.579488667769619,14.255228563900703,-0.001300726277973859,-23.82692032966217,-0.0018021197225147312
-0.0020409007182848058,9.579488667769619,14.255228563900703,-0.001300726277973859,-23.82692032966217,-0.0018021197225147312
-0.0020409007182848058,9.579488667769619,14.255228563900703,-0.001300726277973859,-23.82692032966217,-0.0018021197225147312
-0.0020409007182848058,9.579488667769619,14.255228563900703,-0.001300726277973859,-23.82692032966217,-0.0018021197225147312
-0.0020409007182848058,9.579488667769619,14.255228563900703,-0.001300726277973859,-23.82692032966217,-0.0018021197225147312
-0.0020409007182848058,9.579488667769619,14.255228563900703,-0.001300726277973859,-23.82692032966217,-0.0018021197225147312
-0.0020409007182848058,9.579488667769619,14.255228563900703,-0.001300726277973859,-23.82692032966217,-0.0018021197225147312
-0.0020409007182848058,9.579488667769619,14.255228563900703,-0.001300726277973859,-23.82692032966217,-0.0018021197225147312
-0.0020409007182848058,9.579488667769619,14.255228563900703,-0.001300726277973859,-23.82692032966217,-0.0018021197225147312
-0.0020409007182848058,9.579488667769619,14.255228563900703,-0.001300726277973859,-23.82692032966217,-0.0018021197225147312
