RAMEL-ESPOL/ARCHIE/matlab/data/joint_goals_espol_t5_h20_p21.txt
Joint0,Joint1,Joint2,Joint3,Joint4,Joint5 
0.0006079594602519194,-0.004156195616440441,-0.0032386955715209007,-0.005401740370411419,0.003191902065579062,-0.0018962590346445918
0.0006079594602519194,-0.004156195616440441,-0.0032386955715209007,-0.005401740370411419,0.003191902065579062,-0.0018962590346445918
0.0006079594602519194,-0.004156195616440441,-0.0032386955715209007,-0.005401740370411419,0.003191902065579062,-0.0018962590346445918
0.0006079594602519194,-0.004156195616440441,-0.0032386955715209007,-0.005401740370411419,0.003191902065579062,-0.0018962590346445918
0.0006079594602519194,-0.004156195616440441,-0.0032386955715209007,-0.005401740370411419,0.003191902065579062,-0.0018962590346445918
0.0006079594602519194,-0.004156195616440441,-0.0032386955715209007,-0.005401740370411419,0.003191902065579062,-0.0018962590346445918
0.0006079594602519194,-0.004156195616440441,-0.0032386955715209007,-0.005401740370411419,0.003191902065579062,-0.0018962590346445918
0.0006079594602519194,-0.004156195616440441,-0.0032386955715209007,-0.005401740370411419,0.003191902065579062,-0.0018962590346445918
0.0006079594602519194,-0.004156195616440441,-0.0032386955715209007,-0.005401740370411419,0.003191902065579062,-0.0018962590346445918
0.0006079594602519194,-0.004156195616440441,-0.0032386955715209007,-0.005401740370411419,0.003191902065579062,-0.0018962590346445918
0.0006079594602519194,-0.004156195616440441,-0.0032386955715209007,-0.005401740370411419,0.003191902065579062,-0.0018962590346445918
0.0006079594602519194,-0.004156195616440441,-0.0032386955715209007,-0.005401740370411419,0.003191902065579062,-0.0018962590346445918
0.0006079594602519194,-0.004156195616440441,-0.0032386955715209007,-0.005401740370411419,0.003191902065579062,-0.0018962590346445918
0.0006079594602519194,-0.004156195616440441,-0.0032386955715209007,-0.005401740370411419,0.003191902065579062,-0.0018962590346445918
0.0006079594602519194,-0.004156195616440441,-0.0032386955715209007,-0.005401740370411419,0.003191902065579062,-0.0018962590346445918
0.0006079594602519194,-0.004156195616440441,-0.0032386955715209007,-0.005401740370411419,0.003191902065579062,-0.0018962590346445918
0.0006079594602519194,-0.004156195616440441,-0.0032386955715209007,-0.005401740370411419,0.003191902065579062,-0.0018962590346445918
0.0006079594602519194,-0.004156195616440441,-0.0032386955715209007,-0.005401740370411419,0.003191902065579062,-0.0018962590346445918
0.0006079594602519194,-0.004156195616440441,-0.0032386955715209007,-0.005401740370411419,0.003191902065579062,-0.0018962590346445918
0.0006079594602519194,-0.004156195616440441,-0.0032386955715209007,-0.005401740370411419,0.003191902065579062,-0.0018962590346445918
0.0006079594602519194,-0.004156195616440441,-0.0032386955715209007,-0.005401740370411419,0.003191902065579062,-0.0018962590346445918
0.0006079594602519194,-0.004156195616440441,-0.0032386955715209007,-0.005401740370411419,0.003191902065579062,-0.0018962590346445918
0.000617752698896287,-0.004137383343430595,-0.003260621440344685,-0.005401733603615473,0.0031993604893673644,-0.0018864385898836884
0.11462147440520015,0.2140834778996942,-0.2572748984340961,-0.005423528735295463,0.08941803651344701,0.11243303034023862
0.3606662527381955,0.679836139764921,-0.7972503534418094,-0.006150742687393728,0.2714314123201579,0.35915500679168144
0.6246300046678336,1.171765807931819,-1.364364428150771,-0.00794724080260425,0.4607038927673541,0.6238445476912122
0.8952496396834407,1.6680111190371785,-1.9331138487442026,-0.010859019190686424,0.6485360604033895,0.8952145152467678
1.1699167654276965,2.163541423271369,-2.497698285030961,-0.014899147436412586,0.8329814498545246,1.1706564034522247
1.4512498199600012,2.662840258536486,-3.0631975545261265,-0.020146600622536655,1.0156719694615064,1.4528032095081924
1.7397449518213695,3.1664185280254644,-3.6301117895306905,-0.026668754508165984,1.1967104701225586,1.7421600786059854
2.033176214141899,3.6701044115301604,-4.193703757416261,-0.034462455588743196,1.3745480338836662,2.036501778458466
2.335412516898759,4.180190031668794,-4.760952061754048,-0.04368653258409078,1.5513366178854122,2.339716915964214
2.644665286918485,4.693226813065269,-5.327931274081622,-0.0543539428866957,1.7257838225370683,2.650019257042082
2.960683654361418,5.208464619345508,-5.893765725069098,-0.06651067563941054,1.8975781097126747,2.9671647438592537
3.284071627334323,5.7265496661669335,-6.459121114070896,-0.08023549985640112,2.0668804148376703,3.2917671686603454
3.616192094197715,6.2492513585497935,-7.025859556774199,-0.09565264905666296,2.2341900473652756,3.6252026091325265
3.955756453268031,6.7741348092875935,-7.591280584720221,-0.11276796605557868,2.3986558364846347,3.9661852909407163
4.304818225898843,7.30394548875959,-8.15827903698574,-0.13175402310873432,2.561063131729042,4.316785302865313
4.662504750930725,7.836890881008216,-8.724865093381691,-0.1526382679030523,2.7207780151567214,4.676134284005011
5.029286227402192,8.373231765542691,-9.291262276176308,-0.17551926350112756,2.8778102790939797,5.044712315887799
5.405967174486461,8.913662726096568,-9.858141700266533,-0.2005245628993207,3.0322852654139756,5.423335667893349
5.791083338248585,9.455639879651107,-10.422794168985677,-0.2276288177641161,3.18341768816418,5.810539646398967
6.18778530397672,10.003096654655637,-10.989263971181359,-0.25713408282380573,3.332232120514729,6.209499202936179
6.596715163440587,10.556276122777495,-11.557706519259558,-0.2891894449755361,3.4786786615608194,6.6208683565351745
7.013976178312287,11.10940877341608,-12.122158142537764,-0.3235695038020404,3.621172819851115,7.040733445913718
7.444023593454448,11.667894678485718,-12.688101519671847,-0.36072248278806635,3.761053765885855,7.473583346684499
7.887929784519365,12.232409552007983,-13.256131216343372,-0.400853351285548,3.8983738667102883,7.920504761738364
8.3438038204271,12.799879890363057,-13.823093406565075,-0.44389621020094727,4.032295092464214,8.379600038812324
8.807846464731531,13.365149445449447,-14.383865881898442,-0.48956095877849165,4.161600159972364,8.847045981973952
9.27536028080305,13.922417887544679,-14.932841744466506,-0.5374011305982291,4.285081793328363,9.318109349847393
9.747942980264655,14.473633443298782,-15.472126360244339,-0.587576918939772,4.403331437670067,9.7943967830957
10.226100786979986,15.019348358458538,-16.00241913370652,-0.6401502630017467,4.516599380331711,10.276415488701275
10.70560997720267,15.554841377873373,-16.519330578563032,-0.6946434676055363,4.624079332418954,10.759902874721224
11.191645381025827,16.085954076533238,-17.028684961843865,-0.7516360428642909,4.727104116350551,11.250071831299408
11.681284306830243,16.609470293589897,-17.527555954721336,-0.8107887214157647,4.825181407965825,11.7439702991167
12.181638307361617,17.132829070132168,-18.023152347906013,-0.8729847294542722,4.9197942600501054,12.24876787893053
12.691508892296415,17.654410196061793,-18.51400842106247,-0.9381287916576808,5.010681113417308,12.763252657809845
13.210406851339565,18.173416340591828,-18.999466816294866,-1.0062007268486266,5.097759165039042,13.286927095248549
13.728429470283562,18.680000523129788,-19.470500395798734,-1.0758896544210184,5.17953402236419,13.809790681490464
14.247065837254008,19.17594943452446,-19.92901573005285,-1.1473425381873101,5.256524476896713,14.333338056661576
14.764938002314691,19.660257751505597,-20.374314697040482,-1.2203183938862991,5.328792036875574,14.856170216235403
15.282236662221774,20.133436907322253,-20.80709442025494,-1.294789427008633,5.396628840746916,15.37847186477745
15.675731601666527,20.486452917032732,-21.128532954713332,-1.3524634665720525,5.445462921007724,15.77580042699218
15.713158468213171,20.507376998885544,-21.27839928847453,-1.3585573374549924,5.582853262258286,15.81676762407365
15.698276231252473,20.44575030015953,-21.700295084665882,-1.3584712538199792,6.066592607797421,15.813339458266649
15.681436911149076,20.369352253652703,-22.174885620940216,-1.3585011388041865,6.617825384239049,15.8095524050032
15.664754657380442,20.286551709778553,-22.642079037932827,-1.3586672142431107,7.168059981857021,15.805901484994147
15.64866394478491,20.199844866688775,-23.08985195585417,-1.3589593453700355,7.702770590445467,15.802479637300552
15.640566847782672,20.15362983741963,-23.314101433425783,-1.3591563998997371,7.973350780996264,15.800796142350928
15.637300050410945,20.13448935066199,-23.404369251970465,-1.3592455261830025,8.082805665747307,15.800124402712896
15.699569524298685,20.109036409184817,-23.42267663011504,-1.3646683661179546,8.125076088520322,15.86395116819504
16.146310858267448,19.972443587980973,-23.338780204154002,-1.402649024277395,8.166988539392632,16.31563333777305
16.731597881939084,19.78706361518729,-23.224526580885314,-1.452299193349915,8.223538792580905,16.90752372736691
17.312946294292363,19.59564138813522,-23.10607483888056,-1.5014886828020715,8.281529647371247,17.49558095086895
17.893745835628437,19.39706127485228,-22.98268374396873,-1.5505015651564114,8.34125522032238,18.083235896330425
18.47739286224446,19.190031922554965,-22.853488565942225,-1.5996194861099349,8.403050167657726,18.67392948966136
19.058677524201205,18.976297950176807,-22.719511827857765,-1.6483937451550963,8.466308653610508,19.262397626878652
19.626197872581976,18.76027825596425,-22.583490601374546,-1.6958807662395623,8.529749229894364,19.837083804222832
20.034768327063425,18.60021317340431,-22.482302887519047,-1.7299812442586593,8.576415261486595,20.250910974666347
20.288165972958534,18.499009713283343,-22.418149813530928,-1.7510934527248152,8.605770024265471,20.507610514089812
20.820639380719907,18.281487010329943,-22.279800352158023,-1.7953629599558574,8.668468239430398,21.047127330556133
21.391539570847716,18.04087228659227,-22.126029016542294,-1.8426822499706055,8.73719131237169,21.62573906667294
21.96238000544433,17.7925293543992,-21.966507614614322,-1.8898427117731635,8.807423807164836,22.20445764501702
22.51737024025076,17.543541820529512,-21.80574004553553,-1.935535219994698,8.877093799400527,22.76727520184034
22.83505678620791,17.397633505004997,-21.711144525084887,-1.9616258708485617,8.917605086962238,23.089511494250388
22.81877754364002,17.355638651336925,-21.49671897858967,-1.9593875034118367,8.745831009276102,23.067120533803323
22.766250468317406,17.254367384328607,-20.967295611213615,-1.9529320821315335,8.319717816565271,22.999380042479398
22.71053985449648,17.141914792839643,-20.4003338675895,-1.9462149797781945,7.8673641575383,22.927624887559055
22.65534611959775,17.0253819886399,-19.833025994896282,-1.9396902709785815,7.418717570808623,22.85662344127461
22.60084037232158,16.90529171466554,-19.267239146288475,-1.933372613828171,6.975116175263035,22.786588705399133
22.546498928989156,16.78059992375142,-18.697591454118534,-1.9271971722654557,6.532242515065322,22.716841750750152
22.49242839050415,16.651601430355477,-18.125189815436755,-1.9211735111382835,6.090904741375598,22.64751443505522
22.439004309043018,16.519305970768066,-17.55407348833148,-1.9153394611076158,5.6541182660788145,22.579082539050923
22.385904478074686,16.38303451403332,-16.980870036946207,-1.909655813410821,5.219202193500161,22.511127717615697
22.333034091359057,16.242603166875387,-16.40456125150562,-1.9041099249751257,4.785325967944481,22.443523944490227
22.291611788784884,16.1292589231134,-15.949096418406688,-1.89984339512832,4.444769127931695,22.39059610373563
22.27825132944297,16.09207673216277,-15.801442795076493,-1.8984819184151762,4.334801301694092,22.37353133581456
22.266862920539346,16.059966556675004,-15.665677763772864,-1.8973038557325923,4.23158060420959,22.358674424981817
22.35821629390076,16.300977524890165,-15.842522821193635,-1.904530024141434,4.1644194144354465,22.44808659838385
22.5663006661686,16.843667167030617,-16.23772177497836,-1.920973747487681,4.0100649922915075,22.651641268335506
22.7913823813303,17.421061469308775,-16.653638336055067,-1.9387364748389098,3.841098632473956,22.871657887297655
22.978002585151525,17.892389403584392,-16.989683445067215,-1.9534456408719838,3.6995562992095414,23.05395147707152
23.051740072075173,18.076805594670603,-17.120321580869433,-1.959253106361276,3.6432923725097788,23.125948317227596
23.058729017338393,18.097947865688287,-17.25870600921976,-1.9600735981936828,3.7602269437541804,23.13696502972672
23.03796058291083,18.056891611732134,-17.693082946113286,-1.9595397279302817,4.236092214697486,23.132459779504828
23.014276094592464,18.003792693927434,-18.18557268619429,-1.9591046590929073,4.782171630455415,23.127429262813337
22.990896008232504,17.944698649148144,-18.66868132576677,-1.9588604736040622,5.324856592060473,23.12258136521875
22.96735068511003,17.87835738940199,-19.152091871846796,-1.958804698045301,5.875091800724621,23.117823919632137
22.944053126446615,17.805843244903073,-19.627291767880465,-1.9589415535945167,6.423281800627646,23.113246066537805
22.920808427352107,17.726556082953152,-20.09826605911244,-1.9592728959721255,6.974015693495386,23.10881347621142
22.89778927847505,17.641083377523213,-20.561520685232484,-1.9597973286007964,7.5232083747064165,23.10456318532809
22.87480672651311,17.548714841906875,-21.02085909126382,-1.9605205642934633,8.075377332345212,23.100464592030793
22.854700931097675,17.462045495716616,-21.42005346445494,-1.9613207504936028,8.561643025815425,23.097003154778374
22.8473131440418,17.42880586603728,-21.566106805075194,-1.9616547821903731,8.741083165580783,23.09576136377977
22.84318765807358,17.40991608961382,-21.647517830801018,-1.9618507647223447,8.841466022981002,23.09507509951859
22.84921549488129,17.41931479493551,-21.726758722902385,-1.9627404957540326,8.91105279047594,23.103585192405355
22.994805112934475,17.797943439410325,-21.995778256741627,-1.9739623846456953,8.796520900954938,23.246628415728736
23.221230703932818,18.37919872964781,-22.40485811971227,-1.9913824638897546,8.616634105045161,23.46894176394105
23.454195656856236,18.967793432263413,-22.814301373733198,-2.009265793481321,8.429478409500815,23.69748701985907
23.69172509967025,19.558298870238612,-23.220244017310513,-2.0274596501870716,8.236681413068274,23.93031840228654
23.932192120572626,20.14645551506442,-23.619788813360582,-2.045839272536293,8.039658455991782,24.165837371432154
24.177734413694125,20.737253024236477,-24.016348079275524,-2.0645678418621816,7.836753790207751,24.406133452764067
24.429771076217406,21.333661782705544,-24.411842421670965,-2.0837526152700097,7.626862148562618,24.65258729067526
24.685865739700457,21.92953950643798,-24.802164214281497,-2.103207464855881,7.412099959019008,24.90280980719185
24.945383573026216,22.52322341390365,-25.18628578548219,-2.1228842505390784,7.193121613862695,25.156177936703152
25.210036472657986,23.118385721367677,-25.56661985425205,-2.1429126491062767,6.968601364627056,25.414359191179305
25.479003676501602,23.712891171904772,-25.941820375479875,-2.1632302693387593,6.739353830877057,25.67654829616035
25.753221894462175,24.308522990857185,-26.313036407216217,-2.1839076110760076,6.504705452763379,25.94365395484491
25.990253135989835,24.815058600758046,-26.62504904869765,-2.201752114297403,6.301259711772599,26.17437761977638
26.0940070721582,25.034397305772725,-26.759112246597667,-2.209554940378949,6.212055828519218,26.275325115730848
26.082433331987396,25.127511661303444,-26.81446189674864,-2.2084870799241485,6.174765697171889,26.262233006243846
25.67051248348497,25.33209950901215,-26.92629222259338,-2.17566029100127,6.097832038102371,25.84484115918071
25.080792891687057,25.617731059552558,-27.08155061264148,-2.128501150574995,5.989697803713529,25.247529067229983
24.484986316134666,25.897757790730402,-27.232779176970034,-2.080663295593497,5.8828700074234614,24.644334946617416
23.885065382605845,26.171177403517664,-27.379502939109802,-2.0323038725253677,5.777788421493147,24.037258803597492
23.28674398744359,26.435468215861967,-27.520447760888572,-1.9838764445223924,5.675463074122351,23.432081254136467
22.683526315278414,26.69357526882528,-27.65726777992907,-1.9348771491950123,5.5748783745108685,22.82222652080054
22.077240209873644,26.94468072073179,-27.789591335034675,-1.8854448900425895,5.476379222763714,22.209544151057415
21.469546920110893,27.188134688641387,-27.917145584570235,-1.8357171622559632,5.380279424795905,21.595710389807348
20.85614506239423,27.425639806774427,-28.04088232312742,-1.7853343663400654,5.285930316501871,20.9763806410225
20.241545319405937,27.655440993516017,-28.159954006652733,-1.734685839350435,5.194139020266075,20.35610485187256
19.62609203396138,27.877486219329118,-28.27439712932066,-1.6837945710768416,5.104952307925756,19.73522678342205
19.00665019647293,28.092927644517413,-28.384865054447783,-1.632403836182944,5.017956958396004,19.110580202590985
18.41114968479344,28.292536696753206,-28.486710539003926,-1.582835459566847,4.9369214692104055,18.510312251304413
18.07741886694723,28.40122461457524,-28.54196507312292,-1.554995463777792,4.892651201979273,18.174007392192433
18.026938923614612,28.320455880501804,-28.37391578707971,-1.5505982445846733,4.806771306967509,18.120990470252693
17.940585911363275,28.051033496789884,-27.847876481698734,-1.5428508992500614,4.552579588128177,18.0274287250782
17.845418638491704,27.75015016017542,-27.260820051223128,-1.534343478538308,4.269065833437554,17.924306321356596
17.75080570635889,27.446816062375625,-26.669401776454922,-1.5259182503308542,3.983611571353717,17.821772603175067
17.65793035092074,27.14488617136566,-26.08112288875102,-1.5176801483376248,3.699830680250128,17.72110927060278
17.5662962332723,26.842857138606842,-25.493035411957635,-1.5095843395387278,3.4162929072165644,17.621777945578064
17.47565893304622,26.539984813794963,-24.903676772702877,-1.501608805509913,3.132287034043994,17.523513131657143
17.386294345979827,26.23725643709752,-24.314954667415716,-1.493777373467743,2.8487264486020236,17.426613433455344
17.29680528285567,25.929927426259486,-23.717635790676802,-1.4859677572837522,2.5611607140575647,17.32956307218477
17.20905009914392,25.62440134903037,-23.124157182977974,-1.4783420363318798,2.27557329962857,17.234376775755443
17.121963251742297,25.317047051801808,-22.52745236696219,-1.47080707684018,1.9885580962103966,17.139898354852672
17.037606720161502,25.015294555773856,-21.94192815773881,-1.4635401634242575,1.7070372909526612,17.04836473550673
16.985447169491334,24.826689450126597,-21.57610500810225,-1.4590628689656973,1.5312055264801725,16.991758470085696
16.961208655176552,24.738510694234115,-21.405109567051717,-1.4569865009504033,1.4490316123800742,16.965451149578637
16.95372166615997,24.688453223165094,-21.310407427495075,-1.4563337376114462,1.4045914821751695,16.956841554027424
17.27456328477784,24.59266411675336,-21.257312552522887,-1.4830985975158653,1.4390572899896221,17.27822060353352
17.85974969252333,24.41268337733157,-21.157232612918335,-1.5318004375382455,1.503562468487272,17.864531043246657
18.465163450443935,24.219237792379822,-21.04920133469364,-1.5820253940486442,1.5725230559053116,18.471308006493757
19.071678164350242,24.017950892791976,-20.936279754307414,-1.6321732563833067,1.6438698434742463,19.079398434707443
19.526825089363673,23.861907041588278,-20.84837694692631,-1.669687237983957,1.6988607261715412,19.53588327173166
19.593126898785897,23.834338607224574,-20.914151007279923,-1.675218471591798,1.7902311304806489,19.60482439476217
19.573970678947937,23.813437048620255,-21.351814265886926,-1.6741158577541,2.2491592837133596,19.59909700066056
19.551187932506952,23.78217508983766,-21.869840346108163,-1.6729488446148517,2.79887788714298,19.592377896460526
19.52858315448446,23.744134981350154,-22.38109328065791,-1.671949258576094,3.3485963855706915,19.585816125787385
19.50608210777044,23.69916672892889,-22.887248882008635,-1.6711145176396982,3.900141935303114,19.57939403878609
19.483887056312962,23.647711769069357,-23.383777224500342,-1.670451538355532,4.448539352319539,19.573172262687795
19.46182131887421,23.58941319903393,-23.87465586668447,-1.669954222872354,4.998126367812006,19.567103882643956
19.439889925881392,23.524255225965593,-24.359765427719413,-1.669623833794666,5.548799252466407,19.56119420563058
19.418866660326938,23.454896044958563,-24.822131471495574,-1.6694644380027612,6.0809111333788834,19.55564890648789
19.407896662729833,23.415974321042906,-25.062344963244932,-1.6694437307853072,6.360247339278385,19.552803765898112
19.395570935749518,23.369976028636284,-25.331373566085773,-1.6694724944875565,6.675499418169071,19.549647924220245
19.390404309431787,23.349974062696496,-25.44386626299138,-1.6695011335868226,6.808088265042863,19.548338235537987
19.38596581514865,23.33244911951528,-25.540373925288318,-1.669533616870302,6.922201682320136,19.54721941715363
19.477637751302492,23.293140186051854,-25.549099172996492,-1.6772886926465993,6.967540486402562,19.640872611585753
19.959496825455254,23.11325394385604,-25.4460696021475,-1.717366014809478,7.0301030540122245,20.128040126201658
20.55636900586132,22.883304483237435,-25.31376631356252,-1.7668670697542488,7.109574977348229,20.731678520227153
21.148887519495396,22.64712982839567,-25.177178840480618,-1.8158475482987266,7.190609376235933,21.331126723874526
21.74217560026412,22.402646035347697,-25.035034241522936,-1.8647282659774145,7.273863085629243,21.93157011509641
22.287582236424647,22.17072905729019,-24.899487746375264,-1.9095163221101887,7.352240902547719,22.483749153418223
22.550914837510483,22.05626679553898,-24.832331039394536,-1.9310872233679786,7.390676784064392,22.750426985171536
22.95212361597018,21.878734273369282,-24.727841578884192,-1.9638893781583713,7.450059923743754,23.15680613577432
23.52682928049477,21.617745494659125,-24.5734949220277,-2.0107359167379477,7.536734076423527,23.73909977382091
24.083400329817366,21.35738550296598,-24.418643146956537,-2.055943466182783,7.622455666138928,24.303225764829396
24.37957171643842,21.21567542607052,-24.333848171552013,-2.0799338310287507,7.668662249468134,24.603496859181178
24.340254249727263,21.134600630069947,-24.09100280481627,-2.076007405145423,7.508422109112576,24.557995079523003
24.252607365075406,20.95088372224975,-23.545486460139326,-2.0673144301206303,7.150024741796534,24.45659840945124
24.16096589488099,20.754358410427706,-22.968876463489043,-2.058313463423875,6.773483073229542,24.35063189125657
24.07036021526974,20.555554666714997,-22.392407790086867,-2.0495027107259793,6.39930698842793,24.245911853347103
23.979606164058918,20.351895846342117,-21.808522251858864,-2.040765621449222,6.0225608000115365,24.14106603366438
23.889994648425127,20.146306918825445,-21.225511977670948,-2.032225009827444,5.648562437676299,24.037582177039067
23.801291384617183,19.93835690067589,-20.641954378011537,-2.023855635682372,5.276329760808331,23.935185494183486
23.713877095603507,19.729055069943087,-20.06047388678202,-2.0156903986903894,4.907463979720843,23.83431134746652
23.62708020158219,19.516887935053774,-19.476693113036557,-2.007664036840151,4.539127115250063,23.734180949562244
23.540382670588144,19.300592234635577,-18.887084524650298,-1.9997278798227207,4.169074652374062,23.63419364033636
23.45580572222462,19.085327449656642,-18.30552209700011,-1.9920641313038405,3.8059455960910817,23.536676810103277
23.400733355167983,18.942871719742552,-17.92339467673002,-1.987115598028545,3.5683307342566413,23.47319059724587
23.37950447311136,18.887473760745394,-17.775361210426404,-1.9852168890169746,3.4764867327442817,23.448720746879
23.365450436690068,18.850147632481107,-17.662984625130573,-1.9839344265943344,3.401968055766204,23.43204844220844
23.481546696185056,19.131813862673265,-17.858567983245898,-1.9930573038393955,3.31190909969084,23.545255576343187
23.715819605978332,19.69292515960692,-18.244918617140733,-2.0114496173303107,3.1290713425038312,23.77357462020138
23.961270156735747,20.2706083551803,-18.63814268948463,-2.030696085718677,2.936072855612805,24.01261383947878
24.21299282309179,20.852497662535836,-19.02959788158419,-2.050410621173815,2.7367996010723803,24.257582495040477
24.456409504648565,21.40528545390751,-19.397188856614772,-2.069452772552621,2.5429768952778793,24.494300889664235
24.577336527029132,21.67636405163765,-19.57592950043321,-2.0789050178441077,2.446325069818033,24.611840695762506
24.621657785258204,21.80442996957937,-19.659699391889315,-2.082352306542419,2.40045022478013,24.654532458326496
24.2780013179596,21.87622203126952,-19.697514578727375,-2.055013831088999,2.378897349728144,24.309817701666645
23.692156354145215,21.99345817466539,-19.758821395436122,-2.00824480158752,2.3437663412718974,23.722292844682066
23.091910013839414,22.106892098981977,-19.817560450846543,-1.960115645371782,2.3098806478609126,23.120483271763995
22.493212129979913,22.213352019413097,-19.872101120080423,-1.9119033132041447,2.278210456426171,22.520380071275362
21.893083863848936,22.313420682337437,-19.922768704456054,-1.8633649909306809,2.248570315461823,21.91899638549182
21.284930633101492,22.408098271647823,-19.970089638910753,-1.8139837156689247,2.22074374078674,21.30971253853773
20.679320532033575,22.49569437875379,-20.013233485301893,-1.764611819886793,2.195215485760547,20.70311689692557
20.074048755267228,22.576621365374578,-20.052433037557194,-1.7150761323388237,2.1718767973677022,20.096994118510636
19.465721465390153,22.651330964472606,-20.087925375385534,-1.6651028472603733,2.1506107984761513,19.487940429745464
18.856988544861867,22.719477548131728,-20.119557823163333,-1.6149067785635738,2.1314986909180513,18.878607619545384
18.243623335176462,22.781494748119975,-20.147548247724476,-1.5641560085506716,2.114491810564622,18.264752413878423
17.628812308726385,22.83699197240069,-20.171722014179913,-1.5131101679615935,2.099680722927161,17.649562913528314
17.015982000714853,22.885699391471967,-20.19197942142947,-1.4620595249096124,2.0871426327554286,17.036461077857407
16.40525864064596,22.92769672998005,-20.208375570609913,-1.4110162709627385,2.07682581103042,16.42556869022615
15.790039338602089,22.963429377168183,-20.22109754449231,-1.3594446057513305,2.0686881046936967,15.810268772239006
15.178023761402834,22.992446969894488,-20.229988137440127,-1.3079892435008296,2.062805675397365,15.198258697684379
14.5657400395621,23.014978373148548,-20.235140090442695,-1.2563650007660538,2.059125748628905,14.58605931002166
13.950877683021655,23.03107418533073,-20.236553542249805,-1.204377329106346,2.0576164971657076,13.971356505459976
13.339970834787858,23.04060173576933,-20.234243671324254,-1.1525938592926896,2.0583415948542814,13.360671166890047
12.725181087868377,23.043689499046977,-20.228181643013002,-1.1003512253432521,2.061276003743367,12.746163154340765
12.112973488593981,23.0402887900128,-20.218420562784097,-1.0482040965604515,2.066391441098492,12.134287896985349
11.499163191922168,23.030390346123795,-20.204895663634872,-0.995798806216442,2.073683012081448,11.52085732357191
10.884731795744694,23.013978470364147,-20.187612042989763,-0.9432310743952983,2.0832057966496986,10.906842727846714
10.27338992685902,22.99118321075736,-20.166682573826353,-0.8908212346002841,2.0948541764498154,10.295946602588732
9.660326735465832,22.961838921569452,-20.14194261845322,-0.8381629784855935,2.1087070297091137,9.68335458746865
9.046471401168434,22.92593578039121,-20.11338558384899,-0.7853392091882386,2.1247209926673456,9.069989079981067
8.43194859987657,22.88344877254989,-20.080993538487544,-0.7323705790693839,2.1429547248192886,8.455966305232803
7.820261528791243,22.834633773826738,-20.044943133496876,-0.6795629252913605,2.1632565977843052,7.844780341191803
7.205797571496129,22.779022839478227,-20.00487730291521,-0.6264375333714763,2.1858059399072003,7.230816211105281
6.593450389022336,22.717023417832078,-19.961078146827244,-0.5734231623587661,2.210419911172031,6.618956665935007
6.118831702444419,22.66442955109447,-19.92444511976458,-0.5322863309661011,2.2309342289758805,6.144704303661649
6.036414680031633,22.651337116696702,-19.986812306378056,-0.5251655835516782,2.3071517451153336,6.063015113393685
6.030800522307597,22.626675807997984,-20.40103021881987,-0.524855678563004,2.746063933885311,6.0614278857471
6.023882366047193,22.5901378415374,-20.909024809516037,-0.524517815867856,3.2906369696791335,6.059499902902193
6.017038246167875,22.547175883809803,-21.40889144157825,-0.5242323910680567,3.833505438976438,6.057624483770317
6.0102226805967485,22.497510641890145,-21.903959779309854,-0.5239975250167688,4.378278560243739,6.055790197796251
6.003445857786795,22.44117148507473,-22.393476596764593,-0.5238139884415418,4.924173674097056,6.054001064558831
5.99666283782784,22.377684840957436,-22.880652474345915,-0.5236814184029676,5.474875186393499,6.052246793335179
5.989968726950206,22.307920239502227,-23.358651359080206,-0.523601994040188,6.022676963038604,6.050553155674783
5.983312124230658,22.231392400001372,-23.83116538129788,-0.5235749496212415,6.571756706509137,6.04890794829945
5.976832713182458,22.149904242120122,-24.288357654008884,-0.5235996589676332,7.1104738168068335,6.047345652357196
5.97329743878896,22.102480673944264,-24.536647908126213,-0.5236348408997851,7.406207568824796,6.046510164758847
5.972267875544014,22.088271856368287,-24.608800454077414,-0.5236480104863287,7.492574725091252,6.046269155265797
6.259569591866092,22.055560175826542,-24.591834043231003,-0.5487777371435197,7.50563383698471,6.335903248682292
6.834082831543617,21.986326233339216,-24.55109154926536,-0.5989876201339821,7.528376540454342,6.91508137999042
7.436550985936243,21.90707023960396,-24.50437551596954,-0.6515853768806265,7.5543477759631985,7.522511673987954
8.041244277565013,21.820637805918686,-24.45333715453313,-0.7043156175839791,7.582593271669436,8.132263821990822
8.640246331401968,21.728182156757097,-24.39863540779148,-0.7564836698725742,7.6127177431032065,8.736360553908384
9.243742960785989,21.628107956352,-24.339298597907852,-0.8089693261555778,7.645189336642028,9.345082002390356
9.844040848822296,21.52163047400734,-24.276026356099234,-0.8611032912893266,7.679652638588382,9.950670484839915
10.44714713767213,21.407640509929927,-24.208127425338706,-0.9134001649058906,7.716411267804808,10.559193829572964
11.049296136242642,21.286767315871245,-24.13594465561039,-0.9655281943945337,7.755235424498461,11.166858732696191
11.650526736578085,21.15897991130936,-24.05942378355745,-1.0174826903204885,7.796076600445036,11.773712274576361
12.250888773255229,21.024247572823544,-23.9785179683394,-1.0692705525449067,7.8389772992336955,12.379804337568466
12.847131288079428,20.883326889084277,-23.893643697955863,-1.1206044991852095,7.883636248142048,12.981859539814677
13.262858111329914,20.780843460211948,-23.83175729330184,-1.1563362177218073,7.915977539659601,13.40171392149391
13.51975852786669,20.71576595738505,-23.792388103783235,-1.1783911219730705,7.93645462147212,13.661196539951572
13.818553965419918,20.638262723051216,-23.74457227100227,-1.2040150788174568,7.959933537239826,13.963009086027176
13.80850908871427,20.60771141033278,-23.503440076634575,-1.2025467312673015,7.749609872391451,13.948420173633078
13.786636065080934,20.53745799452576,-22.975073213007775,-1.199411412817337,7.292055290887277,13.916698734821372
13.763769958044149,20.458580283435737,-22.41785614642467,-1.196223555809689,6.814298401378229,13.883602374829442
13.741089248929251,20.374882378704807,-21.860201439109986,-1.1931509189055052,6.340917587189915,13.850837083352618
13.718487964201245,20.286094494543775,-21.299540886105813,-1.1901763547846378,5.8696171868901175,13.818245499285558
13.696181351417291,20.193218165729107,-20.741286455411355,-1.18732492778234,5.404802259790821,13.786133521821359
13.673942828972367,20.09545783764537,-20.17983518880616,-1.1845646191337733,4.941671195391706,13.754170697843106
13.65168051779027,19.99244304674764,-19.612828232436602,-1.1818828596357713,4.478237953437583,13.722221925469352
13.629666669294688,19.88552711503375,-19.047219584800857,-1.179310386993189,4.020096429735223,13.690674378687445
13.608232956254561,19.77661520276462,-18.49175156929524,-1.1768808269595845,3.574075595029319,13.659998256414347
13.595559769195049,19.709988527207454,-18.161083953333183,-1.1754789038629083,3.310350507165103,13.641877832143013
13.591119629043938,19.686253851141334,-18.044836714616945,-1.174993785995595,3.2179484949491832,13.635532176017321
13.643224445634004,19.909319195867184,-18.192054004065632,-1.1793273104666777,3.14104621305452,13.686123290781719
13.773584868682732,20.461688477801037,-18.564708582205323,-1.1901823922809112,2.958675240723364,13.812854753202213
13.902949565988099,21.001194199304706,-18.924617195495003,-1.2009555964099083,2.776419011468588,13.938523670684981
13.959893244704112,21.235997251698503,-19.080004881210957,-1.2056982285609517,2.695825850951182,13.993811269101528
13.959199582580451,21.24323996035487,-19.260103135946782,-1.2058159556529455,2.868657685363983,13.996759777678257
13.944802672988287,21.20850136488339,-19.730583517915875,-1.2051752247121108,3.374067577898226,13.992997935609377
13.92941822690764,21.16485985642248,-20.23062942612133,-1.2045989372111623,3.9179581944089916,13.989046857310015
13.914195126587506,21.114911788285912,-20.72263017566809,-1.2041413068336035,4.460107218919875,13.985210971680456
13.898970992226891,21.058092415290417,-21.211826792925798,-1.2037982281744857,5.006322533153155,13.981452156322312
13.883757647188244,20.994311154954058,-21.69778914004224,-1.2035725443156375,5.556264387855622,13.977777322649215
13.868647738936735,20.92389191593017,-22.177535735069615,-1.2034671235599965,6.106626154938502,13.97421208831895
13.853656057528848,20.846915436299774,-22.65060553299369,-1.2034823694471886,6.656865839620479,13.970762290135081
13.838716385804561,20.763018664783242,-23.11908138880974,-1.203619324627952,7.209430177614314,13.967415477984582
13.826207226572487,20.687145001979463,-23.5090318009174,-1.2038298026390346,7.6754139554150145,13.964686248485762
13.82197246980192,20.660280931999782,-23.640559034927048,-1.2039212077097292,7.833859150055799,13.963777915252452
13.819128629141712,20.641902949373968,-23.728747331965067,-1.2039883779631804,7.940461569590591,13.963172445378644
13.84519944066567,20.753839341800298,-23.822243490650727,-1.2061608358906513,7.921477777140246,13.98905980489603
13.961549858271098,21.25459850419811,-24.152963798319508,-1.2155977021223396,7.7490209048710605,14.102694343673885
14.106392009164175,21.86892663084636,-24.55401151947395,-1.2273384916068795,7.532704317085182,14.244040489093964
14.252839902415754,22.480090158296417,-24.9479058228887,-1.2392027941892794,7.312335904481298,14.38682692304837
14.402701073659124,23.095374073400766,-25.339360833926126,-1.2513380023739902,7.0853050629265075,14.532812793789068
14.553955156025681,23.706248797836402,-25.722982788525727,-1.2635815327958622,6.8547893193976535,14.68002712561834
14.706117791185148,24.310779807375752,-26.09771860205189,-1.2758953384053577,6.621679874969009,14.827998930003785
14.800614225003185,24.681260787724508,-26.324974554985133,-1.2835413738914059,6.476380647250049,14.919830199512111
14.789333544143599,24.785916705955326,-26.38829420740794,-1.2824804494575555,6.435307701019095,14.907553434615433
14.383226867431885,24.894051073474856,-26.447995480194468,-1.2479052497177743,6.395856840643773,14.4980649104755
13.775947944585019,25.049670473438173,-26.53365675795618,-1.196102581182962,6.33887168738623,13.885867444962823
13.162439616893717,25.19955131326658,-26.615873363724873,-1.1436511440287895,6.2837540978205295,13.26755301385405
12.547383358903996,25.342479721200526,-26.69401221764728,-1.0909536998746552,6.230948939378609,12.647839583588162
11.926506440726639,25.479390874189022,-26.768625997131764,-1.037648011690882,6.180202604875119,12.022411322848289
11.304196702513318,25.60925234955203,-26.839182537241214,-0.9841135706728014,6.131894177045359,11.395687157353896
10.681587868078998,25.73185963663509,-26.90560558663935,-0.930452756256381,6.086128386052539,10.76880226002866
10.062715090872329,25.84653503325615,-26.9675596494934,-0.8770202305608611,6.043155250757188,10.145814026944358
9.439649321423211,25.95480108306905,-27.0259045910434,-0.823135423977467,6.002492884472523,9.518727607430105
8.819883043604122,26.055389758090985,-27.079982260498745,-0.7694519280821654,5.964609194086774,8.895079601610954
8.194866671206588,26.14970019244641,-27.13056792241368,-0.7152357437531569,5.9289669321579845,8.266262294262418
7.566384946178699,26.237365885258406,-27.177494062250013,-0.6606428826961741,5.895786362146857,7.634061106560628
6.939683600084706,26.317665849168584,-27.220394301671607,-0.6061355099879917,5.865327111189292,7.003747801760966
6.483271460453658,26.37169623176806,-27.24921533040413,-0.5663988013857472,5.844796741873101,6.544761598737014
6.421119517814355,26.361351072412074,-27.15828503133173,-0.5609081786505447,5.764827984246603,6.481501761318278
6.411397027528467,26.275321708465178,-26.695063963668744,-0.5597015833350492,5.387749502264414,6.468026384117222
6.399715297953684,26.16714435836747,-26.134130533972296,-0.5582862178879328,4.935129075778548,6.45186070839709
6.388120286767448,26.054604908827454,-25.572602476462734,-0.5569180035627312,4.48627470589121,6.435840914100032
6.376499154691955,25.936675761609724,-25.005000778124266,-0.5555828894691585,4.036736294746857,6.419809513658662
6.364999060416036,25.81493794211131,-24.438519529933696,-0.5542969313611945,3.592125221338508,6.403967872136165
6.353618906392417,25.689558678798523,-23.873200886171343,-0.5530585450302744,3.152316443008556,6.388312478941535
6.342324867613523,25.560316869608233,-23.307438659059567,-0.55186280711074,2.7159252788175805,6.372794993958394
6.331047806735205,25.426503134650396,-22.73777796028865,-0.5507016615865581,2.2802070228118656,6.3573189500259915
6.319796974833052,25.288268359070123,-22.164655531795685,-0.5495756238505196,1.8454474343884544,6.341895749261494
6.310085227712419,25.16515169075952,-21.666044109068245,-0.5486294862539326,1.4700629539653982,6.328595030931993
6.306256465359709,25.11564965638986,-21.468471002253082,-0.5482630389258251,1.3220352876939794,6.323354392130399
6.3176760796361275,25.21445204644788,-21.510430667423957,-0.5492402448869267,1.2650859598349953,6.334208223790723
6.3737642030206185,25.70370200420709,-21.80484313599314,-0.5540615426121552,1.0697183456522845,6.388305374555711
6.4447059534952835,26.31218858695282,-22.16657245220281,-0.5601672131742141,0.8222842398345147,6.456678674688507
6.492040492938179,26.711916365283148,-22.401535164151607,-0.5642459855503684,0.6570636384455096,6.502268963722685
6.497285253001212,26.765203623020067,-22.516165818000413,-0.5647073900876245,0.7183524936197371,6.508103903503285
6.49047565008739,26.755308560831974,-22.95989202279235,-0.5641909556617257,1.1720186668536718,6.505781614533229
6.482247232358833,26.736854130061236,-23.49381246212062,-0.5636151507867412,1.7244476138247151,6.503006707367044
6.474080013536393,26.71133979736535,-24.021264422764048,-0.563096968427226,2.2774673718070915,6.500288185428761
6.466043600219853,26.679061287750656,-24.53778310891854,-0.5626401975613105,2.82631696226581,6.497650013854045
6.458079996513628,26.63988245833902,-25.04713205338185,-0.5622408198450821,3.3748964376151935,6.4950738220407915
6.450171431290654,26.59371456884022,-25.550449056047068,-0.5618979900425082,3.9244324491629556,6.492555022907137
6.442307761531015,26.540459013636205,-26.048366819555216,-0.5616116385694369,4.475656365312602,6.490091755107737
6.434671065158282,26.4815561253277,-26.52942808634136,-0.5613869737747237,5.015669426858805,6.487740999700366
6.4302000794491985,26.4437170331885,-26.809910364027072,-0.5612804393231825,5.3340193202650505,6.4863844967469095
6.4259871028845135,26.405756566170574,-27.07340907480495,-0.5611972742979263,5.635505299656378,6.485120109768953
6.423583987143013,26.383090426919512,-27.22336012924618,-0.5611574202171086,5.808137747536407,6.484405048671826
6.4286973942165995,26.4287419917421,-27.28233806895217,-0.561615811898534,5.821413354167772,6.4896754352914705
6.476994247948785,26.859887732333664,-27.534116028866364,-0.5656420635679332,5.641578913903539,6.536434732258816
6.548274457663981,27.48704544715941,-27.896064134486913,-0.5715887749201851,5.375674592910045,6.605394422024884
6.621327282960252,28.118723678858252,-28.25550441271316,-0.5776894455970453,5.102717256751888,6.676007087865123
6.696331539423379,28.7559061352964,-28.612908321792883,-0.5839601129131188,4.822192324933579,6.748442513858009
6.772652390218099,29.392751966924735,-28.964971430872794,-0.5903487992095222,4.536642023128662,6.82208520581992
6.850639362227128,30.031804108982307,-29.313111263696488,-0.5968858658872335,4.244936948146192,6.897270455972068
6.921387506676781,30.601567529165884,-29.619188661567392,-0.6028244555826485,3.9805243776226624,6.965421542878356
6.960179601999682,30.810415730417525,-29.730443794738513,-0.6061176469583905,3.8825274337246705,7.003264552561641
7.302698356392279,30.76934475130887,-29.71076049328648,-0.6358229824996707,3.9002036913065963,7.346726798866285
7.91981165998106,30.69024873317763,-29.672797668514303,-0.6892903734948088,3.9342015687262704,7.965618346208804
8.568839944709051,30.599952256537577,-29.629368941835196,-0.7454449381270898,3.972943344363486,8.616633334233953
9.217857124406546,30.50231708126346,-29.58229926162631,-0.8015110216735665,4.01471839530494,9.267767897988138
9.868078130558116,30.39709365299292,-29.531448660688937,-0.8575892581050204,4.0596751673355165,9.92024721656934
10.515006401118342,30.284984608474197,-29.477126490915964,-0.9132850245191287,4.107461315571086,10.5695697952829
11.16374534923483,30.165068388193486,-29.418853643464686,-0.969029639196639,4.158415581883749,11.220869268235088
11.813362026042205,30.03741032938619,-29.35663478909625,-1.0247400738748085,4.212545823915028,11.873214569136668
12.461875984153272,29.902331571205075,-29.290588692789587,-1.0802385593216732,4.269657538521047,12.524628621867999
13.108691083199766,29.759928605970135,-29.220723634997267,-1.1354657762789189,4.3296505746783405,13.174523715614539
13.756050042196968,29.609656266648443,-29.146739446614696,-1.1906132327643024,4.392785694180914,13.825155855415119
14.3907121985461,29.45472307687594,-29.070178889112544,-1.244548194275471,4.457656819984249,14.463223758089356
14.94012922169033,29.31445263752582,-29.00061690664574,-1.2911298886454052,4.516193304917365,15.015752982086008
15.186479154631192,29.249686273381617,-28.968415927789877,-1.311978672102711,4.543127213834869,15.263552857449083
15.670603418556732,29.11901841320188,-28.903303222342608,-1.3528952152239064,4.597408618210223,15.75061382824283
15.984001381230854,29.032014931373723,-28.859835420273107,-1.379337358440471,4.6334611584928025,16.065980921373562
15.952111910113137,28.909790848390436,-28.627480540852925,-1.376445139587898,4.524129390911958,16.031341397476915
15.871537993310952,28.622391976431267,-28.078861973775975,-1.3691920396343173,4.264915785298042,15.944276786366986
15.786275146307368,28.31426666758994,-27.490763087586956,-1.361543853511068,3.9870540131738257,15.852132431161445
15.701825125074325,28.004931236068828,-26.900437453980913,-1.353996628562363,3.708144307602355,15.760852406555323
15.618745705371307,27.696496887150175,-26.311909224908533,-1.346599818466712,3.43008630879982,15.671039298567752
15.536568283396035,27.38729960782158,-25.721998592441462,-1.339311258104926,3.151376149884848,15.582186260710882
15.455647956428853,27.07874478607608,-25.133382574987518,-1.3321620427031728,2.873277222017679,15.494676966990863
15.375274534675185,26.768168709754466,-24.540976071986815,-1.325089201159808,2.593385704519916,15.407743043667589
15.295505870116132,26.455789596770284,-23.945192614928054,-1.318097939855794,2.311895734281557,15.321446516015438
15.216864254199123,26.143694013948828,-23.35000854840164,-1.3112338342522345,2.0306848807916986,15.236352056951171
15.139292010823993,25.83173224577758,-22.755134768568404,-1.3044913911667444,1.7496155399530642,15.15239706454205
15.0638235363293,25.524223514541934,-22.16880314185957,-1.2979595059528641,1.4725763599216801,15.07070122491807
15.016823678726427,25.330677804925102,-21.799791067045582,-1.2939057336260071,1.2982163731153264,15.019813891923674
14.994972471047753,25.24015422329838,-21.62720607784206,-1.2920248030240933,1.2166681745758499,14.996152825750933
14.819858817098346,25.208925832984793,-21.593200254539422,-1.2772702416739796,1.2178125566527118,14.821329935343718
14.28051629113129,25.138616255763633,-21.543296903653435,-1.2317661865381189,1.2500080927031882,14.28350702763184
13.661050810984761,25.051661368976138,-21.48245765969333,-1.1793686346397085,1.2891365522611924,13.66578779737588
13.04165731625804,24.9580510150204,-21.417814546723765,-1.1268401077552006,1.3305494691084347,13.048133999621966
12.421963814062654,24.857678951608797,-21.34927008385912,-1.074150183737862,1.3742337147589774,12.43016660364785
11.803121117495039,24.75070030258676,-21.276910793275558,-1.0214126678499973,1.4201533110296805,11.813026545558824
11.18193242664491,24.63648434350402,-21.200283852974323,-0.9683556059719312,1.4685135913174063,11.193517647456138
10.56346589190518,24.51591549210333,-21.11995428210959,-0.9154179512491616,1.5189065961286488,10.576686801614514
9.943214676650394,24.3880699076655,-21.035272607047286,-0.8622165882448667,1.571652777257269,9.958030376355797
9.323494370151666,24.253347979456297,-20.946478958809422,-0.8089632165420989,1.6266091571483006,9.339852748193707
8.704038662533353,24.111636478049867,-20.853460735347543,-0.7556372098569324,1.6837522717844804,8.721879624463387
8.086961030631208,23.96339533959308,-20.756481051632097,-0.7024270159348281,1.7428591746590458,8.10621237619449
7.4774215130615245,23.80996207399571,-20.65636965297015,-0.6497854390404821,1.8033692465880358,7.497993634202258
6.8716387409265325,23.650502345889393,-20.552532860170263,-0.5973916893142814,1.8655542172191395,6.893443293079216
6.27047295700505,23.485316659561494,-20.445127113079188,-0.5453315771023823,1.929327721866697,6.293418547746465
5.66865723233468,23.312944528922667,-20.333155303327597,-0.49315270326116595,1.995182139959736,5.692654658054009
5.066715467715313,23.13343843556874,-20.216606108355755,-0.44090573780166686,2.063047106885986,5.09166779141209
4.4806918500195305,22.951774428333593,-20.098659293470146,-0.3899897426902378,2.1309881099114434,4.506471618897847
4.10532829547688,22.831798560552254,-20.02074721241504,-0.35735393226972095,2.1755023399096682,4.131585306802742
4.086071026367216,22.817723849280483,-20.173812859280353,-0.35571950711834355,2.342759484538145,4.113376822466033
4.081743428699927,22.788972347433646,-20.643311114137266,-0.35548269318942166,2.8410264777826892,4.1121460157108025
4.077057800179639,22.75132946020003,-21.14909138472549,-0.35525784214602996,3.384468226370298,4.110833568692882
4.072402704962179,22.707083346102994,-21.648888950762377,-0.35506766015337216,3.928530298876763,4.109551603267187
4.067776439974921,22.65620188862189,-22.142885413164812,-0.3549122007674341,4.473426417492807,4.10830042016867
4.063136554938711,22.598101662412702,-22.635572220883386,-0.3547906746577386,5.024231620340908,4.107069653441447
4.058566972674228,22.53381189566334,-23.118032874544294,-0.3547054806989598,5.570999849181327,4.105882360972669
4.0540003917870555,22.462403744739447,-23.597382646909118,-0.3546553975389769,6.121775481107002,4.104721720713335
4.049476538808698,22.384453540100687,-24.069435615917776,-0.35464122697696754,6.671796107192296,4.103598718343471
4.045375221923031,22.307452025464286,-24.494929457407096,-0.35465965222593476,7.1743072046585405,4.102604740082316
4.043745970162213,22.27516500160575,-24.66329528890621,-0.3546753921760746,7.374966291235078,4.102216482138366
4.044608869980732,22.28534403272241,-24.727764350685337,-0.35479469482560694,7.429249934332658,4.103425000299173
4.069695004432864,22.656644203310993,-24.965089275710408,-0.35688608501559177,7.295121448098544,4.127858163640127
4.111601306362265,23.269056013903956,-25.352459265360856,-0.3603802101165923,7.069821658519987,4.168643813560106
4.155119289535384,23.89485642087975,-25.74309432588604,-0.36400968489277186,6.8343858005063245,4.210959328044667
4.19934555668967,24.52049373730004,-26.128401632533308,-0.3676996579463393,6.593778140782148,4.253924125935264
4.2443265337984215,25.14637224774403,-26.5086612311474,-0.37145449375337364,6.347874013193023,4.297582345354321
4.290433495719799,25.777267518280617,-26.88674142748222,-0.37530573173697906,6.094763624743207,4.342292862767774
4.337331507809175,26.408203544731226,-27.259631124304764,-0.3792259762952098,5.8364138426952845,4.3877294071848425
4.385122718239533,27.040248829401172,-27.627980846799563,-0.3832243569533397,5.572405862947239,4.433989804974636
4.433749219150862,27.672325000827062,-27.991181724853522,-0.38729664975233197,5.303209392124397,4.481016848171768
4.483832514383208,28.31201641496313,-28.353532261053523,-0.39149563034192114,5.025534236732187,4.529409761894633
4.534500702123124,28.947786263631087,-28.708486758761527,-0.3957489225087429,4.744377114462641,4.578324603542705
4.58635747508788,29.586909685328006,-29.060148557741602,-0.4001079172812063,4.4565619653441635,4.628343098770076
4.639035407759023,30.224487626725764,-29.405834610614843,-0.4045425068210595,4.164307082053726,4.679109511528938
4.687630707468417,30.802487691889404,-29.714823492668856,-0.40863963313826895,3.8949575792983686,4.725903049116475
4.706925086458543,31.029249476672838,-29.83310616979374,-0.4102672523687562,3.786343270226077,4.744459353639561
4.694584039837279,30.876111319373376,-29.56119659204226,-0.40913761959499495,3.667663216868403,4.731243811448957
4.669439604635049,30.561403193604768,-29.001738171493194,-0.4068411481744628,3.4230983322879722,4.704312483422827
4.643225899844485,30.229383920154902,-28.410553809619557,-0.40445451083940687,3.1641254717495886,4.676228428415863
4.617522501967371,29.899834646840574,-27.822827302605955,-0.4021219892735634,2.906135666449954,4.648683505635678
4.592000489629808,29.568596857828187,-27.231171579626725,-0.39981366067393637,2.645902802527947,4.621325341542089
4.56665426707205,29.235579419104692,-26.635434882864985,-0.3975290929317264,2.3833663186667358,4.594147898070111
4.541670127171362,28.90325563652405,-26.040061965316465,-0.39528506576361744,2.120496351111907,4.567350965248844
4.517032564751081,28.571489148671333,-25.444837400999255,-0.3930800880834552,1.857213988865642,4.540918028925932
4.492706849652677,28.239872274975358,-24.849055565493444,-0.3909109715091782,1.593221574607174,4.514811919927187
4.468758114409942,27.90936290816747,-24.25446424725551,-0.388783423125541,1.3293085820443205,4.489102643846802
4.4451215479926685,27.57914007456658,-23.65961307651871,-0.3866915767305904,1.0648461119634591,4.46372073341913
4.421684093488474,27.247653844195124,-23.061727473782554,-0.38462540466877077,0.798610337221436,4.438544802656353
4.403841897949783,26.99254006963689,-22.601086351719463,-0.3830580179640701,0.593206949364483,4.4193737802993835
4.391508830472751,26.83448458686868,-22.46243762490388,-0.38198754454738343,0.6126954677379148,4.407206064334642
4.351144967498072,26.329527307360483,-22.166168565307927,-0.37849678079161425,0.8216465305803193,4.3683380405058685
4.302513342573742,25.710509011380857,-21.798376711614694,-0.3742969243294914,1.0731866075761614,4.321473504264605
4.254729675786043,25.09066764853163,-21.424994186635747,-0.37017634244624315,1.3199503678081603,4.275387724274871
4.207935395654429,24.47218521087952,-21.047316211633863,-0.36614660670305993,1.5610503221965637,4.230218272175269
4.16192472544323,23.85267617767121,-20.663864520551485,-0.36218940280755774,1.7973951994698547,4.18576764589026
4.117377339747159,23.241815071258237,-20.2806972487262,-0.35836254445573545,2.0253645818487964,4.142694231451181
4.089362531246344,22.851952532846337,-20.03351074249693,-0.3559580601049054,2.1682124666527707,4.11558756510245
4.086240929452191,22.818738293067128,-20.15526888412132,-0.3557241611261425,2.3232012374921944,4.11343100063918
4.081985776659799,22.790737322083235,-20.61700731232057,-0.35549000596082586,2.8129575876176647,4.112219892725521
4.077295726474587,22.753411053027637,-21.12339622474025,-0.3552632343887026,3.3566913813399224,4.110905005594033
4.072629141804155,22.709402574356055,-21.624556389805882,-0.3550708981724789,3.9018784668158015,4.1096186548761455
4.067996196119839,22.658785965934563,-22.11939172889823,-0.35491356748224895,4.447348643305827,4.108364436484945
4.063394669200913,22.60153356610942,-22.608142240778257,-0.35479125255076643,4.993369578128818,4.107142479938201
4.058797228367346,22.537235498394622,-23.093687142953176,-0.35470366094259476,5.543230469708071,4.105946490018596
4.054231576258482,22.46620969332153,-23.573076094630885,-0.35465177962573163,6.093662936086524,4.104784645533203
4.049693164468028,22.38837121327878,-24.04678284156824,-0.3546357723870859,6.645225676289607,4.103656571689979
4.045510847824493,22.310118316697555,-24.480778825101112,-0.35465322324819953,7.157490612131119,4.102641837586066
4.043704784041941,22.27435976689162,-24.66742622082281,-0.3546705083297074,7.379903465544734,4.102211280290794
4.022468474251718,22.266621779807142,-24.715660392726875,-0.35285368835559666,7.436005887322626,4.081164431998412
3.630895207672366,22.294050140817514,-24.73171058064845,-0.3185061664403694,7.426926723464161,3.686572329383815
3.030495559124372,22.33062917715286,-24.75310051968243,-0.26581667974997886,7.414806976738508,3.081574991057771
2.421843380349858,22.360959158838448,-24.77082338718514,-0.2123773175666876,7.404748179130136,2.46829462412139
1.8127733349250104,22.384518093452385,-24.784581725504157,-0.1588805512221353,7.396929739076615,1.8546196056598292
1.2027053317452305,22.40131255824689,-24.794382375958673,-0.10528281253712025,7.3913235583552375,1.239957764341006
0.5948365284913485,22.411287163342326,-24.8002036624107,-0.051865985974161484,7.388013671752856,0.6275259950231031
-0.013885635536609752,22.41451633232361,-24.802088486897333,0.0016310069311707598,7.38694649673688,0.014240961490001043
-0.6211747832575589,22.41099898983993,-24.80003705649238,0.05500207269314275,7.3881230556276245,-0.5976004316733774
-1.2310682373510602,22.400687980203777,-24.79401780285545,0.10859348320716566,7.391527291123997,-1.2120742733107162
-1.8390956605076143,22.383647382363577,-24.78407172032905,0.1620136489996663,7.397197707643043,-1.8246795411746106
-2.4484332610481916,22.35978721695628,-24.770138697603514,0.21553340373450566,7.405129499131798,-2.4386248682088403
-3.0556974939248844,22.329242227821368,-24.752291228698155,0.2688504440735178,7.415272741287328,-3.050507665385947
-3.653782752137604,22.292543868304357,-24.73083234120198,0.32133648703132145,7.4274447641773715,-3.653173917533097
-4.025609739560999,22.266409615168246,-24.715536959230562,0.35394748082036304,7.436072862166018,-4.027870342370996
-4.0414144584659,22.240448660010482,-24.545640036991372,0.3552178021233357,7.292042241018644,-4.042894800983094
-4.035103127997787,22.164059910987156,-24.0394761277564,0.3543344736212379,6.862314298295008,-4.033859232908926
-4.028152124644283,22.074671480410778,-23.47725782279379,0.35338683335367854,6.3895362707096455,-4.023926256408089
-4.021304551964889,21.981252478912356,-22.918486782504875,0.3524787770095651,5.9242351501177435,-4.014158997015413
-4.014493496618755,21.883078343579907,-22.357802243683828,0.3516003190619569,5.461775241617827,-4.004460555756967
-4.007723831008747,21.780331614604563,-21.795637506539524,0.3507513591288673,5.002407274628896,-3.9948367056723266
-4.00097644046257,21.67281501229516,-21.230420997647204,0.34992888163959857,4.544757101625202,-3.9852591961335815
-3.9942663706947705,21.560852569801032,-20.663422433542824,0.3491341596759281,4.089770299717121,-3.975748357813349
-3.987611937245306,21.444869395680858,-20.09623528766303,0.3483686570684307,3.638615104694172,-3.966329058982425
-3.981016616879547,21.325065656755964,-19.529224500648482,0.3476319948718172,3.1914562708842125,-3.95700511450152
-3.975906077585253,21.22891852647116,-19.086496841484266,0.34707615149156473,2.8449130151362394,-3.949787744944623
-3.9750242161383014,21.209668768570094,-18.969486659075304,0.3469704385087283,2.7471597084197836,-3.9483130247304983
-3.9962944352907184,21.520476485492026,-19.173691813642286,0.34879137016858386,2.6404302321286934,-3.968941881606616
-4.036743578881914,22.103973251671825,-19.553475690310925,0.35225629561976735,2.436474232275955,-4.008146544807799
-4.074826632739013,22.644473699752087,-19.90112060606733,0.3555212344023835,2.243387701812006,-4.0450287812209
-4.087599117128951,22.825167615548235,-20.03389703644789,0.3566208887425349,2.195391957775716,-4.05749795412488
-4.084531401902138,22.806554681953504,-20.367743941154046,0.3564445553086113,2.547864043125618,-4.056624707193303
-4.07986150037689,22.772690752891712,-20.873774069509103,0.35620294974960653,3.087776683750682,-4.0553122959537475
-4.075186641544646,22.73197778249749,-21.377665771795268,0.3559941435535703,3.6323998836642297,-4.054019962081888
-4.07055827652907,22.684808042762427,-21.87385676142082,0.35582073858908164,4.175778877963962,-4.052762822284051
-4.065938935287659,22.630774559879956,-22.36635883334403,0.3556815102748549,4.722332581205078,-4.051531501672401
-4.061336842721874,22.56988290186442,-22.854263376167903,0.35557722987882917,5.271146778810503,-4.050329222190469
-4.056746316011926,22.501971591897796,-23.338142107421643,0.35550829796189076,5.8229546845122195,-4.049155530760418
-4.052208895513759,22.427653855062914,-23.813617913196847,0.35547547816871466,6.37276579584295,-4.048021782704641
-4.047689776018837,22.346374762242746,-24.284345188991274,0.35547860396638903,6.9247895705627425,-4.046919958710738
-4.044575245584886,22.286059489914884,-24.60709000954702,0.3555020563870901,7.307861604281631,-4.0461771721730395
-4.043619848663285,22.266844885174795,-24.705815730752494,0.35551279378477463,7.425805583860207,-4.045952112704575
-4.052973950758488,22.405313070110818,-24.80465025617603,0.35630084217987723,7.386114708281188,-4.055128270456571
-4.088416060215547,22.9272617036469,-25.136887462768016,0.35925554574274976,7.196186117795855,-4.089636398320682
-4.131483051611195,23.552138341170615,-25.529814510895935,0.36284661354376563,6.963970259852852,-4.131532813453138
-4.175446064520689,24.179671028556907,-25.919148240771708,0.3665135831747023,6.725496795933595,-4.1742614778438645
-4.219969710171235,24.804818463324924,-26.30178947691779,0.37022895853393367,6.4827098130233844,-4.2174954463326255
-4.26540546878525,25.43226422274014,-26.680638743264915,0.3740225740467716,6.233823903352081,-4.261575063384012
-4.311572595602372,26.059206541497275,-27.05401409380607,0.37787987794978956,5.979959880615635,-4.3063238265283195
-4.345117735406091,26.50819166661325,-27.318249720418166,0.38068449683325467,5.7949926585506555,-4.338813429894144
-4.262794911547901,26.581511197973615,-27.360793204699814,0.37347302689794026,5.764759297589731,-4.255876213402808
-3.7851024179319936,26.615215761091793,-27.378666829374716,0.3317229717074458,5.7518696401211855,-3.775715418021113
-3.1559824163427437,26.653468102739915,-27.398935319115413,0.27670775662155733,5.737228176278233,-3.14338743677133
-2.5265647974032603,26.684773414110346,-27.415509561813675,0.22163716949660878,5.725236314558485,-2.510801481183578
-1.900071478768909,26.709030964455188,-27.428344294269284,0.16679906005741257,5.71593910384729,-1.8811873188273982
-1.269439539643823,26.726502611020265,-27.43758112973499,0.11158197856871623,5.709210109948609,-1.2474395057482137
-0.6423286060662897,26.736980300540125,-27.443120735841998,0.056660615118762254,5.705194745892253,-0.6172459379036039
-0.014150041940988442,26.740583230452764,-27.44502567479467,0.001639688762501388,5.7038183911174585,0.014012116121855411
0.6172352697900892,26.737255057521793,-27.443267078010116,-0.05366237199540014,5.705103430275914,0.6484924125709592
1.243868479721854,26.727058417644496,-27.437874041745957,-0.10854047543624094,5.708993776393166,1.278205371942616
1.8720383131456197,26.70994518218345,-27.428824864710723,-0.1635436942868614,5.715568460068715,1.9094784562671192
2.503346690462681,26.68578329954387,-27.41604213900073,-0.21880445044569632,5.724843339344131,2.54393005398524
3.1302815046732406,26.654868839082244,-27.399676379543155,-0.27365944013414245,5.736699850952681,3.1740187345022264
3.757301744757977,26.617035170669045,-27.379628415158056,-0.32848994168380174,5.75116447436338,3.804234713092651
4.253498409801086,26.5821864330151,-27.361149432488638,-0.37185875933699375,5.764503210386056,4.30299347571398
4.347397367527683,26.542532190216736,-27.293706054978752,-0.38004229613960855,5.7360989443681785,4.3971734486103795
4.330352920360558,26.316965805852732,-26.850887132746646,-0.37841203482177466,5.518964119002182,4.378602037136302
4.308016899035325,26.01779563947954,-26.263830883907154,-0.37628370291518587,5.231231574248765,4.354262717486482
4.285825647994568,25.71646502854907,-25.672824052649293,-0.3741783794279164,4.941707088753615,4.330078374458057
4.263743593068222,25.4124691068458,-25.07687502247741,-0.37209271361178203,4.649904169953877,4.3060100404743205
4.241958097702513,25.10840862127509,-24.481078031925183,-0.3700443313758128,4.358315057681572,4.28226176504443
4.2204239132805235,24.8037149253183,-23.884312045256564,-0.36802881687584765,4.066387698717209,4.258784089645607
4.199167675371117,24.498824242563387,-23.287425129613776,-0.36604851207522715,3.774533785836431,4.235605922361346
4.178300302546568,24.195429220360275,-22.693722265032022,-0.3641135077725292,3.484364944285216,4.212848121737727
4.157693098116096,23.891757622779178,-22.099727161251373,-0.36221163595875006,3.194178010799273,4.190370247667852
4.137159963614491,23.585073692604876,-21.500086111172177,-0.3603256940836687,2.9013562862693973,4.167969140364222
4.116830746561259,23.27730776642852,-20.898571985654343,-0.35846761787208403,2.607741463313221,4.145786276594472
4.09898366586622,23.003658553517628,-20.3639364737534,-0.3568440595286929,2.346871703231832,4.126308191163703
4.091087147009081,22.881530713440497,-20.125391506813894,-0.3561280306961087,2.230505974763189,4.1176888755386205
4.071262462470549,22.827180334203508,-20.017666493993215,-0.3543905396669473,2.1772554303799927,4.0975418749238655
3.7114588270665907,22.851380466732046,-20.031655404929126,-0.32307920812513896,2.169175193369286,3.73785948492717
3.1112400340736337,22.886744429579814,-20.052083970085857,-0.2708195217900573,2.1573573518217923,3.1378743194869076
2.498669416379012,22.91639643602112,-20.069200530498218,-0.2174550001532033,2.1474395550363576,2.525576775423536
1.8868185035522544,22.9395343441369,-20.082549066698682,-0.16412930499516276,2.139695727281417,1.9140267377432532
1.273867369078897,22.956229468147196,-20.092173431572533,-0.11068922603345999,2.134075623044465,1.3014000654986717
0.6591060301571515,22.966468856961658,-20.09807664246897,-0.05707969954450833,2.130649012988824,0.6869768785956576
0.04769916143614031,22.97019307982078,-20.100223876307407,-0.0037562832689988068,2.1294067885369703,0.07591379128540067
-0.5678704471186373,22.967436912920192,-20.098636132139344,0.049930758972158054,2.1303381205787226,-0.5393091305615557
-1.179429794835927,22.958230187155188,-20.093326761860915,0.10326199929578336,2.1334013663733673,-1.1505294265957575
-1.7912603111280618,22.942569419346448,-20.08429772289652,0.15660629491365602,2.138657884323679,-1.7620349215269944
-2.404578435632928,22.92038476838839,-20.07150163857478,0.210063342445627,2.146096934770271,-2.3750474074422954
-3.0181975087314394,22.891679767548236,-20.054934900341724,0.26352379065084053,2.155712816807666,-2.9883878156794816
-3.632910435079516,22.856377833244363,-20.034542801049465,0.3170488095832487,2.167494190101737,-3.6028555158711395
-4.2444072059435225,22.81474924937944,-20.010478868741565,0.37026106603369363,2.1814057792003902,-4.214149269685324
-4.858183098982197,22.76641079586302,-19.98250778946988,0.4236313513789481,2.197536011529362,-4.827769110172166
-5.4715341097954875,22.711522157728886,-19.95070945189806,0.47691855159153557,2.215821583176272,-5.441018760082921
-5.951289790598897,22.663984323123056,-19.923137841963637,0.5185632524336663,2.2316323779877156,-5.920737584562323
-6.036716402841424,22.651567917774535,-19.982581705010283,0.5259997969467354,2.302713339216141,-6.006787501522921
-6.0311593360707585,22.627207043027976,-20.39288719926608,0.5256928245363436,2.7374123589668877,-6.005221895797811
-6.02421856043051,22.59062163682531,-20.902921326259282,0.525353547206328,3.2840725265978508,-6.003294437390041
-6.0173883276604725,22.54780583843562,-21.402141786652475,0.5250685202799112,3.8261486070667408,-6.001429627971384
-6.010556687956082,22.4980743519975,-21.898742886698436,0.5248330162346673,4.372520851635387,-5.999597893320028
-6.0038219908625425,22.44214150685189,-22.38557931592517,0.5246505337839101,4.915329045652358,-5.997826663300215
-5.9970345297761325,22.378682291706834,-22.87344461897431,0.5245177392778633,5.46669260418191,-5.996078046784066
-5.990331260651853,22.308875556588273,-23.352457682626643,0.5244382170554399,6.015550769662657,-5.994388922093314
-5.98367777475297,22.232425624137033,-23.825103950370078,0.5244113145343853,6.564684857627916,-5.992751358062544
-5.977177095236973,22.150693990705136,-24.284135797550107,0.5244363955313552,7.105485161434252,-5.99119078144248
-5.973600006720139,22.102700108958324,-24.53554042472602,0.5244723365281734,7.404903848020926,-5.9903493266941235
-5.972559517317797,22.08833267506977,-24.60850837891246,0.5244857854714551,7.492245093738204,-5.990106930359622
-6.252717410956767,22.05638381798604,-24.592322802290973,0.5489914251493961,7.505390586203712,-6.272542965343618
-6.826982339597534,21.987257848119523,-24.551644807548275,0.5991804840047678,7.5280987602069525,-6.851470138519297
-7.428465148471071,21.908220618165334,-24.505058967544105,0.6516932567099005,7.553999491431276,-7.4579061734424785
-8.031842874996178,21.822079083011086,-24.45419400514103,0.7043100097622536,7.5821514182407554,-8.06633072979613
-8.63399104742413,21.729228284127444,-24.399257008424517,0.7567503644062794,7.612375215338356,-8.67360094062626
-9.234558489655877,21.629734406945026,-24.340269315932705,0.8089848149493296,7.644691107088017,-9.279364843540488
-9.83622234176484,21.523116272075544,-24.27691581878813,0.8612388329215424,7.679202014542405,-9.886330124225893
-10.439184382065669,21.409246605017422,-24.2090878611987,0.913520888924286,7.71589301170137,-10.494708760979266
-11.039727852679428,21.288802100087477,-24.137164126057517,0.9655112397339478,7.75458218627985,-11.100751983450193
-11.640393154546656,21.161257705698166,-24.060795666339846,1.0174220766924447,7.795379936584794,-11.707030519143235
-12.242705088559157,21.026200548645864,-23.97969868628042,1.0693799637389139,7.83838745824574,-12.31508947167023
-12.84072984273181,20.88494683248628,-23.89462417109256,1.1208641152473644,7.883124135635285,-12.918945382187985
-13.259255389747377,20.781818132181716,-23.83234997809855,1.156837033351504,7.915670757496794,-13.341625653148858
-13.513679806562527,20.71739459327357,-23.793377591704807,1.1786797709674028,7.935943136427885,-13.598607007859798
-13.818871877097063,20.638346852696273,-23.745258363488105,1.204854378748893,7.960531615233291,-13.90689354803959
-13.809104309014728,20.608661863949063,-23.510839887833555,1.2034261750935438,7.7560482070180905,-13.892706442946231
-13.787204264128373,20.53840301898097,-22.981974616282166,1.2002856255327528,7.298001263805999,-13.860943344568943
-13.764524703863747,20.460273725535508,-22.42948284168092,1.1971220715717472,6.8242164272179355,-13.828114245188125
-13.741789300062873,20.376496531736716,-21.8706802079767,1.1940400767632757,6.349768300200072,-13.795267053141192
-13.719086263482083,20.287414195745935,-21.307677685407054,1.1910504968542506,5.876422888279032,-13.76252611208115
-13.69671987813223,20.19437491696145,-20.748091250264487,1.188190154733411,5.410440340655577,-13.730325739393521
-13.674481729886123,20.09669667838407,-20.18680856119185,1.1854287412977416,4.947395678318656,-13.69836121528861
-13.652316953163126,19.994226116055565,-19.622457560139765,1.1827574179572256,4.486071641557231,-13.666550113720154
-13.63026497555414,19.887225710637605,-19.056049304004986,1.1801790885535828,4.027215867325886,-13.634945611694326
-13.608760810592072,19.778043465479662,-18.498921621689167,1.1777403741681158,3.5798073859448674,-13.604166536762044
-13.59585900888727,19.710248571762946,-18.162370060958736,1.176312768348005,3.3113722203574123,-13.58571812599298
-13.591394154017781,19.686387625086407,-18.045497971328043,1.1758249063856714,3.218472224616395,-13.579336810973414
-13.641783758558875,19.902100073767702,-18.187159274432897,1.1800149319588962,3.1434017618736236,-13.628247789442053
-13.771456979147812,20.451699360413127,-18.55801057147129,1.19081270068526,2.9620118736877687,-13.7543113398265
-13.901806003790618,20.995439525097794,-18.920803030732174,1.20166778306351,2.7783851555049917,-13.880936472774545
-13.959749506205451,21.234393451326742,-19.078949964856093,1.2064936493110288,2.6963797632254356,-13.93719449814072
-13.959593781401502,21.24356257914044,-19.255306650658323,1.206651053247915,2.863533577856438,-13.940562822942555
-13.945312489672764,21.209174027884266,-19.722180322435893,1.2060144822240202,3.364985236614791,-13.936837039494435
-13.929934649131301,21.165652929691266,-20.22220675897413,1.2054369984496045,3.9087359458627757,-13.9328936966861
-13.914658957188827,21.11562130219841,-20.716096218377185,1.2049765890612507,4.452857992144215,-13.929050694042074
-13.899454370444136,21.05895387878153,-21.204848884248054,1.2046329544280208,4.998477209771066,-13.92530292738925
-13.88422363517698,20.995176663137578,-21.691550365835433,1.2044060872001479,5.549154441897043,-13.921630164094559
-13.869136397564153,20.92493885596252,-22.170758927327142,1.204299951260035,6.098796510972524,-13.918076509053016
-13.8541528482596,20.848084573597795,-22.64375482238177,1.2043142691611024,6.64884005324393,-13.91463471870699
-13.83926514993096,20.764571534435767,-23.110787409166154,1.2044496654158157,7.199576787890515,-13.91130550588457
-13.826584307687085,20.687708279400884,-23.506237760856912,1.2046625893837777,7.672052341648473,-13.908544250561457
-13.822316273175545,20.660635548024512,-23.63884225919242,1.2047548259895877,7.831783901042528,-13.907630810315853
-13.819445338244057,20.64208088888595,-23.727898826659345,1.2048227696852642,7.9394316218519,-13.9070209831626
-13.84467707025739,20.7503217670102,-23.819911763404004,1.2069300358922583,7.922677274898679,-13.932109432129904
-13.95954749070571,21.24480021494802,-24.146529190260694,1.2162467529856749,7.752429240669972,-14.044298338652899
-14.104179392484797,21.858404152326294,-24.547189162784957,1.2279703946902192,7.5364539786872315,-14.185439775955953
-14.25105920698248,22.471528653927553,-24.94242664744061,1.2398695618483861,7.315459094335107,-14.328647646838979
-14.400322982573778,23.084522001257007,-25.33250442617626,1.2519562536161937,7.089354836233101,-14.474051893941692
-14.552669484403486,23.69995418435714,-25.719059236163652,1.2642880481232797,6.85719136521338,-14.622329535584173
-14.708519325290098,24.31911952604657,-26.102858114310813,1.2769000217043953,6.618430281013963,-14.773884984563807
-14.866741921333665,24.937202563659074,-26.480915252993118,1.2897018181289037,6.374924018812543,-14.927614916644021
-15.028094886058824,25.556882705653397,-26.854894678828014,1.3027559521280105,6.125638769911273,-15.084252140907324
-15.19265247403377,26.17809093847089,-27.22474848909881,1.3160697083546624,5.870591929709215,-15.243864564028227
-15.35999957258387,26.79894805556011,-27.589375859237858,1.3296108472843113,5.610569209080837,-15.406045951140342
-15.531598468330767,27.424473448168854,-27.951704817855415,1.3434991330263901,5.343443716165289,-15.57220873478963
-15.705869215634515,28.04852185465946,-28.308169722931304,1.3576082034521966,5.071828856923275,-15.740818609167496
-15.874115078806302,28.64054348120487,-28.641747052538864,1.371235017166488,4.809453302938082,-15.903469160455433
-15.961459127594706,28.94392388464372,-28.81096416472724,1.378311813041354,4.67323391617961,-15.987859202183445
-15.978266308028966,29.001342777145425,-28.802271101858185,1.3795952284596678,4.606736834526212,-16.0031208810949
-15.914489681457708,28.77508651677243,-28.370341474760032,1.3738458551181547,4.402654684230665,-15.934209355670477
-15.828362619344492,28.465920760550443,-27.780213602488267,1.3661060205734135,4.123831354510245,-15.841136219894963
-15.743608327776792,28.157538751304557,-27.19166696300338,1.3585175519727315,3.8457601257798912,-15.749532725620922
-15.659859622303577,27.848685643186943,-26.602301470763205,1.351047090251603,3.567305303836428,-15.659001751165459
-15.576983999950208,27.538917816807203,-26.01126635133827,1.3436825792932703,3.28806335859892,-15.569399685951252
-15.495836518339862,27.23153351883315,-25.42484964082055,1.3364993772366311,3.0110036897880024,-15.481650832229848
-15.414800050687122,26.92045248705374,-24.831447846058534,1.3293541006383447,2.730642733087502,-15.394006151902957
-15.334630489326168,26.608558066213828,-24.236558512309436,1.322313602095436,2.4495765970957617,-15.307282577965745
-15.255504822565115,26.296592777434682,-23.641594343341946,1.315393136294994,2.168471567255676,-15.221671254724876
-15.177418604115884,25.98460833464775,-23.046650413405406,1.3085919228375917,1.887371498773615,-15.137167131242268
-15.10042807263141,25.672904919486445,-22.452295736466002,1.3019144268042093,1.606544277829785,-15.053830867893081
-15.033858644310381,25.4000410453103,-21.932041414028458,1.2961639757100776,1.360723546084228,-14.981759603744514
-15.004668626234645,25.279395619943692,-21.702025257053975,1.2936493852699582,1.2520389463133348,-14.950152517019417
-14.964714865554607,25.22466386238709,-21.604742636065385,1.2902637832359396,1.2103979354319039,-14.909318969859306
-14.572430647658239,25.143359800746605,-21.55018922523975,1.2572054604142282,1.2458457725487906,-14.518414037846615
-13.967765945681865,25.012604504337155,-21.462884818284714,1.2061354435253224,1.3022602777326124,-13.91584938011392
-13.354028162899342,24.873091133577333,-21.370215554909123,1.1541625429027715,1.3617126453958397,-13.304204390828149
-12.74041264749582,24.726695925052997,-21.273403345589454,1.1020681859871577,1.4233462562309003,-12.692634753879842
-12.12806933846516,24.573643535788264,-21.172555819295813,1.0499564084550146,1.4869929830994422,-12.082273996774916
-11.515325419360408,24.413462724460654,-21.067328571598814,0.9976906275951614,1.5528689039653252,-11.471458001914513
-10.901503230948169,24.245869999797247,-20.95749193057315,0.945218262917942,1.6210076392158748,-10.859498316878748
-10.288427106754064,24.071275636166124,-20.843270830148356,0.8927008733057092,1.6911913403006282,-10.24820631363886
-9.675717222718234,23.88950128491433,-20.72449832684284,0.8401135426825113,1.7634087016929585,-9.637190166097827
-9.066324793077975,23.70140455642019,-20.60169039114943,0.7877131018585262,1.8373357840089224,-9.029398458846691
-8.46467752225241,23.508455669247947,-20.47575105922637,0.73588966807166,1.912328564285346,-8.4292367565927
-7.868777399123624,23.310162043867994,-20.3463058176312,0.6844793576142852,1.988548847332709,-7.834708462350134
-7.274137669034963,23.105058858155427,-20.21234184498765,0.633104777687073,2.066483663056282,-7.241325739610448
-6.6771632770136256,22.891792260605573,-20.072923676925196,0.5814543619171313,2.1466485530988124,-6.645507785342915
-6.169563990319482,22.704573602169344,-19.950393364188695,0.537484327814894,2.216285374171884,-6.138798574068344
-6.0371212789917275,22.65318356057181,-19.952418830975,0.52601723814657,2.270926612851508,-6.006906432821367
-6.032107408629196,22.631681961837934,-20.32281482913369,0.5257368444928776,2.6628536796599307,-6.005491756857805
-6.025198931216627,22.596221984317935,-20.830864203641774,0.5253922970582473,3.206403499264288,-6.003568914354707
-6.018341669222779,22.554207705676017,-21.332454192780155,0.5250991737980033,3.750047769490014,-6.001692148474275
-6.011526424103758,22.50557588706954,-21.828260432735693,0.524857187761874,4.294525414934401,-5.999860036451566
-6.0047367854943605,22.450164060716617,-22.31946354553952,0.5246661747314766,4.841179615685588,-5.998069450139279
-5.997953402784225,22.38771310808768,-22.807427492402724,0.5245264484878776,5.391633556861158,-5.996316866138305
-5.99122995058178,22.318669943839414,-23.28827560632021,0.5244396229213542,5.941563342703498,-5.994617471551767
-5.984578105379853,22.24321202037362,-23.76119752705693,0.5244056363526826,6.489981091308144,-5.9929749842600355
-5.977985935484928,22.161265657005977,-24.22706703367658,0.5244242193253353,7.037834328195407,-5.991387186774766
-5.973942330355576,22.107405473350862,-24.511419816576833,0.5244619562297572,7.376070114683055,-5.990433745878058
-5.9727256911400985,22.09065789522798,-24.5967632846718,0.5244772961464429,7.478168011589896,-5.990150015305332
-5.983468418614904,22.1979396704878,-24.68168889166922,0.5253895298875823,7.455714540826002,-6.000767487479081
-6.03321470226171,22.6943690273975,-24.999227041317397,0.5295241058062395,7.276373760545863,-6.049222329760689
-6.09666002392444,23.318365616004556,-25.393644386097872,0.5347977698219178,7.0462160884518665,-6.110969295509159
-6.161271202162488,23.94354395060723,-25.783567661493265,0.5401695054462052,6.810366153027748,-6.173793181627147
-6.227152504238482,24.570591754611506,-26.16941969214405,0.545648665374046,6.568557766051398,-6.237793564185264
-6.293888619301308,25.195313668911865,-26.54865609586943,0.5512014154856938,6.322445473472132,-6.302565638115129
-6.36233952201051,25.82542375081655,-26.925955008441466,0.5569000807793925,6.068984917417287,-6.368942205945953
-6.432109693511918,26.456842345960755,-27.298823421110292,0.5627125826390087,5.8097660614600155,-6.436537311025091
-6.503176863681214,27.089035362101963,-27.666953485147264,0.5686379277221146,5.545014980649517,-6.505327565101597
-6.57526755454503,27.719315137990638,-28.028828247826127,0.5746541796873651,5.2759046884082395,-6.57504688958968
-6.648848073617706,28.351465521729622,-28.3866539644375,0.5808011760441995,5.000852650149187,-6.646144692022196
-6.724531269302072,28.99022410254838,-28.743043552995477,0.5871312262345959,4.717727582364024,-6.719210287101825
-6.80178671593035,29.630577448071755,-29.095134618763502,0.5936011501157158,4.428685241283148,-6.793728706833812
-6.8799835991845875,30.267033770961177,-29.4399704047003,0.6001591578363593,4.136266623393449,-6.869090138791329
-6.938880435557097,30.738816210685325,-29.692315712012366,0.6051050617113513,3.916222733953121,-6.925809228524223
-7.036037001692361,30.80152574011898,-29.72618681218121,0.6135084062751555,3.8863546300823293,-7.022861947588015
-7.518897475787566,30.742415741140316,-29.697845972165954,0.6553728158660104,3.91178509316463,-7.507070883905811
-8.165437136994274,30.65697320982547,-29.656806980492153,0.7113621253804352,3.948487530640798,-8.155515029789028
-8.816350252634988,30.563627885999754,-29.61187378068968,0.7676476956557414,3.9885078190768293,-8.808468775633234
-9.463187043190258,30.463533763040253,-29.56357453581279,0.8234903940643439,4.031301235658198,-9.457464961664021
-10.114058942608088,30.35538831328369,-29.511260606808058,0.879588015913864,4.077466595939888,-10.110652699012734
-10.76091287137069,30.240467320322264,-29.45551751717982,0.9352384588054258,4.126405835693017,-10.759959239436975
-11.409410420075195,30.117740916550936,-29.395812589453282,0.9909202066869139,4.17850291063025,-11.411076301293498
-12.056752831908339,29.987669221324737,-29.332342705416096,1.0463922326237005,4.233598242720631,-12.061203162089228
-12.706206505208185,29.8495056029522,-29.26470435995991,1.1019254528523446,4.291948517635395,-12.713630055068027
-13.352632329645575,29.70428026444245,-29.19336119762084,1.1570708583908498,4.353057795325594,-13.363203813864104
-13.988813255202292,29.553780020792743,-29.119165076297353,1.2112180386347862,4.4162102265545915,-14.002673994197893
-14.408081551173881,29.450444740062835,-29.06806479279752,1.2468311870633855,4.459448055311782,-14.424218281698327
-14.697217460966796,29.3772477494006,-29.031791108521578,1.271356438033535,4.490014413077136,-14.714975362293108
-15.287697577102541,29.22281678834047,-28.955050909866003,1.3213530542084584,4.554337029040982,-15.308900863551155
-15.828445325167054,29.07551388996312,-28.88158380515263,1.3670254999277847,4.615448779748775,-15.85296815867987
-15.983224155909546,29.018815928074517,-28.83562642486319,1.3800589541425747,4.622478971240217,-16.00846368408204
-15.926970047901879,28.819518867045023,-28.455156916352557,1.3749859088565641,4.4427108363463255,-15.947681164104035
-15.842100033549709,28.515494032277097,-27.874829028843884,1.3673548220804557,4.168517114636717,-15.855968447812153
-15.756703003550031,28.20543565915622,-27.283070227236625,1.3597043516087646,3.888927776380048,-15.763672458968925
-15.673082272686964,27.89770467853948,-26.695834148566654,1.3522409219661797,3.611478836619609,-15.67328205150753
-15.590282445069093,27.5888841386269,-26.106594998152236,1.344878658129129,3.3330854584102476,-15.583764294640254
-15.508336273517529,27.279128102903623,-25.515642941522113,1.3376203262663342,3.0538832698567746,-15.495154184097348
-15.427773300803613,26.970514047470118,-24.92693706331668,1.3305123873768772,2.775741425466317,-15.408024084093752
-15.347258254394012,26.6579427976349,-24.33074712769966,1.3234370013689445,2.4940614585749667,-15.32092940837353
-15.267910163121268,26.345758072437473,-23.73535549189379,1.3164925886249088,2.212755291933211,-15.235080100949851
-15.189857050670291,26.034562882369666,-23.141908188984047,1.3096897552461075,1.93236334232767,-15.150614557453972
-15.112739987606911,25.72300850416313,-22.54782966909529,1.3029967375607927,1.65166774706175,-15.067144188333199
-15.044416874181039,25.443509295151884,-22.014917788567814,1.2970909863935633,1.399867379497055,-14.993176747949375
-15.014386055427122,25.319607620531187,-21.7786910376289,1.2945024535863876,1.2882486813463678,-14.96066022214178
-14.996870873106827,25.247043579743465,-21.640346334940386,1.292994799407003,1.2228793604525943,-14.941693888892098
-15.021331825607815,25.082286732509317,-21.51965849799177,1.2950762794267892,1.266386056856562,-14.967101541594614
-15.121890872639462,24.553873496824068,-21.19997779163464,1.3036554685913817,1.4727897550886386,-15.072213360748634
-15.235565405698733,23.9462573714348,-20.82777801882966,1.3133707295527481,1.7055541183182334,-15.191096905161107
-15.347014129612766,23.33967121958657,-20.45127545795887,1.3229135259651394,1.9330176840355646,-15.307712969867353
-15.456455943901336,22.733255681883243,-20.069927307885866,1.332301646233273,2.1554930371988847,-15.42228287240583
-15.564014368998778,22.126616792956767,-19.68346120411405,1.341544744402272,2.37309991674117,-15.534928594043375
-15.669635756064517,21.520345107907854,-19.292231042029464,1.350637223086458,2.5856039701846347,-15.645586811849157
-15.762613372765543,20.977770140044154,-18.93784939604588,1.3586540884962388,2.7715490511319727,-15.743028138948246
-15.799408066510926,20.760711092844723,-18.794948061742254,1.3618299357876413,2.844813304377584,-15.781596171904615
-15.792226998800666,20.74548389952489,-19.006960529314537,1.3615054849392312,3.0721593590975056,-15.779817710480781
-15.775715703039898,20.707522822463837,-19.487933466170915,1.3608349033700207,3.5913390409033106,-15.775634785584412
-15.758534316581345,20.661423918116956,-19.985643515724153,1.360261412621241,4.135402591283088,-15.771361040397554
-15.741432215554267,20.60872212383678,-20.47818943581054,1.359819211505342,4.680902624083058,-15.76719130503176
-15.724400660975506,20.549342463880937,-20.965809249413528,1.3595092977382317,5.22815223162437,-15.763126827643198
-15.707358263107263,20.482897204910294,-21.450795261849823,1.3593325723499206,5.779832602788981,-15.75915233561338
-15.69058663748548,20.41050549313821,-21.925147005986155,1.3592920569394942,6.326819984126752,-15.755336016465199
-15.673890416004694,20.331400744594298,-22.394426023825318,1.3593864145883223,6.875445328976387,-15.751635160773068
-15.65717165181195,20.245011254456532,-22.86134336975773,1.3596189588387668,7.428992766886008,-15.748032389470694
-15.644207332808243,20.17298525565501,-23.221307271703584,1.3598966671293107,7.861168306640754,-15.745312840579434
-15.640176282540425,20.149681032062528,-23.332853488416674,1.3600006634960893,7.996076297890083,-15.74448086520571
-15.637149238320216,20.13189598563426,-23.416498245072475,1.3600843091510493,8.097549263854136,-15.743860428481588
-15.67301252060945,20.26791458700093,-23.528323124397673,1.3630405752744175,8.072511939368844,-15.77943415704938
-15.808518401657386,20.782514781316596,-23.8717890802225,1.373938401711418,7.898196551598941,-15.911892298355363
-15.969965106196163,21.386650009606925,-24.27038208345834,1.386911631239927,7.688831434699347,-16.069579709431384
-16.135374962602455,21.995726971750038,-24.667197579197918,1.4001924276277324,7.472616329591733,-16.23099698687935
-16.30454608200729,22.608557767626195,-25.061382786188755,1.4137652411828017,7.249888605358338,-16.395940912283795
-16.476622840698326,23.221701376843853,-25.450703969388073,1.4275622767170217,7.021873934524419,-16.563572561896123
-16.65172997787955,23.83533320997644,-25.835293043165727,1.4415945246226936,6.788523739681043,-16.73400985824546
-16.829306064037258,24.447260725807407,-26.213820919235193,1.4558180704461046,6.550713364075713,-16.906703427826805
-17.010247551263305,25.060326423375777,-26.588083646672466,1.4703058347480655,6.307372024381855,-17.082521907571724
-17.196404048720126,25.680320531973955,-26.96154924259281,1.4852069935290437,6.0561279969176125,-17.263256183988375
-17.385307298986792,26.29860801221102,-27.32898462067564,1.5003251630054566,5.800442811938559,-17.446504484850472
-17.57806996222093,26.918541833511988,-27.692415172921095,1.5157506955028712,5.538957940572156,-17.633342593634158
-17.77378868648335,27.536917486350863,-28.049993188152392,1.5314126543979407,5.273050922681428,-17.82289127084387
-17.962847716235576,28.123932018113056,-28.38490241319595,1.546542845851527,5.0159609935009914,-18.005846520122923
-18.05744698224707,28.40774412953487,-28.54528294233448,1.5541206632700273,4.890016158606286,-18.097414301116782
-18.31292365195977,28.32485326902207,-28.503163153949366,1.575440584494175,4.923800134972282,-18.35485077782121
-18.889390995165982,28.13290331611888,-28.405307735247103,1.623447126355725,5.001777627273164,-18.935891884897295
-19.510012588490184,27.918567136855955,-28.295513149790285,1.6749714034128447,5.088425133289806,-19.561677601943565
-20.12914977857861,27.696694365793046,-28.181271164065876,1.7262032791137596,5.177645625162747,-20.18622134506975
-20.7492441052715,27.466300098331438,-28.06200504991846,1.77733741825168,5.269747744733106,-20.811997601331214
-21.367795860654656,27.228209006649852,-27.938078574563242,1.8281690030744588,5.364408485187458,-21.4364795744966
-21.898383954034454,27.017297209266346,-27.82772080310658,1.871626846634854,5.447792392192172,-21.972372365325096
-22.13768306185465,26.920132303970647,-27.77669698996365,1.8911820265602735,5.486057036537412,-22.21413087406358
-22.609921746184984,26.724621299390236,-27.673678510269138,1.9296900370385688,5.562764756351151,-22.691346848484763
-23.211608542571412,26.468193531775814,-27.537847110616873,1.9785883552594383,5.6627572199037,-23.2996226726748
-23.813809847382203,26.20321397775038,-27.39663898094866,2.0273470613501186,5.765419172776951,-23.908688946167683
-24.365505719955316,25.95302067117099,-27.262515144192022,2.0718507611975445,5.861696767176353,-24.46692073812166
-24.58765191745896,25.84652390721588,-27.198733358982533,2.089707345388625,5.896323587486693,-24.69159239135347
-24.532763777705494,25.728459622637565,-26.886449363685156,2.084619487054444,5.704230877368294,-24.629361835904326
-24.435195319833305,25.51534538760171,-26.32657509853433,2.0756316303915696,5.361239574745872,-24.518770623348257
-24.335370836742516,25.292966298417326,-25.747346186893296,2.066510588813997,5.0082294916969525,-24.405658567634116
-24.236725182326616,25.06885658565409,-25.168469102800877,2.0575715874881344,4.6572405309540965,-24.29391577104009
-24.13834128572547,24.840978018449483,-24.584579721480132,2.0487301395653703,4.304982313603953,-24.182500120124278
-24.04149157445785,24.61234618773589,-24.003284233780423,2.0400988713377712,3.955997374530595,-24.072849260671227
-23.94516069140494,24.38064877691991,-23.4185696194685,2.031585345909702,3.606624100771829,-23.963810302425436
-23.85014499670513,24.147870921525392,-22.8353308195291,2.023258297413223,3.2597426386098194,-23.856281557944246
-23.755545913381553,23.91187283236344,-22.24810262813402,2.015037505198281,2.9120618574227866,-23.74924313699258
-23.662501796294396,23.67557239193072,-21.66402972267077,2.007020200726403,2.567766325579929,-23.643980159759764
-23.572678148353813,23.44346480112856,-21.093940659146885,1.999345198989771,2.2331282583834486,-23.542373439508694
-23.52389067769355,23.315736735010045,-20.781690465088285,1.9952034061814146,2.050416676076357,-23.48719055537226
-23.498364906423202,23.24843932233043,-20.61757939985551,1.9930439868364842,1.954548788973507,-23.458319799319913
-23.490145172395877,23.224667090806296,-20.53494675477093,1.9923176343783233,1.8960094367272282,-23.44806151365821
-23.64238283808505,23.573817095685264,-20.756147036816643,2.0043447915472394,1.762836668842315,-23.59564583020122
-23.898651857374084,24.152802474661172,-21.119362424726674,2.024579122968926,1.5382061603851753,-23.84394329228308
-24.163586004632254,24.740089095438993,-21.48322400372677,2.0454831955423782,1.3055310582641257,-24.100458974422658
-24.435018087215166,25.33021657019565,-21.84424184494588,2.066885677404138,1.0668498484203566,-24.363085245043393
-24.69053041669419,25.87532638969874,-22.17363965954619,2.0870204234892893,0.8420402923020509,-24.610146430460293
-24.81005832883262,26.12693844782262,-22.324367103714078,2.096435437133879,0.7368708357907935,-24.725668501879184
-24.866477420586904,26.244964357848556,-22.394784701970398,2.10087862340415,0.6872335914354365,-24.78018538101256
-24.866477420586904,26.244964357848556,-22.394784701970398,2.10087862340415,0.6872335914354365,-24.78018538101256
-24.866477420586904,26.244964357848556,-22.394784701970398,2.10087862340415,0.6872335914354365,-24.78018538101256
-24.866477420586904,26.244964357848556,-22.394784701970398,2.10087862340415,0.6872335914354365,-24.78018538101256
-24.866477420586904,26.244964357848556,-22.394784701970398,2.10087862340415,0.6872335914354365,-24.78018538101256
-24.866477420586904,26.244964357848556,-22.394784701970398,2.10087862340415,0.6872335914354365,-24.78018538101256
-24.866300568351168,26.244777684005864,-22.394625444443577,2.100863710550843,0.6872286942608962,-24.780009122588115
-24.206430429455825,25.548261216485415,-21.800404591595754,2.045220950130282,0.668956382176857,-24.122354609274975
-23.548533903835622,24.85382796817072,-21.207961000809693,1.9897446122891926,0.6507387209636043,-23.46666708249664
-22.43666855433884,23.680214434322483,-20.20671312295307,1.8959878962093566,0.6199503135726514,-22.358535008938716
-20.826117105446343,21.980219935676956,-18.75639252332979,1.7601800711034448,0.5753529042235485,-20.753391258896777
-19.19660947456652,20.260216510824232,-17.28900165796285,1.6227737886183646,0.5302305836036092,-19.12935497545422
-17.56708652009408,18.540196911372945,-15.8215969935198,1.4853662139896606,0.4851078386615951,-17.505303419870597
-15.93881967682261,16.821503182096627,-14.355323472047328,1.3480645594359797,0.44001987640563317,-15.882503757882159
-14.311420806781829,15.103725629523735,-12.889831570719473,1.2108360956870952,0.39495594899655534,-14.260569154757514
-12.683873146448022,13.385791023489572,-11.4242056819756,1.0735950853746672,0.34988790146973164,-12.638486260928405
-11.05300466329633,11.6643511705257,-9.955589353066788,0.9360740506490058,0.30472789780286236,-11.013093694505617
-9.423140388418732,9.943971295212727,-8.487877325568048,0.7986376945852719,0.25959570143609645,-9.388701964557814
-7.791485630723025,8.221701501423194,-7.018552947146791,0.6610503581988765,0.21441392522186487,-7.762525763640753
-6.16582878121382,6.505762713654894,-5.554629755880109,0.5239687882482905,0.1693982357022346,-6.142327331919153
-4.5393034536584365,4.788907216332414,-4.089924489876504,0.3868139849249458,0.12435849735699074,-4.521263338213282
-2.916583296566559,3.076068212155069,-2.6286458248126543,0.2499800480508915,0.0794241271109285,-2.903991738467593
-1.5161374699286223,1.5978476917409477,-1.3675278192834635,0.13188912830713817,0.040644704171808196,-1.5082481455224577
-0.8598782703403317,0.905142699452259,-0.7765586599252302,0.07655085602585217,0.02247238177671821,-0.8541924471769987
-0.1998952649293841,0.20850709729892197,-0.1822361694472053,0.020898578271323135,0.0041969443319824695,-0.19642544631666678
0.002193088114330461,-0.004804367324510964,-0.0002532209578614706,0.003857719548694015,-0.001399037722222737,0.004984360906474057
0.002193088114330461,-0.004804367324510964,-0.0002532209578614706,0.003857719548694015,-0.001399037722222737,0.004984360906474057
0.002193088114330461,-0.004804367324510964,-0.0002532209578614706,0.003857719548694015,-0.001399037722222737,0.004984360906474057
0.002193088114330461,-0.004804367324510964,-0.0002532209578614706,0.003857719548694015,-0.001399037722222737,0.004984360906474057
0.002193088114330461,-0.004804367324510964,-0.0002532209578614706,0.003857719548694015,-0.001399037722222737,0.004984360906474057
0.002193088114330461,-0.004804367324510964,-0.0002532209578614706,0.003857719548694015,-0.001399037722222737,0.004984360906474057
0.002193088114330461,-0.004804367324510964,-0.0002532209578614706,0.003857719548694015,-0.001399037722222737,0.004984360906474057
0.002193088114330461,-0.004804367324510964,-0.0002532209578614706,0.003857719548694015,-0.001399037722222737,0.004984360906474057
0.002193088114330461,-0.004804367324510964,-0.0002532209578614706,0.003857719548694015,-0.001399037722222737,0.004984360906474057
0.002193088114330461,-0.004804367324510964,-0.0002532209578614706,0.003857719548694015,-0.001399037722222737,0.004984360906474057
0.002193088114330461,-0.004804367324510964,-0.0002532209578614706,0.003857719548694015,-0.001399037722222737,0.004984360906474057
0.002193088114330461,-0.004804367324510964,-0.0002532209578614706,0.003857719548694015,-0.001399037722222737,0.004984360906474057
