RAMEL-ESPOL/ARCHIE/matlab/data/joint_real_states_square_t35_h35_p12.txt
Joint0,Joint1,Joint2,Joint3,Joint4,Joint5 
0.0,9.31640625,14.0625,0.087890625,-23.994140625,23.5546875
0.0,9.31640625,14.0625,0.087890625,-23.994140625,23.642578125
0.0,9.31640625,14.0625,0.087890625,-23.994140625,23.5546875
0.0,9.31640625,14.0625,0.087890625,-23.906250000000004,23.5546875
0.0,9.31640625,14.0625,0.087890625,-23.906250000000004,23.5546875
0.0,9.31640625,14.0625,0.087890625,-23.906250000000004,23.642578125
0.0,9.31640625,14.0625,0.087890625,-23.906250000000004,23.5546875
0.0,9.31640625,14.0625,0.087890625,-23.906250000000004,23.5546875
0.0,9.31640625,14.0625,0.087890625,-23.994140625,23.5546875
0.0,9.31640625,14.0625,0.087890625,-23.994140625,23.5546875
0.0,9.31640625,14.0625,0.087890625,-23.906250000000004,23.5546875
0.0,9.404296875,14.0625,0.087890625,-23.906250000000004,23.642578125
0.0,9.31640625,14.0625,0.087890625,-23.906250000000004,23.5546875
-0.087890625,9.404296875,14.0625,0.087890625,-23.994140625,23.5546875
0.0,9.404296875,14.0625,0.087890625,-23.906250000000004,23.5546875
0.0,9.404296875,14.0625,0.087890625,-23.906250000000004,23.5546875
0.0,9.404296875,14.0625,0.087890625,-23.906250000000004,23.5546875
0.0,9.404296875,14.0625,0.087890625,-23.906250000000004,23.5546875
0.0,9.4921875,14.0625,0.087890625,-23.818359374999996,23.5546875
-0.087890625,9.580078124999998,14.0625,0.087890625,-23.203125000000004,23.642578125
0.0,9.66796875,13.886718750000002,0.0,-22.587890625000004,23.5546875
0.0,9.84375,13.623046875,0.0,-21.884765625,23.642578125
0.0,9.84375,13.447265625,0.0,-21.445312499999996,23.642578125
0.0,10.01953125,13.095703125000002,0.0,-20.830078124999996,23.642578125
0.0,10.01953125,12.919921875,0.0,-20.302734375,23.5546875
0.0,10.107421875000002,12.656249999999998,0.0,-19.599609375,23.642578125
0.087890625,10.107421875000002,12.392578125,0.0,-19.248046875,23.5546875
0.17578125,10.283203125,12.12890625,0.0,-18.6328125,23.5546875
0.263671875,10.458984375,11.953125000000002,0.087890625,-18.017578125,23.642578125
0.263671875,10.546874999999998,11.689453125,0.0,-17.578125,23.642578125
0.3515625,10.546874999999998,11.513671875,0.0,-16.962890625,23.5546875
0.3515625,10.634765625,11.337890625,0.0,-16.347656249999996,23.5546875
0.439453125,10.722656249999998,10.986328124999998,0.0,-15.820312500000002,23.642578125
0.439453125,10.810546875,10.810546875,0.0,-15.205078124999998,23.642578125
0.52734375,10.810546875,10.634765625,0.0,-14.589843750000002,23.5546875
0.615234375,10.986328124999998,10.283203125,0.0,-13.974609375,23.5546875
0.615234375,10.986328124999998,10.1953125,-0.087890625,-13.53515625,23.642578125
0.703125,11.162109375000002,9.931640625,-0.087890625,-13.0078125,23.5546875
0.7910156249999999,11.162109375000002,9.755859375,0.0,-12.392578125,23.642578125
0.7910156249999999,11.25,9.580078124999998,-0.087890625,-11.865234375,23.642578125
0.87890625,11.337890625,9.31640625,-0.087890625,-11.337890625,23.642578125
0.87890625,11.337890625,9.052734375,-0.087890625,-10.722656249999998,23.5546875
0.9667968749999999,11.513671875,8.876953125,-0.087890625,-10.1953125,23.5546875
0.9667968749999999,11.513671875,8.701171875,-0.087890625,-9.580078124999998,23.642578125
1.0546875,11.601562500000002,8.4375,-0.087890625,-9.052734375,23.642578125
1.1425781250000002,11.689453125,8.173828124999998,-0.17578125,-8.525390625,23.642578125
1.1425781250000002,11.77734375,7.998046875,-0.17578125,-7.910156250000001,23.5546875
1.23046875,11.865234375,7.734374999999999,-0.17578125,-7.294921875000001,23.642578125
1.23046875,11.865234375,7.55859375,-0.17578125,-6.767578125,23.642578125
1.3183593749999998,11.865234375,7.294921875000001,-0.17578125,-6.328124999999999,23.642578125
1.3183593749999998,11.953125000000002,7.119140625,-0.17578125,-5.625,23.5546875
1.40625,12.041015625000002,7.03125,-0.17578125,-5.09765625,23.5546875
1.4941406250000002,12.041015625000002,6.767578125,-0.17578125,-4.570312500000001,23.5546875
1.4941406250000002,12.12890625,6.591796875,-0.263671875,-4.04296875,23.642578125
1.4941406250000002,12.216796874999998,6.328124999999999,-0.263671875,-3.4277343749999996,23.642578125
1.5820312499999998,12.3046875,6.15234375,-0.263671875,-2.9003906250000004,23.5546875
1.6699218749999998,12.3046875,5.976562500000001,-0.263671875,-2.373046875,23.5546875
1.6699218749999998,12.392578125,5.712890624999999,-0.263671875,-1.7578125,23.642578125
1.7578125,12.392578125,5.537109375,-0.263671875,-1.23046875,23.642578125
1.7578125,12.48046875,5.361328124999999,-0.263671875,-0.703125,23.642578125
1.8457031250000002,12.568359375,5.09765625,-0.3515625,0.0,23.5546875
1.9335937499999998,12.568359375,4.921875,-0.3515625,0.439453125,23.5546875
1.9335937499999998,12.656249999999998,4.658203125,-0.3515625,0.9667968749999999,23.642578125
1.9335937499999998,12.656249999999998,4.482421875,-0.3515625,1.5820312499999998,23.642578125
2.021484375,12.744140625,4.306640624999999,-0.3515625,2.109375,23.5546875
2.109375,12.83203125,4.130859375,-0.3515625,2.6367187499999996,23.5546875
2.109375,12.83203125,3.9550781250000004,-0.439453125,3.3398437499999996,23.642578125
2.109375,12.919921875,3.779296875,-0.439453125,3.779296875,23.642578125
2.197265625,13.0078125,3.515625,-0.439453125,4.306640624999999,23.642578125
2.2851562500000004,13.0078125,3.3398437499999996,-0.439453125,4.833984375,23.642578125
2.2851562500000004,13.095703125000002,3.251953125,-0.439453125,5.537109375,23.5546875
2.373046875,13.095703125000002,2.9882812500000004,-0.439453125,5.976562500000001,23.5546875
2.373046875,13.18359375,2.8125,-0.439453125,6.50390625,23.642578125
2.4609375,13.18359375,2.6367187499999996,-0.439453125,7.207031249999999,23.642578125
2.548828125,13.271484375,2.373046875,-0.439453125,7.55859375,23.642578125
2.548828125,13.271484375,2.197265625,-0.439453125,8.173828124999998,23.5546875
2.548828125,13.271484375,2.021484375,-0.439453125,8.7890625,23.5546875
2.6367187499999996,13.359374999999998,1.8457031250000002,-0.439453125,9.31640625,23.5546875
2.6367187499999996,13.447265625,1.6699218749999998,-0.439453125,9.931640625,23.642578125
2.724609375,13.447265625,1.4941406250000002,-0.439453125,10.458984375,23.642578125
2.724609375,13.447265625,1.3183593749999998,-0.439453125,10.986328124999998,23.642578125
2.8125,13.447265625,1.0546875,-0.439453125,11.513671875,23.5546875
2.9003906250000004,13.53515625,0.87890625,-0.439453125,12.12890625,23.642578125
2.9003906250000004,13.623046875,0.7910156249999999,-0.52734375,12.656249999999998,23.5546875
2.9003906250000004,13.623046875,0.52734375,-0.52734375,13.18359375,23.642578125
2.9882812500000004,13.623046875,0.3515625,-0.52734375,13.798828125,23.5546875
2.9882812500000004,13.623046875,0.17578125,-0.52734375,14.326171875,23.5546875
3.076171875,13.710937499999998,0.0,-0.52734375,14.94140625,23.642578125
3.1640624999999996,13.710937499999998,-0.17578125,-0.52734375,15.380859375,23.642578125
3.251953125,13.710937499999998,-0.3515625,-0.52734375,15.99609375,23.642578125
3.251953125,13.798828125,-0.52734375,-0.52734375,16.611328125,23.5546875
3.251953125,13.798828125,-0.703125,-0.52734375,17.138671875,23.5546875
3.3398437499999996,13.798828125,-0.87890625,-0.52734375,17.666015625,23.642578125
3.3398437499999996,13.798828125,-1.0546875,-0.52734375,18.369140625,23.5546875
3.4277343749999996,13.886718750000002,-1.1425781250000002,-0.52734375,18.80859375,23.642578125
3.4277343749999996,13.886718750000002,-1.40625,-0.52734375,19.51171875,23.642578125
3.515625,13.886718750000002,-1.5820312499999998,-0.615234375,19.951171875,23.5546875
3.515625,13.974609375,-1.6699218749999998,-0.615234375,20.478515625,23.5546875
3.6035156249999996,14.0625,-1.9335937499999998,-0.703125,21.181640625000004,23.642578125
3.6914062500000004,14.0625,-2.109375,-0.7910156249999999,21.533203125,23.642578125
3.6914062500000004,14.0625,-2.2851562500000004,-0.7910156249999999,22.1484375,23.5546875
3.779296875,14.0625,-2.4609375,-0.87890625,22.763671875,23.642578125
3.779296875,14.0625,-2.6367187499999996,-0.87890625,23.203125000000004,23.642578125
3.8671874999999996,14.0625,-2.6367187499999996,-0.9667968749999999,23.37890625,23.642578125
3.8671874999999996,14.0625,-2.8125,-0.9667968749999999,23.466796875,23.642578125
3.8671874999999996,14.0625,-2.9882812500000004,-0.9667968749999999,23.818359374999996,23.642578125
3.8671874999999996,13.710937499999998,-3.251953125,-0.9667968749999999,24.433593749999996,23.642578125
3.8671874999999996,13.447265625,-3.515625,-0.9667968749999999,24.9609375,23.5546875
3.8671874999999996,13.095703125000002,-3.779296875,-1.0546875,25.48828125,23.5546875
3.9550781250000004,12.744140625,-4.04296875,-1.0546875,25.927734375000004,23.5546875
3.8671874999999996,12.48046875,-4.21875,-1.0546875,26.54296875,23.642578125
3.8671874999999996,12.216796874999998,-4.570312500000001,-1.0546875,27.0703125,23.642578125
3.8671874999999996,11.865234375,-4.658203125,-1.0546875,27.59765625,23.642578125
3.779296875,11.77734375,-4.921875,-1.0546875,28.125,23.5546875
3.6914062500000004,11.689453125,-5.009765625,-1.0546875,28.300781249999996,23.642578125
3.779296875,11.601562500000002,-5.009765625,-1.0546875,28.388671875,23.642578125
3.779296875,11.953125000000002,-5.44921875,-1.0546875,28.4765625,23.642578125
3.8671874999999996,12.3046875,-6.15234375,-1.23046875,28.828124999999996,23.642578125
3.779296875,12.83203125,-6.767578125,-1.40625,29.003906249999996,23.642578125
3.779296875,13.095703125000002,-7.382812500000001,-1.5820312499999998,29.003906249999996,23.642578125
3.8671874999999996,13.710937499999998,-7.998046875,-1.8457031250000002,29.091796875,23.642578125
3.779296875,14.150390624999998,-8.613281249999998,-2.021484375,29.267578125,23.642578125
3.779296875,14.677734375,-9.228515625,-2.109375,29.443359374999996,23.642578125
3.8671874999999996,15.1171875,-9.84375,-2.2851562500000004,29.443359374999996,23.642578125
3.8671874999999996,15.644531250000002,-10.458984375,-2.373046875,29.619140625,23.642578125
3.9550781250000004,16.171875,-10.986328124999998,-2.4609375,29.70703125,23.642578125
3.9550781250000004,16.69921875,-11.601562500000002,-2.548828125,29.794921874999996,23.642578125
3.9550781250000004,17.226562499999996,-12.216796874999998,-2.548828125,29.8828125,23.642578125
3.9550781250000004,17.75390625,-12.744140625,-2.548828125,29.970703124999996,23.642578125
4.04296875,18.10546875,-13.095703125000002,-2.6367187499999996,30.05859375,23.642578125
4.04296875,18.10546875,-13.095703125000002,-2.6367187499999996,30.05859375,23.642578125
3.779296875,18.193359375,-13.18359375,-2.6367187499999996,30.05859375,23.642578125
3.3398437499999996,18.193359375,-13.18359375,-2.373046875,30.05859375,23.642578125
2.8125,18.193359375,-13.18359375,-1.5820312499999998,30.05859375,23.642578125
2.2851562500000004,18.193359375,-13.18359375,-1.4941406250000002,30.05859375,23.642578125
1.8457031250000002,18.193359375,-13.18359375,-1.0546875,30.05859375,23.642578125
1.0546875,18.193359375,-13.18359375,-0.703125,30.05859375,23.642578125
0.17578125,18.281250000000004,-13.18359375,-0.3515625,30.05859375,23.642578125
-0.263671875,18.281250000000004,-13.18359375,0.087890625,30.05859375,23.642578125
-0.703125,18.193359375,-13.18359375,0.615234375,30.05859375,23.642578125
-1.40625,18.193359375,-13.18359375,0.703125,30.05859375,23.642578125
-2.109375,18.10546875,-13.18359375,1.1425781250000002,29.970703124999996,23.642578125
-2.548828125,18.193359375,-13.18359375,1.5820312499999998,29.970703124999996,23.642578125
-3.1640624999999996,18.10546875,-13.18359375,2.021484375,29.970703124999996,23.642578125
-3.6914062500000004,18.10546875,-13.18359375,2.197265625,29.970703124999996,23.642578125
-3.9550781250000004,18.017578125,-13.18359375,2.4609375,29.970703124999996,23.642578125
-3.9550781250000004,18.10546875,-13.18359375,2.4609375,29.970703124999996,23.642578125
-3.9550781250000004,18.193359375,-12.919921875,2.4609375,29.443359374999996,23.642578125
-4.04296875,18.10546875,-12.392578125,2.4609375,28.828124999999996,23.642578125
-4.21875,18.10546875,-11.953125000000002,2.4609375,28.300781249999996,23.642578125
-4.21875,18.10546875,-11.425781249999998,2.4609375,27.685546875000004,23.642578125
-4.306640624999999,18.10546875,-10.8984375,2.4609375,27.24609375,23.642578125
-4.306640624999999,18.10546875,-10.283203125,2.4609375,26.630859375,23.642578125
-4.306640624999999,18.10546875,-9.755859375,2.4609375,25.927734375000004,23.642578125
-4.306640624999999,18.10546875,-9.052734375,2.4609375,25.6640625,23.642578125
-4.306640624999999,18.10546875,-8.4375,2.4609375,24.78515625,23.642578125
-4.306640624999999,18.10546875,-8.0859375,2.4609375,24.609375,23.642578125
-4.306640624999999,18.10546875,-7.734374999999999,2.4609375,24.2578125,23.642578125
-4.306640624999999,18.45703125,-7.822265625000001,2.4609375,24.2578125,23.642578125
-4.306640624999999,18.984375,-8.26171875,2.4609375,24.2578125,23.642578125
-4.306640624999999,19.423828125,-8.7890625,2.4609375,24.169921875,23.642578125
-4.306640624999999,19.951171875,-9.404296875,2.4609375,24.2578125,23.642578125
-4.39453125,20.56640625,-10.01953125,2.4609375,24.2578125,23.642578125
-4.39453125,20.830078124999996,-10.37109375,2.4609375,24.2578125,23.642578125
-4.39453125,20.7421875,-10.458984375,2.4609375,24.345703125,23.642578125
-4.130859375,20.56640625,-10.458984375,2.4609375,24.345703125,23.642578125
-3.6914062500000004,20.214843750000004,-10.283203125,2.2851562500000004,24.345703125,23.642578125
-3.076171875,19.86328125,-9.755859375,2.109375,24.345703125,23.642578125
-2.548828125,19.3359375,-9.228515625,2.021484375,24.345703125,23.642578125
-2.021484375,18.984375,-8.7890625,2.021484375,24.345703125,23.642578125
-1.4941406250000002,18.544921875,-8.26171875,1.9335937499999998,24.345703125,23.642578125
-1.0546875,18.193359375,-7.822265625000001,1.8457031250000002,24.345703125,23.642578125
-0.52734375,17.75390625,-7.294921875000001,1.6699218749999998,24.2578125,23.642578125
-0.087890625,17.314453125,-6.943359375000001,1.4941406250000002,24.2578125,23.642578125
0.263671875,17.138671875,-6.50390625,1.23046875,24.169921875,23.642578125
0.439453125,16.787109375,-6.240234375,1.0546875,24.169921875,23.642578125
1.0546875,16.347656249999996,-5.712890624999999,0.7910156249999999,24.082031250000004,23.642578125
1.5820312499999998,15.908203125,-5.09765625,0.439453125,23.994140625,23.642578125
2.109375,15.468749999999998,-4.658203125,0.17578125,23.906250000000004,23.642578125
2.4609375,15.029296875,-4.130859375,-0.087890625,23.5546875,23.5546875
2.9882812500000004,14.501953124999998,-3.4277343749999996,-0.439453125,23.5546875,23.5546875
3.4277343749999996,14.150390624999998,-3.076171875,-0.615234375,23.5546875,23.642578125
3.6914062500000004,14.0625,-2.6367187499999996,-0.87890625,23.5546875,23.642578125
3.6914062500000004,13.974609375,-2.6367187499999996,-0.9667968749999999,23.5546875,23.642578125
3.779296875,13.623046875,-2.6367187499999996,-1.0546875,23.642578125,23.5546875
3.779296875,13.447265625,-2.8125,-1.0546875,24.2578125,23.642578125
3.779296875,13.095703125000002,-3.076171875,-1.0546875,24.9609375,23.642578125
3.779296875,12.83203125,-3.3398437499999996,-1.0546875,25.400390625,23.5546875
3.779296875,12.568359375,-3.6035156249999996,-1.0546875,25.927734375000004,23.642578125
3.779296875,12.3046875,-4.04296875,-1.1425781250000002,26.54296875,23.642578125
3.779296875,11.953125000000002,-4.21875,-1.1425781250000002,27.158203125,23.642578125
3.6914062500000004,11.689453125,-4.482421875,-1.1425781250000002,27.59765625,23.642578125
3.6914062500000004,11.601562500000002,-4.658203125,-1.23046875,28.037109375,23.642578125
3.6035156249999996,11.513671875,-4.658203125,-1.23046875,28.125,23.5546875
3.6035156249999996,11.513671875,-4.658203125,-1.23046875,28.212890625,23.642578125
3.3398437499999996,11.513671875,-4.74609375,-1.23046875,28.300781249999996,23.642578125
2.9003906250000004,11.513671875,-4.833984375,-1.23046875,28.300781249999996,23.642578125
2.548828125,11.513671875,-4.833984375,-1.23046875,28.300781249999996,23.642578125
1.9335937499999998,11.513671875,-4.833984375,-1.1425781250000002,28.388671875,23.642578125
1.0546875,11.513671875,-4.833984375,-0.87890625,28.388671875,23.642578125
0.615234375,11.513671875,-4.921875,-0.439453125,28.388671875,23.642578125
0.17578125,11.513671875,-4.921875,0.087890625,28.4765625,23.642578125
-0.439453125,11.513671875,-4.921875,0.17578125,28.4765625,23.642578125
-1.1425781250000002,11.513671875,-4.921875,0.615234375,28.4765625,23.642578125
-1.6699218749999998,11.513671875,-4.921875,0.9667968749999999,28.4765625,23.642578125
-2.197265625,11.513671875,-4.921875,1.40625,28.4765625,23.642578125
-2.8125,11.513671875,-4.921875,1.6699218749999998,28.4765625,23.642578125
-3.251953125,11.425781249999998,-4.921875,2.021484375,28.4765625,23.642578125
-3.4277343749999996,11.425781249999998,-4.921875,2.2851562500000004,28.4765625,23.642578125
-3.515625,11.513671875,-4.921875,2.2851562500000004,28.4765625,23.642578125
-3.515625,11.601562500000002,-4.833984375,2.2851562500000004,28.037109375,23.642578125
-3.6035156249999996,11.689453125,-4.482421875,2.2851562500000004,27.509765625,23.642578125
-3.779296875,11.77734375,-4.21875,2.2851562500000004,26.89453125,23.642578125
-3.779296875,11.865234375,-3.8671874999999996,2.2851562500000004,26.279296875,23.642578125
-3.779296875,11.953125000000002,-3.3398437499999996,2.197265625,25.751953125,23.642578125
-3.779296875,12.12890625,-2.9003906250000004,2.2851562500000004,25.224609375,23.642578125
-3.8671874999999996,12.3046875,-2.4609375,2.2851562500000004,24.609375,23.642578125
-3.8671874999999996,12.3046875,-2.021484375,2.197265625,23.994140625,23.642578125
-3.8671874999999996,12.48046875,-1.5820312499999998,2.2851562500000004,23.466796875,23.642578125
-3.8671874999999996,12.568359375,-1.3183593749999998,2.197265625,23.203125000000004,23.642578125
-3.9550781250000004,12.656249999999998,-1.3183593749999998,2.197265625,23.115234375,23.642578125
-3.9550781250000004,13.095703125000002,-1.40625,2.197265625,23.115234375,23.642578125
-3.9550781250000004,13.53515625,-1.7578125,2.2851562500000004,23.115234375,23.642578125
-4.04296875,13.886718750000002,-2.2851562500000004,2.197265625,23.203125000000004,23.642578125
-3.9550781250000004,13.974609375,-2.2851562500000004,2.197265625,23.203125000000004,23.5546875
-4.04296875,13.886718750000002,-2.548828125,2.197265625,23.37890625,23.642578125
-4.04296875,13.798828125,-2.8125,2.197265625,23.906250000000004,23.642578125
-3.9550781250000004,13.359374999999998,-3.1640624999999996,2.197265625,24.433593749999996,23.5546875
-4.04296875,13.095703125000002,-3.4277343749999996,2.197265625,24.9609375,23.5546875
-4.04296875,12.83203125,-3.6914062500000004,2.197265625,25.576171874999996,23.642578125
-3.9550781250000004,12.568359375,-4.04296875,2.197265625,26.103515625,23.642578125
-3.9550781250000004,12.3046875,-4.21875,2.197265625,26.630859375,23.642578125
-3.8671874999999996,11.953125000000002,-4.482421875,2.197265625,27.333984375,23.642578125
-3.779296875,11.689453125,-4.658203125,2.197265625,27.861328125,23.642578125
-3.779296875,11.601562500000002,-4.74609375,2.197265625,28.037109375,23.642578125
-3.779296875,11.601562500000002,-4.833984375,2.197265625,28.125,23.5546875
-3.6914062500000004,11.77734375,-5.185546875,2.2851562500000004,28.300781249999996,23.642578125
-3.779296875,12.12890625,-5.712890624999999,2.197265625,28.564453124999996,23.642578125
-3.6914062500000004,12.744140625,-6.416015625,2.197265625,28.740234375,23.642578125
-3.779296875,13.18359375,-7.03125,2.197265625,28.828124999999996,23.642578125
-3.8671874999999996,13.53515625,-7.734374999999999,2.197265625,28.916015625000004,23.642578125
-3.8671874999999996,13.974609375,-8.349609375,2.2851562500000004,29.003906249999996,23.642578125
-3.8671874999999996,14.501953124999998,-9.052734375,2.2851562500000004,29.179687500000004,23.642578125
-3.9550781250000004,14.94140625,-9.580078124999998,2.2851562500000004,29.267578125,23.642578125
-3.9550781250000004,15.556640625000002,-10.1953125,2.2851562500000004,29.35546875,23.642578125
-3.9550781250000004,16.171875,-10.722656249999998,2.2851562500000004,29.443359374999996,23.642578125
-4.04296875,16.5234375,-11.425781249999998,2.373046875,29.70703125,23.642578125
-4.04296875,17.05078125,-12.041015625000002,2.373046875,29.794921874999996,23.642578125
-4.130859375,17.578125,-12.568359375,2.373046875,29.8828125,23.642578125
-4.130859375,18.017578125,-12.919921875,2.373046875,29.8828125,23.642578125
-4.04296875,18.193359375,-13.0078125,2.4609375,29.8828125,23.642578125
-4.04296875,18.10546875,-13.0078125,2.4609375,29.8828125,23.642578125
-4.04296875,18.193359375,-12.744140625,2.4609375,29.443359374999996,23.642578125
-4.04296875,18.10546875,-12.3046875,2.4609375,28.740234375,23.642578125
-4.04296875,18.10546875,-11.77734375,2.4609375,28.125,23.642578125
-4.04296875,18.10546875,-11.337890625,2.4609375,27.685546875000004,23.642578125
-4.130859375,18.10546875,-11.162109375000002,2.4609375,27.333984375,23.642578125
-4.130859375,18.193359375,-10.810546875,2.4609375,27.158203125,23.642578125
-4.130859375,18.193359375,-10.634765625,2.4609375,26.982421875,23.642578125
-4.130859375,18.10546875,-10.546874999999998,2.4609375,26.806640625000004,23.642578125
-4.130859375,18.10546875,-10.283203125,2.4609375,26.718749999999996,23.642578125
-4.130859375,18.193359375,-9.84375,2.4609375,26.279296875,23.642578125
-4.130859375,18.193359375,-9.140625000000002,2.4609375,25.6640625,23.642578125
-4.130859375,18.193359375,-8.525390625,2.4609375,25.13671875,23.642578125
-4.130859375,18.193359375,-8.0859375,2.4609375,24.78515625,23.642578125
-4.130859375,18.193359375,-7.734374999999999,2.4609375,24.169921875,23.642578125
-4.130859375,18.281250000000004,-7.734374999999999,2.4609375,24.169921875,23.642578125
-4.130859375,18.80859375,-7.998046875,2.4609375,24.169921875,23.642578125
-4.21875,19.3359375,-8.4375,2.4609375,24.2578125,23.642578125
-4.21875,19.86328125,-9.140625000000002,2.4609375,24.2578125,23.642578125
-4.39453125,20.390625,-9.755859375,2.4609375,24.345703125,23.642578125
-4.306640624999999,20.7421875,-10.1953125,2.4609375,24.345703125,23.642578125
-4.306640624999999,20.91796875,-10.458984375,2.4609375,24.345703125,23.642578125
-4.130859375,20.7421875,-10.458984375,2.4609375,24.433593749999996,23.642578125
-3.6914062500000004,20.478515625,-10.458984375,2.373046875,24.433593749999996,23.642578125
-3.076171875,20.390625,-10.283203125,2.197265625,24.433593749999996,23.642578125
-2.548828125,20.0390625,-9.931640625,2.021484375,24.345703125,23.642578125
-1.9335937499999998,19.775390625,-9.84375,2.021484375,24.433593749999996,23.642578125
-1.40625,19.599609375,-9.31640625,1.9335937499999998,24.433593749999996,23.642578125
-0.7910156249999999,19.160156249999996,-8.876953125,1.8457031250000002,24.433593749999996,23.642578125
-0.263671875,18.984375,-8.701171875,1.6699218749999998,24.433593749999996,23.642578125
0.3515625,18.720703125,-8.26171875,1.40625,24.345703125,23.642578125
0.87890625,18.369140625,-8.0859375,0.9667968749999999,24.345703125,23.642578125
1.40625,18.10546875,-7.646484374999999,0.615234375,24.345703125,23.642578125
2.109375,17.841796875,-7.294921875000001,0.263671875,24.2578125,23.642578125
2.4609375,17.490234375000004,-7.03125,0.0,24.169921875,23.642578125
2.9882812500000004,17.138671875,-6.591796875,-0.3515625,24.169921875,23.642578125
3.6914062500000004,16.962890625,-6.240234375,-0.703125,24.082031250000004,23.642578125
3.9550781250000004,16.69921875,-5.976562500000001,-0.9667968749999999,24.082031250000004,23.642578125
3.9550781250000004,16.69921875,-5.976562500000001,-1.0546875,24.082031250000004,23.642578125
3.9550781250000004,16.347656249999996,-5.976562500000001,-1.0546875,24.345703125,23.642578125
3.9550781250000004,16.083984375,-6.15234375,-1.0546875,24.873046875,23.642578125
3.9550781250000004,15.820312500000002,-6.416015625,-1.0546875,25.400390625,23.5546875
4.04296875,15.468749999999998,-6.679687499999999,-1.1425781250000002,26.015625,23.642578125
3.9550781250000004,15.1171875,-6.943359375000001,-1.1425781250000002,26.630859375,23.642578125
3.9550781250000004,14.94140625,-7.119140625,-1.1425781250000002,27.158203125,23.5546875
3.8671874999999996,14.589843750000002,-7.55859375,-1.23046875,27.685546875000004,23.5546875
3.8671874999999996,14.326171875,-7.734374999999999,-1.23046875,28.300781249999996,23.5546875
3.779296875,14.23828125,-7.910156250000001,-1.23046875,28.65234375,23.642578125
3.8671874999999996,14.150390624999998,-7.910156250000001,-1.23046875,28.740234375,23.642578125
3.779296875,14.0625,-8.0859375,-1.23046875,28.828124999999996,23.642578125
3.515625,14.150390624999998,-8.0859375,-1.23046875,29.003906249999996,23.642578125
3.076171875,14.150390624999998,-8.0859375,-1.3183593749999998,29.003906249999996,23.642578125
2.724609375,14.150390624999998,-8.0859375,-1.23046875,29.003906249999996,23.642578125
2.021484375,14.150390624999998,-8.26171875,-1.1425781250000002,29.091796875,23.642578125
1.23046875,14.150390624999998,-8.26171875,-0.9667968749999999,29.091796875,23.642578125
0.615234375,14.150390624999998,-8.26171875,-0.615234375,29.091796875,23.642578125
0.17578125,14.150390624999998,-8.26171875,-0.087890625,29.091796875,23.642578125
-0.3515625,14.150390624999998,-8.26171875,0.439453125,29.091796875,23.642578125
-1.0546875,14.150390624999998,-8.26171875,0.52734375,29.091796875,23.642578125
-1.6699218749999998,14.150390624999998,-8.26171875,0.7910156249999999,29.091796875,23.642578125
-2.109375,14.150390624999998,-8.26171875,1.3183593749999998,29.091796875,23.642578125
-2.6367187499999996,14.0625,-8.26171875,1.8457031250000002,29.091796875,23.642578125
-3.3398437499999996,14.0625,-8.26171875,1.8457031250000002,29.179687500000004,23.642578125
-3.6914062500000004,14.0625,-8.26171875,2.197265625,29.179687500000004,23.642578125
-3.6914062500000004,14.150390624999998,-8.26171875,2.197265625,29.179687500000004,23.642578125
-3.6914062500000004,14.0625,-8.0859375,2.197265625,29.091796875,23.642578125
-3.779296875,14.0625,-7.734374999999999,2.197265625,28.388671875,23.642578125
-3.8671874999999996,14.0625,-7.294921875000001,2.197265625,27.861328125,23.642578125
-3.9550781250000004,14.0625,-6.855468749999999,2.197265625,27.24609375,23.642578125
-3.9550781250000004,14.0625,-6.15234375,2.197265625,26.630859375,23.642578125
-3.9550781250000004,14.0625,-5.537109375,2.197265625,26.015625,23.642578125
-3.9550781250000004,14.0625,-4.921875,2.197265625,25.48828125,23.642578125
-3.9550781250000004,14.0625,-4.39453125,2.197265625,24.873046875,23.642578125
-3.9550781250000004,14.0625,-3.779296875,2.197265625,24.169921875,23.642578125
-3.9550781250000004,14.0625,-3.251953125,2.197265625,24.082031250000004,23.642578125
-3.9550781250000004,14.0625,-3.076171875,2.197265625,23.37890625,23.642578125
-3.9550781250000004,14.150390624999998,-2.9882812500000004,2.197265625,23.466796875,23.642578125
-4.04296875,14.589843750000002,-3.1640624999999996,2.197265625,23.466796875,23.642578125
-4.04296875,15.1171875,-3.779296875,2.197265625,23.466796875,23.642578125
-4.130859375,15.644531250000002,-4.306640624999999,2.197265625,23.5546875,23.642578125
-4.130859375,16.171875,-4.921875,2.2851562500000004,23.642578125,23.5546875
-4.21875,16.5234375,-5.44921875,2.2851562500000004,23.73046875,23.642578125
-4.21875,16.69921875,-5.625,2.2851562500000004,23.818359374999996,23.642578125
-4.21875,16.787109375,-5.800781250000001,2.2851562500000004,23.818359374999996,23.642578125
-4.130859375,16.787109375,-5.800781250000001,2.2851562500000004,23.818359374999996,23.642578125
-4.130859375,16.69921875,-5.800781250000001,2.2851562500000004,23.818359374999996,23.642578125
-4.130859375,16.787109375,-5.800781250000001,2.2851562500000004,23.818359374999996,23.642578125
-4.130859375,16.787109375,-5.800781250000001,2.2851562500000004,23.818359374999996,23.642578125
-4.130859375,16.787109375,-5.800781250000001,2.2851562500000004,23.818359374999996,23.642578125
-4.130859375,16.69921875,-5.800781250000001,2.2851562500000004,23.73046875,23.642578125
-4.130859375,16.611328125,-5.625,2.2851562500000004,22.851562499999996,23.642578125
-4.04296875,16.435546875,-5.361328124999999,2.2851562500000004,21.972656249999996,23.642578125
-4.04296875,16.259765625,-4.74609375,2.2851562500000004,20.830078124999996,23.642578125
-3.9550781250000004,15.99609375,-4.21875,2.2851562500000004,19.51171875,23.642578125
-3.779296875,15.732421875,-3.3398437499999996,2.2851562500000004,17.666015625,23.642578125
-3.515625,15.468749999999998,-2.6367187499999996,2.109375,15.99609375,23.642578125
-3.4277343749999996,15.205078124999998,-1.8457031250000002,2.021484375,14.23828125,23.642578125
-3.251953125,14.94140625,-1.1425781250000002,1.9335937499999998,12.48046875,23.642578125
-3.1640624999999996,14.677734375,-0.439453125,1.8457031250000002,10.722656249999998,23.642578125
-2.9003906250000004,14.414062499999998,0.3515625,1.7578125,8.876953125,23.642578125
-2.8125,14.23828125,1.1425781250000002,1.6699218749999998,7.294921875000001,23.642578125
-2.6367187499999996,13.974609375,1.8457031250000002,1.6699218749999998,5.44921875,23.642578125
-2.548828125,13.623046875,2.6367187499999996,1.5820312499999998,3.779296875,23.642578125
-2.373046875,13.447265625,3.3398437499999996,1.5820312499999998,2.021484375,23.642578125
-2.197265625,13.095703125000002,4.04296875,1.4941406250000002,0.263671875,23.642578125
-2.021484375,12.919921875,4.74609375,1.40625,-1.40625,23.642578125
-1.9335937499999998,12.656249999999998,5.625,1.3183593749999998,-3.076171875,23.642578125
-1.7578125,12.3046875,6.240234375,1.23046875,-4.921875,23.642578125
-1.5820312499999998,12.041015625000002,7.03125,1.1425781250000002,-6.591796875,23.642578125
-1.4941406250000002,11.77734375,7.822265625000001,0.9667968749999999,-8.26171875,23.642578125
-1.3183593749999998,11.513671875,8.4375,0.9667968749999999,-10.01953125,23.642578125
-1.1425781250000002,11.337890625,9.228515625,0.87890625,-11.689453125,23.642578125
-0.9667968749999999,10.986328124999998,10.01953125,0.703125,-13.53515625,23.642578125
-0.87890625,10.810546875,10.722656249999998,0.703125,-15.205078124999998,23.642578125
-0.7910156249999999,10.458984375,11.425781249999998,0.52734375,-16.962890625,23.642578125
-0.52734375,10.1953125,12.12890625,0.439453125,-18.6328125,23.642578125
-0.439453125,10.01953125,12.83203125,0.3515625,-20.302734375,23.642578125
-0.263671875,9.931640625,13.271484375,0.3515625,-21.357421875,23.642578125
-0.263671875,9.755859375,13.623046875,0.263671875,-22.324218750000004,23.642578125
-0.17578125,9.580078124999998,14.0625,0.263671875,-23.37890625,23.642578125
-0.17578125,9.404296875,14.326171875,0.17578125,-23.994140625,23.642578125
-0.087890625,9.404296875,14.414062499999998,0.17578125,-23.994140625,23.642578125
-0.17578125,9.404296875,14.326171875,0.17578125,-24.082031250000004,23.642578125
-0.087890625,9.404296875,14.414062499999998,0.17578125,-24.082031250000004,23.642578125
-0.087890625,9.404296875,14.414062499999998,0.17578125,-24.082031250000004,23.642578125
-0.087890625,9.404296875,14.414062499999998,0.17578125,-24.082031250000004,23.642578125
-0.087890625,9.404296875,14.326171875,0.17578125,-23.994140625,23.5546875
-0.087890625,9.404296875,14.414062499999998,0.17578125,-23.994140625,23.642578125
-0.087890625,9.404296875,14.326171875,0.17578125,-23.994140625,23.5546875
-0.17578125,9.404296875,14.326171875,0.17578125,-24.082031250000004,23.642578125
-0.087890625,9.404296875,14.414062499999998,0.17578125,-23.994140625,23.642578125
-0.087890625,9.404296875,14.326171875,0.17578125,-23.994140625,23.642578125
