RAMEL-ESPOL/ARCHIE/matlab/data/joint_goals_square_t35_h35_p12.txt
Joint0,Joint1,Joint2,Joint3,Joint4,Joint5 
0.004178361274281655,9.571771743018042,14.254635396655841,0.0033477341987192114,-23.822230046160275,0.0038284509868918284
0.004178361274281655,9.571771743018042,14.254635396655841,0.0033477341987192114,-23.822230046160275,0.0038284509868918284
0.004178361274281655,9.571771743018042,14.254635396655841,0.0033477341987192114,-23.822230046160275,0.0038284509868918284
0.004178361274281655,9.571771743018042,14.254635396655841,0.0033477341987192114,-23.822230046160275,0.0038284509868918284
0.004178361274281655,9.571771743018042,14.254635396655841,0.0033477341987192114,-23.822230046160275,0.0038284509868918284
0.004178361274281655,9.571771743018042,14.254635396655841,0.0033477341987192114,-23.822230046160275,0.0038284509868918284
0.004178361274281655,9.571771743018042,14.254635396655841,0.0033477341987192114,-23.822230046160275,0.0038284509868918284
0.004178361274281655,9.571771743018042,14.254635396655841,0.0033477341987192114,-23.822230046160275,0.0038284509868918284
0.004178361274281655,9.571771743018042,14.254635396655841,0.0033477341987192114,-23.822230046160275,0.0038284509868918284
0.004178361274281655,9.571771743018042,14.254635396655841,0.0033477341987192114,-23.822230046160275,0.0038284509868918284
0.004178361274281655,9.571771743018042,14.254635396655841,0.0033477341987192114,-23.822230046160275,0.0038284509868918284
0.004178361274281655,9.571771743018042,14.254635396655841,0.0033477341987192114,-23.822230046160275,0.0038284509868918284
0.004178361274281655,9.571771743018042,14.254635396655841,0.0033477341987192114,-23.822230046160275,0.0038284509868918284
0.004178361274281655,9.571771743018042,14.254635396655841,0.0033477341987192114,-23.822230046160275,0.0038284509868918284
0.004178361274281655,9.571771743018042,14.254635396655841,0.0033477341987192114,-23.822230046160275,0.0038284509868918284
0.004178361274281655,9.571771743018042,14.254635396655841,0.0033477341987192114,-23.822230046160275,0.0038284509868918284
0.004179001171973399,9.571773079462927,14.254632147891167,0.0033477346993551122,-23.822221869927283,0.0038290959819151935
0.02238443214776666,9.60971207543867,14.162310818699723,0.003300069043361658,-23.589763376368786,0.022154541026099595
0.06311039333328805,9.69397938349509,13.956560843083649,0.0027478089017808553,-23.070891440673535,0.06297228179359605
0.10616384098888296,9.782165535734908,13.740197951263749,0.0015037829342545966,-22.524040699237826,0.10586953547961145
0.1490360446131711,9.869075011424558,13.525893650373794,-0.00039827435267517157,-21.981150780024453,0.1483425711419351
0.19207464589010625,9.955423597233025,13.311887480608005,-0.002962731888310447,-21.437767439326983,0.19075076334636384
0.2353388289939436,10.04132790217594,13.097879195527456,-0.006191917370484196,-20.893115658310908,0.23316379366919765
0.2788386768202613,10.126803435658116,12.883815927038578,-0.010087293907932096,-20.347044871136728,0.2756023360015579
0.32289344917469676,10.212462704174005,12.668136230746548,-0.014685766779944097,-19.795540893995877,0.3183864911235001
0.3668314277938336,10.296995383304354,12.454125223723171,-0.01991808543603273,-19.24698818052785,0.36087491610166456
0.41103858434945667,10.381148506218592,12.239888882250352,-0.02582501102728235,-18.6965290069894,0.4034536356282244
0.45519382794710095,10.464312891191243,12.026972305321243,-0.03236039050786734,-18.148127053874113,0.44582549822722456
0.4996109084351253,10.547081445254552,11.813851769392757,-0.03956766879628993,-17.59785141232884,0.4883036199138051
0.5440820106799504,10.629065592290466,11.60151761068615,-0.04741268996132588,-17.048247944433534,0.530700643087628
0.5885472362192191,10.710161200612294,11.390240125030008,-0.05587924404612457,-16.500016977322918,0.5729718828139226
0.6333388736859036,10.790972293088023,11.178434536733167,-0.06503104634127439,-15.949034185412671,0.6154444422445899
0.6780877559688185,10.870831634089717,10.967839758806399,-0.07479274448799941,-15.399812381373707,0.6577795130524807
0.7229660480237278,10.95005090879509,10.757632349179241,-0.08519818076947887,-14.850202414106695,0.7001518047383847
0.7679159758954756,11.028528933951344,10.548073992795246,-0.09623301826207976,-14.300881162113054,0.7425181184806414
0.8128868449833616,11.106180889369778,10.339388927121323,-0.10788202912983677,-13.752433950486873,0.784842176284851
0.8580991527488909,11.183386123792591,10.130547618514793,-0.12020332742392163,-13.20214433844453,0.8273425992501565
0.9033771459648355,11.259841590164763,9.922357328528957,-0.13315129908643064,-12.65212621497762,0.8698651851457643
0.9488113182521978,11.335699448174427,9.71439488253319,-0.14675269187072226,-12.101252236116093,0.9125060828761553
0.9942010617217173,11.410627068095883,9.507568272321222,-0.16094642739180354,-11.551923375804273,0.9550882154974115
1.0395666029200097,11.484664955904757,9.301769990900643,-0.17573459641072692,-11.003858321644714,0.9976417358323134
1.0852923832379726,11.558436057985494,9.095253283114829,-0.19124669262789426,-10.452389527473185,1.0405383410250877
1.1308830121339621,11.631139619991933,8.890249674086638,-0.20731693741571264,-9.903465399522663,1.083324364083662
1.1765408514502862,11.703104797504166,8.685834948940212,-0.22401346960774632,-9.354614895549346,1.1262006331781107
1.2223649275496666,11.77448553743126,8.48156063566228,-0.241375619414858,-8.804622393977143,1.1692712754492935
1.268229415070743,11.845084271590375,8.277981961545317,-0.2593586286540407,-8.254972394086035,1.212429176459631
1.3141160140652361,11.914875062594092,8.075170598726723,-0.27795571478262293,-7.7058549862147245,1.2556680618724978
1.3601949298068432,11.98411464800441,7.872369249831198,-0.2972395962202698,-7.1552084271950145,1.2991596095229276
1.406247211697882,12.052473069214843,7.67053538993103,-0.31712173532143845,-6.605623360246672,1.3427083932397599
1.4524297028130257,12.120183702648454,7.468973956218623,-0.33767204972749926,-6.055200961623197,1.3864738785474515
1.4984302423381286,12.18679351947358,7.269035730646851,-0.35875104679177355,-5.507631597090015,1.4301708654998142
1.5447132038002096,12.252975176312056,7.068695163509384,-0.38057436448602017,-4.957361298218404,1.4742516871212459
1.5910416628509,12.318383888809633,6.868976814084374,-0.4030379275579191,-4.40718570852532,1.5185028344277058
1.6372338886578282,12.382768226366512,6.6706522751183766,-0.4260532451129505,-3.859233473169991,1.5627612470585506
1.6837147608822176,12.44671883884966,6.471892070072547,-0.4498368352178457,-3.3084400560831098,1.6074457056908553
1.7301200809020785,12.509731254337256,6.274250118578048,-0.4742087466703969,-2.7590982074838237,1.6522181691807911
1.7765331293661792,12.571922579420143,6.077361247940747,-0.49921377952467977,-2.2101942859151475,1.6971697400216794
1.822986298803043,12.633336933310387,5.881080795330319,-0.524873145119055,-1.6613198826545679,1.742343231542598
1.8697304982057508,12.694299103271538,5.684348503656507,-0.5513352873535589,-1.1094896409563992,1.7879959531537486
1.9162140695534153,12.754090554740406,5.489478810319238,-0.5782919704266278,-0.5611909928880497,1.833600703390788
1.9629339133433383,12.81335267416954,5.294380101703936,-0.6060346558796783,-0.01053705615853191,1.8796563765602952
2.009668495581091,12.871799146490812,5.09997595212642,-0.6344411933320182,0.5398826374072552,1.9259580420725126
2.0562883057693515,12.929272041901841,4.906795136557689,-0.6634351737572557,1.088568721531597,1.9723883827667947
2.1030034352614413,12.986032035374059,4.713959346709841,-0.6931516570984068,1.6380183919778575,2.0191683776110265
2.1497455995911,13.041993829706692,4.521746350163853,-0.7235550441573002,2.1874511003766623,2.066242723371274
2.196602521802558,13.09725963484209,4.329791755754113,-0.7547109199845455,2.7379203523589632,2.113713216308191
2.243282841475086,13.151488134883945,4.139281062544979,-0.7864301355504103,3.2860273151112214,2.1612965040689853
2.290109829167812,13.205056289747066,3.9488877137375233,-0.8189379457837006,3.8355912436795743,2.209334395998379
2.3369799352683245,13.257841064315876,3.7590307247466797,-0.8521733025150239,4.38541827164702,2.257735310988076
2.383879299939399,13.30982521453921,3.56976173203178,-0.8861350797268959,4.935368041289173,2.3064987191366435
2.4308232065206785,13.361024007837939,3.3810146242885155,-0.9208433886802977,5.485641866878328,2.3556545292535627
2.477596587612914,13.411206197741178,3.1936455820769996,-0.9561442513901259,6.033741729877358,2.4049896166189813
2.524503110687125,13.460698655085618,3.0064315498799856,-0.9922741041652811,6.583248333451114,2.4548374831761444
2.5715690077585394,13.50952098785374,2.8192688213391013,-1.0292687567440384,7.134489487395462,2.505243577964644
2.6183600300479264,13.557225609486999,2.633876305164125,-1.0667931344605266,7.6824013008376415,2.555755574239547
2.6653827217292063,13.604329629857771,2.4482409095270508,-1.1052620164342126,8.232936907481527,2.6069343377189615
2.712354440815862,13.65054459899654,2.263477252270362,-1.1444584860204041,8.782807932979246,2.6584894907113323
2.7592050591903394,13.695805455129474,2.0798526350459428,-1.184330196083589,9.33121478047702,2.7103568134596974
2.8062632642234275,13.740426593372348,1.896075936649259,-1.2251699836988001,9.882025654165876,2.7629169837303498
2.8531133660487566,13.784013067878497,1.7137658938289944,-1.2666283238938305,10.430395559317732,2.815721449695035
2.9002359734241456,13.827009192599911,1.5310492291707414,-1.3091441607417096,10.981970498869737,2.8693292288334677
2.9477510802724893,13.86950543264734,1.3474701098786959,-1.3528557182063443,11.538176142323142,2.9239043373215123
2.9950557844963392,13.910956384228374,1.1653574215412086,-1.3972263984827924,12.091975843552262,2.9787747022573248
3.042396892200223,13.951581595812398,0.9837533333838904,-1.4424968423690228,12.646279151865581,3.034241553470214
3.0899196789193097,13.99149835544005,0.8021009914527669,-1.4888263476659216,13.202808027442225,3.0904973432711746
3.137354582129624,14.030476059515326,0.621428833907132,-1.5359697963008152,13.758426255799973,3.1472436137616446
3.184726051138466,14.068537230136268,0.4416369171484078,-1.5839627877892861,14.313439718329752,3.20452614191763
3.232080207380299,14.105719316403295,0.26254496846487774,-1.6328659223412778,14.868408296345637,3.2624189909182775
3.279357537575856,14.141976181634291,0.0843727744083824,-1.682631849951009,15.422653712855245,3.3208679071845695
3.32674958788043,14.177451677983655,-0.09360413209526804,-1.7334808344886945,15.978441287548646,3.380131435717958
3.3741084905286867,14.212030733130007,-0.2708320285002144,-1.7852749487580748,16.53405684493275,3.440047992702081
3.4214112770766087,14.245696795079054,-0.4472297961950592,-1.8380052405305856,17.089249558312144,3.500608737624788
3.4686410876977543,14.278438989638834,-0.6227399623150214,-1.8916685711389767,17.643839652949097,3.5618120002453044
3.5159002173861666,14.310327080276178,-0.7977463858898521,-1.9464000594693223,18.199046841379083,3.623812687115843
3.5630933853764164,14.341295239253782,-0.971899616250208,-2.0021093203850366,18.753770162607033,3.6865090223531762
3.610200981872193,14.371332066121095,-1.1451326941326916,-2.0587901708958363,19.307796278067727,3.7498960452351695
3.6575997866535914,14.400669394562579,-1.3188297431239233,-2.116925872163792,19.865577008086156,3.814511717308272
3.7046238717773194,14.428894518522679,-1.4905543070450777,-2.175720443274548,20.419293236685572,3.8794723981851686
3.7517055814137317,14.456272835533614,-1.6618934409125123,-2.2357277989809696,20.974050532900208,3.9453939260302655
3.7989278648056626,14.482844035413764,-1.8331473800624347,-2.297086426805186,21.530846592212054,4.012426118831155
3.844925819663631,14.507867378575302,-1.9993884511455575,-2.358008404370077,22.073592028347008,4.078628209789336
3.871319628401389,14.521841970960633,-2.0945236988409146,-2.3934899859592185,22.38519970410405,4.117030639451539
3.8827144679394197,14.527788462779498,-2.1355386249109554,-2.408927977493375,22.519769363149482,4.133705231564257
3.8741688645157124,14.445595935688024,-2.2362827435535837,-2.4074236389417307,22.7104419117817,4.133229228370257
3.8485456423189603,14.215015094525851,-2.501402249853591,-2.4003103541027895,23.206757359828117,4.128612993167462
3.8214527283613604,13.962319349298923,-2.7801638065349694,-2.393062136645636,23.738860126038812,4.123921692316814
3.794649164954525,13.703029956780808,-3.05420070187082,-2.3861780665402246,24.272819906459926,4.119481905420244
3.7726282476675017,13.482870371250648,-3.2779164346114054,-2.3807435839241133,24.717211824766206,4.1159913145339635
3.7638498763241945,13.393268831096648,-3.3667153815515936,-2.3786343855845034,24.895817263263893,4.114640720018145
3.7562870894318636,13.315221211513805,-3.443035217813824,-2.3768438993322336,25.050360834776637,4.113496287854648
3.7335061989737626,13.075272453525798,-3.6718615691386343,-2.371602372744491,25.51966387347281,4.110158606550948
3.70785165836589,12.796129173873185,-3.927513482677492,-2.3659803188771855,26.055048892315885,4.106603912579466
3.682723062662813,12.513256690973092,-4.175659536032923,-2.3607725411823015,26.58664023426267,4.103341367022546
3.6586236746620044,12.232906496463473,-4.41136744018128,-2.3560667416356007,27.10324299577441,4.100425971936772
3.6466785234529575,12.090573230009406,-4.527320717699878,-2.353842363134336,27.361797777804124,4.0990614305303685
3.6409413798871504,12.021780626535937,-4.584975262007218,-2.3528385061823225,27.48837182542016,4.098508896085912
3.65331788703513,12.239527756604877,-4.860837907354565,-2.3620677772567342,27.545933241763656,4.115031088367055
3.6796618729323214,12.698350936193506,-5.439675688199524,-2.381672284732112,27.664763510071772,4.150096147713846
3.708055718515278,13.185950289430492,-6.051170713719084,-2.402740442043246,27.787375239456292,4.187734080708967
3.73716704761627,13.678636088756432,-6.665207946599281,-2.424274092182646,27.907402290024116,4.2261574936101765
3.7667653450028267,14.172282711158074,-7.2765527065753925,-2.446098231820199,28.023745625350106,4.265053776997076
3.797265412941334,14.67352761703981,-7.89330244462816,-2.4685135019199396,28.137845701201616,4.30495809651425
3.828197554924168,15.174396760652195,-8.505537259092117,-2.491169606133192,28.247777761205477,4.345246371110123
3.8598407655481135,15.679230608457452,-9.118497678211677,-2.5142664271808313,28.354428479416033,4.386274061833333
3.892224138817359,16.188215076207573,-9.732289416890739,-2.5378195245745574,28.457715701074633,4.4280682454697935
3.9252582305340558,16.69969409946014,-10.344811624278657,-2.5617583069380823,28.55719825799234,4.470503279077992
3.9590105365364545,17.21448014260422,-10.956944209711443,-2.5861261912871325,28.652939830674338,4.513655856713945
3.9933392335118807,17.73021049321988,-11.565803898058931,-2.610815549713819,28.744426052417907,4.55733529310948
4.0280010173509275,18.24316736068876,-12.16700592232694,-2.635647748574142,28.831001221506863,4.601226184906117
4.052859827040055,18.60637479916383,-12.590043735569285,-2.6533972331052547,28.889627182797604,4.632573989533589
4.037995291780196,18.68170991460774,-12.676902625980091,-2.643984177589531,28.901823162373784,4.61631530276336
3.6855146027372245,18.70229232994492,-12.69052663758763,-2.413546367670949,28.910366827584845,4.215922819845813
3.1238827840144823,18.731181455169395,-12.709633039627708,-2.0461550391967283,28.922314108324926,3.5778798052093794
2.5501614071743752,18.75575094467051,-12.725877661898775,-1.6706201384823898,28.93251552981908,2.926029608528216
1.9791036057905669,18.775257760783713,-12.738766126403522,-1.2966340135489933,28.940594153628368,2.2771442190189326
1.4057597985716481,18.78988670104882,-12.748431753929644,-0.9210001068374525,28.946683398263342,1.625614610323973
0.8315880849402957,18.79956589635354,-12.754822399926656,-0.544716113982766,28.950687788305768,0.9731101173047791
0.2592953413429915,18.80426958799719,-12.757930604988863,-0.16959955053326486,28.952658065676943,0.3227212271216956
-0.31097281365372176,18.80404780289231,-12.757782591754316,0.20420881017411116,28.952549682935068,-0.3253728609718733
-0.8836706371963524,18.798895020303263,-12.754382455518142,0.5795872862893832,28.950425043861028,-0.9762210466741538
-1.4571748266779758,18.788779935195183,-12.747700777426836,0.9554250342633985,28.946208045152922,-1.6279639104157204
-2.029880416469821,18.77372740005323,-12.737759738427085,1.3306301801795686,28.939975604383854,-2.278765144229926
-2.604995667369516,18.753623344355827,-12.724473337494487,1.7072556339593026,28.93162013333458,-2.932254819984186
-3.1764580282799573,18.728687318643438,-12.70799045730493,2.0812932914698603,28.92130122052955,-3.5815329246122247
-3.726112421755774,18.700025409800258,-12.689030305428274,2.4408265770472357,28.909416932142197,-4.2059609295136795
-4.034254261682605,18.68194772752172,-12.67707066144519,2.642276676173364,28.90196506784421,-4.5559884932138335
-4.060123966844451,18.686367788011985,-12.563656774772438,2.656162181272204,28.783070052842568,-4.5791076924155245
-4.068260882515094,18.7071419102377,-12.10550250089301,2.649399059451746,28.304280424727413,-4.5630708649539455
-4.077602717754341,18.724894042482628,-11.577718835836388,2.642040828701134,27.758897803631285,-4.5450391094660825
-4.086962978587269,18.73629490525104,-11.047042752166186,2.6350879216601157,27.216968051552968,-4.527361674191674
-4.096484355038227,18.741492029781128,-10.50539611362703,2.6284303544547942,26.67026787024307,-4.509762628310443
-4.105994008269779,18.740397508321276,-9.962631796614266,2.6221832344040314,26.128735589802616,-4.4925533296364275
-4.115497968199357,18.733180744733524,-9.418471893899435,2.616326797584537,25.591924286008375,-4.475705546602701
-4.124993030470009,18.72000685087421,-8.873162728967625,2.6108482325903037,25.059915408781812,-4.4592086548967105
-4.134396881702521,18.70122530475828,-8.331513157327123,2.605776281064498,24.537167575986988,-4.443185930521116
-4.14385349538716,18.676722484498086,-7.785293785507083,2.6010188201587314,24.015567129124864,-4.4273762650414685
-4.152916842343612,18.64807717740845,-7.260396478344513,2.5967712249281707,23.519422137058612,-4.412496996187748
-4.157266812083475,18.632569211298474,-7.007999837685038,2.594838112747512,23.28258339620895,-4.405447192401407
-4.172935660757012,18.852207154491612,-7.260367132762083,2.6052331026991364,23.314583016214023,-4.42375708527874
-4.208426192065665,19.344661229138374,-7.824837115504851,2.6287570846119657,23.384936687619657,-4.465170852502315
-4.247011691647382,19.871601975329312,-8.424520490856693,2.654252770334435,23.45585988587622,-4.509987531676771
-4.286667686418951,20.404268186827686,-9.026170414835683,2.680369904561406,23.522960450379756,-4.555824991091166
-4.32721965820959,20.93994653396178,-9.626596831160887,2.706987850257187,23.585768995584154,-4.602468857732213
-4.357129541888971,21.32937201688104,-10.060173693381481,2.7265630692657483,23.628480911686765,-4.636725801260607
-4.344286745484116,21.389711846634317,-10.126627014481743,2.718676042638444,23.635186661366106,-4.623309836440649
-4.006466774984341,21.151814951586253,-9.853376795727069,2.5071233427361492,23.614989327809557,-4.260324596695782
-3.488218748931161,20.780495875879332,-9.426605712850987,2.1825481707174097,23.580370408359666,-3.7037892854120127
-2.9652067350904296,20.397773395761607,-8.986318985847948,1.8549896649949749,23.540899964257314,-3.1425715092177215
-2.442401807833411,20.006964124738897,-8.536223634022463,1.527609982145351,23.496759299804616,-2.5820681874000306
-1.9247780473700375,19.611691091929757,-8.080392738978253,1.2035721789978637,23.448301788827575,-2.0276635628832693
-1.415721961524505,19.214646007202923,-7.621844678406198,0.8850404629365849,23.395892915281838,-1.4830228840394366
-0.9087570685175069,18.81080791100432,-7.1546892890631595,0.5680057328876897,23.338870543120024,-0.9412598642439213
-0.4064180716303169,18.40212969272366,-6.68108529282943,0.2540969011714816,23.277468662751513,-0.4051331598246405
0.09396435908315241,17.986365876532425,-6.1983270826474195,-0.05831081625330342,23.211303834360336,0.12815462552406753
0.5181843666043976,17.62691452168299,-5.780139869804582,-0.32291294793919123,23.151175799509804,0.579632821761235
0.71694110784029,17.456255802816212,-5.581319891379319,-0.4467984663670315,23.121716722301407,0.7909508032744988
1.1566732028256643,17.073481233789344,-5.134705753833055,-0.7206570464482523,23.05348630176633,1.2579494339006339
1.6518753495723346,16.633642864301695,-4.620317270793763,-1.0286606656098654,22.971541337713926,1.7829563511215563
2.14314566578766,16.1878391358149,-4.097590478324139,-1.3337507867493488,22.884720829521456,2.302776445679867
2.6220658501379126,15.743898110136358,-3.5756273875335984,-1.630674754982136,22.794602984688375,2.808476263980423
3.091050370287424,15.299953331050395,-3.052188139847176,-1.9209179957155629,22.700931190131097,3.3026026477265833
3.5486320232657063,14.857750795973576,-2.529292957291528,-2.203572675319335,22.60421842130804,3.783622244814349
3.8509235989502346,14.560578997865626,-2.1770180073975043,-2.3899805370936646,22.53730815901173,4.100748896662163
3.8793615822440755,14.491338644016839,-2.1824116527636614,-2.4088995843312775,22.610714844984365,4.134192853635998
3.856569583436915,14.28807468896364,-2.4185460801584457,-2.4025159301421457,23.050661389229955,4.130047768963932
3.8292856814009815,14.03632108319991,-2.6997616327766814,-2.3951328397592633,23.584282064196653,4.125264932894673
3.802358371660114,13.778559584030791,-2.9755863433854417,-2.388132765303068,24.11850617595896,4.120745218744698
3.777037905930561,13.52747061354362,-3.233240140676478,-2.3818200705942703,24.627844059797546,4.116686057277036
3.765187541068897,13.40697989724004,-3.3532121764487135,-2.3789582094246318,24.868583736474037,4.114852377070696
3.7588592979036277,13.341844684438627,-3.41711032346914,-2.3774546313470672,24.99776455495363,4.113890888633907
3.7408542340658286,13.153462098207177,-3.598244924737645,-2.3732723739059614,25.367699665203812,4.111224268853339
3.7152601885412118,12.877718396588934,-3.8539288610367652,-2.367577224811694,25.89971717787628,4.107614960248191
3.6899387047901335,12.595449334296529,-4.104654319009657,-2.362241490953533,26.43329034419422,4.104262610520649
3.664989498543267,12.307831052940506,-4.349339860396748,-2.3572861707545956,26.966159386094674,4.101182366993577
3.6482152456010937,12.109004759645948,-4.512444873299358,-2.354128885294249,27.32846790937329,4.099241036521068
3.6415153362832107,12.02834046855639,-4.577260071063488,-2.352907990297106,27.47409742626503,4.098495665941479
3.4818689027527623,12.029827075665482,-4.590393258452838,-2.250183321723287,27.492103212047343,3.9207298992926294
3.001579768585868,12.055232404668697,-4.609448795641813,-1.940117407124432,27.50317636147897,3.3839306298846425
2.458422086097631,12.079408994818603,-4.627575101782625,-1.5892658850244197,27.51372590381501,2.776782804926622
1.9142541134534918,12.098793324053242,-4.642099209975683,-1.2375863316134523,27.522160465274894,2.1684308126119025
1.3717715299394317,12.11330862707355,-4.652974906285493,-0.8868613952555763,27.528504980787687,1.5619082221814615
0.8298708342020595,12.123019809107346,-4.660249964619586,-0.5364156869487344,27.53275419184596,0.9559956546450128
0.28602672797827516,12.127959092065424,-4.6639504488077215,-0.18465420974274518,27.53492055789263,0.3478854455026444
-0.25790048252796743,12.12808323911353,-4.664041169718393,0.1671807776995968,27.53495301280421,-0.2603271391322364
-0.7993451815333558,12.123426156497422,-4.6605550580314254,0.5173924258801817,27.532928605261695,-0.8657552831758799
-1.3429828318296817,12.11394753556935,-4.653457179416244,0.8689660016960074,27.528798835622343,-1.4736119685438327
-1.8859920636693521,12.09967153075071,-4.642759944442162,1.2200363289329128,27.522544433086566,-2.080726517776042
-2.4300335390457795,12.080544122875766,-4.628427823145177,1.5716418752346495,27.514208715535762,-2.688938915811044
-2.973002988376701,12.056630063940476,-4.610501685512302,1.9223826788866785,27.50379131714392,-3.295880966791709
-3.4546698511681644,12.031373775472126,-4.59156019839991,2.2333489526607635,27.4927916206116,-3.834224643115987
-3.6410471370297213,12.020764564309095,-4.582961195423325,2.3536083073332095,27.487389592894406,-4.042479587242194
-3.647913010635915,12.084533210542315,-4.408700662819912,2.3529717304519666,27.249281624309845,-4.03913245865596
-3.6629792024056225,12.219579630348766,-4.025200916600483,2.3518041788324173,26.730559832906625,-4.031980712519429
-3.6787890850503797,12.35423141173612,-3.6212115148645228,2.350907654587994,26.191730458501183,-4.024750634581776
-3.6947924297537247,12.483360788872899,-3.2107502289837653,2.350330397982915,25.651945409615635,-4.017705607829551
-3.7109614743970707,12.60669770178065,-2.7945755535175003,2.35007219045387,25.11223361810682,-4.010854246299541
-3.7272803709005102,12.724108422615828,-2.373149114843779,2.350130750720989,24.573190691502713,-4.0041985135851395
-3.7437460180237023,12.835574022316418,-1.9466079919493673,2.350503016421475,24.034972741500763,-3.9977344527619905
-3.76036626293992,12.941151373694883,-1.514805915174983,2.351186312916145,23.497376588657815,-3.9914538753008606
-3.777185048881277,13.041094568897027,-1.0766532334395014,2.3521810690278473,22.959057965239566,-3.9853361762731576
-3.7928765449230033,13.128255488843882,-0.6668651480838552,2.353374747818799,22.461898167097473,-3.9798342614951516
-3.7994659841647027,13.16314502869162,-0.4945087130175264,2.3539503694269555,22.25456284641587,-3.9775808044526335
-3.804676411313255,13.23827251329992,-0.5540525979773214,2.3569092718214115,22.238783543271097,-3.982376379880287
-3.8279609378174455,13.623943825353102,-1.0304985024223092,2.3728415066946233,22.328543645946034,-4.010956300931673
-3.8582325548096446,14.118484024751838,-1.6380872655568157,2.393507881019646,22.440266115569358,-4.047968929558193
-3.8777377736184366,14.433130807479765,-2.0226937075147577,2.4067960558944126,22.509367027199705,-4.071732970191598
-3.883428633652534,14.526116263026816,-2.141161120035444,2.410764605993678,22.534592951222027,-4.078903819381348
-3.8687794071426884,14.396870712151987,-2.2932028808944644,2.4066196380600435,22.816233411664516,-4.0762140024222475
-3.841927661380425,14.153166004869885,-2.5707469017161384,2.39923038561582,23.33812566514495,-4.071427484062692
-3.8148425480120913,13.898175294139026,-2.849063093695404,2.392058918522792,23.872076631982175,-4.066795894673982
-3.788199942119299,13.638062702928172,-3.121057528718115,2.3852916455352253,24.404812141620145,-4.062442225944905
-3.768547189662197,13.440107236283287,-3.320462332277625,2.3804887409143913,24.802632730078454,-4.059365197860815
-3.7611016066366143,13.363730384070216,-3.395718062089382,2.378712132914819,24.954438968979755,-4.058230255935872
-3.7512759421167425,13.261760517057942,-3.4947760142413222,2.376404420102131,25.155695330059103,-4.0567590116400645
-3.727143834291085,13.005531228895123,-3.7367793215264102,2.3709180548732154,25.654486168839505,-4.053276871317896
-3.7016831762519518,12.726052801753747,-3.989992190008141,2.365417616635894,26.187761642292042,-4.049812892599751
-3.6765274906439736,12.440412301651937,-4.237865898958901,2.3602845161875385,26.72184808794817,-4.046612042138627
-3.6540795511864848,12.177233490162104,-4.457018992516834,2.356000325937003,27.204682192072976,-4.0439486672746865
-3.644375425079538,12.061027433498783,-4.551091952640389,2.3542126808214703,27.41517886552349,-4.04285707506268
-3.642114818813528,12.039779093680886,-4.607814353689969,2.3544188978743685,27.493175889600447,-4.043942545378504
-3.6592209427358307,12.3402003154256,-4.988135425468435,2.367170756501374,27.572309407306992,-4.066767391722793
-3.686883698414265,12.820391862569332,-5.593087863766148,2.3877430287570105,27.69582508560984,-4.103553087867547
-3.7154597009416332,13.309327807346131,-6.20530800187495,2.4089304684305235,27.81781525448858,-4.1413927582742405
-3.7447552768041,13.803305220581617,-6.819977943835201,2.4305835999731444,27.937173082368524,-4.180018016373308
-3.774518026748841,14.29785409805269,-7.431448331180839,2.4525114319543304,28.05273025542367,-4.219087898508904
-3.8050606900556776,14.797942870069953,-8.045768101224985,2.4749396469754354,28.16555245372772,-4.259004187975255
-3.8362232684765365,15.300675738159324,-8.659260235371905,2.4977453960965073,28.274865274445105,-4.299547651265131
-3.867913144706585,15.804381233049535,-9.26981991757285,2.5208564158854156,28.380239210268247,-4.340589834688857
-3.9005449702398693,16.315367037286478,-9.884970401823045,2.5445693292546805,28.482869855819686,-4.382656918942825
-3.9338369055768605,16.82889802320496,-10.498867943089527,2.5686729460456035,28.581661165865892,-4.425373466977861
-3.9677837263734395,17.34468210205769,-11.111082543845914,2.5931581808514927,28.676474925028195,-4.468723232782635
-4.002165763341864,17.859254299404412,-11.717468632580156,2.6178621872661694,28.76664054455638,-4.512418208912359
-4.036022713970837,18.35851162314526,-12.301598425430162,2.6420954949091158,28.849879368006622,-4.555241265599181
-4.056029900725933,18.65015331300175,-12.640893908977096,2.656372263356563,28.89656289003957,-4.580452355374801
-4.059614936708432,18.684905785236733,-12.592133212067614,2.6565793919125085,28.812974231799625,-4.580099126116694
-4.067269399659897,18.70488102759661,-12.161271867769294,2.650188320216063,28.36226862184529,-4.564986104774424
-4.0765820149906675,18.723268837583866,-11.635341479192132,2.6428074268688024,27.81810380441513,-4.5469682824946895
-4.0832541376497415,18.732532972576294,-11.257397112189715,2.637777074643771,27.431001327851124,-4.5342989330124315
-4.0868858140184265,18.736226598307663,-11.051290691649903,2.6351270902942687,27.221257680513407,-4.527484429844512
-4.090905390826961,18.739220148720968,-10.822855956496415,2.632265033365426,26.989890766822487,-4.520007506991088
-4.093859828606201,18.740693772106827,-10.654745988487406,2.6302082695512246,26.820351593095022,-4.51455498466622
-4.096025824382789,18.741386115802143,-10.531388512867482,2.628725316161962,26.696333971554296,-4.510580424706006
-4.10002103834483,18.741808510820203,-10.30361106365683,2.626044663462709,26.46819271619784,-4.503299311336533
-4.108746176760974,18.73892760223369,-9.805094588077404,2.620432121790145,25.97268158461612,-4.4876183461673955
-4.118141540714837,18.730101080915947,-9.266681011561799,2.6147488139041744,25.443223331049044,-4.471059065936732
-4.127537432816683,18.715476785791857,-8.726629387673723,2.609425994591652,24.917919677685447,-4.454822748012777
-4.137012328064489,18.694999554719285,-8.180463663906249,2.6044110683479387,24.39235095145022,-4.438763607251217
-4.146414632457115,18.66914392094083,-7.6373007846807175,2.599809782460375,23.875155521551985,-4.423160581164141
-4.154855195673678,18.64131765540958,-7.148165892296585,2.5959231336752238,23.413945615295734,-4.409363747237913
-4.1585865850789,18.65088258701549,-7.028478023674349,2.5957198291951213,23.28465984339871,-4.406965720369577
-4.181553018085272,18.972425872031707,-7.398522386270198,2.6109690777519603,23.332089320537264,-4.433835174541377
-4.219005425580915,19.489951004080943,-7.990626829590725,2.635773330722909,23.40491141376414,-4.477485493503271
-4.257849221107372,20.01800641097852,-8.590338451485673,2.6614165823781515,23.47473245041073,-4.5225421455244845
-4.297775050159769,20.55183795552734,-9.192037460187052,2.6876872944722057,23.540700209467364,-4.568629383536162
-4.33734579383142,21.07227140998654,-9.774197015054904,2.7136382330512814,23.600530138962082,-4.614086088241136
-4.360358248899479,21.371078490447704,-10.106459776635822,2.7286909407071005,23.6328769997917,-4.640422033536737
-4.279037528289243,21.368543491090122,-10.101312200569692,2.6778891687343163,23.634033613344815,-4.553328990563399
-3.8365496052387584,21.186196096188407,-9.887104685800946,2.4010443477680634,23.62142870813874,-4.078613028188231
-3.2648167404834494,20.94515156511661,-9.605289518940108,2.043245824122937,23.60243064722253,-3.465513721981742
-2.69196555416251,20.697385946556427,-9.317066098471786,1.6846871408646567,23.580267119390438,-2.851554322786491
-2.120150985646628,20.443712623440497,-9.023336594136731,1.3267643734063874,23.55492986033193,-2.2390789289099864
-1.5473633462906622,20.183122265700593,-8.722894908929982,0.9682661544077396,23.526333307327665,-1.6259609391731737
-0.9822096290241148,19.919518180331185,-8.420170997298719,0.6146257516330114,23.49487009225294,-1.021442752501544
-0.42602569246618355,19.653682518289067,-8.115966468542535,0.2667208838631975,23.460696059418467,-0.42696786196862035
0.13116916709761256,19.380852722308166,-7.804757582415702,-0.0816468477591474,23.42317153255312,0.16810196351001747
0.6834047087600112,19.103892622659494,-7.489757642825321,-0.4267058733857408,23.382733496350653,0.7573697256676035
1.2368765185988764,18.819622722734533,-7.167285764993422,-0.7722826467698665,23.3388620284171,1.3474103253758591
1.7842640636371416,18.531751532207927,-6.841483727933047,-1.113765153460811,23.292113431011764,1.930389132397124
2.331048363856028,18.237374844409878,-6.508994500790105,-1.4545335721551518,23.242011373416645,2.51211528064185
2.8754902326361194,17.93733529071844,-6.17070505675886,-1.7934621855561936,23.188669688358054,3.0907031242427347
3.415211240866268,17.63292412749716,-5.827995018133935,-2.129028902927944,23.132281656807486,3.6635894322615945
3.902155002646205,17.352193907707633,-5.5123216437740306,-2.431391056408569,23.07839866369048,4.179846194989188
4.061154441761399,17.254555054636064,-5.412645013903553,-2.530212803805824,23.069634900843134,4.348741716553601
4.043141183952283,17.10428891473304,-5.585248188443785,-2.5251128235912534,23.392968003599073,4.34506144651464
4.013733583986643,16.851452180416832,-5.866024590880775,-2.517032813727757,23.927333273909582,4.3392323708827565
3.9845764566709776,16.59127747843141,-6.1430328338705795,-2.5093335576749713,24.4652556812922,4.333682121602605
3.9572431587940122,16.338495884713943,-6.401315783217812,-2.5024094358732034,24.977007648567128,4.328696752011938
3.9446216209001825,16.218789049381364,-6.520082813723172,-2.4993111436295754,25.21579702113375,4.326468666774366
3.937767291075445,16.152976082074193,-6.584441232730301,-2.4976553710058886,25.34613923381149,4.325278793313759
3.9182618753539518,15.962546432468873,-6.767021579266112,-2.4930486798041156,25.719633350430097,4.321972022490157
3.890443953220494,15.682732575732908,-7.025868806262326,-2.486755175642827,26.258979672760123,4.317465500428435
3.8630851141820237,15.397812852032798,-7.278517689825235,-2.4808942419836972,26.79721613291142,4.313284302534769
3.836040936916333,15.106376123236556,-7.526204767679179,-2.4754343624805646,27.33699405599918,4.309407906258688
3.8117191825661325,14.835694883715053,-7.747059596100286,-2.4708187881230605,27.8291131390828,4.306150102920584
3.8009492688805455,14.713173043975745,-7.844243788228863,-2.4688669534548646,28.049075718436534,4.304779197401572
3.7732372624828443,14.665984115838885,-7.883330445568932,-2.4528765315523233,28.136454910835486,4.277817508612113
3.4281991949261155,14.685645378917316,-7.897383720952436,-2.2288822869570653,28.14487211324878,3.889332419680109
2.882386763520236,14.712878506559127,-7.916833764066553,-1.8743506483636,28.156483145195548,3.274714265150632
2.3264602857937833,14.735756367350655,-7.933169067760248,-1.5130414608425347,28.16627389533379,2.648630470107792
1.7714289896402278,14.753713567524986,-7.945983148978616,-1.1521429841343014,28.17393975184555,2.0234893696184
1.2163104121623354,14.766802056216658,-7.955322557727102,-0.7910585474300588,28.179548415781195,1.3982023636157719
0.6607263541922243,14.77502953857405,-7.961193217642707,-0.429581991326642,28.183082742294722,0.7723576098150156
0.10468851287917846,14.778386343331212,-7.963585543710273,-0.06776203893783446,28.18450122860447,0.14598251366028392
-0.44770551092804955,14.776892606333318,-7.962522026596285,0.2916950631662852,28.18387381466901,-0.4762898749748707
-1.0054545968947943,14.770500416362063,-7.957964430026265,0.6546040266776023,28.181148972595043,-1.1045824824153079
-1.5600104754273774,14.75927517549187,-7.9499543132217925,1.0153601177405986,28.176324212328232,-1.7292506194709463
-2.1138693517786153,14.74321422759299,-7.9384953497522925,1.3755507266903098,28.169464981305655,-2.353090693449001
-2.6716302958635545,14.72213368057882,-7.923449300102591,1.7381234970999182,28.160464275380296,-2.9812674829720827
-3.2266766031494285,14.696257379261223,-7.904967846193746,2.098733020302892,28.14938947360084,-3.606312861065256
-3.67680920409567,14.671676535251446,-7.8874060012984435,2.391011099047968,28.138900558968412,-4.113149240832303
-3.7970428826589435,14.664962642043312,-7.871277806675779,2.468788965868414,28.12444215150735,-4.247959204229083
-3.8020688507111764,14.675109905775404,-7.54493182546358,2.464356713862562,27.788045837811282,-4.2372078413619985
-3.810135947887179,14.686432983226098,-7.0193797664644055,2.457547592655931,27.251322146180364,-4.22022730638551
-3.8182817899448493,14.69177652636462,-6.486573098890559,2.451041571232813,26.71331989643967,-4.203413491356262
-3.826470535217637,14.69111251448157,-5.948865056622444,2.4448625211293367,26.17641981646875,-4.186833394935464
-3.8346567486840937,14.684531193863041,-5.409278929573138,2.4390348513295956,25.64355434365035,-4.170567448274859
-3.84280454219827,14.672232097082942,-4.870248200413744,2.433569710675494,25.116957067319746,-4.154671466463728
-3.8510080092315833,14.65417879536131,-4.325592622678807,2.428393792300714,24.590485915658384,-4.138950135214824
-3.859166298937965,14.630702919706044,-3.782053177030067,2.4235606943727954,24.07054881676738,-4.123585203982753
-3.8673719677686913,14.601653634137719,-3.2335097247537448,2.419005542472581,23.55117809235398,-4.108390866451425
-3.8755785743585105,14.567263108057194,-2.683096172440559,2.414747085414573,23.03527493216309,-4.0934442458800655
-3.8823394401289835,14.53500002114223,-2.2283208004436346,2.411455596512311,22.612858824312056,-4.0813105976785025
-3.8863003693938403,14.570298734672358,-2.1898813055898576,2.4126191688362506,22.53902310998279,-4.082136595742824
-3.9086429019574997,14.925434614993048,-2.621378768951481,2.427802283370639,22.614395218434918,-4.109244309125837
-3.940847529344525,15.430492316251849,-3.231651703931593,2.4496366204991347,22.718176491420508,-4.148169027851139
-3.973921528789145,15.94102004521292,-3.844481257622987,2.4719981505582327,22.818996170916662,-4.187964859571071
-4.007750242616554,16.45491055797691,-4.457215476445525,2.494804829557787,22.91631400867859,-4.2284836788925615
-4.040420499675905,16.943496450736127,-5.035918343596018,2.5167681450055204,23.00494789089551,-4.26744023526375
-4.057375752702013,17.194155852810308,-5.331345762623869,2.5281426088074825,23.048942549669675,-4.287591237937229
-4.0617797624294525,17.258943352420516,-5.407542559460357,2.5310943603767777,23.06015056397156,-4.292817931050037
-4.0617797624294525,17.258943352420516,-5.407542559460357,2.5310943603767777,23.06015056397156,-4.292817931050037
-4.0617797624294525,17.258943352420516,-5.407542559460357,2.5310943603767777,23.06015056397156,-4.292817931050037
-4.0617797624294525,17.258943352420516,-5.407542559460357,2.5310943603767777,23.06015056397156,-4.292817931050037
-4.0617797624294525,17.258943352420516,-5.407542559460357,2.5310943603767777,23.06015056397156,-4.292817931050037
-4.0617797624294525,17.258943352420516,-5.407542559460357,2.5310943603767777,23.06015056397156,-4.292817931050037
-4.061642541327571,17.25868376936052,-5.406878042502709,2.5310087425123315,23.058565293862685,-4.292672601934135
-3.974782622358669,17.09436965696922,-4.986243837533434,2.476813282294143,22.055101312642755,-4.200680371452834
-3.8878819529017545,16.929978456315045,-4.565412291266469,2.422592396177818,21.051166554481956,-4.108644982650297
-3.8010617589130407,16.765739492219268,-4.144970461395604,2.368421722001444,20.048161502849446,-4.016694824388
-3.6893519978551597,16.554416589186843,-3.6039965911953367,2.298721427743017,18.757615496095745,-3.8983844436250767
-3.540490299588964,16.272812851697424,-2.8831080289691378,2.2058405185484573,17.037865418423742,-3.740726920807858
-3.3916663287229385,15.991280483653718,-2.1624021682140437,2.1129831490237394,15.318551192956345,-3.5831093545981636
-3.2430809443427866,15.710199452971601,-1.442851703848829,2.02027464337729,13.601993278429855,-3.425744472287542
-3.0942758748826957,15.428702840979433,-0.7222373764264044,1.9274290672137173,11.882897414668019,-3.268146924315394
-2.9454095702077754,15.147090389482797,-0.00132650686795098,1.8345452838921288,10.163094120676062,-3.1104845229095446
-2.7964190591373725,14.865242975026609,0.7201858536777856,1.7415840031143472,8.441855911183568,-2.9526905760970665
-2.6477280152213103,14.583962066736213,1.4402479926497986,1.6488095721568556,6.72407734690496,-2.7952137911218395
-2.4990971492145873,14.302794997830839,2.1600187096707857,1.5560726886611895,5.00699399815504,-2.637800739801578
-2.3498458419101236,14.020454231524646,2.8827940211595515,1.4629486864337926,3.282742895829758,-2.479730587029468
-2.201305431725392,13.739458279151242,3.602126690192244,1.3702682420294863,1.5667045533420643,-2.3224133363146375
-2.0527057505766075,13.458350203073785,4.321746389136287,1.2775508160436577,-0.1500185270346804,-2.16503331247901
-1.9034742087559662,13.17604682740724,5.044425982845526,1.1844391463109822,-1.87404128524771,-2.006984093078297
-1.755163291629949,12.89548501023325,5.762647291984673,1.0919018920233785,-3.5874283701577494,-1.849909895530011
-1.6062839027307607,12.613847807128248,6.483621524165818,0.9990099449184915,-5.307382821875051,-1.6922336367894
-1.4574837348369327,12.332360467496907,7.204212114904484,0.9061674270428213,-7.026422059459313,-1.5346412800034597
-1.3084606218195025,12.05045137948574,7.925882356026567,0.8131858045752925,-8.7480369084876,-1.3768128048853985
-1.1600429108299821,11.769687538880245,8.644620832950391,0.7205819172232126,-10.46265774766213,-1.2196255033206453
-1.0112393640103736,11.48819380728818,9.365227786722507,0.6277372910973862,-12.181736020860932,-1.0620295679575795
-0.8618009894202845,11.205499163205447,10.08890900394891,0.5344965699303845,-13.908148249807299,-0.9037612946131843
-0.7131202645794944,10.92423777565274,10.808921171011269,0.44172857746650485,-15.625807601214445,-0.7462954384387445
-0.5648130370634366,10.643682938165043,11.527124612575014,0.3491936252776383,-17.33915206127815,-0.5892251485092289
-0.4159960444700382,10.362163771016371,12.24779667983601,0.25634060978296186,-19.05838566906462,-0.4316149728989217
-0.28747081483289666,10.119030813049008,12.870202369694729,0.1761484561116359,-20.543195235431636,-0.2954955441935497
-0.20068503088282552,9.954856942900175,13.29047756299237,0.12199925176740631,-21.545802759242576,-0.20358182916356518
-0.11351731728068264,9.789960571135854,13.712602316794564,0.06761174587384634,-22.55282259029215,-0.11126361731850067
-0.026936177667483505,9.626173829514977,14.131886484438905,0.013590227511246522,-23.553065925609136,-0.019566638491216967
-0.0034445941215614064,9.581734475382076,14.245648547374353,-0.0010671334054849838,-23.824456438402393,0.005312997520196694
-0.0034445941215614064,9.581734475382076,14.245648547374353,-0.0010671334054849838,-23.824456438402393,0.005312997520196694
-0.0034445941215614064,9.581734475382076,14.245648547374353,-0.0010671334054849838,-23.824456438402393,0.005312997520196694
-0.0034445941215614064,9.581734475382076,14.245648547374353,-0.0010671334054849838,-23.824456438402393,0.005312997520196694
-0.0034445941215614064,9.581734475382076,14.245648547374353,-0.0010671334054849838,-23.824456438402393,0.005312997520196694
-0.0034445941215614064,9.581734475382076,14.245648547374353,-0.0010671334054849838,-23.824456438402393,0.005312997520196694
-0.0034445941215614064,9.581734475382076,14.245648547374353,-0.0010671334054849838,-23.824456438402393,0.005312997520196694
-0.0034445941215614064,9.581734475382076,14.245648547374353,-0.0010671334054849838,-23.824456438402393,0.005312997520196694
-0.0034445941215614064,9.581734475382076,14.245648547374353,-0.0010671334054849838,-23.824456438402393,0.005312997520196694
-0.0034445941215614064,9.581734475382076,14.245648547374353,-0.0010671334054849838,-23.824456438402393,0.005312997520196694
-0.0034445941215614064,9.581734475382076,14.245648547374353,-0.0010671334054849838,-23.824456438402393,0.005312997520196694
-0.0034445941215614064,9.581734475382076,14.245648547374353,-0.0010671334054849838,-23.824456438402393,0.005312997520196694
-0.0034445941215614064,9.581734475382076,14.245648547374353,-0.0010671334054849838,-23.824456438402393,0.005312997520196694
