RAMEL-ESPOL/ARCHIE/matlab/data/joint_real_states_square_t35_h40_p12.txt
Joint0,Joint1,Joint2,Joint3,Joint4,Joint5 
0.0,9.4921875,14.23828125,0.17578125,-23.818359374999996,23.642578125
0.0,9.4921875,14.23828125,0.17578125,-23.818359374999996,23.642578125
0.0,9.4921875,14.23828125,0.17578125,-23.818359374999996,23.642578125
0.0,9.4921875,14.23828125,0.17578125,-23.818359374999996,23.5546875
0.0,9.4921875,14.23828125,0.17578125,-23.818359374999996,23.642578125
0.0,9.4921875,14.23828125,0.17578125,-23.818359374999996,23.642578125
0.0,9.4921875,14.23828125,0.17578125,-23.818359374999996,23.642578125
0.0,9.4921875,14.23828125,0.17578125,-23.818359374999996,23.5546875
0.0,9.4921875,14.23828125,0.17578125,-23.818359374999996,23.5546875
0.0,9.4921875,14.23828125,0.17578125,-23.818359374999996,23.642578125
0.0,9.4921875,14.23828125,0.17578125,-23.818359374999996,23.5546875
0.0,9.4921875,14.23828125,0.17578125,-23.818359374999996,23.642578125
0.0,9.4921875,14.23828125,0.17578125,-23.818359374999996,23.642578125
0.0,9.4921875,14.23828125,0.17578125,-23.818359374999996,23.5546875
0.0,9.4921875,14.23828125,0.17578125,-23.818359374999996,23.642578125
0.0,9.4921875,14.23828125,0.17578125,-23.818359374999996,23.642578125
0.0,9.4921875,14.23828125,0.17578125,-23.818359374999996,23.642578125
0.0,9.4921875,14.23828125,0.17578125,-23.818359374999996,23.642578125
0.0,9.4921875,14.23828125,0.17578125,-23.73046875,23.642578125
0.0,9.4921875,14.23828125,0.17578125,-23.02734375,23.5546875
0.087890625,9.4921875,14.150390624999998,0.17578125,-22.5,23.5546875
0.087890625,9.404296875,14.150390624999998,0.17578125,-21.884765625,23.642578125
0.17578125,9.31640625,14.150390624999998,0.17578125,-21.357421875,23.642578125
0.17578125,9.140625000000002,14.150390624999998,0.17578125,-20.830078124999996,23.642578125
0.263671875,9.052734375,14.150390624999998,0.17578125,-20.302734375,23.5546875
0.263671875,8.96484375,14.150390624999998,0.17578125,-19.86328125,23.5546875
0.3515625,8.876953125,14.150390624999998,0.17578125,-19.3359375,23.5546875
0.3515625,8.7890625,14.150390624999998,0.17578125,-18.720703125,23.5546875
0.439453125,8.701171875,14.150390624999998,0.17578125,-18.193359375,23.5546875
0.439453125,8.525390625,14.150390624999998,0.17578125,-17.666015625,23.642578125
0.52734375,8.349609375,14.150390624999998,0.17578125,-17.138671875,23.642578125
0.52734375,8.26171875,14.150390624999998,0.17578125,-16.611328125,23.642578125
0.615234375,8.173828124999998,14.150390624999998,0.17578125,-16.083984375,23.642578125
0.615234375,8.0859375,14.150390624999998,0.17578125,-15.556640625000002,23.5546875
0.703125,7.998046875,14.150390624999998,0.17578125,-15.029296875,23.5546875
0.703125,7.910156250000001,14.150390624999998,0.17578125,-14.501953124999998,23.5546875
0.7910156249999999,7.822265625000001,14.150390624999998,0.17578125,-13.798828125,23.642578125
0.7910156249999999,7.734374999999999,14.150390624999998,0.17578125,-13.447265625,23.5546875
0.87890625,7.646484374999999,14.150390624999998,0.17578125,-12.83203125,23.642578125
0.87890625,7.55859375,14.150390624999998,0.17578125,-12.392578125,23.642578125
0.9667968749999999,7.294921875000001,14.150390624999998,0.17578125,-11.865234375,23.642578125
0.9667968749999999,7.294921875000001,14.150390624999998,0.087890625,-11.25,23.5546875
0.9667968749999999,7.207031249999999,14.150390624999998,0.087890625,-10.722656249999998,23.5546875
1.0546875,7.119140625,14.150390624999998,0.087890625,-10.283203125,23.5546875
1.0546875,7.03125,14.150390624999998,0.17578125,-9.66796875,23.642578125
1.1425781250000002,6.855468749999999,14.150390624999998,0.087890625,-9.228515625,23.5546875
1.1425781250000002,6.767578125,14.150390624999998,0.17578125,-8.701171875,23.642578125
1.23046875,6.679687499999999,14.150390624999998,0.17578125,-8.0859375,23.642578125
1.23046875,6.591796875,14.150390624999998,0.17578125,-7.646484374999999,23.642578125
1.3183593749999998,6.50390625,14.150390624999998,0.087890625,-7.119140625,23.642578125
1.40625,6.328124999999999,14.150390624999998,0.17578125,-6.591796875,23.642578125
1.40625,6.15234375,14.150390624999998,0.17578125,-5.976562500000001,23.5546875
1.4941406250000002,6.064453125,14.150390624999998,0.17578125,-5.44921875,23.642578125
1.4941406250000002,6.064453125,14.150390624999998,0.087890625,-4.921875,23.5546875
1.4941406250000002,5.976562500000001,14.150390624999998,0.087890625,-4.39453125,23.642578125
1.4941406250000002,5.800781250000001,14.150390624999998,0.087890625,-3.8671874999999996,23.642578125
1.5820312499999998,5.625,14.150390624999998,0.087890625,-3.3398437499999996,23.642578125
1.5820312499999998,5.537109375,14.150390624999998,0.17578125,-2.8125,23.5546875
1.6699218749999998,5.537109375,14.150390624999998,0.087890625,-2.2851562500000004,23.642578125
1.6699218749999998,5.361328124999999,14.150390624999998,0.087890625,-1.7578125,23.642578125
1.7578125,5.273437499999999,14.150390624999998,0.087890625,-1.23046875,23.642578125
1.7578125,5.185546875,14.150390624999998,0.087890625,-0.703125,23.642578125
1.7578125,4.921875,14.150390624999998,0.17578125,-0.17578125,23.642578125
1.8457031250000002,4.833984375,14.150390624999998,0.087890625,0.3515625,23.5546875
1.8457031250000002,4.833984375,14.150390624999998,0.087890625,0.87890625,23.5546875
1.9335937499999998,4.74609375,14.150390624999998,0.087890625,1.40625,23.5546875
1.9335937499999998,4.570312500000001,14.150390624999998,0.087890625,1.9335937499999998,23.642578125
2.021484375,4.482421875,14.150390624999998,0.087890625,2.4609375,23.642578125
2.021484375,4.306640624999999,14.150390624999998,0.087890625,3.076171875,23.5546875
2.021484375,4.21875,14.150390624999998,0.087890625,3.515625,23.5546875
2.109375,4.04296875,14.150390624999998,0.087890625,4.04296875,23.5546875
2.109375,3.9550781250000004,14.150390624999998,0.087890625,4.570312500000001,23.642578125
2.197265625,3.8671874999999996,14.23828125,0.087890625,5.185546875,23.642578125
2.197265625,3.6914062500000004,14.23828125,0.087890625,5.712890624999999,23.642578125
2.197265625,3.6035156249999996,14.326171875,0.087890625,6.240234375,23.642578125
2.2851562500000004,3.4277343749999996,14.326171875,0.087890625,6.767578125,23.5546875
2.2851562500000004,3.3398437499999996,14.326171875,0.087890625,7.382812500000001,23.5546875
2.2851562500000004,3.251953125,14.326171875,0.087890625,7.734374999999999,23.5546875
2.373046875,3.076171875,14.501953124999998,0.087890625,8.349609375,23.642578125
2.4609375,2.9882812500000004,14.501953124999998,0.087890625,8.7890625,23.5546875
2.4609375,2.8125,14.501953124999998,0.087890625,9.404296875,23.642578125
2.548828125,2.724609375,14.501953124999998,0.087890625,10.01953125,23.642578125
2.548828125,2.6367187499999996,14.589843750000002,0.087890625,10.37109375,23.642578125
2.548828125,2.548828125,14.589843750000002,0.087890625,10.986328124999998,23.642578125
2.6367187499999996,2.373046875,14.589843750000002,0.087890625,11.513671875,23.5546875
2.6367187499999996,2.109375,14.677734375,0.087890625,12.041015625000002,23.5546875
2.724609375,2.109375,14.677734375,0.087890625,12.568359375,23.642578125
2.724609375,2.021484375,14.94140625,0.087890625,13.095703125000002,23.642578125
2.724609375,1.8457031250000002,14.94140625,0.0,13.53515625,23.642578125
2.8125,1.6699218749999998,14.94140625,0.0,14.150390624999998,23.642578125
2.8125,1.5820312499999998,14.94140625,0.0,14.589843750000002,23.642578125
2.8125,1.40625,14.94140625,-0.087890625,15.205078124999998,23.5546875
2.8125,1.3183593749999998,14.94140625,-0.087890625,15.732421875,23.5546875
2.8125,1.1425781250000002,15.1171875,-0.087890625,16.259765625,23.642578125
2.9003906250000004,1.0546875,15.1171875,-0.17578125,16.787109375,23.642578125
2.9882812500000004,0.87890625,15.205078124999998,-0.17578125,17.314453125,23.642578125
2.9882812500000004,0.703125,15.205078124999998,-0.17578125,17.841796875,23.642578125
2.9882812500000004,0.615234375,15.205078124999998,-0.263671875,18.45703125,23.5546875
3.076171875,0.3515625,15.205078124999998,-0.3515625,18.80859375,23.5546875
3.076171875,0.3515625,15.292968749999998,-0.3515625,19.072265625,23.642578125
3.1640624999999996,0.3515625,15.292968749999998,-0.3515625,19.072265625,23.642578125
3.1640624999999996,0.263671875,15.380859375,-0.3515625,19.423828125,23.642578125
3.076171875,-0.087890625,15.292968749999998,-0.3515625,19.951171875,23.642578125
3.1640624999999996,-0.3515625,15.1171875,-0.439453125,20.478515625,23.642578125
3.1640624999999996,-0.439453125,14.853515625,-0.439453125,21.005859375,23.642578125
3.1640624999999996,-0.703125,14.501953124999998,-0.439453125,21.445312499999996,23.642578125
3.1640624999999996,-1.0546875,14.0625,-0.52734375,21.972656249999996,23.642578125
3.1640624999999996,-1.23046875,13.886718750000002,-0.52734375,22.5,23.642578125
3.1640624999999996,-1.4941406250000002,13.710937499999998,-0.52734375,23.02734375,23.642578125
3.1640624999999996,-1.5820312499999998,13.53515625,-0.52734375,23.291015625,23.642578125
3.1640624999999996,-1.5820312499999998,13.53515625,-0.615234375,23.466796875,23.642578125
3.1640624999999996,-1.4941406250000002,13.18359375,-0.615234375,23.5546875,23.5546875
3.251953125,-1.23046875,12.392578125,-0.7910156249999999,23.906250000000004,23.642578125
3.3398437499999996,-0.703125,11.77734375,-0.9667968749999999,24.169921875,23.642578125
3.3398437499999996,-0.3515625,11.162109375000002,-1.0546875,24.345703125,23.642578125
3.3398437499999996,0.17578125,10.37109375,-1.23046875,24.609375,23.642578125
3.3398437499999996,0.703125,9.66796875,-1.4941406250000002,24.78515625,23.642578125
3.3398437499999996,1.1425781250000002,9.052734375,-1.6699218749999998,24.873046875,23.642578125
3.3398437499999996,1.5820312499999998,8.4375,-1.8457031250000002,25.13671875,23.642578125
3.3398437499999996,2.109375,7.646484374999999,-1.9335937499999998,25.312499999999996,23.642578125
3.3398437499999996,2.548828125,7.03125,-1.9335937499999998,25.400390625,23.642578125
3.3398437499999996,2.9882812500000004,6.50390625,-1.9335937499999998,25.576171874999996,23.642578125
3.3398437499999996,3.515625,5.625,-2.021484375,25.751953125,23.642578125
3.3398437499999996,4.04296875,4.921875,-2.021484375,25.83984375,23.642578125
3.3398437499999996,4.482421875,4.39453125,-2.021484375,26.015625,23.642578125
3.4277343749999996,4.74609375,3.9550781250000004,-2.021484375,26.191406250000004,23.642578125
3.4277343749999996,4.921875,3.8671874999999996,-2.021484375,26.191406250000004,23.642578125
3.3398437499999996,5.009765625,3.6914062500000004,-2.021484375,26.279296875,23.5546875
3.1640624999999996,5.009765625,3.6914062500000004,-2.021484375,26.3671875,23.642578125
2.8125,5.009765625,3.6914062500000004,-1.6699218749999998,26.3671875,23.642578125
2.2851562500000004,5.009765625,3.6914062500000004,-1.1425781250000002,26.3671875,23.642578125
1.8457031250000002,5.009765625,3.6914062500000004,-0.9667968749999999,26.3671875,23.642578125
1.4941406250000002,5.009765625,3.6035156249999996,-0.52734375,26.3671875,23.642578125
0.7910156249999999,5.009765625,3.6035156249999996,-0.17578125,26.3671875,23.642578125
-0.17578125,5.009765625,3.515625,0.0,26.3671875,23.642578125
-0.703125,5.009765625,3.6035156249999996,0.263671875,26.3671875,23.642578125
-1.1425781250000002,5.009765625,3.515625,0.703125,26.3671875,23.642578125
-1.6699218749999998,5.009765625,3.515625,1.1425781250000002,26.3671875,23.642578125
-2.197265625,5.009765625,3.515625,1.4941406250000002,26.3671875,23.642578125
-2.724609375,5.009765625,3.515625,1.4941406250000002,26.3671875,23.642578125
-3.076171875,5.009765625,3.515625,1.9335937499999998,26.3671875,23.642578125
-3.1640624999999996,5.009765625,3.6035156249999996,1.9335937499999998,26.3671875,23.642578125
-3.1640624999999996,5.009765625,4.04296875,2.021484375,26.191406250000004,23.642578125
-3.251953125,5.009765625,4.570312500000001,1.9335937499999998,25.400390625,23.642578125
-3.3398437499999996,4.921875,4.921875,1.9335937499999998,24.873046875,23.642578125
-3.4277343749999996,4.833984375,5.44921875,1.9335937499999998,24.169921875,23.642578125
-3.4277343749999996,4.833984375,6.064453125,1.9335937499999998,23.73046875,23.642578125
-3.4277343749999996,4.833984375,6.591796875,1.9335937499999998,23.203125000000004,23.642578125
-3.4277343749999996,4.74609375,7.294921875000001,1.9335937499999998,22.587890625000004,23.642578125
-3.4277343749999996,4.74609375,7.910156250000001,1.9335937499999998,22.1484375,23.642578125
-3.4277343749999996,4.658203125,8.4375,1.9335937499999998,21.533203125,23.642578125
-3.4277343749999996,4.658203125,8.96484375,1.9335937499999998,21.181640625000004,23.642578125
-3.4277343749999996,4.570312500000001,9.31640625,1.9335937499999998,20.7421875,23.642578125
-3.4277343749999996,4.570312500000001,9.31640625,1.9335937499999998,20.654296875,23.5546875
-3.4277343749999996,4.921875,9.140625000000002,1.9335937499999998,20.654296875,23.642578125
-3.4277343749999996,5.361328124999999,8.525390625,1.9335937499999998,20.830078124999996,23.642578125
-3.4277343749999996,5.888671875,7.998046875,1.9335937499999998,20.91796875,23.642578125
-3.4277343749999996,6.416015625,7.294921875000001,1.9335937499999998,20.91796875,23.642578125
-3.515625,6.767578125,6.591796875,1.9335937499999998,21.181640625000004,23.642578125
-3.515625,7.03125,6.416015625,1.9335937499999998,21.357421875,23.642578125
-3.515625,7.207031249999999,6.240234375,1.9335937499999998,21.357421875,23.642578125
-3.515625,7.03125,6.240234375,1.9335937499999998,21.357421875,23.642578125
-3.3398437499999996,6.679687499999999,6.50390625,1.8457031250000002,21.357421875,23.642578125
-2.9003906250000004,6.328124999999999,7.03125,1.7578125,21.357421875,23.642578125
-2.548828125,5.888671875,7.646484374999999,1.6699218749999998,21.26953125,23.642578125
-2.109375,5.44921875,8.173828124999998,1.5820312499999998,21.181640625000004,23.642578125
-1.5820312499999998,5.009765625,8.613281249999998,1.5820312499999998,21.005859375,23.642578125
-1.1425781250000002,4.658203125,9.140625000000002,1.4941406250000002,20.830078124999996,23.642578125
-0.7910156249999999,4.21875,9.755859375,1.40625,20.654296875,23.642578125
-0.439453125,3.8671874999999996,10.458984375,1.3183593749999998,20.390625,23.642578125
0.0,3.4277343749999996,10.986328124999998,1.0546875,20.390625,23.642578125
0.3515625,3.076171875,11.513671875,0.87890625,20.126953125,23.642578125
0.7910156249999999,2.6367187499999996,12.041015625000002,0.703125,19.86328125,23.642578125
1.23046875,2.197265625,12.744140625,0.439453125,19.86328125,23.642578125
1.6699218749999998,1.7578125,13.271484375,0.263671875,19.6875,23.642578125
1.9335937499999998,1.4941406250000002,13.886718750000002,0.087890625,19.3359375,23.642578125
2.2851562500000004,1.0546875,14.414062499999998,-0.17578125,19.3359375,23.642578125
2.8125,0.7910156249999999,14.765625000000002,-0.3515625,19.160156249999996,23.642578125
2.8125,0.615234375,15.205078124999998,-0.439453125,19.072265625,23.642578125
2.9003906250000004,0.52734375,15.205078124999998,-0.52734375,18.984375,23.642578125
2.9003906250000004,0.439453125,15.205078124999998,-0.52734375,19.072265625,23.5546875
2.9003906250000004,0.17578125,15.205078124999998,-0.52734375,19.160156249999996,23.642578125
2.9003906250000004,-0.087890625,15.205078124999998,-0.52734375,19.775390625,23.5546875
2.9003906250000004,-0.3515625,15.029296875,-0.52734375,20.302734375,23.5546875
2.9003906250000004,-0.52734375,14.765625000000002,-0.52734375,20.654296875,23.5546875
2.9003906250000004,-0.7910156249999999,14.326171875,-0.52734375,21.26953125,23.5546875
2.9003906250000004,-1.0546875,14.0625,-0.615234375,21.884765625,23.642578125
2.9003906250000004,-1.23046875,13.798828125,-0.615234375,22.324218750000004,23.642578125
2.9003906250000004,-1.4941406250000002,13.53515625,-0.615234375,22.763671875,23.642578125
2.9003906250000004,-1.4941406250000002,13.447265625,-0.703125,23.115234375,23.642578125
2.9882812500000004,-1.5820312499999998,13.359374999999998,-0.703125,23.203125000000004,23.642578125
2.9003906250000004,-1.5820312499999998,13.359374999999998,-0.703125,23.203125000000004,23.642578125
2.8125,-1.5820312499999998,13.271484375,-0.703125,23.291015625,23.642578125
2.4609375,-1.5820312499999998,13.271484375,-0.703125,23.291015625,23.642578125
2.109375,-1.5820312499999998,13.271484375,-0.703125,23.291015625,23.642578125
1.6699218749999998,-1.5820312499999998,13.095703125000002,-0.52734375,23.291015625,23.642578125
0.87890625,-1.5820312499999998,13.095703125000002,-0.3515625,23.466796875,23.642578125
0.087890625,-1.5820312499999998,13.095703125000002,0.0,23.5546875,23.642578125
-0.3515625,-1.5820312499999998,13.095703125000002,0.3515625,23.5546875,23.642578125
-0.7910156249999999,-1.5820312499999998,13.095703125000002,0.703125,23.5546875,23.642578125
-1.23046875,-1.5820312499999998,13.095703125000002,0.9667968749999999,23.5546875,23.642578125
-1.9335937499999998,-1.5820312499999998,13.095703125000002,1.1425781250000002,23.5546875,23.642578125
-2.4609375,-1.5820312499999998,13.095703125000002,1.4941406250000002,23.5546875,23.642578125
-2.8125,-1.5820312499999998,13.095703125000002,1.8457031250000002,23.5546875,23.642578125
-2.8125,-1.5820312499999998,13.18359375,1.8457031250000002,23.5546875,23.642578125
-2.8125,-1.5820312499999998,13.53515625,1.8457031250000002,23.02734375,23.642578125
-2.8125,-1.5820312499999998,13.974609375,1.8457031250000002,22.5,23.642578125
-2.9882812500000004,-1.5820312499999998,14.23828125,1.8457031250000002,21.972656249999996,23.642578125
-2.9882812500000004,-1.6699218749999998,14.589843750000002,1.8457031250000002,21.357421875,23.642578125
-2.9882812500000004,-1.5820312499999998,15.029296875,1.8457031250000002,20.7421875,23.642578125
-3.076171875,-1.4941406250000002,15.468749999999998,1.8457031250000002,20.214843750000004,23.642578125
-2.9882812500000004,-1.40625,15.99609375,1.8457031250000002,19.6875,23.642578125
-3.076171875,-1.40625,16.5234375,1.8457031250000002,19.160156249999996,23.642578125
-3.076171875,-1.3183593749999998,16.875,1.8457031250000002,18.6328125,23.642578125
-3.076171875,-1.3183593749999998,17.05078125,1.8457031250000002,18.369140625,23.642578125
-3.076171875,-0.9667968749999999,17.05078125,1.8457031250000002,18.45703125,23.642578125
-3.076171875,-0.3515625,16.787109375,1.8457031250000002,18.45703125,23.5546875
-3.1640624999999996,0.0,16.083984375,1.8457031250000002,18.6328125,23.642578125
-3.1640624999999996,0.17578125,15.820312500000002,1.8457031250000002,18.6328125,23.642578125
-3.1640624999999996,0.263671875,15.644531250000002,1.8457031250000002,18.80859375,23.642578125
-3.1640624999999996,0.263671875,15.468749999999998,1.8457031250000002,18.896484375,23.5546875
-3.1640624999999996,0.263671875,15.1171875,1.8457031250000002,19.51171875,23.642578125
-3.1640624999999996,0.087890625,14.853515625,1.8457031250000002,20.0390625,23.642578125
-3.1640624999999996,-0.17578125,14.589843750000002,1.8457031250000002,20.56640625,23.642578125
-3.1640624999999996,-0.3515625,14.23828125,1.8457031250000002,21.005859375,23.642578125
-3.1640624999999996,-0.703125,13.974609375,1.8457031250000002,21.533203125,23.642578125
-3.1640624999999996,-0.9667968749999999,13.710937499999998,1.8457031250000002,22.060546875000004,23.642578125
-3.1640624999999996,-1.23046875,13.447265625,1.8457031250000002,22.67578125,23.5546875
-3.1640624999999996,-1.3183593749999998,13.359374999999998,1.8457031250000002,23.02734375,23.642578125
-3.1640624999999996,-1.40625,13.271484375,1.8457031250000002,23.203125000000004,23.642578125
-3.1640624999999996,-1.40625,13.0078125,1.8457031250000002,23.37890625,23.642578125
-3.251953125,-1.23046875,12.48046875,1.8457031250000002,23.5546875,23.642578125
-3.251953125,-0.7910156249999999,11.77734375,1.8457031250000002,23.906250000000004,23.642578125
-3.3398437499999996,-0.3515625,11.25,1.8457031250000002,24.169921875,23.642578125
-3.251953125,0.17578125,10.458984375,1.8457031250000002,24.2578125,23.642578125
-3.3398437499999996,0.615234375,9.84375,1.8457031250000002,24.521484375,23.642578125
-3.3398437499999996,1.0546875,9.140625000000002,1.8457031250000002,24.609375,23.642578125
-3.3398437499999996,1.4941406250000002,8.4375,1.8457031250000002,24.9609375,23.642578125
-3.3398437499999996,2.021484375,7.822265625000001,1.8457031250000002,25.13671875,23.642578125
-3.3398437499999996,2.4609375,7.207031249999999,1.8457031250000002,25.224609375,23.642578125
-3.3398437499999996,2.9003906250000004,6.591796875,1.8457031250000002,25.400390625,23.642578125
-3.4277343749999996,3.3398437499999996,5.800781250000001,1.8457031250000002,25.6640625,23.642578125
-3.4277343749999996,3.8671874999999996,5.185546875,1.8457031250000002,25.83984375,23.642578125
-3.3398437499999996,4.306640624999999,4.570312500000001,1.8457031250000002,26.015625,23.642578125
-3.3398437499999996,4.74609375,3.9550781250000004,1.8457031250000002,26.191406250000004,23.642578125
-3.4277343749999996,4.921875,3.8671874999999996,1.8457031250000002,26.191406250000004,23.642578125
-3.4277343749999996,5.009765625,3.779296875,1.8457031250000002,26.191406250000004,23.642578125
-3.4277343749999996,5.009765625,3.779296875,1.8457031250000002,26.191406250000004,23.642578125
-3.4277343749999996,5.009765625,4.21875,1.8457031250000002,25.927734375000004,23.642578125
-3.4277343749999996,5.009765625,4.658203125,1.8457031250000002,25.224609375,23.642578125
-3.4277343749999996,4.921875,5.09765625,1.8457031250000002,24.697265624999996,23.642578125
-3.4277343749999996,4.921875,5.625,1.8457031250000002,24.169921875,23.642578125
-3.4277343749999996,4.921875,6.240234375,1.8457031250000002,23.5546875,23.642578125
-3.4277343749999996,4.921875,6.767578125,1.8457031250000002,23.02734375,23.642578125
-3.4277343749999996,4.833984375,7.470703125,1.8457031250000002,22.5,23.642578125
-3.515625,4.74609375,7.998046875,1.8457031250000002,21.972656249999996,23.642578125
-3.4277343749999996,4.658203125,8.613281249999998,1.8457031250000002,21.357421875,23.642578125
-3.4277343749999996,4.570312500000001,9.052734375,1.8457031250000002,20.91796875,23.642578125
-3.4277343749999996,4.570312500000001,9.31640625,1.8457031250000002,20.654296875,23.642578125
-3.4277343749999996,4.74609375,9.31640625,1.8457031250000002,20.654296875,23.642578125
-3.4277343749999996,5.09765625,8.96484375,1.8457031250000002,20.654296875,23.642578125
-3.4277343749999996,5.625,8.349609375,1.8457031250000002,20.830078124999996,23.642578125
-3.515625,6.064453125,7.734374999999999,1.8457031250000002,20.91796875,23.642578125
-3.4277343749999996,6.591796875,6.943359375000001,1.8457031250000002,21.005859375,23.642578125
-3.515625,6.943359375000001,6.591796875,1.9335937499999998,21.26953125,23.5546875
-3.515625,7.207031249999999,6.328124999999999,1.9335937499999998,21.357421875,23.642578125
-3.515625,7.207031249999999,6.328124999999999,1.9335937499999998,21.357421875,23.5546875
-3.4277343749999996,7.119140625,6.328124999999999,1.9335937499999998,21.357421875,23.642578125
-2.8125,6.855468749999999,6.416015625,1.7578125,21.357421875,23.642578125
-2.2851562500000004,6.50390625,6.591796875,1.6699218749999998,21.357421875,23.642578125
-1.9335937499999998,6.328124999999999,7.119140625,1.6699218749999998,21.357421875,23.642578125
-1.40625,5.976562500000001,7.55859375,1.5820312499999998,21.26953125,23.642578125
-0.703125,5.537109375,7.998046875,1.4941406250000002,21.181640625000004,23.642578125
-0.263671875,5.361328124999999,8.525390625,1.40625,20.91796875,23.642578125
0.3515625,4.833984375,8.876953125,1.0546875,20.91796875,23.642578125
0.87890625,4.570312500000001,9.31640625,0.87890625,20.830078124999996,23.642578125
1.40625,4.39453125,9.84375,0.52734375,20.830078124999996,23.642578125
1.9335937499999998,3.9550781250000004,10.283203125,0.263671875,20.478515625,23.642578125
2.373046875,3.6035156249999996,10.810546875,0.0,20.214843750000004,23.642578125
2.8125,3.4277343749999996,11.25,-0.439453125,20.302734375,23.642578125
3.251953125,3.251953125,11.425781249999998,-0.52734375,20.214843750000004,23.642578125
3.251953125,3.076171875,11.425781249999998,-0.52734375,20.302734375,23.5546875
3.3398437499999996,2.8125,11.337890625,-0.703125,20.56640625,23.642578125
3.251953125,2.6367187499999996,11.25,-0.703125,21.181640625000004,23.642578125
3.3398437499999996,2.2851562500000004,10.810546875,-0.703125,21.708984374999996,23.5546875
3.3398437499999996,2.021484375,10.458984375,-0.7910156249999999,22.1484375,23.642578125
3.3398437499999996,1.8457031250000002,10.283203125,-0.7910156249999999,22.763671875,23.642578125
3.3398437499999996,1.4941406250000002,10.107421875000002,-0.7910156249999999,23.291015625,23.642578125
3.251953125,1.23046875,9.755859375,-0.7910156249999999,23.818359374999996,23.642578125
3.251953125,1.23046875,9.66796875,-0.7910156249999999,24.345703125,23.642578125
3.251953125,1.1425781250000002,9.580078124999998,-0.87890625,24.345703125,23.642578125
3.1640624999999996,0.9667968749999999,9.580078124999998,-0.87890625,24.433593749999996,23.642578125
2.9003906250000004,1.0546875,9.404296875,-0.87890625,24.521484375,23.642578125
2.6367187499999996,1.0546875,9.31640625,-0.87890625,24.609375,23.642578125
2.2851562500000004,1.0546875,9.31640625,-0.87890625,24.609375,23.642578125
1.9335937499999998,1.0546875,9.31640625,-0.703125,24.609375,23.642578125
1.40625,1.0546875,9.228515625,-0.52734375,24.609375,23.642578125
0.439453125,0.9667968749999999,9.228515625,-0.17578125,24.697265624999996,23.642578125
-0.439453125,1.0546875,9.228515625,0.17578125,24.697265624999996,23.642578125
-0.7910156249999999,1.0546875,9.228515625,0.439453125,24.697265624999996,23.642578125
-1.23046875,1.0546875,9.228515625,0.9667968749999999,24.697265624999996,23.642578125
-1.6699218749999998,1.0546875,9.228515625,1.0546875,24.697265624999996,23.642578125
-2.2851562500000004,1.0546875,9.228515625,1.40625,24.697265624999996,23.642578125
-2.8125,1.0546875,9.228515625,1.6699218749999998,24.697265624999996,23.642578125
-3.076171875,1.0546875,9.228515625,2.021484375,24.697265624999996,23.642578125
-3.076171875,1.0546875,9.31640625,2.021484375,24.697265624999996,23.642578125
-3.076171875,0.9667968749999999,9.84375,2.021484375,24.082031250000004,23.642578125
-3.076171875,0.87890625,10.283203125,2.021484375,23.642578125,23.642578125
-3.1640624999999996,0.87890625,10.8984375,2.021484375,23.02734375,23.642578125
-3.1640624999999996,0.87890625,11.337890625,1.9335937499999998,22.5,23.642578125
-3.251953125,0.7910156249999999,11.953125000000002,1.9335937499999998,21.884765625,23.642578125
-3.251953125,0.7910156249999999,12.568359375,1.9335937499999998,21.445312499999996,23.642578125
-3.251953125,0.703125,13.095703125000002,1.9335937499999998,20.91796875,23.642578125
-3.251953125,0.52734375,13.798828125,1.9335937499999998,20.390625,23.642578125
-3.251953125,0.52734375,14.414062499999998,1.9335937499999998,19.86328125,23.642578125
-3.251953125,0.52734375,14.765625000000002,1.9335937499999998,19.248046875,23.642578125
-3.251953125,0.3515625,15.029296875,1.9335937499999998,19.072265625,23.642578125
-3.251953125,0.439453125,15.1171875,1.9335937499999998,18.984375,23.642578125
-3.251953125,0.703125,14.853515625,1.9335937499999998,19.072265625,23.642578125
-3.251953125,1.23046875,14.150390624999998,1.9335937499999998,19.160156249999996,23.642578125
-3.251953125,1.6699218749999998,13.447265625,1.9335937499999998,19.3359375,23.642578125
-3.251953125,2.2851562500000004,12.744140625,1.9335937499999998,19.51171875,23.642578125
-3.251953125,2.724609375,12.216796874999998,1.9335937499999998,19.775390625,23.642578125
-3.3398437499999996,2.9882812500000004,11.865234375,1.9335937499999998,19.86328125,23.5546875
-3.3398437499999996,3.076171875,11.77734375,1.9335937499999998,19.951171875,23.642578125
-3.3398437499999996,3.076171875,11.77734375,1.9335937499999998,19.951171875,23.642578125
-3.3398437499999996,3.076171875,11.77734375,1.9335937499999998,19.951171875,23.642578125
-3.3398437499999996,3.076171875,11.689453125,1.9335937499999998,19.951171875,23.642578125
-3.3398437499999996,3.076171875,11.689453125,1.9335937499999998,19.951171875,23.642578125
-3.3398437499999996,3.076171875,11.689453125,1.9335937499999998,19.951171875,23.642578125
-3.3398437499999996,3.076171875,11.689453125,1.9335937499999998,19.951171875,23.642578125
-3.4277343749999996,3.076171875,11.689453125,1.9335937499999998,19.951171875,23.642578125
-3.4277343749999996,3.251953125,11.689453125,1.9335937499999998,18.896484375,23.642578125
-3.3398437499999996,3.4277343749999996,11.689453125,1.9335937499999998,17.841796875,23.642578125
-3.3398437499999996,3.6035156249999996,11.689453125,1.9335937499999998,16.69921875,23.642578125
-3.3398437499999996,3.8671874999999996,11.601562500000002,1.8457031250000002,15.556640625000002,23.642578125
-3.251953125,4.130859375,11.689453125,1.7578125,13.623046875,23.642578125
-3.1640624999999996,4.306640624999999,11.689453125,1.7578125,11.953125000000002,23.642578125
-2.9882812500000004,4.570312500000001,11.77734375,1.7578125,10.1953125,23.642578125
-2.8125,5.009765625,11.953125000000002,1.7578125,8.4375,23.642578125
-2.724609375,5.273437499999999,11.953125000000002,1.7578125,6.679687499999999,23.642578125
-2.548828125,5.44921875,12.12890625,1.7578125,4.921875,23.642578125
-2.373046875,5.712890624999999,12.216796874999998,1.7578125,3.1640624999999996,23.642578125
-2.2851562500000004,5.976562500000001,12.3046875,1.7578125,1.40625,23.642578125
-2.109375,6.240234375,12.568359375,1.6699218749999998,-0.263671875,23.642578125
-1.9335937499999998,6.50390625,12.656249999999998,1.6699218749999998,-2.021484375,23.642578125
-1.7578125,6.767578125,12.744140625,1.7578125,-3.6035156249999996,23.642578125
-1.6699218749999998,6.943359375000001,12.919921875,1.6699218749999998,-5.537109375,23.642578125
-1.4941406250000002,7.207031249999999,13.095703125000002,1.6699218749999998,-7.207031249999999,23.642578125
-1.40625,7.470703125,13.18359375,1.6699218749999998,-8.876953125,23.642578125
-1.1425781250000002,7.822265625000001,13.271484375,1.6699218749999998,-10.546874999999998,23.642578125
-1.0546875,8.0859375,13.359374999999998,1.6699218749999998,-12.392578125,23.642578125
-0.9667968749999999,8.173828124999998,13.53515625,1.6699218749999998,-13.974609375,23.642578125
-0.7910156249999999,8.525390625,13.623046875,1.6699218749999998,-15.820312500000002,23.642578125
-0.615234375,8.701171875,13.710937499999998,1.6699218749999998,-17.578125,23.642578125
-0.52734375,8.876953125,13.886718750000002,1.6699218749999998,-19.160156249999996,23.642578125
-0.439453125,9.140625000000002,13.974609375,1.5820312499999998,-20.56640625,23.642578125
-0.3515625,9.31640625,14.0625,1.5820312499999998,-21.533203125,23.642578125
-0.263671875,9.4921875,14.0625,1.4941406250000002,-22.67578125,23.642578125
-0.17578125,9.4921875,14.0625,1.4941406250000002,-23.818359374999996,23.642578125
-0.087890625,9.580078124999998,14.23828125,1.40625,-23.906250000000004,23.642578125
-0.087890625,9.580078124999998,14.23828125,1.40625,-23.906250000000004,23.642578125
0.0,9.580078124999998,14.23828125,1.3183593749999998,-23.906250000000004,23.642578125
0.0,9.580078124999998,14.23828125,1.3183593749999998,-23.906250000000004,23.642578125
0.0,9.580078124999998,14.23828125,1.3183593749999998,-23.906250000000004,23.642578125
0.0,9.580078124999998,14.23828125,1.3183593749999998,-23.906250000000004,23.642578125
0.0,9.580078124999998,14.23828125,1.3183593749999998,-23.906250000000004,23.642578125
0.0,9.580078124999998,14.23828125,1.3183593749999998,-23.906250000000004,23.642578125
0.0,9.580078124999998,14.23828125,1.3183593749999998,-23.906250000000004,23.642578125
0.0,9.580078124999998,14.23828125,1.3183593749999998,-23.906250000000004,23.642578125
0.0,9.580078124999998,14.23828125,1.3183593749999998,-23.906250000000004,23.642578125
