RAMEL-ESPOL/ARCHIE/matlab/data/joint_goals_square_t35_h35_p12.txt
Joint0,Joint1,Joint2,Joint3,Joint4,Joint5 
0.0026848292909502657,9.58020869083994,14.247414727499976,0.0011824964555378703,-23.829145817357794,-0.004346796271998687
0.0026848292909502657,9.58020869083994,14.247414727499976,0.0011824964555378703,-23.829145817357794,-0.004346796271998687
0.0026848292909502657,9.58020869083994,14.247414727499976,0.0011824964555378703,-23.829145817357794,-0.004346796271998687
0.0026848292909502657,9.58020869083994,14.247414727499976,0.0011824964555378703,-23.829145817357794,-0.004346796271998687
0.0026848292909502657,9.58020869083994,14.247414727499976,0.0011824964555378703,-23.829145817357794,-0.004346796271998687
0.0026848292909502657,9.58020869083994,14.247414727499976,0.0011824964555378703,-23.829145817357794,-0.004346796271998687
0.0026848292909502657,9.58020869083994,14.247414727499976,0.0011824964555378703,-23.829145817357794,-0.004346796271998687
0.0026848292909502657,9.58020869083994,14.247414727499976,0.0011824964555378703,-23.829145817357794,-0.004346796271998687
0.0026848292909502657,9.58020869083994,14.247414727499976,0.0011824964555378703,-23.829145817357794,-0.004346796271998687
0.0026848292909502657,9.58020869083994,14.247414727499976,0.0011824964555378703,-23.829145817357794,-0.004346796271998687
0.0026848292909502657,9.58020869083994,14.247414727499976,0.0011824964555378703,-23.829145817357794,-0.004346796271998687
0.0026848292909502657,9.58020869083994,14.247414727499976,0.0011824964555378703,-23.829145817357794,-0.004346796271998687
0.0026848292909502657,9.58020869083994,14.247414727499976,0.0011824964555378703,-23.829145817357794,-0.004346796271998687
0.0026848292909502657,9.58020869083994,14.247414727499976,0.0011824964555378703,-23.829145817357794,-0.004346796271998687
0.0026848292909502657,9.58020869083994,14.247414727499976,0.0011824964555378703,-23.829145817357794,-0.004346796271998687
0.0026848292909502657,9.58020869083994,14.247414727499976,0.0011824964555378703,-23.829145817357794,-0.004346796271998687
0.002685726305687958,9.580210556081008,14.247410158116896,0.0011824987088950622,-23.829134333300317,-0.004345889831516433
0.020820667941202603,9.617836995385062,14.155138165519219,0.001166495053977596,-23.597118935019253,0.013954647467378211
0.06181828591010325,9.70228829422144,13.947323846459108,0.0006792036018959549,-23.073751208047987,0.05514706204169641
0.10487202783516779,9.790072739094747,13.730239473521168,-0.0004963308243599585,-22.525807014786515,0.0981497856577281
0.14835940985074525,9.877814104825525,13.51214372470241,-0.002362604216123204,-21.97402876090641,0.14133536382319975
0.1917519067527778,9.964445977430849,13.295678187273262,-0.004893872455824372,-21.425089487790316,0.18419132758716736
0.23533399849498637,10.050543591269431,13.079405538027416,-0.008098543859622363,-20.87534456308845,0.22701279659959273
0.27895683423171835,10.135815702871925,12.864052013656105,-0.011960973703170945,-20.326634251034463,0.2696663285675308
0.32283802844424264,10.220688004824487,12.648534059594118,-0.016497750373400243,-19.776188456617234,0.3123768470563866
0.3667657530110837,10.30475059664272,12.433883503826074,-0.021684870501833146,-19.22663267735924,0.3549500925006776
0.4108239135047556,10.388167522500233,12.219677400361144,-0.027527710450237556,-18.676879769250267,0.39747995645344714
0.45502753803046186,10.470967486366145,12.005833739914268,-0.03402625244861687,-18.126710289563526,0.4399927813931547
0.4991725953610439,10.552773910130659,11.793324335587851,-0.041144889253173784,-17.57862381084124,0.48230495829397696
0.5437902776782415,10.634566738226866,11.579588805182022,-0.04897099355746064,-17.026000851664637,0.5249365933064875
0.5880289961260581,10.714789629171118,11.368692590190118,-0.05735058715584014,-16.47935129533219,0.5670861739900512
0.6327365672627618,10.794984733980433,11.156580091305614,-0.06643990326073873,-15.928161402746642,0.6095736102936714
0.6773243296750636,10.874092966056478,10.946039621898679,-0.07612068566577126,-15.379663044873137,0.6518504358061047
0.7221222591678452,10.95270391406461,10.735500107677499,-0.08646103404645344,-14.829761255296907,0.6942413186096467
0.7669469079281019,11.030495312023891,10.525816017249129,-0.09741843356046509,-14.280678678806193,0.7365838905008482
0.8120189890211759,11.107848550784897,10.315948673742152,-0.10904777425118634,-13.729684223305076,0.7790977806370452
0.8569132808821646,11.184037864638425,10.107865584265799,-0.12123649178458348,-13.1819417870863,0.8213933316479233
0.902089461685017,11.259846174874351,9.899425127619107,-0.13410757615548421,-12.631810380566302,0.8639149307133606
0.9473013319942482,11.334856826413873,9.691759305660932,-0.14759372690080344,-12.082263559579967,0.9064418015445451
0.992632985897666,11.409210248223273,9.484473079690916,-0.16171994780727864,-11.532249414901102,0.9490641905011334
1.0379285204273372,11.482653443833144,9.278268704196659,-0.17643649185112095,-10.983628064000383,0.9916466155597723
1.0834252607097452,11.555571442163224,9.072057888398836,-0.19182125977628145,-10.433496551967465,1.0344232580914197
1.1291249370719803,11.62796034425945,8.865832287087724,-0.2078807175907969,-9.881813035325663,1.077406918959015
1.174664866976136,11.699248906470638,8.661217588442868,-0.22448645534828054,-9.332924557409449,1.1202674724243513
1.2202769593610974,11.769806852368607,8.457157345331785,-0.24171981924951488,-8.784001588921496,1.1632339986934088
1.2662501392084562,11.840073121577223,8.252359850743272,-0.259697432847445,-8.2315473748268,1.206590176276944
1.311716157331979,11.908728567045744,8.050677496137276,-0.27807604571180555,-7.685961096403491,1.2495276893441578
1.357838352697386,11.977529411547819,7.846943008269554,-0.29732839958683444,-7.133256150827115,1.2931563718383552
1.4035652674653352,12.044903417782773,7.645797637575429,-0.31702063892656157,-6.586009434489225,1.336492985868616
1.4496974340522932,12.11203320190927,7.443709670697512,-0.3374978223541312,-6.034611053240919,1.3803071075836435
1.495510538439893,12.17786549284827,7.243844318792117,-0.3584406479498876,-5.487691676196659,1.4239218336688964
1.5418118802313956,12.243558620372342,7.0426743095037105,-0.38022240586794426,-4.935588805558905,1.468117225737962
1.5878321495873446,12.308018186450063,6.843538041730012,-0.4024864625463043,-4.387452109603971,1.512170604577867
1.6339682439851784,12.371807242198544,6.644704277859864,-0.42542295740484576,-3.8385232996563823,1.5564721173881209
1.6803499913680335,12.435097896311143,6.445613778082533,-0.44910551618457795,-3.287237231603554,1.6011590741505788
1.7266757940770054,12.49747571611664,6.247557096194212,-0.4733861161643491,-2.7371551246252803,1.6459529047059496
1.772884747220576,12.558865408983792,6.050781557367182,-0.49823182380845776,-2.1889707398036076,1.690804915723512
1.8191979940996958,12.61956313960755,5.85433659743099,-0.5237639920882877,-1.6400342789246942,1.7359408194996284
1.8656570011743527,12.679618188780623,5.658044465050895,-0.550013804927273,-1.08983241463438,1.7814138286858745
1.9122089219736174,12.738957511580425,5.462126258458591,-0.5769597517720466,-0.5389689009020333,1.827185157281194
1.9587853342536004,12.797492227857813,5.266864957646401,-0.604568478438174,0.011770280291310723,1.8731998880069403
2.0053437761427935,12.855170094488996,5.0724311207996875,-0.6328191456427504,0.5619079126107197,1.9194278071687647
2.051709421606593,12.9117813804304,4.879542356694512,-0.6616057051146355,1.1094053213099178,1.9657054586299818
2.098159131501166,12.967668056252837,4.687037125805718,-0.6911025692859066,1.6575571121315897,2.0123201493228398
2.1447616401365637,13.02290743101615,4.494629138606032,-0.7213635677209177,2.207195763165785,2.059354801265243
2.191515568637879,13.077490413839277,4.302324448159932,-0.7523999851458162,2.7583257123682388,2.1068229391976745
2.2380677748753395,13.131006748120104,4.1115677132983235,-0.7839821805500634,3.3068080826414468,2.154377943193317
2.284747722666663,13.183837614535925,3.921000747837883,-0.8163383763529789,3.8565484757837956,2.2023682807854033
2.3315008720770702,13.23591631280385,3.7308444705562476,-0.8494418563410775,4.406926007880172,2.250752650716997
2.3780882808221553,13.286979322844644,3.5420625686999436,-0.8831284560389422,4.955151144719465,2.299295811158878
2.4248024352355637,13.337348438453555,3.3534629551648942,-0.9176161625431329,5.5046884760723875,2.3483152850572058
2.4716749231421606,13.387049956719858,3.1649187561323395,-0.9529427636752915,6.0559302859610495,2.3978609377276134
2.5183848628561742,13.435743666843697,2.9777149358702477,-0.9888745120262,6.605124951033757,2.4476072275382394
2.5650294733616144,13.483536704429886,2.791451446294978,-1.0254895418077694,7.153438242040568,2.4976689034034556
2.6121741416510567,13.530996244375272,2.603874752419312,-1.0632512086799326,7.707536643673573,2.5486726219124822
2.6593881090736176,13.577672785384781,2.4167058674661663,-1.1018379052376563,8.262377604166558,2.600174590466053
2.706595019186993,13.62348848875506,2.230243724858295,-1.1411990040751967,8.817085460138115,2.6521076105757784
2.7539007645830775,13.668542833025656,2.044067071565123,-1.1814358548590058,9.372926038392473,2.7046051095226433
2.8010272690281224,13.712572265999333,1.8592637764784157,-1.22232109590772,9.926653389998048,2.75737323199313
2.848556765551339,13.756113536046628,1.6735507797040026,-1.2643774939681078,10.485130042964997,2.8110837957974293
2.895586245944178,13.798340924496724,1.4904498651539446,-1.306815693224638,11.037766491133732,2.8647314919862317
2.942859467252309,13.83992800123335,1.3070555827401187,-1.3503128455891975,11.593323097932727,2.9191777239883607
2.9901638070078693,13.8806788082334,1.1241943080757573,-1.3946939995863046,12.149322345870672,2.974199723341285
3.0373805757298395,13.920491128897774,0.9423196155273422,-1.4398601716930792,12.704389611602174,3.029676460755807
3.084425689747826,13.95929949332249,0.7617462021952329,-1.4857382198648035,13.257555865371652,3.085522909478624
3.131778910045953,13.99749426592674,0.5806315333466252,-1.5328148172427818,13.814482972664342,3.142329963701851
3.1789495813741646,14.034674375264085,0.40085116241890006,-1.5806214183239604,14.36942085437831,3.1995307851322385
3.2261422535173674,14.071003434808317,0.221618795256901,-1.6293770618636856,14.924795019915722,3.2573902806677584
3.2731392333881333,14.106316712565956,0.043754288348455836,-1.6788684286776925,15.478062172149489,3.3156583004529416
3.3202843025477957,14.140871576746717,-0.13404754277594672,-1.7294737636794069,16.033288646976064,3.3747811078138588
3.367677404973896,14.174728049942273,-0.31215892895558056,-1.7813308332000855,16.59167375111413,3.4349142685047647
3.414480940059732,14.20729490546608,-0.48744173695759324,-1.833531356100322,17.143365400542624,3.495009519276809
3.4617093091080178,14.239280002326105,-0.6637010165412438,-1.8872213373136724,17.70033853577589,3.556388547503336
3.5085948976189365,14.270158723340028,-0.8380731584439639,-1.941551016253773,18.2535600044752,3.6180789391416246
3.555580097510402,14.300226429407997,-1.0122106963760442,-1.9970463379069647,18.80826622536355,3.6806810994987456
3.6025972921278733,14.329433500101931,-1.1858630372213428,-2.0536537480460253,19.363678748707343,3.7441329920927777
3.6496774527027798,14.357793512176663,-1.3591450366165794,-2.1114369108600606,19.920182991748238,3.808504720808829
3.696569894819077,14.385156042151701,-1.5311386890826282,-2.1701075083701085,20.474832671903247,3.8734766251597654
3.743377047015629,14.41158548349797,-1.702226982390454,-2.229808557133272,21.028854225192035,3.939210333037533
3.790270141464365,14.437175375173448,-1.8730378030125758,-2.290784008791562,21.584292350014508,4.005974373823544
3.8366218723369734,14.461593039197455,-2.0412965511265777,-2.3522273878732594,22.133728460162402,4.072890906983264
3.8655772578259304,14.476402658087657,-2.1461139102760667,-2.39121346954158,22.477169453396584,4.115171595932495
3.8766902772519582,14.481995716893806,-2.1862830980078685,-2.406301178555075,22.609026360867514,4.131498507464496
3.8706454680150184,14.414363948513646,-2.2728193171209434,-2.406431218244726,22.778295320973143,4.1325841807421675
3.8456287839650933,14.188253500234758,-2.531494665206698,-2.3995166015280787,23.26368110814547,4.128098152564699
3.818434920594613,13.933593046059698,-2.8111080419456074,-2.392272883091737,23.798602246250795,4.123411395689656
3.7917241230463095,13.674160901769858,-3.083993887304558,-2.3854448221024382,24.33155097133453,4.119009719174891
3.7711848535280623,13.468209699950743,-3.292533125411386,-2.3803947880971488,24.746522927509975,4.115767392461897
3.7634112389967656,13.388763242897943,-3.371146976604698,-2.378530140308796,24.90476467509197,4.114573633976365
3.7543028084120946,13.294611300849988,-3.4630314562332996,-2.376378515852933,25.091013124500794,4.113198759319185
3.7307131325271383,13.045344466275699,-3.6998030321167983,-2.370975965146314,25.577597784921114,4.109760732387504
3.7052331940455407,12.767093983392828,-3.953478977692078,-2.365423938595572,26.110109497436177,4.106253431567071
3.6799747418832203,12.481738191793365,-4.2026560361950045,-2.3602216879692204,26.645217583550654,4.102997933181165
3.655712756653912,12.1984288884126,-4.439679552518597,-2.3555182787321667,27.16609819215138,4.100088239802338
3.6426299857431674,12.041816402519354,-4.566483493274972,-2.3531053326126066,27.44980803332907,4.09861114664386
3.636447178304214,11.966848155602625,-4.6261538304583905,-2.3519957400620197,27.58458479605356,4.0979361140401345
3.647033408097148,12.154119635145191,-4.866426687683716,-2.3599701972866822,27.637109672111485,4.112234240002622
3.6727744387575854,12.603713287685308,-5.434381260017774,-2.379170813173207,27.754313436134822,4.146576631419892
3.701108890357225,13.091741041039464,-6.047274154737321,-2.4002446793742456,27.877897470567017,4.184225056957886
3.730064413233502,13.583257269476162,-6.660723961790398,-2.4217138564801144,27.998513917588795,4.222533925223912
3.7595954076820104,14.077267388719276,-7.27339808897701,-2.44354006706607,28.11582638320755,4.261434632994699
3.7897710188826452,14.574705226791911,-7.886362622127168,-2.46576977980846,28.229963483081786,4.301009712072596
3.8206873579800793,15.076881325292309,-8.501113293416086,-2.488468493475049,28.341105428532067,4.34137519963727
3.8521034032899086,15.57966681104509,-9.112509649147366,-2.511454411436286,28.44825131021203,4.382207614360812
3.8843132585144033,16.08754453909911,-9.725912208186244,-2.53493761614864,28.55226455072511,4.423879921866196
3.917304143064922,16.599996565245096,-10.340554139433378,-2.558902505069573,28.652896201489,4.466363699749059
3.950873389306806,17.113643844635682,-10.952289721814374,-2.583196368511551,28.749388588312875,4.509387994714197
3.985276468412478,17.632154347641553,-11.565389944225828,-2.6079983184438142,28.842331981226916,4.553269731759934
4.019643512142789,18.142392656215087,-12.164348085338633,-2.632678045654308,28.92939638723879,4.596894559908133
4.046009695035986,18.52875744283371,-12.61500450124817,-2.6515470789627997,28.99241068577484,4.630221886450507
4.042989571235051,18.62105217608669,-12.722002467347505,-2.6499497780527888,29.00723766272012,4.627568228793535
3.7178845579889512,18.640165398347214,-12.734671750853629,-2.4371987232821524,29.015178176295144,4.257827180944061
3.165007591415415,18.668967571591185,-12.753747435000387,-2.075182586446182,29.027096906502926,3.6289738730384187
2.5933927063554356,18.693860000381278,-12.770228826365955,-1.7006613899328908,29.03743996143561,2.978733955458834
2.0196618014810888,18.71386001419123,-12.783461698672376,-1.3245541087329284,29.045728758742484,2.326023231375681
1.4488643192776554,18.728813089795715,-12.793355335886185,-0.9502160385997283,29.051957988613566,1.67660161744853
0.875732815861869,18.738871030666186,-12.800005413125556,-0.5742364302442982,29.056123405370677,1.0244890363213157
0.30414913967607893,18.74396187407036,-12.803373938848942,-0.19920484013196652,29.05825641289272,0.3741165749359953
-0.2662216666012898,18.744125401075937,-12.803480506681558,0.1750532855818387,29.058308329652213,-0.27488306542883495
-0.8382088984356103,18.739358636255016,-12.800330932187354,0.5503528961479383,29.05634228652925,-0.9257157988755994
-1.4100411914751114,18.72965436880652,-12.793915336402318,0.9254870233832324,29.052321608107594,-1.5763521139298664
-1.9834334353055816,18.71495985006968,-12.784193990703924,1.3015345946618098,29.046202164669097,-2.2287284592423684
-2.5550076181566914,18.695359463922873,-12.771226698415424,1.6762405098978836,29.03807921486879,-2.8789892721752923
-3.127590177538208,18.670755627116037,-12.754937696145399,2.0514092051511756,29.0278556614831,-3.530334230542649
-3.6821860919757476,18.642173540420135,-12.73600889921951,2.4145678400406827,29.016024449896758,-4.161147680092363
-4.01060050043514,18.623038148030368,-12.723328592313294,2.62949560141651,29.008096841000135,-4.534656511405538
-4.053795026900916,18.624590864058874,-12.647207819235524,2.6557408537683527,28.9285286792975,-4.579617708965078
-4.061437046585749,18.645698304316348,-12.21656609612235,2.6492733540779163,28.476911761969266,-4.564435616307137
-4.0708030996069775,18.66555405645446,-11.687000981513641,2.641748906566863,27.92764689042909,-4.546204888132479
-4.080259130687394,18.67903561123165,-11.150433858994116,2.634585237966641,27.377749213388444,-4.5282019069499455
-4.089745314341187,18.686094014468612,-10.610289541661192,2.6278193645248042,26.830691733180153,-4.510530089645438
-4.099366134183814,18.6867995207891,-10.060635871788058,2.621371641805851,26.280473782005615,-4.49298717926038
-4.1089692681006404,18.68118263887871,-9.51020584245761,2.615336274448632,25.73579579419814,-4.475840755929918
-4.1185260189438555,18.669476880933956,-8.960723335145525,2.609712813839858,25.198148073764077,-4.459122285291585
-4.128054147048983,18.65188089811135,-8.411245657575172,2.6044726986967426,24.666389846947798,-4.442781402506321
-4.137562136233083,18.628566806905585,-7.861351486499215,2.5995957193493022,24.139928074237346,-4.426786696479282
-4.146706551483453,18.600849652160125,-7.331047154425973,2.5952257578834717,23.637450285604164,-4.411684549455021
-4.151294858946394,18.585024838411833,-7.064444891552305,2.593148214935654,23.38672616539514,-4.404206940482153
-4.166024781812908,18.791507535647405,-7.300288728021243,2.602902294749067,23.415403061269703,-4.421368039735593
-4.201055061746425,19.278971891436452,-7.859593215318031,2.6261583374056547,23.485602780283863,-4.462323633403687
-4.239594720497403,19.806843632781025,-8.460950814213708,2.651664429318189,23.557271728693824,-4.507174159571727
-4.278933160823687,20.336836151137746,-9.060203706491437,2.6776136161856257,23.624664446351016,-4.552733290890651
-4.319308403759416,20.871829175689758,-9.66050331638212,2.7041575924098975,23.68804045056596,-4.599265082003085
-4.349901209828187,21.27132850730829,-10.105743068148746,2.7242106547479716,23.732308834682197,-4.634371379374716
-4.341906031631778,21.34353775928729,-10.185549784476523,2.7193761781896697,23.740270853612486,-4.626206155944911
-4.017920673852261,21.11523334023078,-9.923119605106434,2.516317626406289,23.720713489875372,-4.277665325971064
-3.5004080306165952,20.74430516251593,-9.496481408703618,2.191934040382018,23.685897830371438,-3.7212450486950246
-2.979869439348414,20.3632759395667,-9.057820396582915,1.8656551694020895,23.646370251076316,-3.162004617945884
-2.4572282211836924,19.972489920419456,-8.607424376947536,1.5381085478683747,23.6020014607367,-2.600999249554605
-1.9399225453312574,19.577363099159086,-8.151433031149983,1.214004490764012,23.553327051755193,-2.046267785049081
-1.4317244728341185,19.18089928827636,-7.693228555229409,0.8957502911662087,23.500760485552615,-1.5018920839858947
-0.9257411668953461,18.77776930964701,-7.226562153220003,0.5790724809997712,23.443603369468306,-0.9605302522784406
-0.42365576915762426,18.369233465234604,-6.752791329759048,0.265068675969364,23.381986463059402,-0.42403420785504914
0.07735080148727069,17.95288296212162,-6.269015029737402,-0.0479795119743984,23.31548274299569,0.11055323981450076
0.5037588172866401,17.59149765967781,-5.848284145561422,-0.3141572495682501,23.25480688082606,0.564894788595534
0.701195843835681,17.42193199070986,-5.650599768472734,-0.43731714447923853,23.225429307570572,0.7750559928197377
1.1389060915960414,17.040854288337798,-5.20565989165291,-0.7101308943723025,23.157269017733597,1.2404531797283158
1.6374560944601089,16.597957421162004,-4.687338888476771,-1.0204577771895968,23.074476617206198,1.769625482142259
2.1229726714487405,16.157315283714354,-4.170315373241603,-1.3222076405741985,22.98839135754251,2.283955199979085
2.6050976998504196,15.710369591860225,-3.644470793299161,-1.6213483423952602,22.897397083594228,2.7936309203212657
3.072586619818924,15.267794554625977,-3.122303374478714,-1.9108930110241145,22.803772235097004,3.286761676623503
3.527126350946271,14.828527942115526,-2.6025415898400968,-2.1918729060286637,22.707412716209458,3.7651233300805793
3.8234136563166587,14.537318568834957,-2.257123818497359,-2.3747185098643224,22.64169419932248,4.076315943230445
3.877207034683167,14.47239489556882,-2.2047740993112557,-2.4082858074614473,22.652065879930642,4.133791340587496
3.8585197483043054,14.305716624127706,-2.3983792837303417,-2.403052445491115,23.01279876437173,4.130393173761371
3.831296611193862,14.055198402879293,-2.6790886066914155,-2.3956650509960364,23.54467674641799,4.125606537108975
3.804373929260866,13.79818253954647,-2.9549993353205464,-2.3886445126077582,24.078241512992722,4.121072337917308
3.778712417496091,13.544344549042457,-3.2162513477591315,-2.382227139711722,24.5939349888136,4.116944516970293
3.765845281197487,13.413720592501104,-3.3465601989894878,-2.3791133390173482,24.85516859111428,4.114948923282753
3.759380055314177,13.347228095492842,-3.4118528232318153,-2.3775755682176336,24.98710439095048,4.113965435701724
3.7426401452776923,13.172354219176173,-3.580319800454078,-2.37367866854864,25.33083394507744,4.111480028878795
3.7171616436985846,12.898533603006063,-3.8350055710022577,-2.3679878783438917,25.85992789985903,4.107871459770256
3.691779168317151,12.616292020071247,-4.086505890207499,-2.3626168792700044,26.394250209860015,4.104494561118135
3.666738090622085,12.328305171834694,-4.3322672280633,-2.3576212799813683,26.92856605242327,4.101386640750038
3.6463147422384434,12.086199386621868,-4.530846569784217,-2.3537780149506027,27.36971044341321,4.099023636267503
3.638169551439529,11.987791693333671,-4.609551245361312,-2.3523047962722843,27.5470050291532,4.098125749007522
3.5585957226176546,11.970083627051764,-4.630652167174234,-2.301767472841499,27.58899187362956,4.0109510811248485
3.1366251766002313,11.993175402223176,-4.6479939815239595,-2.0291419918047993,27.599062504376374,3.538817397592277
2.5957784222593743,12.018497056306082,-4.667003129430539,-1.6795193256199392,27.61012182380459,2.9335943496696526
2.051725956846685,12.039133707490029,-4.682489033145738,-1.327639691254733,27.619142815250353,2.3247061769238377
1.5107233219889595,12.054854963456792,-4.694282780919481,-0.977587219593727,27.62602047594265,1.7191700006383637
0.9694309675591499,12.065800599737825,-4.70248859234593,-0.6272404866141993,27.630781833430596,1.1132633318506544
0.4259514295511349,12.071983050148937,-4.707125584559787,-0.2754094402088292,27.63349376017292,0.5048807453310192
-0.11649883062106507,12.073351697384219,-4.7081531768570395,0.07578574195214968,27.63410120909137,-0.10236249405906644
-0.6580268852995944,12.069934137280061,-4.705592327281042,0.4263758359323453,27.63261597033727,-0.7085700217335132
-1.2024807190132512,12.061676213603068,-4.699397970537604,0.7788118013473009,27.628983625772648,-1.3180333709534482
-1.7425798228964526,12.048706068332224,-4.689672145320833,1.12834542052783,27.623324373984047,-1.922585953174016
-2.2872739242860294,12.030798415831283,-4.676239573630214,1.4807287847406505,27.61551110446179,-2.532229684416338
-2.828244045765341,12.008207186620732,-4.659287165214892,1.8305413762513756,27.60565743999183,-3.1376373307474936
-3.345286459283203,11.982129078735055,-4.639705258496046,2.1646925558583585,27.594256101312684,-3.7161881928021967
-3.6112874210572556,11.967002089269942,-4.628346285245057,2.336523340689602,27.587680238529273,-4.013799336232822
-3.64043304332939,12.00265045507672,-4.527244246027932,2.3524115625026583,27.449863895989285,-4.040054462066934
-3.654395736795769,12.130517459062016,-4.172129953963688,2.351203694568725,26.9667215144724,-4.033315741873965
-3.670151909691084,12.267949715406587,-3.7698616435628756,2.350161254899907,26.42683536475054,-4.025980298373462
-3.6860112884231158,12.399124900687012,-3.3634047780600818,2.349442997879669,25.889012607585663,-4.018872022044065
-3.7020566868049776,12.524726670179422,-2.9506924048558076,2.349041819532092,25.35050170375503,-4.011948460866393
-3.7182561772577976,12.64447339867705,-2.5325949461745068,2.3489567775990357,24.812455139150813,-4.005219337862379
-3.7346274005119406,12.758476926748095,-2.108709384795148,2.3491856396138155,24.274357888794647,-3.9986728796334923
-3.7512666341928576,12.867321960219497,-1.67658309910315,2.3497307961724836,23.73317141939503,-3.9922686178988274
-3.767984832264944,12.969748735962606,-1.2411780432332462,2.350584495663433,23.195119942600115,-3.9860751907737484
-3.784465784874443,13.06410691984038,-0.8108345144156932,2.351715650928279,22.670198446268227,-3.9801951340134285
-3.793275887133191,13.111917020831902,-0.5803628893144197,2.3524347528307232,22.391797957063684,-3.9771400046490446
-3.796751466161095,13.144225576495428,-0.5464073337555613,2.3534658828710717,22.325450439862337,-3.9778636380985803
-3.8155750775057613,13.457491271647495,-0.9340898773634293,2.3663721803292015,22.39904789918141,-4.001026415384717
-3.8456896924840085,13.952369288571955,-1.5434516218336451,2.386977336007712,22.512214200708662,-4.037951712811694
-3.8694845981032624,14.338052839731183,-2.015736624447701,2.403221134857974,22.59776901242758,-4.067015355477729
-3.8776451470664783,14.469261633131692,-2.175881983547901,2.408784426421169,22.626345476166325,-4.076960194444708
-3.86934881001799,14.40194109213731,-2.287307364967243,2.4067818480117436,22.805274275652465,-4.076317812536639
-3.843725816571258,14.169763797650752,-2.5522158486020143,2.399719217210083,23.30297433935167,-4.0717423591971285
-3.816731543584673,13.916262378669556,-2.8297155847688065,2.392552265919809,23.83461774631594,-4.0671126340348955
-3.7899987156172257,13.655918515673727,-3.1027587987199583,2.3857419653075675,24.368635787030037,-4.062729997319481
-3.7693974574571216,13.448778544448814,-3.311863885221336,2.380695769142502,24.78536357785063,-4.059496268490922
-3.76140023822582,13.366806516660846,-3.392708773884089,2.3787855547740993,24.948367051186807,-4.058275823169012
-3.7526479873282628,13.276078656783593,-3.480967309970394,2.376726756232291,25.12755707614631,-4.056963008817186
-3.728987143246229,13.025395361672164,-3.7183667893396075,2.3713305162242566,25.616187478525593,-4.053536541579723
-3.7035388111690217,12.74674326493158,-3.971620310668245,2.3658109246191663,26.14867735291331,-4.05005829258977
-3.678440505813199,12.462471050411212,-4.219106200207569,2.3606667516392768,26.681006759489573,-4.04684794216796
-3.6543397258640904,12.180384068468628,-4.454450325864284,2.3560177532998203,27.198981765354176,-4.043980622733813
-3.642346634640656,12.036542414244735,-4.570708995408869,2.353845374847234,27.459327808661882,-4.042633366793249
-3.6365377799270475,11.966324614024241,-4.6282585336582045,2.3528310160316437,27.58722393627453,-4.0420588516811815
-3.6487300976668076,12.181224694854697,-4.900765726767073,2.3619425810146497,27.64428505602065,-4.058368811836275
-3.6749022785196748,12.637928933943847,-5.477482474891551,2.3814615620466713,27.763120689929508,-4.093278042169941
-3.703276079269363,13.126133154809644,-6.09033175914002,2.4025606110830093,27.88648243743129,-4.1309683997057745
-3.7322923957701017,13.618171686621748,-6.704161717433759,2.4240705292322096,28.006953514127797,-4.1693469158144625
-3.7619125287199964,14.113150215836692,-7.317756073361716,2.445957979552824,28.124213236614025,-4.208353701754722
-3.7920960834914044,14.610191361068821,-7.929946280581154,2.468188664919592,28.237971834088988,-4.247927474498373
-3.8229579105149454,15.110964575773224,-8.542697638789527,2.490842391612196,28.348519369487704,-4.288210043916423
-3.85447807565753,15.614898712002633,-9.155206763183156,2.5138993294463035,28.45562399090369,-4.329165758857109
-3.8867928710948796,16.123891550480543,-9.769658064376522,2.5374534435354894,28.559565371303655,-4.370960972103982
-3.9197849805122793,16.63581683334682,-10.383364718731636,2.5614133441005804,28.659787837700986,-4.4134330024699775
-3.9533627167350716,17.14905485210492,-10.994311176338861,2.585707337775662,28.755899353881052,-4.456454715077806
-3.98767700485322,17.66570281259615,-11.604913918774843,2.6104392325568777,28.8482114574281,-4.500209823255106
-4.022222323912688,18.178066866063258,-12.20607238568007,2.6352407650344962,28.93534124019143,-4.544047342372123
-4.0476605257242575,18.55051857081082,-12.640321700160097,2.653441870503996,28.99590610887892,-4.576193399003246
-4.052934227355197,18.621937765761352,-12.69550029255018,2.6564718245044916,28.979440018826768,-4.581323655918766
-4.059292988244727,18.640229684761813,-12.337388938741972,2.6510413366405943,28.60314752807815,-4.568645002679928
-4.068138796058906,18.66057395095517,-11.837706917382125,2.643829043217799,28.08327016366491,-4.551328189577652
-4.072678191641527,18.668748618691346,-11.580621850861082,2.6402782896773,27.818084587527366,-4.5425820433482516
-4.078297753524529,18.67677458012604,-11.26175328183446,2.636020276691288,27.491279802308796,-4.531882573511016
-4.081404926127716,18.680229620792428,-11.085159738302945,2.6337301134705315,27.311279884796782,-4.526026028534508
-4.086645374728384,18.684490011227954,-10.786871991070315,2.629969244317177,27.008812321786277,-4.516242340238149
-4.089643238178536,18.686051365269687,-10.615981576695406,2.6278743073180206,26.836405814058836,-4.510697435661516
-4.091451994935312,18.686687749187843,-10.51278773252747,2.6266299602661785,26.732602605755847,-4.507369929953945
-4.094028063555024,18.687199856042106,-10.365704570684292,2.62488296963338,26.58504544984489,-4.502653925641764
-4.101481648465695,18.68609672178197,-9.939401265763411,2.6199928049690806,26.159953157610904,-4.489158802700987
-4.110885093779882,18.67931648036161,-9.400058267619878,2.6141635388790454,25.627521587115243,-4.472441966815935
-4.1202565955912585,18.666711679919505,-8.86091482579337,2.608719150840455,25.101108475435964,-4.456110527844814
-4.129648835949903,18.648362116732446,-8.318998055740478,2.60361558832668,24.577662106777545,-4.44005774716482
-4.139071361635857,18.62435550597352,-7.774122978947378,2.598875357440178,24.05690656677363,-4.4242913143888645
-4.147912304307752,18.59682529153421,-7.261222689326693,2.594694543970108,23.571641652099853,-4.409728772401146
-4.151771818438731,18.590977454705875,-7.069096094083177,2.5934382044539652,23.38538249828476,-4.404657550079904
-4.170651535463406,18.856266421247344,-7.374808583261562,2.6059959971969167,23.424925530799708,-4.426793450387055
-4.206960519293924,19.36037325475452,-7.952616474813435,2.6300901581274476,23.496924641555175,-4.469215812895375
-4.245610553866139,19.888412819626712,-8.55347252859007,2.6556563919505125,23.56791703345254,-4.5141613569864845
-4.285237021812154,20.420907081399374,-9.154841691702721,2.6817820017160994,23.634908508765836,-4.5600192407225615
-4.3253140851820335,20.950600067336932,-9.748495603522802,2.7081163474467416,23.696951001467117,-4.606172801394964
-4.352356948465552,21.303132713807415,-10.14107480824044,2.7258362222470174,23.735695357885234,-4.637189609368774
-4.310502051563902,21.334940163431824,-10.175114496900669,2.6997430827253677,23.739871158416502,-4.59249665072482
-3.911127025746697,21.170623537489924,-9.981835146776106,2.449675202573572,23.728557176786293,-4.1635034439381675
-3.3459975705364946,20.93299896160925,-9.70359471879586,2.095730764256086,23.70993660712356,-3.556726336236698
-2.7740773091040514,20.686327118418816,-9.416215533552483,1.7374691379856242,23.688016476206638,-2.9429913304042734
-2.2040593807906896,20.434163210814255,-9.123814447026769,1.3803807970259112,23.66300572461144,-2.3316642030573043
-1.631135209547956,20.17424086256237,-8.823720591258152,1.0215016215463661,23.63459187487271,-1.7176251311071586
-1.0663498463826016,19.911539449687698,-8.521627015325487,0.6677950732737592,23.603368955838032,-1.1127324780283703
-0.5103613039110154,19.64652847028309,-8.21797239512063,0.31971588272878537,23.56942481925007,-0.5177087897201341
0.04649685111723881,19.37461048517442,-7.9074185762900475,-0.028745060101848855,23.532176597397086,0.07776638543155524
0.6010070739490692,19.09724946926439,-7.591580514941345,-0.37552716211554893,23.491754744109972,0.6702134732318326
1.1520445162337536,18.814978697579956,-7.271006056614761,-0.719890141646194,23.448292117503144,1.258412154685194
1.69858627875859,18.528326660286655,-6.946220320022515,-1.061153411471577,23.401841012702715,1.8412399588501462
2.2456058511553487,18.234615033236327,-6.614124121521578,-1.4023810289270688,23.351945731685216,2.42396806614818
2.789179745601966,17.935858131438458,-6.276930714614374,-1.7410837498037335,23.29891958732418,3.0023817606640293
3.3327862503018872,17.63005628004197,-5.9323156432096855,-2.079387791356801,23.242381457921493,3.5801468491471695
3.838176799612541,17.33930852417751,-5.605072062042415,-2.3934929407732817,23.186598815669186,4.116642957332092
4.055910005629653,17.211159780939237,-5.462941604967802,-2.528716003614866,23.16345827161384,4.347660581339934
4.041287495604233,17.088629099640904,-5.6029839106362775,-2.524594001862084,23.42640737537971,4.344686071171465
4.01263213967266,16.841797661851214,-5.876514075479667,-2.5167358257879413,23.947501564641406,4.339017172417607
3.983428358481942,16.58083487067358,-6.153909191759656,-2.5090365032857767,24.486599874034898,4.333467087679039
3.9545180143437624,16.3128110701587,-6.426985944247411,-2.501734688728266,25.028427088627698,4.328210337820093
3.9263507139486378,16.04208632291911,-6.691409002419036,-2.494939582296872,25.56427672023856,4.323327615434078
3.8984629986606048,15.764402520339127,-6.951445009697589,-2.488535002819253,26.10268527083364,4.318737416973008
3.870920031475125,15.480410983462855,-7.206370018183754,-2.4825381672631774,26.642275935333817,4.314454229739372
3.8438493854925007,15.191540949611674,-7.454910060413871,-2.4769755127082123,27.180342524765287,4.310498870787589
3.8171707676414925,14.89708639829298,-7.697719457133722,-2.471828083427937,27.718247483236897,4.306859659525941
3.7996190573356237,14.69792550077221,-7.8562194716268365,-2.4686294307778245,28.076326801287003,4.30461164487976
3.792417631721686,14.614934685262822,-7.92095086131789,-2.4673613092238935,28.224219905855247,4.3037239124607
3.6292616577516212,14.617102464350243,-7.933526572552488,-2.3616616914561464,28.24145757482318,4.120458919364858
3.142427191132034,14.64322388831916,-7.952213219681348,-2.045228244548028,28.25262760022315,3.5716535785944914
2.58630047860424,14.668447111006502,-7.970249337804261,-1.683540444228934,28.2634280566693,2.9446539594756924
2.0342136216110265,14.688628267042798,-7.984670418218691,-1.324290376972983,28.272046235009753,2.3221357495203616
1.4776140289565445,14.704084113923845,-7.995714567971334,-0.9619550359204052,28.278677696853272,1.6944740872838904
0.9247349831036982,14.714582243903026,-8.003214850024303,-0.6019332619491202,28.283187505564506,1.0709668324937442
0.3684082691041606,14.720266723381581,-8.00727242388916,-0.2395987097380878,28.28560348057043,0.44354469648574146
-0.18550483854212088,14.721067903211306,-8.007846374826947,0.12119131125245498,28.285958731306142,-0.18116468261372465
-0.7405793042835064,14.717007110065312,-8.004948209701451,0.48272438842658016,28.284229989401044,-0.8071788285644503
-1.2938268280884981,14.708112649333858,-7.9985935055484365,0.8430120390527599,28.280398330218013,-1.4311123632104672
-1.8480504875360813,14.69434727040555,-7.988761619630221,1.2038421568062012,28.274513507671475,-2.05611058185334
-2.4039284534874517,14.675653088961791,-7.975404647534384,1.5656135690894022,28.26652176242291,-2.682922948506629
-2.9576575208553844,14.652155023708133,-7.958604325583934,1.925807879202192,28.25644833128903,-3.3072450881396684
-3.4891805936590137,14.625012629510824,-7.9391931123025925,2.2713570248193387,28.244855229564966,-3.906453727710222
-3.77316958219416,14.608664156222298,-7.927494636248981,2.4558859477061175,28.23786196928429,-4.226570606940156
-3.7940427141158874,14.612432739495857,-7.789813051513932,2.4661764255512386,28.095653779494697,-4.2431722324097345
-3.8013692408792776,14.626146963931365,-7.312845779225773,2.459773265223445,27.605112934969995,-4.227539980789231
-3.8094822496573646,14.635458393722363,-6.782616454906396,2.4530421278952055,27.065723076204133,-4.21055447547392
-3.8176360568991488,14.638724758182809,-6.2475941340559515,2.4466447114315666,26.52758113684684,-4.1938131885512115
-3.8258072069021156,14.636004422906467,-5.709351697451752,2.4405904128558498,25.992201391078193,-4.177353476879523
-3.833960778783658,14.627437655414814,-5.170243514404431,2.434892893408477,25.4617975547612,-4.161232071565486
-3.8420840686292284,14.613214014169412,-4.631179100387837,2.4295464900126786,24.937089621190246,-4.1454585196238165
-3.8502431986322,14.59333342912636,-4.087818339216503,2.4244970737082268,24.413738823898267,-4.129892369015993
-3.8584273282569383,14.567879778826414,-3.5409101692922453,2.4197444208023904,23.892410201787367,-4.114545466337026
-3.8666124953286487,14.537017963701127,-2.9920933901742774,2.4152939439635155,23.37457745519402,-4.0994525950177625
-3.8745166404870885,14.502192798735512,-2.4604155105583585,2.4112747026823507,22.877839423722246,-4.085110577717022
-3.8784597661331675,14.483006149387295,-2.194564843927356,2.409369323363236,22.63123144165786,-4.078038272571836
-3.8909606132017234,14.68222274740207,-2.4352383081377114,2.4178471464089197,22.672137279187815,-4.093154166741232
-3.920518722857191,15.149924008822648,-3.00236037926814,2.437942494149637,22.770245384975652,-4.129012292803573
-3.953027355989394,15.656549201811018,-3.612828163285331,2.459985161170235,22.872635358323336,-4.1682799611201045
-3.9864090050151084,16.16857844417369,-4.2257202404422225,2.4825559573311446,22.971996914787066,-4.208420066719899
-4.020733454792529,16.686679156094993,-4.841680366986005,2.505696929365358,23.068302484981817,-4.2495047473537095
-4.047024608378209,17.077937892859577,-5.304030228587235,2.5233759519784584,23.138196475164495,-4.280846301070266
-4.0555426262356224,17.20368420805496,-5.4521097516642465,2.5290951990741877,23.160140535366445,-4.290977110874593
-4.056109508757551,17.212035618030313,-5.461935709752074,2.5294756752909815,23.16158916335965,-4.291650928719927
-4.056109508757551,17.212035618030313,-5.461935709752074,2.5294756752909815,23.16158916335965,-4.291650928719927
-4.056109508757551,17.212035618030313,-5.461935709752074,2.5294756752909815,23.16158916335965,-4.291650928719927
-4.056109508757551,17.212035618030313,-5.461935709752074,2.5294756752909815,23.16158916335965,-4.291650928719927
-4.056109508757551,17.212035618030313,-5.461935709752074,2.5294756752909815,23.16158916335965,-4.291650928719927
-4.056109508757551,17.212035618030313,-5.461935709752074,2.5294756752909815,23.16158916335965,-4.291650928719927
-4.0560875950441995,17.21199429815873,-5.461829070323232,2.529461986150609,23.161334964273497,-4.2916277139629315
-3.969343965693434,17.048432989866534,-5.039705674760015,2.4752746515119735,22.155108819189135,-4.199734010509406
-3.8829462544007995,16.8855239347781,-4.61926563169631,2.4213034062589647,21.152895323757008,-4.108206762687156
-3.7964555875542607,16.722439605353976,-4.198373235942917,2.3672740931830667,20.149603543851786,-4.016581040427434
-3.6853651864645345,16.51297072012361,-3.6577703389526275,2.2978777261640264,18.860954834073016,-3.8988950679741428
-3.537247949024036,16.233685090530802,-2.936982522281967,2.2053512966036077,17.14279480358101,-3.7419839311496297
-3.389068566696082,15.954282282314365,-2.215892287887885,2.1127860461425905,15.423913892362556,-3.585006959820592
-3.2409237139623714,15.674944582113943,-1.4949700860015316,2.02024236575758,13.70543352445508,-3.428066568149536
-3.092074355811314,15.394278486633981,-0.770619526076798,1.9272585922949539,11.978780893344032,-3.2703798437231226
-2.944501078834644,15.11601853334488,-0.052478802221620824,1.8350719659904546,10.266930804512212,-3.1140449629525424
-2.796355707539057,14.836679855359007,0.6684459231595599,1.7425279616682727,8.548444421286705,-2.9571040219319653
-2.648028887580254,14.55699904295974,1.3902536381782549,1.6498706093168811,6.8278532334745705,-2.799970859421759
-2.4998502922899544,14.277597718759012,2.111340042584939,1.5573058505054878,5.108981451893317,-2.6429947218577525
-2.3516718133642267,13.99819661397199,2.832425880722858,1.46474116438515,3.3901110201411484,-2.486018707567023
-2.203563157731609,13.718927165990843,3.5531719354576876,1.3722200957405584,1.672050538624969,-2.329116662062695
-2.055477942492891,13.439701916546488,4.273803921427578,1.27971366992885,-0.04573803430991286,-2.1722394486367804
-1.9069489615821855,13.159639915234255,4.99659541898,1.1869300309183273,-1.7686742892680982,-2.0148921226346492
-1.758573298797341,12.879867006198179,5.71864081946023,1.0942421672477851,-3.489832053887435,-1.8577072174407938
-1.61016311792866,12.600029010849777,6.440854196434719,1.0015327406915997,-5.2113902282970335,-1.7004857447827502
-1.462704289983057,12.321984859382601,7.158437973180643,0.9094176088356489,-6.921912708309611,-1.5442721080205208
-1.3137314915378064,12.04108600841194,7.883389234696075,0.8163567242286152,-8.649997246896787,-1.3864546145004728
-1.1660908529163365,11.762699039930666,8.601857762753665,0.7241280182000388,-10.362628730842928,-1.2300483727428357
-1.017919235362579,11.483310872750527,9.322910211169987,0.6315676182671919,-12.081419570676713,-1.0730796271920222
-0.8693253332727942,11.203126457918529,10.046017636805685,0.5387434240518403,-13.805108911345611,-0.9156635255619532
-0.7215858249471838,10.924553063548911,10.764967297778076,0.446452955726897,-15.518887283910637,-0.7591525440863585
-0.5737398264927399,10.64577887443595,11.484435175190262,0.354095964750204,-17.233900942024903,-0.6025287500342899
-0.4255081543571073,10.366277470052646,12.205779869206749,0.2614980496966619,-18.95338841503932,-0.44549638438850026
-0.29380724887880444,10.117946006814092,12.84668034611032,0.17922663575217246,-20.481118986326326,-0.30597623699363746
-0.20721079571977583,9.954662209742606,13.268087533298736,0.12513123968714882,-21.485637887510848,-0.2142384477602108
-0.12082486832562683,9.791775374036359,13.688470231987077,0.07116735564389513,-22.487714689714483,-0.12272368346074142
-0.03429478159713093,9.628616715609471,14.109554458017222,0.017113417608780573,-23.491463740270692,-0.031056200913030855
-0.005437468078994148,9.574204190007869,14.249983758246875,-0.000913276871066181,-23.82620859192347,-0.00048559381774781183
-0.005437468078994148,9.574204190007869,14.249983758246875,-0.000913276871066181,-23.82620859192347,-0.00048559381774781183
-0.005437468078994148,9.574204190007869,14.249983758246875,-0.000913276871066181,-23.82620859192347,-0.00048559381774781183
-0.005437468078994148,9.574204190007869,14.249983758246875,-0.000913276871066181,-23.82620859192347,-0.00048559381774781183
-0.005437468078994148,9.574204190007869,14.249983758246875,-0.000913276871066181,-23.82620859192347,-0.00048559381774781183
-0.005437468078994148,9.574204190007869,14.249983758246875,-0.000913276871066181,-23.82620859192347,-0.00048559381774781183
-0.005437468078994148,9.574204190007869,14.249983758246875,-0.000913276871066181,-23.82620859192347,-0.00048559381774781183
-0.005437468078994148,9.574204190007869,14.249983758246875,-0.000913276871066181,-23.82620859192347,-0.00048559381774781183
-0.005437468078994148,9.574204190007869,14.249983758246875,-0.000913276871066181,-23.82620859192347,-0.00048559381774781183
-0.005437468078994148,9.574204190007869,14.249983758246875,-0.000913276871066181,-23.82620859192347,-0.00048559381774781183
-0.005437468078994148,9.574204190007869,14.249983758246875,-0.000913276871066181,-23.82620859192347,-0.00048559381774781183
-0.005437468078994148,9.574204190007869,14.249983758246875,-0.000913276871066181,-23.82620859192347,-0.00048559381774781183
-0.005437468078994148,9.574204190007869,14.249983758246875,-0.000913276871066181,-23.82620859192347,-0.00048559381774781183
