RAMEL-ESPOL/ARCHIE/matlab/data/joint_goals_square_t35_h45_p12.txt
Joint0,Joint1,Joint2,Joint3,Joint4,Joint5 
-0.00047935761988090244,9.57387006316744,14.255742416486296,-0.002909023667428811,-23.823726433885717,0.0015786540316942335
-0.00047935761988090244,9.57387006316744,14.255742416486296,-0.002909023667428811,-23.823726433885717,0.0015786540316942335
-0.00047935761988090244,9.57387006316744,14.255742416486296,-0.002909023667428811,-23.823726433885717,0.0015786540316942335
-0.00047935761988090244,9.57387006316744,14.255742416486296,-0.002909023667428811,-23.823726433885717,0.0015786540316942335
-0.00047935761988090244,9.57387006316744,14.255742416486296,-0.002909023667428811,-23.823726433885717,0.0015786540316942335
-0.00047935761988090244,9.57387006316744,14.255742416486296,-0.002909023667428811,-23.823726433885717,0.0015786540316942335
-0.00047935761988090244,9.57387006316744,14.255742416486296,-0.002909023667428811,-23.823726433885717,0.0015786540316942335
-0.00047935761988090244,9.57387006316744,14.255742416486296,-0.002909023667428811,-23.823726433885717,0.0015786540316942335
-0.00047935761988090244,9.57387006316744,14.255742416486296,-0.002909023667428811,-23.823726433885717,0.0015786540316942335
-0.00047935761988090244,9.57387006316744,14.255742416486296,-0.002909023667428811,-23.823726433885717,0.0015786540316942335
-0.00047935761988090244,9.57387006316744,14.255742416486296,-0.002909023667428811,-23.823726433885717,0.0015786540316942335
-0.00047935761988090244,9.57387006316744,14.255742416486296,-0.002909023667428811,-23.823726433885717,0.0015786540316942335
-0.00047935761988090244,9.57387006316744,14.255742416486296,-0.002909023667428811,-23.823726433885717,0.0015786540316942335
-0.00047935761988090244,9.57387006316744,14.255742416486296,-0.002909023667428811,-23.823726433885717,0.0015786540316942335
-0.00047935761988090244,9.57387006316744,14.255742416486296,-0.002909023667428811,-23.823726433885717,0.0015786540316942335
-0.00047935761988090244,9.57387006316744,14.255742416486296,-0.002909023667428811,-23.823726433885717,0.0015786540316942335
-0.0004776342086959093,9.573859775996173,14.255751441508474,-0.002909017786958658,-23.823708321235582,0.001580391847504808
0.02308738417444968,9.432894398542288,14.37952778727929,-0.002932469376058424,-23.57572088559044,0.02530074178306771
0.06901876598173312,9.156361534303347,14.622960747130078,-0.0035755963868880853,-23.090474524699378,0.07129918331978535
0.11592950936900902,8.87146188996356,14.87462226112964,-0.00504684472663029,-22.59226846096241,0.11796574361157407
0.16252113429669862,8.58596438761538,15.127696410269458,-0.007322534633755288,-22.09478815696819,0.16401258462591986
0.20902105557820966,8.298442547317475,15.38346570318176,-0.010403289856435785,-21.595590936301626,0.20967884421938301
0.2549020018255961,8.012149501195307,15.639045738835842,-0.014236323569876827,-21.100350621094194,0.2544633809904928
0.30092571141808927,7.722304773513961,15.898721095090957,-0.01887400949131604,-20.600838596030222,0.2991239233747115
0.34648067852354536,7.432719474004543,16.159099073439325,-0.024247781033631594,-20.103673342740457,0.34307956372648046
0.39195055412185,7.140934537202998,16.422406135646682,-0.03039044908389444,-19.604670880036615,0.3867146066096689
0.4369047887132936,6.849697428033915,16.686177076394316,-0.03723064969539745,-19.108564926535173,0.42962988860001955
0.4817016349997544,6.556678840110798,16.952533650725268,-0.04480819358310476,-18.611418666648298,0.47218160739812476
0.5263055045492531,6.262072832206035,17.22132247936111,-0.05311105805942446,-18.11361474433991,0.514347457304148
0.5706090600962773,5.966563423930457,17.4919382037318,-0.06210987855598693,-17.61635357235609,0.5560381997712278
0.6146951175000978,5.669575511383732,17.76492588520851,-0.07181184407202444,-17.1187114124547,0.5973438560635328
0.6584913438728756,5.371572714358336,18.03987852641171,-0.08219200352592822,-16.621510712834954,0.6382083688689014
0.7021368274158973,5.071577877200551,18.317719792171893,-0.09327632662804314,-16.12317289454297,0.6787725882659421
0.7453962607403637,4.771187911570942,18.596989641681752,-0.10499586034738023,-15.626395917911665,0.7188291400569466
0.788578481127106,4.468229628782565,18.87973075554645,-0.11742727243891905,-15.127638115983455,0.758674706135692
0.8312094270375064,4.166018556262706,19.162865165686032,-0.1304231728515506,-14.632397606986995,0.7978830253376432
0.8738055299551298,3.8608786488186224,19.4498553002197,-0.1441314084619459,-14.13469467640753,0.8369398041673156
0.9162298400538453,3.5537331708039432,19.739866568568186,-0.15850825900239382,-13.636111843970838,0.875728388726582
0.9582792671319268,3.246032893556353,20.031550084060882,-0.17347683000661152,-13.139053869897994,0.9140731762443604
1.0001325721826362,2.9364529586199324,20.32618219354097,-0.1890922961198281,-12.64142935110905,0.9521471121398338
1.0417938727465599,2.6249242574765965,20.623857254580397,-0.20535266872488034,-12.143193275946452,0.9899630507173091
1.0832054666045083,2.3118454769893453,20.924221368742284,-0.2222307791901145,-11.645046233546957,1.0274777131371993
1.124203276108473,1.9984521684591043,21.226106855071304,-0.23964950335303287,-11.148997256631029,1.0645519142983992
1.1650762441461187,1.6825146773525943,21.53168531600858,-0.25772486428688085,-10.651573436111686,1.1014558521723496
1.2058159769667287,1.3640405886319416,21.84098660934387,-0.2764538874737932,-10.152871666853756,1.1381901053362786
1.2462811366582247,1.0440959570689063,22.153006651277593,-0.295768668651087,-9.654633746868155,1.1746355472672076
1.2864448592589335,0.7228766566851346,22.46757831273833,-0.31564918670803566,-9.157221488137314,1.2107763705002073
1.3262879649138573,0.40052618134568835,22.784583045804837,-0.3360776630408349,-8.660909855401881,1.2466035093446184
1.3659989553032779,0.07548571543691626,23.105584820217167,-0.3571471452190169,-8.163371130009129,1.2822942958494536
1.4055639788635805,-0.2521909119967167,23.430571324820946,-0.37885156546854687,-7.664781472505509,1.317843867683461
1.4448639773056562,-0.5815590665626541,23.75864069033525,-0.4011235024093789,-7.1666596064722405,1.3531527790287092
1.484022774245866,-0.9136996883990913,24.090905931762013,-0.42403133912719254,-6.667455247631187,1.388339685184023
1.5225826041970107,-1.2447219301208166,24.42349296729729,-0.4472963764316578,-6.173061636322177,1.4230003290763118
1.5612751685515922,-1.5809422628733873,24.762782659599285,-0.4713569323593555,-5.674125871407546,1.457799454536876
1.5995914562040616,-1.9180081105715203,25.10443056277681,-0.4958996129254216,-5.177217193870268,1.4922862825150256
1.637778465079732,-2.258122215453326,25.4507033481883,-0.5210785808078686,-4.67916855303721,1.5266897938514061
1.675897880350733,-2.601916316396279,25.802298024831586,-0.5469393969755356,-4.17917879464717,1.5610725117366102
1.7135524129567672,-2.9458341657448655,26.155611874902444,-0.5732079584525269,-3.6825011923569875,1.595082363656149
1.7508415296593434,-3.2907597039054965,26.511568891651727,-0.5999405578978297,-3.187900549707505,1.628814647048438
1.7881365118740589,-3.6401853361448997,26.87382003682099,-0.6274039631619053,-2.6904786243855847,1.6626114491979394
1.8252799575172136,-3.992734369855973,27.241000537951432,-0.6554892355603641,-2.1923395577505227,1.6963367559408182
1.8622659441094573,-4.348421992707489,27.613179861312734,-0.6841943119743639,-1.693587339656858,1.7299913312127086
1.898826020036929,-4.704687542349265,27.98771426115595,-0.7133051424404009,-1.1978986312761832,1.7633360461838652
1.9353513930814013,-5.065388415717941,28.368704438941798,-0.7431312236907301,-0.7000147425122356,1.7967330373950332
1.971663956294615,-5.4288546712866586,28.754449114045464,-0.7735317645795553,-0.20238738058173145,1.8300253472720158
2.007864936565868,-5.796175826790041,29.14616358470972,-0.804593922971101,0.29633587416164403,1.8633112818777837
2.044068265160872,-6.168632559260946,29.545291929123042,-0.8364248591199008,0.7977108277893221,1.8967018630839694
2.079441250420911,-6.537631266028107,29.94264700761855,-0.8682790211044078,1.2901119531263163,1.9294320293971854
2.1150501825235097,-6.914319650936948,30.350275520373682,-0.901110655703025,1.7883112891387787,1.962492127678225
2.150497244949327,-7.294663467692081,30.763911560933185,-0.9345686217354574,2.2867403774202066,1.9955194560233072
2.1857956813601165,-7.6788977064168895,31.183881212868837,-0.968668772784005,2.7855388322329464,2.0285310084765853
2.2212039548063474,-8.06999797165367,31.613535282591904,-1.003673478307264,3.288337337980585,2.0617744503305886
2.255746462082386,-8.457179791401378,32.04106019607281,-1.0386066637376095,3.78118383370372,2.0943355364128653
2.2900738605966464,-8.847646853474767,32.474414023853505,-1.0741034251557544,4.273228155251506,2.1268270459347525
2.3238341278470322,-9.237376348526224,32.9091628086674,-1.1097867211675363,4.7593200206970225,2.1589164481629197
2.3571027725651463,-9.627148560935964,33.34617994224882,-1.1457135137340795,5.2404141738512235,2.1906740559918685
2.389945183485444,-10.017670964982802,33.786274204805096,-1.1819360685980054,5.717336474643942,2.2221611942167563
2.4222353799187264,-10.407367392252874,34.22767726832077,-1.2182946250822746,6.188131768659252,2.253255122322669
2.4540740439391606,-10.797364486540662,34.671669155627285,-1.2548805026638026,6.654139779324802,2.2840501990470696
2.485705007310803,-11.190651646724636,35.12169262127801,-1.291963445192414,7.118829148928657,2.3147814304537553
2.517151330506891,-11.587592981085741,35.578233526761665,-1.3295691299635046,7.582457536774238,2.345471719263062
2.5483445473586794,-11.987391260209359,36.04044110429148,-1.3676125400167698,8.043927240508369,2.376054044611217
2.5791379089258486,-12.388170388147794,36.5061889739877,-1.4059035644992894,8.500959755995003,2.4063824444735125
2.6090732352347223,-12.783788524535384,36.968310248327604,-1.4438393580624391,8.946604490797212,2.4359990624035914
2.638627242633542,-13.180366992031928,37.43392530485837,-1.4819911959304048,9.387811269696133,2.4653686338819703
2.6674121974766485,-13.572543571165317,37.89671505119528,-1.5198284600336067,9.818653920632212,2.4940991370830954
2.6957697880277065,-13.964794992378504,38.361930863592065,-1.557768273176415,10.244108620613957,2.5225242415304274
2.7112803007474233,-14.181886346836558,38.620411879140235,-1.57880229758697,10.47721304633917,2.538122532785362
2.7132422549242254,-14.229240983556432,38.646829375895756,-1.5822690983175893,10.54763807851218,2.5409658204831045
2.702528650021043,-14.337194057003206,38.384352251078006,-1.5779563331824176,10.918196757171055,2.541424487815822
2.688213587872553,-14.48822584480823,38.03805458370901,-1.5722932029968737,11.415698247286379,2.5420159035953276
2.6739637697387955,-14.646430336635902,37.69847748528589,-1.5667697380656405,11.913651477045198,2.5425818501809814
2.659801202292014,-14.811600073978802,37.36620755836786,-1.5613936676909306,12.411262086863653,2.5431235012336963
2.645726984212434,-14.983740383090556,37.04132305520942,-1.5561643519918926,12.908457104874685,2.543642833104352
2.6317175851871757,-15.163175718264629,36.7233482073279,-1.5510722635415586,13.406037008218068,2.544142610077012
2.617806203053803,-15.349510047478905,36.41310148686275,-1.5461285886787886,13.90278686170421,2.544623480274926
2.6046386982523413,-15.533522409374179,36.124645620189675,-1.541553794614774,14.375415095833398,2.5450658491008733
2.5986168649996535,-15.620194229851446,35.99445350351877,-1.539495766273899,14.592352276273749,2.545264360678312
2.5954309471017885,-15.666695377473228,35.926019146434086,-1.5384156547203718,14.707326547718084,2.5453684814852386
2.593133590100715,-15.700506721443034,35.87686429088594,-1.5376405436342877,14.790320708755091,2.545443187166264
2.597367573870821,-15.515126032867292,35.576861857457224,-1.5409665515741156,14.904794247605,2.552740013481075
2.606894493009037,-15.103197306148218,34.91218930742874,-1.5484480981339441,15.157204691850245,2.5690644032597354
2.6180074577488988,-14.630624009854518,34.15167497348567,-1.5571841367755992,15.44475629047193,2.5879991345925175
2.629414146087459,-14.154085261354068,33.38697706121702,-1.5661602141792224,15.732515045454138,2.6073193940459105
2.6410471164430174,-13.676612663046496,32.62301606873376,-1.5753229581100743,16.018594330185216,2.626908471374759
2.6528637409275175,-13.200042879137357,31.862753216972184,-1.5846383340637653,16.301870996887295,2.646693779464592
2.664772464328703,-12.7280105132115,31.111970091498154,-1.594033560287824,16.580201213559057,2.666523111588052
2.676728393342243,-12.262104873003858,30.37314089273113,-1.603472502545421,16.852701613072682,2.6863245182532514
2.6889797925696417,-11.792666359839755,29.63095038787527,-1.6131506074147328,17.125018959398663,2.7065091985049055
2.7012897558471765,-11.32880320649819,28.899806101949405,-1.6228801814159133,17.39186228014811,2.726686608723944
2.7138791207517423,-10.86220296150712,28.166606807455523,-1.632835188173923,17.658012413521714,2.747218740753305
2.726593150066811,-10.3986728072244,27.440497038698787,-1.6428927131623687,17.920137431933167,2.767852368158517
2.7395937610520367,-9.932382778738617,26.712364033349047,-1.6531802583119752,18.18151424735666,2.7888493476054754
2.7527058704127083,-9.469671934812261,25.99212218979096,-1.663558671087955,18.438573703485503,2.809926127676833
2.766053652762659,-9.006171243230995,25.272972180960988,-1.6741255912756343,18.693741541677316,2.8312821032429856
2.7788612900927983,-8.568307452703507,24.595753245720026,-1.6842660965653822,18.93263327853136,2.8516827191491965
2.786610286412841,-8.306558057708237,24.191927562454747,-1.690401706920887,19.074428509097153,2.8639836407277706
2.7906857458689256,-8.169834025156055,23.981291948276624,-1.6936286696671787,19.14819206420295,2.8704406510732285
2.695641544063295,-8.128159142516665,23.919986748876973,-1.6361838788586862,19.170476137186697,2.7742706669011903
2.251458468296673,-8.10438955833404,23.895298901519332,-1.3667139638748402,19.182616859937156,2.321924181324505
1.7489558900836855,-8.082660532323095,23.872741054196833,-1.0617375859236988,19.193690422487567,1.8100772111572114
1.2453394318575328,-8.066369497186049,23.855833329014953,-0.7559794907421231,19.20199237911874,1.2970047398856417
0.7402149555591664,-8.055538611851459,23.844594733488627,-0.4492302266514352,19.20751072087513,0.7823309686681105
0.2325503336300632,-8.050206699731655,23.83906289792315,-0.1408931235520341,19.21022508742121,0.2650301671303271
-0.2766508648544244,-8.050447165885195,23.839308777659536,0.16839394270329722,19.210129042323327,-0.25385023931479933
-0.7838477755066707,-8.056253736583837,23.845333795426736,0.4764443452209661,19.207162516466894,-0.7706721953813838
-1.2930278999596652,-8.067673224883794,23.857183996481307,0.7856506828590548,19.201333966862816,-1.2894732405480627
-1.8002428237661463,-8.084622934247136,23.87477645392319,1.0935839372272376,19.19268584034852,-1.8062034331295316
-2.310357314100073,-8.107289302201481,23.89830890789875,1.4031658444844226,19.181124340813156,-2.3257914502360513
-2.7266457073441015,-8.12996955758378,23.921860204751425,1.6557042557150683,19.169583885065776,-2.749722934661592
-2.792678709478163,-8.148178296393176,24.034650831089294,1.6947841832976733,19.07318879606293,-2.8140033535861217
-2.7960792760184,-8.213850758631166,24.519157227561102,1.6926125061080968,18.654441159399067,-2.8043739679549433
-2.800194320884609,-8.297926009557827,25.10903728681575,1.6901293194747598,18.14874015986125,-2.792796934179486
-2.8042865258757153,-8.386507373128818,25.699533683671625,1.6878144944843883,17.64692773907007,-2.78136203638776
-2.8083770360709566,-8.479979033734244,26.293670801399376,1.6856519905272584,17.1463642897392,-2.770005175043507
-2.812488745045497,-8.57887240335346,26.894812171185766,1.6836282243047493,16.644218314798696,-2.7586590649857814
-2.816578840512531,-8.68213125113213,27.496709853829582,1.6817618062235424,16.145680514521157,-2.7474376860091083
-2.8206632630754784,-8.790086067084205,28.101685033608174,1.6800417191384722,15.648760645991752,-2.7362926164341963
-2.8247522381258374,-8.902983034092074,28.71126661739719,1.6784614227249905,15.152176289328326,-2.7251919598497154
-2.828849376711288,-9.020923649334796,29.326029148825295,1.6770181092968404,14.655454536943465,-2.714122258604935
-2.8329369322232907,-9.143376359893223,29.943328240710876,1.6757160239598121,14.160707840604104,-2.7031275935208736
-2.8369932818471457,-9.26960474766027,30.559860533214337,1.6745581729283354,13.670502668339891,-2.692261658147592
-2.839775602432959,-9.358892764035154,30.985036006749922,1.673840463363586,13.334682848658348,-2.6848324355425848
-2.840717729543342,-9.373947081244978,31.081489080229495,1.6738331317821173,13.253293230037084,-2.6832888688452443
-2.8472914551758235,-9.144315267991093,30.728423526600587,1.678557516623593,13.37649553674871,-2.693274355033217
-2.860015021154377,-8.705169920614514,30.054864191055252,1.6877054331374624,13.610460811809123,-2.7125247807430966
-2.874099496025157,-8.226958374522862,29.323848863039025,1.6978368682566174,13.86276666773026,-2.7337202351872865
-2.888569600305327,-7.743972817381026,28.588163744841243,1.7082502526123375,14.114953291926946,-2.7553761093265394
-2.9033211297791746,-7.259933552244092,27.8535450321862,1.7188699097963285,14.365008345055532,-2.777332982496356
-2.9175209057975633,-6.801648735794738,27.16049809007433,1.7290950357502275,14.59926423868558,-2.7983583379553614
-2.9262920060495525,-6.522196511095167,26.73908728148713,1.73541197712111,14.74090940004845,-2.811293246356185
-2.930771505877102,-6.380520705308059,26.525789127277886,1.738638318381454,14.812371462927771,-2.817884192996263
-2.893479344456974,-6.383807600815929,26.53182483682526,1.7165178064474536,14.810680398066294,-2.7815996166763335
-2.6433636442277884,-6.678732630795452,26.982839377672725,1.5671621730255996,14.661386192657295,-2.534390672103988
-2.3197601433222435,-7.066616651350544,27.576524841188288,1.3741829297245383,14.463445401618952,-2.2156632282363242
-1.998556311852115,-7.458860478789155,28.177513446349742,1.1829430053649828,14.261443774774179,-1.9006134274401043
-1.6807363897720597,-7.854283531232934,28.784045554273362,0.9940124600363488,14.056024179787222,-1.5901547081082352
-1.3702330690991473,-8.247854502240173,29.388446837453234,0.8097415833784557,13.84976544505208,-1.2881678154844636
-1.06200645631656,-8.645846847947151,30.000386298971463,0.6271162865238281,13.639445065644386,-0.9896734410259863
-0.7592792512577564,-9.04405959193197,30.61345462060752,0.44806111804555804,13.427226932212864,-0.6978483286952799
-0.4595969050931633,-9.44563813924803,31.23253048950099,0.2711013381441854,13.211489024572602,-0.4102535612627392
-0.16410442180241427,-9.849025290724455,31.85526351288308,0.0969273282411272,12.993010413182455,-0.12804573989280008
0.12696567134053852,-10.253813734927268,32.48105869862748,-0.07434783121950578,12.772063802282087,0.14862716025142644
0.4134609659116509,-10.65969814878616,33.10948388738145,-0.24262449252267268,12.548777046184485,0.41957614025424367
0.6957658167636706,-11.0671207490485,33.741253999224746,-0.40815372873787914,12.322959163211385,0.6852421712501341
0.9752185094973398,-11.477991821453903,34.3793782076055,-0.5717087593284763,12.093498197918292,0.9468281985662489
1.2502271110330554,-11.889924484982487,35.020185613939574,-0.732381570908663,11.861763902905091,1.2029120108270042
1.5216757890384935,-12.304178721078813,35.66567598808523,-0.8906803810114573,11.627006087276786,1.4542692635160557
1.7900634973361267,-12.721496582274717,36.31704462362432,-1.0469193542419928,11.388832378266374,1.7014256672887007
2.0537320307958935,-13.139241360429375,36.97021496839317,-1.2001260218536633,11.14870686240289,1.9428063896471974
2.3136320582225545,-13.558814839642155,37.62740445132056,-1.3508793929853395,10.90586790831023,2.179361565831692
2.509997111950895,-13.881133639148043,38.133065880731785,-1.4645920453116688,10.718166840898384,2.3571031905680213
2.5970395887711346,-14.025506111840388,38.359788747015976,-1.5149508563823229,10.63378344238406,2.4356341674962088
2.655466825774671,-14.1229414121149,38.51288187043184,-1.5487369917548006,10.576723853749533,2.4882537166373937
2.710626565571452,-14.215319366116784,38.658088986696534,-1.5806209470822683,10.522543997891232,2.537860252508966
2.707918298061986,-14.2823582820351,38.51601191053595,-1.580123915032766,10.731648573681841,2.541219925844674
2.694030973202854,-14.425914372404762,38.17813497975925,-1.5745867451862179,11.213248334115649,2.54180282140013
2.6797329428678407,-14.581434808216411,37.835300737590195,-1.56899813486025,11.711775078339844,2.542379735607211
2.665552478801719,-14.743572511598238,37.50047281759503,-1.5635690462934628,12.208911722426269,2.5429303166142327
2.651417229442853,-14.913182888634477,37.172000987674515,-1.5582708566720687,12.707164744198076,2.5434594041921303
2.637361831986735,-15.089912127602679,36.850773236112005,-1.5531161140305905,13.205291895198215,2.5439675731347062
2.6234433999090663,-15.273023402747516,36.5381267519339,-1.5481242107917133,13.701218437930933,2.544454725173032
2.609595229588641,-15.463384180636021,36.232603111977404,-1.543269806754622,14.197271041866793,2.544925051233907
2.601553058187772,-15.57774478060123,36.05777796377169,-1.5405025162568569,14.486554570145126,2.5451921894101286
2.5982661269603224,-15.625305554635851,35.9868833209002,-1.5393840130219667,14.605038983728988,2.545272365916947
2.5948524489174125,-15.675201500832786,35.91360574769465,-1.538227634724702,14.728254043249658,2.5453838355868172
2.5864100335358824,-15.700185873001118,35.87619655520284,-1.533665425876577,14.79083780939256,2.538923497759441
2.2820865735820957,-15.681695822687056,35.854833237600594,-1.35329973032183,14.800920275977077,2.243645425174149
1.8003355745926783,-15.6571696685704,35.826507383739695,-1.0676789552377868,14.814266789983531,1.7760968050493369
1.3127698475535627,-15.6382517951257,35.80466112832708,-0.7785146402466776,14.824591077288073,1.3027909202404961
0.8247752068605128,-15.625258470813971,35.789662698776,-0.4890234800879507,14.831657682580387,0.8289822405827005
0.33498781968438773,-15.618184946302037,35.78149901165056,-0.1984238850815955,14.835500961351864,0.3533796436700411
-0.15286446938668885,-15.61707650257008,35.78021644733037,0.09104576344556102,14.836127279454224,-0.12036501573247657
-0.6403711163601558,-15.621891506212817,35.78577466865111,0.3803020922805853,14.833496313438125,-0.5937647299201217
-1.1280727441490441,-15.632632877951956,35.79817431735064,0.6696390822010361,14.82763823960146,-1.0673122095543919
-1.6162225845406106,-15.649323886252851,35.817445192162964,0.9591803335873341,14.818540432941392,-1.5412216853478264
-2.103531759443222,-15.671920510313184,35.84353702653354,1.2481362768452238,14.806258290738606,-2.0142114954641515
-2.522605593135361,-15.6961082834058,35.87147955093596,1.49653960559713,14.793074826457103,-2.4208624577072593
-2.594781839538135,-15.69896784961154,35.973953322329166,1.5386131472761724,14.691705333121115,-2.4881416523097473
-2.601716186807477,-15.694302989262646,36.42405675076397,1.5395653985059508,14.236926561580834,-2.4822344240755805
-2.6099107917183337,-15.694980733419735,36.960909259876416,1.5408186933777137,13.70073976406544,-2.4752668465231142
-2.618086252734171,-15.702292977125923,37.50184853461097,1.542205677118116,13.167101159866903,-2.4683260693590725
-2.62626067437196,-15.716185796180012,38.04805857990298,1.5437274082064112,12.634772843198286,-2.4613927361678933
-2.6343735029406017,-15.736438898946638,38.595442411045795,1.5453696835671398,12.107631634060937,-2.4545142530304664
-2.6425475591345204,-15.76332048674993,39.152302757657594,1.547156088511932,11.577642896757999,-2.447582583625539
-2.6506926757354576,-15.796537132223062,39.71254918690076,1.5490665224759026,11.050603801990983,-2.4406702912585176
-2.6588376141921426,-15.836140368334744,40.278157414662715,1.5511059724341991,10.524590182999951,-2.433749099945097
-2.6670577975036105,-15.88255839028065,40.854472412187874,1.5532941637983082,9.994685247494205,-2.4267508218114573
-2.6734741887532594,-15.92327649298514,41.308174647662,1.555092304772648,9.581695458624724,-2.4212764433439777
-2.675257021950119,-15.912472332834042,41.37165046548289,1.5557890950221305,9.507399131776202,-2.4208643738502134
-2.681205432017552,-15.646515574996751,40.944488026102604,1.5599859297366945,9.66839922543432,-2.4307563771653458
-2.691518944711296,-15.191982365898943,40.21607993881356,1.5672743201433648,9.941917592136562,-2.4478080490572713
-2.701829810896671,-14.745603636283517,39.50275909423317,1.5745747932569243,10.208503159443154,-2.46473465338925
-2.7074669784423366,-14.504831807253778,39.118837727752194,1.578571615450598,10.351457689589857,-2.4739398290497827
-2.7120447627536994,-14.310963514457864,38.81013449709343,1.5818200321542573,10.46613422029376,-2.48139039625635
-2.7140078163015486,-14.222778095122807,38.66295837821912,1.5832656771698546,10.525053114734675,-2.4848632677111135
-2.7057995036807245,-14.304923592710338,38.46141838436469,1.5799534953177898,10.808837041026264,-2.485220549919242
-2.691607548629207,-14.452959690320984,38.11686216244507,1.5743149841717388,11.301599879156788,-2.4858190876601656
-2.6773551736942323,-14.60942293070801,37.77593094262368,1.5687657313539627,11.79916597718861,-2.4863971672087413
-2.663194542217818,-14.772779291340262,37.442390998714494,1.563365634268543,12.296233177743419,-2.4869503753203706
-2.649058054739009,-14.943876840128047,37.114735138301796,1.558088567655972,12.795157526121612,-2.4874832662625543
-2.6350368070180648,-15.121662167676122,36.795149945573925,1.5529679255379578,13.292697897109377,-2.4879942941469353
-2.6211321394863285,-15.3060868550528,36.48368979092417,1.5480024682251512,13.78875145372172,-2.488485388540512
-2.6074280480655654,-15.495927960879202,36.182209174197894,1.5432194284734195,14.280239703846613,-2.488955583854275
-2.599758620914987,-15.605733967447886,36.01592504098968,1.5405910266569494,14.556423138890473,-2.489213271646891
-2.5965145432437398,-15.652959675240908,35.946124806219615,1.5394897586915768,14.673488564452517,-2.489321171488102
-2.5934515733330428,-15.69797721644913,35.880516913205,1.538455730680419,14.784151288117252,-2.489422471873773
-2.5959709730860956,-15.582464929760114,35.685665131120686,1.5405129270893074,14.863398651978516,-2.4940726377215676
-2.6045117047278366,-15.211944788303894,35.08749547318515,1.547218950124308,15.09074944913839,-2.5087252955631834
-2.615592899357194,-14.738800023320021,34.32556594809698,1.5559283546446532,15.37914611364253,-2.527633637500434
-2.6269513064833774,-14.262360271107829,33.56052372003815,1.5648649105999664,15.667350124532987,-2.546899708721598
-2.6384637431425224,-13.78791226126471,32.80088881256458,1.573931308223484,15.952132419846361,-2.56631336236739
-2.6503241479721757,-13.307650275105866,32.03421259820961,1.5832799235013615,16.238128993282338,-2.5861995053473077
-2.662170922675003,-12.836223344843802,31.283881366301205,1.5926251943093679,16.516615238516,-2.6059520851743443
-2.6741389193836747,-12.368035785587319,30.540924712228524,1.6020727414795195,16.790961059893608,-2.6257992884003216
-2.6862666078422093,-11.901538784768734,29.80287132238525,1.6116523398481841,17.06208752240488,-2.6458057262244172
-2.698599132161292,-11.435035693884947,29.067046765620123,1.6213991082926273,17.330970722029203,-2.666045527917898
-2.711171364328739,-10.967318163565642,28.331575414409066,1.6313400937641895,17.598276599842922,-2.6865745997776425
-2.7238233426822727,-10.50433104097724,27.605801669909866,1.6413482128819232,17.8606112197171,-2.7071319250872294
-2.7367215001476524,-10.03998102937557,26.880170783274924,1.6515545051997207,18.12143000491344,-2.727988026549022
-2.7497678724472046,-9.577853519890187,26.160300999431282,1.6618808533156713,18.378703517739737,-2.74898373938489
-2.7630810998467688,-9.11395255274771,25.43998717421833,1.6724488858003148,18.634626331184265,-2.770320255193127
-2.7763625633196143,-8.658337286692298,24.73481948338576,1.6829648815416942,18.883698611870628,-2.79149789833679
-2.7857203735967038,-8.341565127398034,24.245886476404344,1.6903746816255691,19.055520255964417,-2.806362888953508
-2.790199770345196,-8.191144433559941,24.01410287400947,1.6939216645410853,19.13672052647946,-2.81346237545988
-2.792119842329837,-8.137743839779816,23.955482510387398,1.6951393671289587,19.141883409208518,-2.815580128475462
-2.794841595595072,-8.189577305146097,24.342708475841434,1.6933781326277528,18.806560081170336,-2.8078607326107736
-2.798908703553806,-8.271149657190334,24.92453100057945,1.6908761842284659,18.30641270632813,-2.7963940291295932
-2.8030073397250272,-8.358318667496443,25.514738222428207,1.6885097270412008,17.803477454200582,-2.784917388285202
-2.8071143837397963,-8.450636107111839,26.110065341759352,1.6862916417358185,17.30057036170107,-2.7734923468140793
-2.8112186847171388,-8.547833774872675,26.708913728257528,1.6842256518719414,16.799021633831817,-2.7621457972894414
-2.815304250488398,-8.649468735998807,27.308931173194853,1.6823161769091222,16.300740205501718,-2.7509172406464746
-2.8194116277725563,-8.75653055374051,27.91609029132503,1.6805420746270288,15.800744081397891,-2.73969120823472
-2.8234829246868594,-8.867462270768415,28.521828179373333,1.6789253890320583,15.306037835971031,-2.7286216247669275
-2.8275884314737723,-8.984155191589085,29.136617924157267,1.6774360170845477,14.808041464547818,-2.717513395520782
-2.8316730419868703,-9.105047234992641,29.75224616516119,1.6760926528475188,14.313404947945543,-2.7065120245133856
-2.835739286451711,-9.230127001281941,30.36905844474427,1.6748906203355816,13.82177145992883,-2.695606209479564
-2.8391780431332343,-9.339577784298584,30.893781330859614,1.6739781480420823,13.406582976026197,-2.68641649781713
-2.840431729883918,-9.38031616862716,31.085791011025677,1.6736689902652926,13.255342143531863,-2.683073245047895
-2.844401927299332,-9.244970492272751,30.883114154421044,1.6764708035949831,13.322536765251401,-2.68888442058948
-2.8556850241706617,-8.853796559106728,30.282588302712124,1.6845818296844404,13.531491031071585,-2.705980593230194
-2.869719751255369,-8.374748028786176,29.54949402048253,1.6946759172157206,13.785041018373109,-2.727137550663875
-2.8840946158445684,-7.892414015577092,28.813990122029534,1.7050194427917214,14.037701775764916,-2.748687260305396
-2.898690236724675,-7.410955187288579,28.082462537123323,1.7155257887707374,14.287252145479421,-2.7704485563681334
-2.913507718711785,-6.9303830479747175,27.35493574302298,1.7261949549140383,14.533679006642826,-2.7924223838863558
-2.924517097485759,-6.578483035578313,26.823896308142746,1.7341236210189763,14.712425259270145,-2.8086744567904427
-2.9297278284681183,-6.413424243469456,26.575308472071537,1.7378765747789802,14.795767908007647,-2.8163449813001544
-2.9232501229450327,-6.344736624654417,26.472209624729086,1.7343136167377802,14.830347897930189,-2.811135169115253
-2.6248662076847866,-6.55195495081324,26.792330233818042,1.5566511014082087,14.725544141666253,-2.5182529258865283
-2.165212716350541,-6.877616118584224,27.294488891425672,1.2832405093284853,14.559768065083123,-2.068388086340006
-1.7105509932255492,-7.207602588442369,27.802263282747543,1.0131289860252286,14.390564265556955,-1.6249702529171004
-1.2609311798855998,-7.541829500645595,28.315621174381675,0.7463742984031208,14.217898613737386,-1.188100023281497
-0.8192113301711986,-7.87803367018054,28.83117940211588,0.4846605522416756,14.043003281006571,-0.7604894236878397
-0.38352051825952693,-8.217485397501978,29.35099108846782,0.22690044031033868,13.865156654441572,-0.34035851813021606
0.04402740880842002,-8.55836390010597,29.872360937888445,-0.02566359868584874,13.685350001116642,0.07030359543539086
0.46862932256275475,-8.90472186997606,30.401571347365508,-0.27610868630723556,13.501470243949896,0.476525503211404
0.885642555010075,-9.25270356638527,30.93282120855361,-0.5216733992386611,13.315490763150002,0.8738131621017763
1.2956873071188966,-9.602631400242094,31.466684251213024,-0.7627486465601134,13.127311269050951,1.2628467643791559
1.7017451433008242,-9.956966575973105,32.00700245961201,-1.0010664130869833,12.935537107588756,1.6464039671267534
2.1006632366023794,-10.312854491555667,32.54949535284321,-1.2348007711366917,12.741770256182834,2.0215803151924105
2.489962771024981,-10.667824790272041,33.09048279456011,-1.4624893802305954,12.547313408785401,2.3860310278814625
2.7167019712279465,-10.878144368819727,33.41099439833375,-1.5949216540148563,12.431577622989401,2.597542735690267
2.7968428734834903,-10.953256954951796,33.525009057952644,-1.641698801853889,12.39060316845317,2.6721738567703848
2.788461106247319,-11.041470177701065,33.34022790118196,-1.6385150341570915,12.663707409167786,2.6722463760987645
2.773484037823358,-11.204930679926267,33.01341712551189,-1.6329181725293174,13.15417507347932,2.6723712963875417
2.7583328609436264,-11.378051013307882,32.68732637393435,-1.627377733761838,13.653584908731196,2.672493159004719
2.7433729011504218,-11.556818151143633,32.369962376019295,-1.6220286687328251,14.149912339754492,2.6726108889869127
2.7284919786187767,-11.742538415343427,32.05897737404016,-1.61682918966688,14.646812891130846,2.6727272692513613
2.713673632796539,-11.93548355800783,31.754121133888596,-1.6117734339424583,15.144808740035138,2.672844242771449
2.698920826295078,-12.135692815756006,31.455558003311875,-1.6068624782807204,15.643774712602797,2.6729635537123833
2.684402056896229,-12.340814040458792,31.166715710054785,-1.6021503393757344,16.137928700097035,2.6730854743402865
2.6755448859112425,-12.46996659361876,30.993009374464425,-1.5993353132646384,16.44090375415017,2.6731627702098
2.6712001084173296,-12.534449864664358,30.90850807106951,-1.5979710932722426,16.58994530176043,2.6732016407814263
2.6678554177542004,-12.570423509400747,30.86185031489001,-1.5966590078697394,16.672633094632335,2.6722937179287083
2.4585537503352555,-12.557845247885497,30.847932532684215,-1.4714722687627813,16.679302577856966,2.4649549945701783
1.9798937671959236,-12.532956654415216,30.820403910663305,-1.185085316866904,16.692472752490296,1.9906851767890477
1.488340889128971,-12.512996343017528,30.798329223843567,-0.8908754400824497,16.703065979738916,1.5035315569087684
0.994436590537894,-12.498647683681549,30.78246738570921,-0.5951725205849823,16.710656558270156,1.0139559260438193
0.5016659016201201,-12.49002412343186,30.772936150096683,-0.3000919566055824,16.71521559781545,0.5254459223852728
0.009908557888352168,-12.487081839676874,30.7696848432085,-0.005589974863071673,16.71676605268148,0.037911425661861224
-0.48367529004514315,-12.489816203931996,30.772707555184013,0.2900062221886872,16.715310557341454,-0.45143425113186064
-0.9741912447936872,-12.498178736639675,30.781947464078353,0.5837384560188595,16.71090614429222,-0.9377075636058598
-1.4683707075002694,-12.512301955798888,30.797561149616584,0.8796084939298688,16.703419887468623,-1.4275584363403881
-1.9601430177396926,-12.5320395883834,30.81938660847605,1.1739540556272172,16.692960899825856,-1.9149373898142081
-2.4398405280001674,-12.556764818033749,30.846735510515096,1.4609656769155663,16.679861093593733,-2.3902393546424987
-2.6689975683945493,-12.572015345099349,30.870938097558977,1.5979679627943653,16.665116286940247,-2.6170314234224556
-2.670999487372924,-12.62883353395039,31.201598123736677,1.5968986198235577,16.391327859104802,-2.611049649918162
-2.6745320280675062,-12.732784077699806,31.788325698277703,1.595111191121614,15.908644857937109,-2.6005322891219245
-2.678205636154318,-12.845873219610585,32.402909704009,1.5933855532508294,15.407247526230234,-2.589643185686485
-2.6818755810598423,-12.963919324859498,33.021418359654135,1.5917954382298325,14.90688220079909,-2.5788103587183095
-2.685520191398855,-13.086157872235786,33.640178046695084,1.590346943920028,14.410457454129608,-2.5680935662788076
-2.6891888976020955,-13.214240271319229,34.26761516286582,1.5890187844977457,13.911199652247532,-2.557343799264497
-2.69283219917699,-13.346432223456704,34.89529907914927,1.5878273112462518,13.415803864058269,-2.5467024991339873
-2.6964844071623286,-13.48394447689655,35.529151289265364,1.5867590638331908,12.919560296263613,-2.5360656761179423
-2.7001429432856003,-13.626712680616121,36.16879732389355,1.5858142939577133,12.422779044969925,-2.5254375012017602
-2.7037770856801178,-13.773503958568826,36.80887713916,1.5849988114720042,11.92958651228531,-2.5149035498027588
-2.707421629797942,-13.92570113180331,37.45554181773489,1.5843030130954974,11.435215400877425,-2.5043593782420284
-2.7110193774775504,-14.080849237903239,38.09862302116523,1.583735024502036,10.947377616734585,-2.4939668141468325
-2.7134495555941913,-14.188409789687686,38.53568663207894,1.583417739820931,10.617939049522201,-2.486954370591187
-2.7142493392623144,-14.218108701123414,38.66241451093018,1.5833834542180234,10.5209269797487,-2.484967990549361
-2.719313466138344,-14.00609467640698,38.32545617294878,1.586980914250608,10.64569597383656,-2.493173659004374
-2.7294830931983314,-13.585523757272787,37.65840112915621,1.5942132321474893,10.891827823347487,-2.5095749988032092
-2.741588117350393,-13.093615904312706,36.880518572566324,1.602834922641847,11.177382799563073,-2.5289690094833785
-2.754029823633258,-12.597459679556582,36.09847029676358,1.6117097858558307,11.462842915820271,-2.5487634674299713
-2.766541329828086,-12.107732125064041,35.32909006158924,1.6206467706675303,11.742060624992328,-2.568533770255493
-2.778929344299244,-11.631544094248634,34.58341669327118,1.6295065025776392,12.011114616026635,-2.5879815935565382
-2.787878120989669,-11.292739782438174,34.05434887142811,1.6359126834892268,12.201066087047645,-2.6019546098186113
-2.7927681423845656,-11.109383404026252,33.768538029742395,1.6394153251293182,12.303349871852555,-2.6095641650949335
-2.796449448869839,-10.972164195961462,33.55488153695193,1.6420530731817173,12.379658586504892,-2.615280937954051
-2.796961448854531,-10.953133731339122,33.52526606783663,1.6424199919240308,12.390225703898038,-2.616075246128634
-2.796961448854531,-10.953133731339122,33.52526606783663,1.6424199919240308,12.390225703898038,-2.616075246128634
-2.796961448854531,-10.953133731339122,33.52526606783663,1.6424199919240308,12.390225703898038,-2.616075246128634
-2.796961448854531,-10.953133731339122,33.52526606783663,1.6424199919240308,12.390225703898038,-2.616075246128634
-2.796961448854531,-10.953133731339122,33.52526606783663,1.6424199919240308,12.390225703898038,-2.616075246128634
-2.796961448854531,-10.953133731339122,33.52526606783663,1.6424199919240308,12.390225703898038,-2.616075246128634
-2.7968885241806745,-10.95259965340828,33.52476463586425,1.6423771912664915,12.389283391041676,-2.6160071253614654
-2.727721821943482,-10.44604395339197,33.04917257502309,1.6017821473805114,11.49553002467794,-2.551396773751456
-2.6585625468867433,-9.939542647765906,32.57363158366976,1.5611914626255392,10.601872630325559,-2.4867933600570176
-2.589547848657357,-9.434100178452939,32.09908470637777,1.5206856323230913,9.71008341852295,-2.422324999203727
-2.4640901709952656,-8.515286650050127,31.236434420362304,1.4470525145685316,8.088953335406494,-2.305131835387332
-2.3307597310191848,-7.5388154265999345,30.319650813943863,1.3687987466846028,6.366093552982125,-2.180584526804796
-2.1979285149950187,-6.566000366162401,29.406299884527996,1.2908379813232955,4.649684607060888,-2.056503555838802
-2.0650408293033133,-5.5927717392102725,28.49256066819527,1.2128440730108596,2.932545975411864,-1.9323698351398146
-1.931821713857191,-4.617115822452141,27.576542532168112,1.1346556432742334,1.211124698369281,-1.8079265175932944
-1.7987319710301903,-3.642407391052178,26.661413965667258,1.056543144397126,-0.5086248607784777,-1.683604050255614
-1.665671972909235,-2.6679168007506804,25.746489924546236,0.9784481031637722,-2.2279900669023163,-1.5593093681939987
-1.5328905488369573,-1.69546640128769,24.833481365899033,0.9005165614954662,-3.9437556147262245,-1.4352749091392967
-1.3994250281698302,-0.7180058883123593,23.915768941101867,0.8221835125933045,-5.66836087320263,-1.3106014182947483
-1.2667852332424698,0.2534072627590512,23.003734228174174,0.7443350953355529,-7.382296327629698,-1.1866992585770886
-1.133758003253602,1.2276578693176374,22.089035501589855,0.6662592862430576,-9.10123811283834,-1.0624351860496462
-1.0008296688644553,2.2011841948547954,21.175016783746123,0.5882415205599045,-10.818901995930641,-0.9382634943827041
-0.8677380198331087,3.1759065867103775,20.25987511013413,0.510127902900976,-12.538676186533943,-0.8139392464117271
-0.734827371089945,4.149303388004055,19.34597799925659,0.43212051720633793,-14.256111540505689,-0.6897840753503434
-0.6017844198168822,5.123669132423245,18.431171172709316,0.35403548104068183,-15.975256471884643,-0.5655053171769653
-0.4686015554918901,6.099059557095637,17.515402300342977,0.2758683276668956,-17.69620932177229,-0.441095862712054
-0.33525399061220335,7.0756561980842285,16.59850094263766,0.19760450890312226,-19.41929038755631,-0.3165325573274803
-0.20598189054114477,8.022405385569156,15.709622587974682,0.12173264562386335,-21.089709402463342,-0.1957762458538887
-0.1370705101053251,8.527091187070134,15.235786126544287,0.08128745418706049,-21.98016356976016,-0.13140439674330084
-0.06799070102947231,9.03301050824019,14.760791545362235,0.04074340928735358,-22.872794126260924,-0.06687521421501703
0.001159652789604407,9.539446477459531,14.285311896673331,0.00015796054946338022,-23.766336242799916,-0.0022801340724692806
0.0057076460989349325,9.572754584683972,14.254039775251973,-0.002511329470354003,-23.82510417880003,0.001968260564420232
0.0057076460989349325,9.572754584683972,14.254039775251973,-0.002511329470354003,-23.82510417880003,0.001968260564420232
0.0057076460989349325,9.572754584683972,14.254039775251973,-0.002511329470354003,-23.82510417880003,0.001968260564420232
0.0057076460989349325,9.572754584683972,14.254039775251973,-0.002511329470354003,-23.82510417880003,0.001968260564420232
0.0057076460989349325,9.572754584683972,14.254039775251973,-0.002511329470354003,-23.82510417880003,0.001968260564420232
0.0057076460989349325,9.572754584683972,14.254039775251973,-0.002511329470354003,-23.82510417880003,0.001968260564420232
0.0057076460989349325,9.572754584683972,14.254039775251973,-0.002511329470354003,-23.82510417880003,0.001968260564420232
0.0057076460989349325,9.572754584683972,14.254039775251973,-0.002511329470354003,-23.82510417880003,0.001968260564420232
0.0057076460989349325,9.572754584683972,14.254039775251973,-0.002511329470354003,-23.82510417880003,0.001968260564420232
0.0057076460989349325,9.572754584683972,14.254039775251973,-0.002511329470354003,-23.82510417880003,0.001968260564420232
0.0057076460989349325,9.572754584683972,14.254039775251973,-0.002511329470354003,-23.82510417880003,0.001968260564420232
0.0057076460989349325,9.572754584683972,14.254039775251973,-0.002511329470354003,-23.82510417880003,0.001968260564420232
0.0057076460989349325,9.572754584683972,14.254039775251973,-0.002511329470354003,-23.82510417880003,0.001968260564420232
