RAMEL-ESPOL/ARCHIE/matlab/data/joint_goals_square_t35_h30_p12.txt
Joint0,Joint1,Joint2,Joint3,Joint4,Joint5 
0.0015559264441958186,9.571832968510927,14.253065934734831,0.000476576117020784,-23.82243174530168,-0.003368790676151471
0.0015559264441958186,9.571832968510927,14.253065934734831,0.000476576117020784,-23.82243174530168,-0.003368790676151471
0.0015559264441958186,9.571832968510927,14.253065934734831,0.000476576117020784,-23.82243174530168,-0.003368790676151471
0.0015559264441958186,9.571832968510927,14.253065934734831,0.000476576117020784,-23.82243174530168,-0.003368790676151471
0.0015559264441958186,9.571832968510927,14.253065934734831,0.000476576117020784,-23.82243174530168,-0.003368790676151471
0.0015559264441958186,9.571832968510927,14.253065934734831,0.000476576117020784,-23.82243174530168,-0.003368790676151471
0.0015559264441958186,9.571832968510927,14.253065934734831,0.000476576117020784,-23.82243174530168,-0.003368790676151471
0.0015559264441958186,9.571832968510927,14.253065934734831,0.000476576117020784,-23.82243174530168,-0.003368790676151471
0.0015559264441958186,9.571832968510927,14.253065934734831,0.000476576117020784,-23.82243174530168,-0.003368790676151471
0.0015559264441958186,9.571832968510927,14.253065934734831,0.000476576117020784,-23.82243174530168,-0.003368790676151471
0.0015559264441958186,9.571832968510927,14.253065934734831,0.000476576117020784,-23.82243174530168,-0.003368790676151471
0.0015559264441958186,9.571832968510927,14.253065934734831,0.000476576117020784,-23.82243174530168,-0.003368790676151471
0.0015559264441958186,9.571832968510927,14.253065934734831,0.000476576117020784,-23.82243174530168,-0.003368790676151471
0.0015559264441958186,9.571832968510927,14.253065934734831,0.000476576117020784,-23.82243174530168,-0.003368790676151471
0.0015559264441958186,9.571832968510927,14.253065934734831,0.000476576117020784,-23.82243174530168,-0.003368790676151471
0.0015570691968057658,9.571839891730471,14.253054025353347,0.00047657918003210617,-23.822415577933405,-0.0033676364858376585
0.018656450387088637,9.675176203363613,14.075289890811817,0.00046771802498184065,-23.58095385573092,0.013880570376751122
0.05726166960975182,9.906598039505278,13.677155283163152,4.8970689006515945e-05,-23.03913049563169,0.052662336207030036
0.09826118310755293,10.149579309238913,13.259083171648493,-0.0009889999240848537,-22.468647460145696,0.09362056655624702
0.13974703424116125,10.39258736966338,12.84090780896066,-0.0026470297747387766,-21.89645897336424,0.1348411576319663
0.1815852515659715,10.634824393559228,12.423997173415417,-0.004924097413456045,-21.32444353951505,0.17620052632169897
0.2237660235721078,10.87623450937514,12.008442767629958,-0.007821246482278657,-20.752741090261928,0.21769958277885557
0.26630416363919435,11.11690348307256,11.594092311129282,-0.011341285790315195,-20.181156442602557,0.25936349159983585
0.30926041856394887,11.357167813498076,11.180361603348459,-0.015493019546150389,-19.608893405116554,0.30126180979774164
0.3526102852091831,11.596880320045416,10.767499119546065,-0.020278728853050387,-19.03630364464468,0.34338056501543696
0.39635226471939444,11.836025117914438,10.355527301755286,-0.025702591853107394,-18.463427610935344,0.3857284484815865
0.44046793159435627,12.074495747700952,9.944624673350418,-0.03176649979730383,-17.89052384258195,0.4282979299890783
0.4846418673388203,12.310611845530271,9.537682845678543,-0.038424831633270845,-17.321651130819784,0.4707964348093563
0.5294861211872871,12.547642193652255,9.129063377803455,-0.04577380963994709,-16.74893909147696,0.5138232888573039
0.574664043237905,12.7837804252435,8.721874585370815,-0.05376783072249973,-16.176742186917185,0.5570649849480582
0.6201488438968183,13.018891783351993,8.316344401293989,-0.06240482234883115,-15.605396770067602,0.6005068001973495
0.6661209170216859,13.253900586234861,7.910873506093501,-0.07172494662275326,-15.032657969117528,0.644331532030259
0.7123320298949108,13.487535646617848,7.507650388505913,-0.08168268643018782,-14.461628684809627,0.6883132860299743
0.7591137170110493,13.721464003049801,7.103792853909709,-0.09235613002614232,-13.888234896676357,0.7327782987187569
0.8061031460384966,13.953864850159082,6.702439393530909,-0.10366877612305568,-13.316941601257172,0.777392529739891
0.8534602364760052,14.185539210958973,6.302202538932556,-0.11566182823259048,-12.74579221595359,0.822319037185185
0.9013436469010918,14.41724743749803,5.901763190695882,-0.1283844456537407,-12.172907812022755,0.8677192779588065
0.9495169350047138,14.64783643773123,5.503108961251051,-0.14178145035303263,-11.601139235990997,0.9133802346170657
0.9979868877478936,14.877347459659967,5.106164425796546,-0.155858431799266,-11.03039565193734,0.9593197023593464
1.0470727070610133,15.107275397787566,4.708338428812683,-0.17071813283866918,-10.456954108705494,1.005851703426447
1.0962882024507161,15.335339705430277,4.313571974718139,-0.18622042474521783,-9.886505623387649,1.0525269023605581
1.1460550607930804,15.563495617253162,3.9184760808974857,-0.20250444280288557,-9.314165748976068,1.0997569281130803
1.1963131548980812,15.791442637132327,3.523564689941562,-0.21956353612138807,-8.74067659713609,1.147496948972699
1.2468289263648935,16.018117987555968,3.130674104533117,-0.2373264469568192,-8.168714741282757,1.1955371989107915
1.2975733656880075,16.243406932813283,2.739999714471557,-0.2557864577917655,-7.598585361824885,1.2438618333468605
1.3489601329563263,16.469134253716106,2.348371569400853,-0.2751047599706198,-7.025667268453809,1.2928774327191532
1.4005363046812493,16.693301095988538,1.9592521938036267,-0.29512145375006765,-6.455031984967438,1.342164717270546
1.452738152749668,16.917796164628236,1.569357765816572,-0.3160161337589507,-5.88187104941291,1.3921535820499658
1.5053531965940359,17.141682956816435,1.1803080858477746,-0.3377184363912572,-5.30856382019991,1.4426544659796594
1.5579997708592557,17.36335504497773,0.7948915725136726,-0.3600750513440829,-4.73924101173409,1.4933131617426516
1.611457270533034,17.586085099766006,0.40741255761790607,-0.3834286766424086,-4.165495208378066,1.5448934290035707
1.6650249882857902,17.806939596321765,0.022968404944804215,-0.4074866165263594,-3.594877052639458,1.596733451643826
1.7191308843650481,18.027686851486397,-0.3615233416300323,-0.43244987337529633,-3.0228247798734724,1.6492608417586239
1.773798708879506,18.24839874357339,-0.7461951662670094,-0.45834683313451097,-2.449137587021108,1.7025144766239009
1.8285049178535138,18.4669687049029,-1.1273795546059535,-0.4849379585158319,-1.879300272481078,1.7559979507535923
1.8838599571413925,18.685837080272982,-1.5093370296485331,-0.5125304981695661,-1.306955472661299,1.8103224112667313
1.9396209380977893,18.904022416593417,-1.8903619064138437,-0.5410210155842029,-0.7346573757270879,1.8652661490083642
1.995882297614733,19.121882611381043,-2.2710853025886535,-0.570473050962406,-0.1614619493866028,1.9209384471161453
2.0522331030842555,19.33783399245369,-2.64874350890059,-0.6006811795755894,0.4084547305686537,1.9769471618919439
2.109200686437483,19.553898069197235,-3.0268764525141694,-0.6319403543561044,0.9804236927569351,2.0338319706094343
2.166815199912345,19.770157020997065,-3.40563678336974,-0.6642904035898901,1.5546844623358655,2.091642819601709
2.224528232357688,19.984550792939118,-3.781421482612516,-0.697437245626125,2.1257646916929134,2.1498459515710016
2.28255325284303,20.197890388529412,-4.155654473303367,-0.7315111922158744,2.695807078802386,2.2086708570417346
2.3413284102819465,20.411767392231557,-4.531135102650245,-0.7667903015475656,3.269076891358599,2.2685814673221145
2.400235456051801,20.62392281976612,-4.903903618806837,-0.8029212759422981,3.839523769369105,2.328966301596078
2.459801678452861,20.836252185702353,-5.277295904024995,-0.8402439387494957,4.412244403604745,2.3903842688462458
2.5196979398376977,21.047567849488036,-5.649230400141962,-0.878572852785107,4.9840444744567245,2.45251657842269
2.579960378518784,21.257998757112162,-6.019938719679705,-0.917946733626005,5.555268959073789,2.5154191134436203
2.6407934344605755,21.468247958971215,-6.390665967836346,-0.9585198790615609,6.127832813373391,2.5793263609989663
2.7022214753158593,21.678376208620346,-6.761527918026694,-1.0003348034107133,6.701918874798601,2.644288085632132
2.7636746728298442,21.88644053234501,-7.129099268038686,-1.0430189308363107,7.272210930499905,2.7097205043311132
2.8256381547075917,22.094093576640557,-7.496302874287935,-1.0869234794530218,7.84322758701643,2.77615858611134
2.8883888147247245,22.302234437511128,-7.8647385332488176,-1.1322753583482896,8.417464085020201,2.84392669640055
2.9511098006415866,22.508152548177897,-8.22961335769718,-1.1785041509062624,8.98744098076337,2.912164530682861
3.0144404312024204,22.71395471850123,-8.594664080964991,-1.2260978809776244,9.558980643695794,2.9815879847496105
3.0783265954067085,22.919444002223234,-8.959550224058773,-1.2750458699073184,10.131552927419216,3.052165817386328
3.142764820245083,23.12459112652172,-9.324228248632538,-1.3253751234311435,10.705090560473641,3.1239224746687264
3.2072509549088544,23.327798007794836,-9.68586105580169,-1.3767109017897696,11.27511731107442,3.196318735902967
3.2726034250362157,23.531635629039776,-10.049030704582364,-1.4297315091471954,11.848850569928622,3.2703005713731765
3.338216821736586,23.734197392902633,-10.410349044029008,-1.4839782286782808,12.420939003174038,3.3452135388362763
3.4041944322218898,23.93580810983999,-10.770399359822004,-1.5395580713353427,12.992292442619492,3.4211999856927044
3.470185595153313,24.135413423298935,-11.127300195838226,-1.5961920592348802,13.559904722592627,3.4978772257674846
3.5357489982474672,24.331731455400668,-11.478753158344023,-1.6534994938624659,14.120078041438806,3.5747415890840726
3.6017794614713776,24.52747291267045,-11.829609088293468,-1.712271696612077,14.68051507705118,3.6528584029185365
3.6684440183040135,24.72311616933671,-12.180734104345106,-1.7726927290994978,15.242600144189728,3.732459121730661
3.735214498691845,24.91711058822819,-12.529350292590815,-1.8343113200585224,15.801877128754704,3.8129418042952095
3.802679928371167,25.111164371425243,-12.878533045775864,-1.8977009303434949,16.363272125703887,3.8950471222231555
3.8703242758643173,25.303786946284948,-13.225606641976986,-1.9624092154408006,16.92247754376247,3.9781797763537
3.938694128424035,25.49652730332151,-13.573368897695152,-2.0289934731350723,17.483996122773334,4.063045902810821
4.007354195833569,25.688146305590813,-13.919592001057476,-2.0970680449126324,18.044228393856795,4.149142577896746
4.076548768946025,25.87932195191169,-14.265506961610164,-2.166909568992572,18.605158755949507,4.236811095708327
4.146288127549184,26.0700683732009,-14.611148081768317,-2.238570808748991,19.166841747913477,4.326105549504602
4.216355742560331,26.259787783032603,-14.955438675207214,-2.3118672580291038,19.727521109609775,4.416786841364862
4.286813481965161,26.448648585687106,-15.2986891914856,-2.386898474775466,20.287691732466474,4.508971107383457
4.357621085169276,26.636542834216563,-15.640708523169955,-2.4636581240737914,20.847031568864846,4.602643240872904
4.429269864545757,26.82475618481672,-15.98384709709905,-2.5427298080637564,21.409385417884177,4.69850210903663
4.501129578877383,27.01162092057074,-16.325073032553078,-2.6234662357793503,21.96978156789348,4.795751656198533
4.573242372708463,27.1972577225117,-16.66460861169244,-2.7059469009477777,22.528567610975646,4.894483876239
4.646074818077168,27.382858857475508,-17.004642289805275,-2.7907543284594576,23.089339940930778,4.995385848567492
4.719556512042627,27.568220724213017,-17.344813554478716,-2.877869660803778,23.651508140298677,5.098419941477862
4.791798584283209,27.748629560627556,-17.6764611766499,-2.965055431824199,24.200716188304927,5.200948901871643
4.833507165379047,27.851973886127606,-17.866696954348427,-3.0160951996098246,24.516248310223133,5.260710450556011
4.857816498278543,27.91193468251974,-17.977159536334227,-3.0460827394268613,24.699633581114956,5.295735781144452
4.875788043721613,27.956134736808256,-18.058628221140523,-3.068366164631063,24.834963466965377,5.321722133171451
4.88704081627997,27.983755037725878,-18.109555329194254,-3.082368371705117,24.91959401018565,5.338033657163565
4.900461256754666,28.015289239497303,-18.17392603518861,-3.0994318913140066,25.027285579756,5.357910863357294
4.881102402185602,27.88687565213844,-18.30594361515125,-3.093824467817361,25.288367237586776,5.3524056209851105
4.841255209809001,27.614822858929422,-18.57751802751751,-3.082604927500485,25.833323347100396,5.341349416140103
4.800671185647875,27.326679479921562,-18.85375597937569,-3.0716426215103483,26.39904404990245,5.330487354206686
4.760893836732394,27.032984401138865,-19.12398573991085,-3.061376671360985,26.964267531890517,5.320253678583482
4.721632014138975,26.73169669835934,-19.39003797322443,-3.0517323028801715,27.532875286313388,5.31057585625573
4.68342489157622,26.42718881129473,-19.64812544521487,-3.0428371458765926,28.09669075829547,5.3015845733851075
4.645725177575816,26.115351285321097,-19.901818138194123,-3.03455845871287,28.663411390100535,5.293148287058422
4.608767276232122,25.79825525743426,-20.14940776393074,-3.0269478628898465,29.22925071712105,5.285321389112346
4.572467816154216,25.475404197338435,-20.391334598575288,-3.0199847804080338,29.795148592244157,5.278084971184157
4.5400647017604046,25.177309741622672,-20.606091724830776,-3.014218978674147,30.308988678115323,5.2720230736604
4.52590249158138,25.044007853732836,-20.699560661995328,-3.0118374351575814,30.536188143657714,5.269496409026221
4.518518519728006,24.97373041638173,-20.748217128417448,-3.0106524621258184,30.65534471478479,5.268195223211386
4.537363195516138,25.202404596130567,-20.99099110902502,-3.023605293938776,30.668435717919902,5.290875789543857
4.581394141597798,25.730208219470914,-21.542619553126606,-3.053594561047763,30.689899152953952,5.343331304167222
4.629640867233433,26.299669994819368,-22.13231937322342,-3.0862813618860545,30.707531031472797,5.40047195900081
4.6789655273212345,26.8725670606462,-22.71984514743352,-3.1195129369527206,30.719475281945087,5.4585299477910425
4.72994405973696,27.45513126593735,-23.31138591687288,-3.15366439192499,30.72565620771004,5.518158675811539
4.782018313142208,28.040533780728456,-23.899814013965315,-3.188348877684668,30.725803998570278,5.578680609166662
4.8353502012344505,28.63026953328251,-24.4865212846514,-3.2236637768748513,30.719805274253037,5.640263858851623
4.889554672316736,29.219825414680972,-25.066953949555586,-3.259345133533547,30.707639584198432,5.702446380602837
4.9444925540239275,29.807584621686534,-25.639554287625483,-3.2952956969344016,30.689372934565377,5.7650573527378715
5.000455457155274,30.396526817265865,-26.207238330739138,-3.331699972192902,30.664924196241603,5.828416402198711
5.057444408825548,30.986455457755497,-26.76979030854785,-3.3685509349459353,30.63427288421992,5.892509083946439
5.1152933139320185,31.575491701063456,-27.325424866851137,-3.405734690489537,30.59752092539963,5.9571350647966295
5.168075311259109,32.104598353078174,-27.81936855947869,-3.4394692867953327,30.559278247684098,6.015725957476684
5.176676644534824,32.29939933762532,-27.999672441816987,-3.444653261973227,30.544293087874944,6.024657432787104
4.875616230440174,32.319462650290475,-28.009644441818665,-3.2448319394249907,30.551765894318443,5.675974225683542
4.2930204061101165,32.3548356929669,-28.02720798990735,-2.8578780102345323,30.56490891956198,5.0011878141541315
3.6511666845679405,32.38855807189575,-28.043936066488655,-2.4312039701918944,30.577443956506656,4.257724133315924
3.01365495905974,32.41662649509067,-28.0578531710236,-2.0070995549581414,30.587926841403327,3.5192540777075094
2.372254760337705,32.43942597532531,-28.06915161140231,-1.5801431301350706,30.596458507361653,2.776248627393322
1.734868628650392,32.4566902415053,-28.07770340464512,-1.1556508693901186,30.602928771965193,2.03786852103474
1.0933547978190388,32.46864949880634,-28.083625847301224,-0.7282567704293674,30.607417670180812,1.2946885046572734
0.45600255848658877,32.47515671126286,-28.08684810945706,-0.30353924316413333,30.609863756095642,0.55631812145029
-0.18434043145753967,32.476303191057305,-28.087416688799145,0.12321136850666026,30.610299455738097,-0.1855218550136457
-0.8231047655856542,32.47206395624156,-28.08531568347588,0.5488933601986536,30.60868382924802,-0.9255308526078209
-1.462480975737203,32.46243416326146,-28.08054913258476,0.9749109996876483,30.605076721543917,-1.6662401074888191
-2.101800304474477,32.44741160646667,-28.073110927518993,1.4007624803690717,30.599454032068245,-2.406868240304314
-2.7425137196277145,32.42693524548968,-28.062967928899624,1.8273575508934552,30.59179766010484,-3.149089488046585
-3.383073717602013,32.40102720760669,-28.05012739484763,2.253609073608461,30.582124648377068,-3.8911046353403274
-4.020047433428806,32.36985690396251,-28.03466863140925,2.677179050613361,30.570508597653113,-4.628931058334515
-4.647251446251625,32.33387885895451,-28.01681178751798,3.0939111605447938,30.557130420580638,-5.355401473375144
-5.081078492610023,32.30591299449896,-28.00291924139247,3.3819302072895554,30.546734868336582,-5.8578626811119765
-5.188083486251168,32.29964964999819,-27.989921571516753,3.4525724179413575,30.533663764626443,-5.981066547433774
-5.197001466953235,32.33026898751899,-27.689081857118133,3.446780355471542,30.202270175487854,-5.9682365878064685
-5.211631132733664,32.374531007329374,-27.19475114755479,3.4377871617419253,29.66377374033351,-5.947709865606982
-5.226578939777489,32.4123114300219,-26.688702647183092,3.429225293887729,29.120029569649134,-5.927376694953009
-5.241764829174298,32.44324245982945,-26.17367926750202,3.421146478345927,28.57414784273375,-5.907349903743875
-5.257047687888433,32.46704062127229,-25.654522130224745,3.413617987818286,28.031252708104624,-5.887805439155234
-5.272663363875434,32.4840171479375,-25.12326968183617,3.406521215322852,27.483072422557537,-5.868436819939733
-5.288429364445554,32.4938864608701,-24.58617878493286,3.3999396682474274,26.936148914253533,-5.849468396406761
-5.304158743201132,32.49670232747726,-24.049692391371938,3.3939318365273716,26.39687142065463,-5.831102754352122
-5.319995391169265,32.49268735501902,-23.508977866676688,3.3884218823018677,25.860185443577887,-5.8131482140113055
-5.33578342741479,32.48208235544038,-22.969664179566344,3.3834795801275193,25.331462883825825,-5.795784552455296
-5.348575148182772,32.46880511852623,-22.532203568002313,3.379808462091044,24.90727421338962,-5.78205156126979
-5.357728841831029,32.53059895235082,-22.517952135673497,3.383486185757035,24.830829639294812,-5.787027148168761
-5.406938392990449,32.98038653401004,-22.932623168064328,3.4134585642682698,24.79290299209282,-5.838025901086801
-5.472208346908658,33.567163768867466,-23.468577599561005,3.4530657382986183,24.73832382637171,-5.905320847955214
-5.5390727178293035,34.157039328031594,-24.001655467377777,3.493471003452509,24.67764368111614,-5.973857099270743
-5.607978354355007,34.75342710094039,-24.534816219983835,3.534935735537491,24.610379469534926,-6.044069755069332
-5.672697400856284,35.303303002033445,-25.02124031949179,3.5737251174916502,24.543102418367777,-6.109641250822818
-5.700380414193742,35.53554721763364,-25.22520242731099,3.5902719228386126,24.513174254768764,-6.137580067914721
-5.474042009083703,35.40838978367264,-25.107928032413053,3.4486486007275228,24.53672362338916,-5.893942424328847
-4.928342259358941,35.08817743768451,-24.81293876432557,3.106820048133758,24.59260722381865,-5.306137437199458
-4.32137856134466,34.724335860184965,-24.477498386216052,2.7259832779553097,24.65134864703078,-4.6515846542585715
-3.72213938321246,34.35698298730652,-24.13846575496297,2.349393433236732,24.70573374726808,-4.004615827599191
-3.1320786906449887,33.98713765999522,-23.796700120319944,1.9780467119614829,24.755727908089717,-3.36687451562708
-2.5468446772946436,33.61213940180589,-23.44964945231613,1.6092682259668456,24.801671167527214,-2.7337086445922583
-1.9709582382219075,33.23496346700882,-23.09998827174064,1.2459818273038443,24.84330742429292,-2.1100809154635303
-1.395072159719697,32.849459776159755,-22.741917772977075,0.8823494788967856,24.881270909199223,-1.485918961368174
-0.8258793165645754,32.460023061221214,-22.379416617682548,0.5226536645210403,24.91505242309875,-0.8685247144381288
-0.26241746178894404,32.06603756002204,-22.01182758468545,0.1663516660170702,24.944788462946786,-0.2569219355863976
0.29897119435602104,31.66488080747752,-21.63659826416575,-0.1888144285853386,24.97061094760327,0.3528086043606742
0.8518271778855804,31.261168790792723,-21.257946475480214,-0.5387014163168368,24.992187706140204,0.953595502666887
1.4049287466539786,30.848438198722224,-20.86971131522289,-0.8888078971891644,25.009897473724585,1.5549150102850575
1.9489219073932842,30.433626678156113,-20.478310386182358,-1.2331597366698996,25.023383662705825,2.1465425529594255
2.4905392649659954,30.011622993169183,-20.07882235765941,-1.5759655106757942,25.032816144873294,2.7357396130057454
3.0271797740601643,29.584372958629103,-19.67297456576914,-1.9155267518730843,25.038103843223034,3.3196175178590064
3.562115376756819,29.149169492443523,-19.25807434577332,-2.253861749972565,25.03922295386811,3.901675558459915
4.087848426915478,28.712122612804233,-18.839841702400182,-2.586179421840086,25.036148211301217,4.4736941255586995
4.600551152029654,28.276729409191226,-18.42157086769272,-2.9100207828855096,25.02902922699065,5.0314495031356365
4.892538841197385,28.02461385281701,-18.178609982383108,-3.094323657316013,25.023089598004507,5.3490329435585835
4.88793484927351,27.93246159835838,-18.25937065303486,-3.0957949071696422,25.195995756230975,5.354341254045732
4.850267801729721,27.67726979746829,-18.516133611883014,-3.085106617629554,25.70920926469542,5.343819259771766
4.809590633211844,27.390976383571136,-18.79309852393419,-3.074013258404873,26.273813217826643,5.33284118194487
4.769431872622584,27.096978926605093,-19.066046429107633,-3.0635418214258467,26.84207279849097,5.32241683509479
4.730256312796034,26.79886285496366,-19.331674303295657,-3.0538106382860932,27.407084839006473,5.312666461293166
4.691659037613494,26.49377192613119,-19.592591027743275,-3.044714726013046,27.974328094747978,5.303487457328692
4.654002694571477,26.184803502186742,-19.846216284889426,-3.036335071389245,28.538113782299863,5.294964063971743
4.616771836287436,25.86790725601146,-20.09589314022386,-3.0285550430725783,29.105852033694422,5.286979758789576
4.580225977026313,25.545372694844133,-20.339747844429144,-3.0214315607039284,29.673371758468072,5.279594320747911
4.545633360167891,25.22921489123483,-20.569276357165162,-3.015181206318121,30.220115729061934,5.27303867808011
4.527933099068194,25.063233244272197,-20.686178556548885,-3.012176021104909,30.503536000195584,5.269855308092111
4.518500732831844,24.973560282316182,-20.748334482268053,-3.0106498240510837,30.655633006895634,5.268192095635025
4.278692553320629,24.98752183831178,-20.7579212701903,-2.851252115422567,30.663514337405907,4.990277409384183
3.746065988378418,25.01808378892304,-20.775745245956447,-2.4968859413249525,30.675563945453096,4.372705277214566
3.1492849252427955,25.047478550308604,-20.79288228714033,-2.0995512665082914,30.687208124284098,3.680680422888351
2.5544371944942035,25.071691795640657,-20.806987489399308,-1.7032448396771023,30.69678618871799,2.990835264503479
1.9571878512761665,25.090907295826824,-20.818176333096055,-1.3051295818390012,30.704395920843528,2.298155407332566
1.3618700776469361,25.104990031059874,-20.826373527861513,-0.9081421584400675,30.70997615772319,1.607677786005594
0.7666251745885839,25.11401670931924,-20.831626376718923,-0.5110924589176862,30.71355318128362,0.9172583235233415
0.1710136252666087,25.11799559581905,-20.833945114793845,-0.11373591050036262,30.715158838199667,0.22639885407731358
-0.424622208081579,25.116920173145395,-20.83331917044059,0.28365115152258397,30.71472669229516,-0.46449231098838817
-1.0211947169222604,25.110776723738045,-20.829743960616234,0.6816281645037187,30.71228162017455,-1.1564615329034025
-1.617657480448887,25.099561747772384,-20.82321631668515,1.0794481109050151,30.707824184438994,-1.8482833779130516
-2.213184530762943,25.08329949242083,-20.81375233192068,1.4765132397457659,30.701401212052954,-2.5389891553716786
-2.80885285173805,25.06196083642972,-20.801324247191427,1.873490576095803,30.69294118400802,-3.2298150500492775
-3.405596523222818,25.035486467869717,-20.78589747613849,2.270954568813425,30.682460031899716,-3.9218333592689345
-3.9959783231022334,25.00426056586239,-20.76769491115111,2.663909640382203,30.67014919496335,-4.606410448574702
-4.424219267849417,24.978467209517532,-20.752644940699966,2.948743513739929,30.65995160072292,-5.102928453029166
-4.519317157100372,24.97875732010685,-20.736767250028766,3.011389926719115,30.638884114270013,-5.212041127594544
-4.534009743822629,25.098252162557625,-20.499526528302635,3.0101051710933455,30.2818714376899,-5.207276302999764
-4.5572329924672434,25.279968295716007,-20.123990406306508,3.0085283961562523,29.72417269472443,-5.200179596730823
-4.580909688252838,25.456469579943857,-19.7405290631563,3.0074696242054193,29.16374455351103,-5.193468160371644
-4.604954267163308,25.626965206029812,-19.350613228617515,3.0069348514188117,28.602850132700834,-5.187166374789939
-4.6293619639461605,25.791328721598774,-18.954412441020423,3.0069229423482926,28.041785480439565,-5.181272250990973
-4.6540371160793885,25.948886587634785,-18.553577111564614,3.0074292604137973,27.48287653605863,-5.17580230049818
-4.679147675302749,26.100653876333975,-18.145478147774305,3.008454659105805,26.922475613365176,-5.170714575044957
-4.704673168956621,26.24638369948897,-17.730549231413153,3.009999990609855,26.361263625323065,-5.1660124078819125
-4.730526633174339,26.385522280478188,-17.31030915210567,3.0120581467722234,25.80131499900482,-5.161707581961299
-4.754697350320631,26.5081758614048,-16.917532263026416,3.014410885496345,25.28534325674994,-5.158078610267417
-4.765356355816303,26.56004941808342,-16.744377825759386,3.0155752848677757,25.060074067956258,-5.156594845068814
-4.772864908440702,26.62891452593464,-16.76646346127875,3.0191588803649085,25.0129700817794,-5.162031310395711
-4.81159084940249,27.055306079699655,-17.201396424852586,3.0437801130339786,25.0194823195204,-5.204574657038754
-4.864046007453138,27.623975245234995,-17.77675397417922,3.077010078413799,25.023402676558113,-5.26192174134865
-4.898143969504697,27.988294293415453,-18.142532266701743,3.0985379352082365,25.023050621153082,-5.299030332673619
-4.891839068811453,27.95772316681161,-18.233430353848146,3.097634607934252,25.14467814032478,-5.299428743667488
-4.8560521567444095,27.71634400626739,-18.477443992939406,3.087436657512829,25.631268348171744,-5.289400130925718
-4.815228472826583,27.430533189165732,-18.75550907840155,3.076241652972811,26.196496763651123,-5.2783353923193514
-4.774942967264857,27.13712273576576,-19.02944172231828,3.06567487825758,26.765160232968544,-5.267830240953142
-4.73572346540915,26.840181067737934,-19.295509995167734,3.0558701270963184,27.329441655648573,-5.258020375273538
-4.6971301495362265,26.536657897365377,-19.556563974756585,3.046710652032422,27.895256249925172,-5.248791891039979
-4.659132290606539,26.226406217240708,-19.81267124281945,3.038190585338938,28.462819935821262,-5.24014059471594
-4.621938766475271,25.91127535369723,-20.062332561073124,3.030386429596149,29.02876801754362,-5.232104784831998
-4.585369801787185,25.59006377198894,-20.306560678104926,3.0231923196396706,29.595340776781114,-5.224662233320183
-4.550150042300646,25.269594364065274,-20.54047312718924,3.016766533452272,30.150801204924345,-5.217938494914533
-4.530186543204158,25.082949733831747,-20.67242398203492,3.013352840065596,30.470002410674525,-5.214329846521881
-4.520445030552149,24.9905324294027,-20.736630950854323,3.011748967082655,30.626920750865775,-5.212623897671641
-4.526700991864031,25.07139877495254,-20.853328015522816,3.017018305032402,30.662373933743737,-5.222055386365196
-4.564787685999839,25.530082607829264,-21.334044615668795,3.043000402818465,30.682368658691207,-5.26750979762187
-4.612499669735373,26.096437904502892,-21.922527266597225,3.075388256134841,30.701925693266467,-5.3241399230946795
-4.661468486601493,26.66846656815942,-22.511203676234413,3.1084458864280315,30.715915621591613,-5.381906406133269
-4.711711252551952,27.24596262391025,-23.099690153711688,3.1421730479347234,30.72415838913532,-5.440807143182656
-4.763461498607978,27.83114660871818,-23.690046207283586,3.1767133555407288,30.726478604155417,-5.501090868276368
-4.8163810662227045,28.419774697048947,-24.27781875748295,3.2118287128359704,30.722684099777258,-5.562339920752694
-4.870398746540844,29.01075875361561,-24.861831163514942,3.247461996038791,30.712689014452767,-5.624452825509314
-4.92500902952856,29.59843980014547,-25.436508575565206,3.2832735142967757,30.69660482932957,-5.686836089717873
-4.980647269264853,30.18739893204944,-26.00636600232991,3.3195431797776727,30.674339994539128,-5.749975838556998
-5.037165759461751,30.775897464117197,-26.569713807729077,3.3561676973939885,30.645950851140935,-5.813690257948777
-5.094750549654991,31.365696438966292,-27.128232680247145,3.393260711697554,30.611345245867494,-5.878174817155073
-5.151589508352176,31.93846789979659,-27.664816003740466,3.4296575801697733,30.571849120591914,-5.94140433050386
-5.184470086322417,32.265667472659366,-27.96877712590939,3.4506166042604853,30.54668551559487,-5.977794301318825
-5.190489108207907,32.30819712846525,-27.90865971148656,3.4509620291683483,30.4438633123375,-5.977576649220814
-5.202972891689094,32.349231922797685,-27.487280120420344,3.44301040866852,29.981537145569188,-5.959776968644181
-5.21785212397016,32.39116298698513,-26.984110232228257,3.434124850348182,29.43652844049384,-5.939166949906499
-5.232875364779927,32.42603988078462,-26.47512271142701,3.425778111529825,28.89274359716994,-5.918994429117558
-5.248083599196166,32.45396423877435,-25.958984159908763,3.4179390703029675,28.34874803663989,-5.899193733916281
-5.2634740017291515,32.47491377436847,-25.43584372891955,3.410603348318773,27.80471337005889,-5.879760332532514
-5.274858003606865,32.48582441125183,-25.048404639321248,3.4055480040904214,27.40639660397603,-5.86575965222446
-5.280720172679541,32.48995388085545,-24.848981657469086,3.4031023664979667,27.20285253268726,-5.858690279061491
-5.29521113448973,32.49594558978318,-24.355040959592042,3.397298397931193,26.702948644550386,-5.841501675184881
-5.311001193667561,32.49579640095798,-23.816233600657,3.3915021405142287,26.164310377607226,-5.823299214044679
-5.326785224574504,32.48892024496327,-23.27709717739016,3.3862351887017637,25.63205892620335,-5.80562711921656
-5.342215737896182,32.47591712005789,-22.749589851110066,3.3815741536406723,25.11755315976751,-5.788832631541109
-5.350578218498204,32.466350112436004,-22.463549561859725,3.379242602877036,24.841074997587924,-5.779921996781303
-5.3745649878578305,32.685248272982385,-22.6609040395595,3.3937353362616873,24.8181739294095,-5.80450194099263
-5.4351626056343125,33.23551057929843,-23.166346579482408,3.4305897228425644,24.7698831093284,-5.867174806562982
-5.500888313070604,33.82158232781689,-23.69919983805456,3.4704011255596825,24.71286749724514,-5.9347680429706395
-5.5687805047322385,34.41560601534781,-24.233525262974457,3.511353088490257,24.64921175764726,-6.004180323185256
-5.638037537736348,35.01007191232253,-24.762460622750957,3.5529539724376105,24.579607479951875,-6.074570278816332
-5.690853145807137,35.45585007549185,-25.15530966427956,3.5845639986287647,24.52354688307977,-6.127972817681157
-5.6504175831112695,35.522859364366994,-25.212753859612288,3.558947066354058,24.51648283830693,-6.083677046884582
-5.2282320974700625,35.381271121335104,-25.077802596423037,3.294348052145004,24.547940908774525,-5.628340949246751
-4.59213181827343,35.16297959686199,-24.870971976202195,2.895177550222963,24.593167075599258,-4.941857434412891
-3.9395723229726904,34.93274335875609,-24.654295788174203,2.485101865484183,24.636842130892873,-4.237083237982824
-3.286284442167828,34.69574321264277,-24.432670396131,2.0740405890205187,24.677766715859725,-3.5310030417274465
-2.636459906476779,34.45341667314905,-24.20739312785409,1.6646926235820068,24.715660286423827,-2.828168342427606
-1.9850878235761455,34.20379225467243,-23.976584693153324,1.2539618459567745,24.750786561100707,-2.123180114213566
-1.3486149130991614,33.953246790595664,-23.746062597491434,0.8522883797418507,24.782310344117146,-1.4338729412993552
-0.7176154139637019,33.698254584935476,-23.512490422006284,0.45379617664803323,24.810825258953567,-0.7500823184158011
-0.08802168200969672,33.43713990284743,-23.274265829129277,0.05597387197877466,24.836460924359084,-0.0674218399990194
0.5362038755306646,33.17151491777157,-23.032801360173302,-0.3386154183931612,24.85909395303962,0.6097813971518194
1.1601508208246896,32.899159940331906,-22.786018775036666,-0.7331320288797595,24.87890865075292,1.2870214513220262
1.7778712787920008,32.62262948821123,-22.536172857229364,-1.1237601564603805,24.8957501291277,1.9578121810318894
2.3921419961587187,32.340687972269926,-22.28207098159723,-1.5121995930141126,24.909657344519434,2.6251413604639713
3.00268553998386,32.05342788753151,-22.023733386411642,-1.898221921593186,24.92066165293329,3.288675644246848
3.6122212024045206,31.759491574147894,-21.759877811909167,-2.283495814577776,24.92883600897405,3.9513400433206782
4.216275073326123,31.460981838068545,-21.49231637009808,-2.6651381989316025,24.93405553039017,4.6082425691890885
4.797985118006653,31.16656607696145,-21.22873741304397,-3.0324613594950223,24.93638670142484,5.241004169971903
5.164574064056064,30.977452090618304,-21.05955484682222,-3.263819591943169,24.936453828561245,5.639833428849688
5.180524202046442,30.89710931044793,-21.115714165567116,-3.2774947824490974,25.071810509289264,5.665740396068791
5.140668947094591,30.652184457771657,-21.363819273011067,-3.265638070621984,25.56627997835702,5.653460909347836
5.095465855939091,30.363448098085275,-21.645276460405267,-3.2526718965262535,26.138089476127995,5.63995695398161
5.051176643863147,30.06878676667509,-21.920949048928986,-3.240490155097488,26.709989102023158,5.627187086893049
5.007742305424447,29.76801207511243,-22.19104224796133,-3.2290730937772687,27.28237521865553,5.615133191824192
4.965250199906457,29.4619702963008,-22.45485873207454,-3.2184387464238338,27.853701871733314,5.6038170544209445
4.923514079922654,29.149540533877115,-22.71340658389973,-3.2085367888282152,28.42610511122535,5.593187600934792
4.882138911455876,28.82775794977041,-22.968976782691467,-3.1992806738423734,29.004854536838124,5.583152421473741
4.841623860797371,28.500557143763842,-23.218335762254963,-3.1907869101773487,29.58276548210258,5.5738386439091405
4.802292199006113,28.170961933505946,-23.45939930683369,-3.1831292291058424,30.154718890940984,5.565293990969899
4.776330142758451,27.946759960407213,-23.617858236898037,-3.1783837026958097,30.538226292749066,5.559955905665044
4.7653536866153114,27.85033655281195,-23.684681132149684,-3.1764569733001005,30.701828346686796,5.557771214936998
4.620755285255487,27.845110649649236,-23.699811676475914,-3.0810815885593947,30.73003937234462,5.391562342059176
4.134114177898297,27.87468663898905,-23.71604058355671,-2.757214379754993,30.741446127648345,4.826821676596096
3.518880524144685,27.907335972317796,-23.733941639368158,-2.347454289068358,30.754041291740396,4.1127908982010135
2.907477907427684,27.934552678849677,-23.748854484945497,-1.9399500351481043,30.76455826000623,3.403150027126429
2.2932127597478655,27.956662055654014,-23.76096256172432,-1.5302926923853963,30.773114082657397,2.690139840483976
1.6787095352333399,27.973542851940493,-23.77020341711935,-1.1202824873114832,30.77965354028005,1.9768161147032224
1.0661225153262177,27.98516646424773,-23.77656451431405,-0.7114092832565514,30.78415960628118,1.2656895768832968
0.45328485988179235,27.991601596430883,-23.780085631452078,-0.3022790394286768,30.786655098215178,0.5542548487677738
-0.16129659163158508,27.99284211598075,-23.780764587781007,0.1080536194492097,30.787135341355555,-0.15921156204290032
-0.7734346568622921,27.988888843592072,-23.77860201445885,0.516741333548512,30.78559986748772,-0.8698387976557355
-1.387724404560962,27.979713783926996,-23.773581942583167,0.9268000972731644,30.782039811118025,-1.5829512598864015
-1.9984486171649465,27.96541553773761,-23.765756565106738,1.334362305238847,30.776495891759858,-2.291902153724163
-2.6136121546104754,27.945788158158244,-23.755014431742445,1.7447198070718226,30.768925889632786,-3.0059746994785743
-3.224745494449709,27.92108457617861,-23.7414827294301,2.152167841406032,30.75937047307324,-3.715326361032854
-3.8382115574939792,27.891056316124992,-23.72502469576113,2.560899583676011,30.747774583775495,-4.427333787000493
-4.409456803249182,27.858367774553944,-23.707095807018387,2.941210556578655,30.73516876327175,-5.090283015362551
-4.710610643885587,27.839294646520294,-23.69662899164726,3.1415790990951318,30.727825959921546,-5.439758066223779
-4.765518850957516,27.84266900019644,-23.62942757590842,3.1757266017044894,30.65434539206308,-5.498821501031863
-4.775515569949087,27.881899828128255,-23.230848926172712,3.168111096599661,30.216654956292352,-5.48226719959763
-4.788076902112742,27.924704852188096,-22.728809946771687,3.1590640919785122,29.671950365757187,-5.461988267453078
-4.80077505845156,27.96083227038903,-22.220012219383918,3.15048569261305,29.127155160227915,-5.442053725362872
-4.813593094402751,27.99023208191004,-21.70517537463872,3.1423797890413874,28.58303900302442,-5.422480430540319
-4.826567263297981,28.012974766308503,-21.182882611959908,3.13471722536906,28.038115137370603,-5.403204489484497
-4.83977527186478,28.029097966785788,-20.650031661004096,3.1274528808534847,27.489244370252937,-5.384108695078836
-4.8530557120714155,28.038377700017403,-20.113172711690865,3.1206712230522364,26.943199764077445,-5.3654195174630575
-4.8662846649516815,28.040923363502102,-19.577387995688746,3.114415003068715,26.40495373551814,-5.347288537530335
-4.879552952256024,28.036968371927507,-19.039073026611014,3.108619981018363,25.87066943594354,-5.329567781969284
-4.892702934974729,28.026819287124052,-18.504956433456016,3.1033674656503356,25.346752162713404,-5.312469535125145
-4.900654736792588,28.01774909058328,-18.181435196002568,3.1003816515137204,25.032337528945828,-5.302316364683732
-4.917677115993732,28.195091374421864,-18.349174048854383,3.1108673206544397,25.021839782293807,-5.320224815662383
-4.9680542594882615,28.72247153285663,-18.87294385114093,3.142522361546891,25.015528216783288,-5.374700317477328
-5.023943384194944,29.297536649094358,-19.43880276579892,3.177500181026793,25.003301378504762,-5.434809714797344
-5.081359815394064,29.877699869522676,-20.00410978508705,3.213282947578688,24.985315948804207,-5.496211405069646
-5.139990617197728,30.459401413435632,-20.565304253276828,3.249668272677442,24.961586335805286,-5.558553178100758
-5.184497958231074,30.893959833381732,-20.980879263011786,3.277186981417668,24.940138429308526,-5.605640461444975
-5.191668006573888,30.963412044334245,-21.047007453109455,3.2816121025352083,24.93641591589115,-5.613207267840293
-5.191668006573888,30.963412044334245,-21.047007453109455,3.2816121025352083,24.93641591589115,-5.613207267840293
-5.191668006573888,30.963412044334245,-21.047007453109455,3.2816121025352083,24.93641591589115,-5.613207267840293
-5.191668006573888,30.963412044334245,-21.047007453109455,3.2816121025352083,24.93641591589115,-5.613207267840293
-5.191668006573888,30.963412044334245,-21.047007453109455,3.2816121025352083,24.93641591589115,-5.613207267840293
-5.191668006573888,30.963412044334245,-21.047007453109455,3.2816121025352083,24.93641591589115,-5.613207267840293
-5.191647705074636,30.96332851020621,-21.04686958402846,3.2815992720200806,24.936225404759124,-5.613185349442226
-5.097684922997633,30.576701937904442,-20.408760927539518,3.2222149437033987,24.054470034893946,-5.511738966813485
-5.0037934960306645,30.190368968888986,-19.771136849224927,3.162875711702381,23.17338426792949,-5.4103696223229845
-4.910018390431907,29.804514624823565,-19.134302718486925,3.103609994620435,22.293390071359013,-5.309125863535319
-4.733585186624998,29.0785488400708,-17.936130930118566,2.992104491385682,20.63772469576626,-5.118640759687048
-4.5502237836219,28.324075747975318,-16.690909195130452,2.8762203773157076,18.91704446312374,-4.920675665027005
-4.367079464268126,27.57049588514981,-15.447161692309082,2.7604734597656604,17.198401363367974,-4.7229449434928386
-4.183784036998885,26.816294261940968,-14.202388003727869,2.644631042254193,15.478340253066488,-4.525051079158176
-4.000584075770994,26.062485450731966,-12.958262632555305,2.5288489591285037,13.75917500485783,-4.327260284191457
-3.817781557997076,25.310311991274972,-11.716836331193567,2.4133180596314423,12.043739402494175,-4.129898586786706
-3.634373744074571,24.555647933200277,-10.471299415994991,2.2974046139344693,10.322623645524851,-3.931883384841795
-3.4511224900710498,23.801628068746716,-9.22682571154173,2.181590113856441,8.60297706120261,-3.734037211921936
-3.2680084515233006,23.04817280168116,-7.9832838480599255,2.0658623337274755,6.88461811930942,-3.536339182887572
-3.0847004353220164,22.29391937907327,-6.738424667049313,1.9500119600310475,5.164438873314362,-3.338431726984112
-2.90184242287884,21.541517576933327,-5.4966214970161715,1.8344459879915789,3.4484825038817086,-3.1410101150756926
-2.71850856600969,20.78715782830334,-4.251586829994072,1.7185792830342987,1.7280607666880274,-2.943074760442313
-2.5352419140370857,20.033074606168405,-3.0070085567195424,1.6027550514643827,0.008269686410846466,-2.745211963192812
-2.3515706593345875,19.277326574167848,-1.759682594427325,1.4866751116148826,-1.715318223013578,-2.5469123389098605
-2.169043382078568,18.526285640756186,-0.5201254731090611,1.371318163685874,-3.42817094309877,-2.3498478033629904
-1.9860810403165943,17.773454557085557,0.7223862055482287,1.2556862556834252,-5.145106348433204,-2.1523135528996
-1.8028273813059539,17.019424796802618,1.966876242594335,1.1398702356447346,-6.864775501562967,-1.9544647834274989
-1.6187012798607114,16.261805217012796,3.2172911049542683,1.023502833379714,-8.592631734562051,-1.7556740864487224
-1.4362944269711442,15.511259791066891,4.456030414911624,0.9082219934581169,-10.304354381341255,-1.5587395663833745
-1.2523297101126387,14.754304256851425,5.705349301827411,0.7919565859943586,-12.030696166568339,-1.3601231073547149
-1.069938988398738,14.00382520549573,6.943979063699824,0.6766859409500389,-13.742267436914748,-1.1632060032213216
-0.8867206376866881,13.249940727484725,8.18822931930823,0.560892235699709,-15.461605253730337,-0.9653953541527419
-0.7030902239811747,12.4943607430273,9.435277927172027,0.4448381072951249,-17.184809907491122,-0.7671398236196295
-0.5204239087392367,11.7427477131033,10.675779266407583,0.32939328758090747,-18.898967372795532,-0.5699251765029689
-0.3370069070667554,10.988045850397862,11.921378576340157,0.21347403524061326,-20.62016934845377,-0.3719000550561137
-0.21712405610594365,10.494766546398983,12.735512462882367,0.13770826475541637,-21.745161023379023,-0.24246921765042406
-0.1234218570192936,10.109212189139525,13.371851479752285,0.07848862447277027,-22.624471058549343,-0.14130417196341208
-0.02965402977690905,9.723387793165404,14.008636182598696,0.019227507300436476,-23.504396954355695,-0.04006827121175966
0.005202122131287971,9.57996595913699,14.24534705655182,-0.0028015250783220828,-23.831490282570503,-0.002436025281166914
0.005202122131287971,9.57996595913699,14.24534705655182,-0.0028015250783220828,-23.831490282570503,-0.002436025281166914
0.005202122131287971,9.57996595913699,14.24534705655182,-0.0028015250783220828,-23.831490282570503,-0.002436025281166914
0.005202122131287971,9.57996595913699,14.24534705655182,-0.0028015250783220828,-23.831490282570503,-0.002436025281166914
0.005202122131287971,9.57996595913699,14.24534705655182,-0.0028015250783220828,-23.831490282570503,-0.002436025281166914
0.005202122131287971,9.57996595913699,14.24534705655182,-0.0028015250783220828,-23.831490282570503,-0.002436025281166914
0.005202122131287971,9.57996595913699,14.24534705655182,-0.0028015250783220828,-23.831490282570503,-0.002436025281166914
0.005202122131287971,9.57996595913699,14.24534705655182,-0.0028015250783220828,-23.831490282570503,-0.002436025281166914
0.005202122131287971,9.57996595913699,14.24534705655182,-0.0028015250783220828,-23.831490282570503,-0.002436025281166914
0.005202122131287971,9.57996595913699,14.24534705655182,-0.0028015250783220828,-23.831490282570503,-0.002436025281166914
0.005202122131287971,9.57996595913699,14.24534705655182,-0.0028015250783220828,-23.831490282570503,-0.002436025281166914
0.005202122131287971,9.57996595913699,14.24534705655182,-0.0028015250783220828,-23.831490282570503,-0.002436025281166914
0.005202122131287971,9.57996595913699,14.24534705655182,-0.0028015250783220828,-23.831490282570503,-0.002436025281166914
