RAMEL-ESPOL/ARCHIE/matlab/data/joint_goals_square_t35_h45_p12.txt
Joint0,Joint1,Joint2,Joint3,Joint4,Joint5 
-0.003991364886570645,9.57962837416378,14.254189048286564,0.0009514946153106393,-23.82253727250076,-0.00364620529797125
-0.003991364886570645,9.57962837416378,14.254189048286564,0.0009514946153106393,-23.82253727250076,-0.00364620529797125
-0.003991364886570645,9.57962837416378,14.254189048286564,0.0009514946153106393,-23.82253727250076,-0.00364620529797125
-0.003991364886570645,9.57962837416378,14.254189048286564,0.0009514946153106393,-23.82253727250076,-0.00364620529797125
-0.003991364886570645,9.57962837416378,14.254189048286564,0.0009514946153106393,-23.82253727250076,-0.00364620529797125
-0.003991364886570645,9.57962837416378,14.254189048286564,0.0009514946153106393,-23.82253727250076,-0.00364620529797125
-0.003991364886570645,9.57962837416378,14.254189048286564,0.0009514946153106393,-23.82253727250076,-0.00364620529797125
-0.003991364886570645,9.57962837416378,14.254189048286564,0.0009514946153106393,-23.82253727250076,-0.00364620529797125
-0.003991364886570645,9.57962837416378,14.254189048286564,0.0009514946153106393,-23.82253727250076,-0.00364620529797125
-0.003991364886570645,9.57962837416378,14.254189048286564,0.0009514946153106393,-23.82253727250076,-0.00364620529797125
-0.003991364886570645,9.57962837416378,14.254189048286564,0.0009514946153106393,-23.82253727250076,-0.00364620529797125
-0.003991364886570645,9.57962837416378,14.254189048286564,0.0009514946153106393,-23.82253727250076,-0.00364620529797125
-0.003991364886570645,9.57962837416378,14.254189048286564,0.0009514946153106393,-23.82253727250076,-0.00364620529797125
-0.003991364886570645,9.57962837416378,14.254189048286564,0.0009514946153106393,-23.82253727250076,-0.00364620529797125
-0.003991364886570645,9.57962837416378,14.254189048286564,0.0009514946153106393,-23.82253727250076,-0.00364620529797125
-0.003991364886570645,9.57962837416378,14.254189048286564,0.0009514946153106393,-23.82253727250076,-0.00364620529797125
-0.003989947099304159,9.579619921228577,14.254196461828148,0.0009514987370453118,-23.822522392602043,-0.0036447752003293207
0.019411493516116485,9.439799893191847,14.376928447145827,0.0009172507953440144,-23.576601207076013,0.019918905309929062
0.06575624886293156,9.16110596157839,14.622188557805897,0.0002453440074761343,-23.087668070128746,0.06634692016330251
0.11252506149002518,8.87739690691795,14.872723698536154,-0.001245856734514883,-22.591654193940677,0.11288795647446659
0.15938605355713764,8.59057954972976,15.126893029214752,-0.0035591708356182243,-22.091985987123778,0.15921713699119935
0.20565608055754908,8.304810101559916,15.381028681939991,-0.006648039981892607,-21.59594135087857,0.20467424240871557
0.2518050892466425,8.017178504723041,15.637728260531297,-0.010526034203264048,-21.09849509665228,0.24973768062765328
0.29767764659242724,7.7286200009396335,15.896176153493563,-0.015170859681770364,-20.601309701516872,0.29426911375150083
0.34339484398435355,7.4383420322636145,16.157100815727254,-0.020585073359850305,-20.103063756417853,0.3383995279335506
0.3887869167334901,7.147395630634561,16.419575160232352,-0.02673814148685343,-19.605603595104597,0.38197849314688503
0.4340416324974417,6.854549235500613,16.684728763206138,-0.03364576262606749,-19.106867626250835,0.425199329634396
0.4787425503932786,6.562490741702678,16.950139524766232,-0.041229314720126156,-18.611463461736427,0.46767859533172357
0.5234955839029999,6.267236878492916,17.2194454379616,-0.049581668395552864,-18.112677895131814,0.5100047275862368
0.5679172753561084,5.97127165493282,17.490406742309684,-0.05862738288551188,-17.614766737627594,0.5518258697962741
0.611923720363658,5.675153877110646,17.762522481176802,-0.06833393513941312,-17.11869802801538,0.5930765690599166
0.655910818709681,5.376188388916963,18.038291147114506,-0.0787814800546091,-16.620007775623716,0.6341392456375846
0.6995730610473164,5.076411190203441,18.315860155637687,-0.08989288834993776,-16.122150807978507,0.6747392330580042
0.7428696770007137,4.776097296769227,18.594988456998493,-0.10164477940025407,-15.625617944423912,0.7148507706678966
0.7860477241418218,4.473507030869905,18.87731436616381,-0.11409662853829253,-15.127583160137014,0.7547135547353044
0.8289476040499976,4.169722767517005,19.16185329193726,-0.12719745472125737,-14.62988655826472,0.7941903638776837
0.8715925016561127,3.8645593338214077,19.44879922024489,-0.14094608338427994,-14.13227350725032,0.8333130774328418
0.9139806894094108,3.558005456812518,19.738184663503315,-0.15533456763670836,-13.634777301035193,0.8720902990961077
0.9560700314258743,3.2503473574941726,20.029759997861664,-0.17034032641502014,-13.137911343283623,0.9104935877903554
0.9979801413305069,2.9406830246391515,20.324404334954426,-0.18599995729100108,-12.640275656414415,0.9486416828196682
1.039718359066519,2.6289151604964687,20.622240410160696,-0.20231362581328485,-12.14178325449746,0.9865502765063499
1.081102445486492,2.3163825528373665,20.922012687272726,-0.21920329630276605,-11.644629962458742,1.0240631855030145
1.1221833428218713,2.0026945714601276,21.224113908996355,-0.23667971749344063,-11.148238278767176,1.061236027380418
1.163287838916548,1.6853018569751725,21.531034847749158,-0.2548819126442742,-10.648655317869897,1.0983728698145716
1.2038999817791016,1.3681582809198576,21.83897967731737,-0.27357667422638055,-10.15216896515406,1.1350161420581926
1.2442944790629409,1.0491200059732593,22.150047049885522,-0.29287957605177417,-9.655464920040352,1.1714225178011055
1.284661429012119,0.7266245533859171,22.465800087306267,-0.3128830081217969,-9.15620119264063,1.2077712482835892
1.3246431283509021,0.4034903476162636,22.78351179956993,-0.3334070740207697,-8.658816449207855,1.2437482295559061
1.3644953545114327,0.0776247005473731,23.105267993372244,-0.3545778207151211,-8.16015590469957,1.2795915770960993
1.4039916059609805,-0.24915054302739353,23.429300192687144,-0.37627070687765407,-7.663078637180477,1.315105288281288
1.4431837817497222,-0.5772691299525351,23.756060146204796,-0.39850532648913284,-7.166977275434972,1.3503435942635447
1.4822214680775783,-0.9080179760926687,24.086862460916333,-0.42136329801458133,-6.669983252708585,1.3854483229678394
1.5212889956799596,-1.2430453239845496,24.423408152579835,-0.4449586293765098,-6.169739581759634,1.4205925656578018
1.5597345100953153,-1.5767765562131804,24.76012470827073,-0.46889101364547964,-5.6746353156290485,1.45519687376369
1.598122689351247,-1.9141150177523998,25.10198236262551,-0.49350295579709347,-5.177452261768676,1.4897761927277862
1.6363646399801923,-2.254358159610743,25.448320715940735,-0.5187419202229663,-4.679344402002354,1.5242574334159718
1.6742955330375573,-2.596077974340907,25.79772388255423,-0.5444965865821023,-4.18249090390355,1.5584985229384825
1.7121624570823417,-2.9415541407238903,26.15256684630964,-0.5709346805693352,-3.6836799658824626,1.5927290679832005
1.7498051603977836,-3.289394967535934,26.511471100839124,-0.5979469796602692,-3.1850391636410382,1.6268107973028494
1.7870040520252177,-3.6375750428518896,26.87237388449703,-0.6253675038326686,-2.6895381382444765,1.6605504712454637
1.8242709264971477,-3.990942577347075,27.24034839795311,-0.6535738902788256,-2.1903894887363635,1.6944184114043934
1.8611175977975487,-4.344931010713,27.610689468891078,-0.6821977034226331,-1.694161337669618,1.727976938477769
1.8979519700744236,-4.703509210250642,27.98759593018878,-0.7115546940100419,-1.1954003656102432,1.7616032024030595
1.9344066030752367,-5.063158632501287,28.367419748689017,-0.7413521258291161,-0.6991196226280169,1.7949673218557698
1.9707379590471912,-5.426447975483579,28.752917595206625,-0.7717964537389317,-0.20187966199003549,1.8283090265364772
2.006867609700154,-5.792668707546309,29.143396201139538,-0.8028243595843433,0.29521153412360396,1.8615618132206933
2.0430046277593963,-6.164045880971142,29.54129909948796,-0.8346220389275386,0.7950074347388922,1.8949239946227259
2.0786636327428405,-6.535640967440548,29.941385827180127,-0.8667603872603888,1.2907397819176294,1.9279519740971625
2.1144084157155922,-6.91339845445976,30.35011612288177,-0.8997481191096909,1.7901968519955593,1.9611726384188062
2.1497088949017886,-7.291794337257368,30.761576503466355,-0.9330976986737839,2.2859234649887545,1.994097923810554
2.185124841282779,-7.676918059040091,31.182457651662066,-0.967340777903335,2.7857320741667335,2.027254523010212
2.2204239064877185,-8.066412475321421,31.610284542414835,-1.0022665436079603,3.286325999769138,2.0604310282412976
2.2552916872531954,-8.456851268054907,32.041347588289106,-1.0375594345874177,3.7831690516648453,2.093334850437116
2.289526365154843,-8.845889555948002,32.47306335409884,-1.0729928623766782,4.2732538159391025,2.1257750703124385
2.3233034068059757,-9.23542564474535,32.90753969249911,-1.108724835438497,4.7589572355776415,2.1579168029020535
2.356651312150242,-9.625740873191111,33.345110218851644,-1.1447685943255854,5.24057341077817,2.189786738377784
2.389450384916092,-10.0153600562102,33.784130598460116,-1.1809743522132459,5.716248631593441,2.2212690065727587
2.4218218661675563,-10.405646155548585,34.22614491038675,-1.217455214399682,6.187615727117024,2.252478028897776
2.4537134108812273,-10.79590561895901,34.67038161931633,-1.2541334818932752,6.653792696358519,2.283361349404735
2.4853174498983317,-11.18846651465969,35.11951885373271,-1.2912162805042784,7.117483291304452,2.314103780789334
2.516992389966384,-11.587908332618538,35.57888514501376,-1.329129039229427,7.583878666742801,2.3450556360706165
2.54815411333206,-11.986930712354466,36.040150649649256,-1.3671693105704776,8.044289316391753,2.3756459026098407
2.5789731937030287,-12.387664025735559,36.50579794639205,-1.4055270005582239,8.50111272875708,2.406038577855689
2.6089734103732622,-12.783766429767006,36.968439740694585,-1.443579722625082,8.947146585987575,2.435758056717095
2.6385199673992332,-13.179871315931896,37.4334540075465,-1.4817566822382646,9.387671646259786,2.4651589751566942
2.6673325883376005,-13.572050800013248,37.89620174223538,-1.519664315232199,9.818369183952171,2.4939554585975223
2.695606388056973,-13.962758420834291,38.35953701313969,-1.5575246308189643,10.242014125023342,2.5223346308904926
2.7112815643477775,-14.181940773071974,38.62048094927224,-1.5788005316257427,10.477286425899264,2.5381199448051857
2.713247972277583,-14.229184507878593,38.646970179668635,-1.5822714164086447,10.547440730373683,2.540965571934853
2.7024900341056624,-14.33759090573022,38.38341120403672,-1.5779409020256672,10.91953511627272,2.541426115804133
2.688162762932035,-14.488775888197305,38.036834082252156,-1.5722732970195168,11.417469403450738,2.5420179620470797
2.673947381305214,-14.646616878204135,37.69808996252948,-1.5667634515024935,11.91422573879479,2.542582488560785
2.6597923848113636,-14.81170542484592,37.366002356756326,-1.561390356213068,12.411572745690194,2.5431238322403296
2.6457401890164767,-14.983575076419738,37.04162533327457,-1.5561692047590236,12.907989360114932,2.5436423541592768
2.6316988504150323,-15.163421233746016,36.722926718926516,-1.551065530878945,13.406704239071871,2.5441432674411257
2.617804574020232,-15.349532343130068,36.4130654796915,-1.5461280161474893,13.902845184121482,2.544623535671005
2.604596669321104,-15.53412188785067,36.12373321461915,-1.5415393571057017,14.376927490746683,2.5450672423466894
2.5986306672620434,-15.61999370416148,35.994750621608496,-1.5395004579644287,14.591854464382711,2.545263908224071
2.5954195157891133,-15.666863089595706,35.925774194690824,-1.5384117906352028,14.707739350516626,2.5453688538067505
2.5931358632649926,-15.700473160663798,35.87691285584325,-1.5376413090106988,14.790238555162253,2.545443113280134
2.597359388656563,-15.51548270897768,35.57743807683665,-1.5409601267435558,14.904574990398329,2.5527259505738202
2.6068672206875436,-15.104367501287289,34.91407520343442,-1.5484266705035572,15.156489945754485,2.569017794178602
2.618040605635959,-14.629226969519138,34.14942994824577,-1.557210208300485,15.445603112608202,2.5880554437611467
2.629417880317041,-14.153930601848723,33.3867292337698,-1.5661631539308738,15.732608082011136,2.6073257007695094
2.641013276455998,-13.67798924026163,32.625215301447874,-1.5752962918290228,16.017772865768876,2.626851653112814
2.652866578400526,-13.199929425862306,31.86257249443542,-1.584640571656102,16.301938165870048,2.646698517193457
2.664769651248695,-12.728121044996385,31.11214562773818,-1.594031339984891,16.58013630836989,2.666518440365705
2.6767487235408383,-12.261319323813664,30.371897054646382,-1.6034885577354026,16.853159181389312,2.686358100058053
2.6889643715796137,-11.793252194906195,29.63187516122679,-1.6131384218234384,17.124680568706935,2.7064838587876046
2.7013054368066394,-11.328217133831544,28.89888372732544,-1.6228925781771733,17.39219802351088,2.7267122476381864
2.713907807096501,-10.86114839676734,28.164952246913025,-1.6328578763254402,17.658611384874195,2.747265411132174
2.726589624428845,-10.398800316148243,27.440696470810483,-1.642889923553212,17.920065634792174,2.7678466599233396
2.739584893720248,-9.932698214077071,26.712855807846285,-1.653173240346644,18.181338226432747,2.788835060593054
2.752652734104798,-9.471532236889539,25.995013309580063,-1.6635166085082704,18.437544799315646,2.8098409108340006
2.766037616253443,-9.00672367326684,25.27382792124518,-1.674112894740238,18.693438810603553,2.831256504058253
2.778862945168792,-8.568251297581847,24.595666530055503,-1.6842674068717605,18.93266377891238,2.851685349661795
2.7866094480311543,-8.306586243739067,24.19197100516556,-1.6904010429319472,19.074413282668512,2.8639823115348806
2.7906944988035516,-8.169541023434562,23.980840760948674,-1.6936356001223893,19.148349931558787,2.8704545102732353
2.6946723492006477,-8.128102549936246,23.919927960494036,-1.6355960358821753,19.170505035980863,2.7732837741124587
2.249236947462881,-8.104281369456395,23.895186550910772,-1.3653659636827264,19.182672133292005,2.3196615883789207
1.7466062419089345,-8.082571695070923,23.87264879613211,-1.0603112657357132,19.193736072901494,1.8076836327758636
1.2451603887890612,-8.066364678851407,23.855828295330415,-0.7558707614549546,19.201995104480726,1.2968223161377732
0.7393698341695695,-8.055525058644102,23.84458063977719,-0.44871694542103097,19.207517878138162,0.7814698226960882
0.23074872288469417,-8.050197646914587,23.839053474868365,-0.13979882925667245,19.21022994223316,0.2631943105952778
-0.2773855358699352,-8.050451553651982,23.839313306948814,0.1688401860554625,19.21012698670808,-0.25459887816616456
-0.7835878469986138,-8.056249292441334,23.84532911160335,0.4762865368848846,19.207165367107258,-0.7704073773319696
-1.2938208703655831,-8.067695380774964,23.857206866999636,0.7861322685365614,19.201323646921164,-1.2902812170262807
-1.8009693424453281,-8.084651090094091,23.874805544623097,1.094025062497884,19.19267256974667,-1.8069436098502558
-2.3100573054317444,-8.107274240656087,23.898293154107957,1.4029839257586343,19.181132937514725,-2.3254859896789943
-2.7260592850880734,-8.12993493124784,23.92182412596043,1.6553487032118483,19.16960243825841,-2.749125899784505
-2.7926771369482934,-8.148148418836593,24.034425355329947,1.6947853517581217,19.07338519121519,-2.8140079604325425
-2.796073089943125,-8.213727837304166,24.51827135817237,1.6926164958828054,18.65520478789517,-2.8043915722684107
-2.8001890883573233,-8.297815586013703,25.108282652990294,1.6901325149888808,18.149385075560936,-2.792811742715479
-2.804286169648549,-8.386499097247922,25.69948000638016,1.6878148258072,17.64697396860452,-2.7813631657274613
-2.808393471271179,-8.480364075534533,26.296063656095807,1.685643737675168,17.144357722696604,-2.769959821958103
-2.812485827005011,-8.578800095985486,26.894382002364075,1.6836297427920557,16.644576941087784,-2.758667228524756
-2.816568257739822,-8.68185750183832,27.49514533907459,1.681766585159403,16.14697185618982,-2.747466775111966
-2.8206667398783463,-8.79017955843367,28.10219944474767,1.6800404473424861,15.64834064870986,-2.7362832864218167
-2.824758043997622,-8.903146291692964,28.712132707641864,1.678459410051913,15.151474435957184,-2.7251763682118972
-2.828836842763757,-9.020554920158192,29.324140032436823,1.677022440158822,14.656975455297458,-2.7141561751454093
-2.8329294392306372,-9.143147008745112,29.942190694392053,1.6757184152661306,14.161616690409558,-2.7031478347856366
-2.8369816010660616,-9.269234145627069,30.55807726373615,1.6745614492527112,13.671915888890354,-2.692293017053093
-2.8397791682731515,-9.359008126623435,30.985579807790042,1.6738397129994451,13.334255334062473,-2.684823054308933
-2.840720618553271,-9.373846148782828,31.081333664686717,1.6738353229863654,13.25334844950619,-2.6832933328582524
-2.8473188011233312,-9.143364536583265,30.726962918463304,1.6785772878792165,13.377005288191326,-2.6933159038351056
-2.859990192167468,-8.706020688281962,30.056166939609838,1.6876876930580744,13.610010545529287,-2.7124873804640166
-2.8741439835763165,-8.225460945938947,29.321563732597923,1.6978689932018127,13.863553632726978,-2.733787072096567
-2.88855117259045,-7.7445830452249105,28.589091463388765,1.7082371052949237,14.11463729326342,-2.7553486778780347
-2.903272720549859,-7.26150881232456,27.855931267374363,1.718835171871749,14.36419993120226,-2.777261195963617
-2.917545520082734,-6.800861127166369,27.159309032047585,1.7291128797054225,14.599665647112136,-2.7983947646112894
-2.926290606129421,-6.522241300693361,26.739154660028404,1.7354110867669859,14.740887698956755,-2.8112912582456953
-2.9307604143947525,-6.38087103773143,26.526316184002845,1.7386304476974404,14.812195973454239,-2.81786795943963
-2.8931181089428684,-6.384230483002896,26.532471205863235,1.7163020911771816,14.810468020367209,-2.7812421245622985
-2.643432587857122,-6.678650702375366,26.982713950995713,1.5672034334414786,14.661428744795183,-2.5344587882518446
-2.318925620009535,-7.067626218007466,27.57807075308627,1.3736857610327808,14.462928819545928,-2.214843007116722
-1.9983573384886395,-7.459105730091387,28.177889335492353,1.1828247026360696,14.261317812965999,-1.9004186550277324
-1.68048259799544,-7.8546022111517555,28.784534566830654,0.9938617825078179,14.055858798468508,-1.5899073171082279
-1.3688607685047558,-8.249610225680879,29.391144626602635,0.8089278560107092,13.84884233081293,-1.2868358722772437
-1.0607345597094802,-8.647504694240917,30.002936907031454,0.6263633612665468,13.638566085125419,-0.988444423528599
-0.7588737895110632,-9.044597876238138,30.61428378955556,0.4478214271940153,13.42693989134343,-0.6974579485617676
-0.45932270339338804,-9.446008933303927,31.233102406582045,0.2709394950033553,13.211289996410546,-0.40999065689528896
-0.1641601300268767,-9.848948456611183,31.855144732082305,0.09696006509223176,12.993053036467355,-0.12809845145146875
0.12618536252431783,-10.252718569784289,32.479364289987195,-0.07388914623362167,12.772664708125818,0.14788760791112454
0.4133036453530721,-10.659473096596255,33.10913510300936,-0.24253225189134403,12.548902062515687,0.4194281071863839
0.6961178579038808,-11.067633566357717,33.74204975778416,-0.408360047932434,12.32267458440216,0.685572980845881
0.9751097798159928,-11.477830391268453,34.37912720813638,-0.5716453627141699,12.093589541683272,0.9467274119792424
1.2513407854267606,-11.891608258214143,35.02280699230648,-0.7330318300969801,11.860814082844184,1.2039469484726613
1.5212875454578096,-12.303580592489197,35.664743130325654,-0.8904543602992192,11.627346997908296,1.4539114844306293
1.7893910682081033,-12.72044111522541,36.315395714098386,-1.0465284589026247,11.389437651916188,1.7008089716765127
2.0535594112596702,-13.138965139887992,36.96978261370443,-1.2000260857940017,11.14886703437386,1.9426499151947991
2.313621143925043,-13.558796926777726,37.62737628471841,-1.3508733505302988,10.905879158974782,2.179352765290008
2.5101893048937076,-13.881451275728931,38.13356447308312,-1.4647035281221075,10.717982082882545,2.35727781310543
2.597050959042061,-14.025524923877102,38.35981823145885,-1.5149576881190094,10.633773112614858,2.435645452117509
2.6552735679532695,-14.12261825473812,38.51237393157616,-1.5486255193377576,10.576913937654385,2.4880808431868426
2.7106675325280145,-14.215388007508553,38.65819683724663,-1.5806448790747065,10.522504387845474,2.537898106713544
2.707913652152269,-14.282405400005926,38.51589708354654,-1.5801223078032494,10.731811186143482,2.5412211961699445
2.6940034884833217,-14.426206070049393,38.1774700221972,-1.5745761561899798,11.214205931492504,2.541805025904629
2.6797496955875046,-14.58124834799239,37.83569846882193,-1.5690048812100184,11.711191296848515,2.54238014804932
2.6655518563497527,-14.743580151922098,37.500457293142176,-1.5635690755275307,12.208935506512455,2.5429314178789624
2.6514328582519533,-14.912991304027175,37.172360306826775,-1.5582769181606821,12.706614263197258,2.543459908995496
2.637360956280182,-15.089923776110135,36.85075249592071,-1.5531160630364351,13.205324906308809,2.5439686859900363
2.623445087901734,-15.273001105440025,36.538163462737785,-1.5481250768604298,13.701160021138113,2.5444557508103296
2.6096400899490235,-15.46275475117562,36.23358299210667,-1.5432856207781074,14.195661798873054,2.5449246348714114
2.6015528063095443,-15.577752355844325,36.05777009460448,-1.540503911969508,14.486559484460876,2.5451654579649503
2.5982647187206576,-15.625325960827357,35.986852965491515,-1.5393835265342781,14.605090218075889,2.5452734977633775
2.5948531738750042,-15.675190781985345,35.91362122095382,-1.538227871588998,14.72822829793283,2.5453848976832627
2.586377548490139,-15.70018373768348,35.87619402334655,-1.5336461681642903,14.790839479821175,2.5388930697600953
2.2852047213463718,-15.68187336458021,35.85503828030792,-1.3551480357708887,14.800823961172936,2.2466722880664767
1.7995917723465271,-15.65713622954362,35.82646869879212,-1.067237882247522,14.814285549241392,1.7753757814857525
1.3113376181370928,-15.638204945807104,35.80460696667811,-0.7776650851288289,14.82461717123546,1.301401380345756
0.8233978106495721,-15.625230209563274,35.78962995421187,-0.48820629174029073,14.831674032122583,0.8276456087722499
0.33628014976570436,-15.618195582537199,35.781511159536755,-0.19919067320509717,14.835496182700991,0.3546352500903567
-0.15188298370352216,-15.617072783858324,35.78021202517041,0.09046341114411219,14.836130332185343,-0.11941125176781478
-0.6392587332446381,-15.621873726375405,35.78575401337006,0.37964212728217056,14.833507048234871,-0.5926840679745559
-1.1267436829846977,-15.632595431036494,35.79813097155104,0.6688506960104047,14.827659559807342,-1.0660214605190799
-1.6141783018936564,-15.649241459354712,35.817349912992526,0.9579679855487485,14.818586154065306,-1.5392370458507785
-2.1016900313539484,-15.671823989095659,35.84342543884734,1.2470444400811784,14.806311695415877,-2.012423933690794
-2.5189609005820657,-15.69587869769565,35.87121415776559,1.4943797068232312,14.793200942200867,-2.4173262824278194
-2.5947704248718186,-15.698979493967263,35.97321502234642,1.5386117334521365,14.692456432956899,-2.488151386062395
-2.601715679417474,-15.694303071396751,36.42402306935529,1.5395653946820642,14.23696146391574,-2.4822348551142874
-2.609904545215827,-15.69497759104794,36.96049738107762,1.5408177548289235,13.701149647547584,-2.4752721517912897
-2.6180596839969925,-15.702258316070793,37.5000812166405,1.542201016628477,13.168834991679637,-2.4683486107403834
-2.6262359883243898,-15.71613388749039,38.04640040063415,1.543722679594025,12.636380284548773,-2.4614136657406958
-2.634382973473089,-15.736466232558593,38.596083883256696,1.5453717459890053,12.10701862161742,-2.4545062202851105
-2.64252713512053,-15.76324515324868,39.150904023410725,1.5471515290756668,11.578967459733548,-2.447599904492631
-2.6506753961955343,-15.796459766693053,39.711354299559765,1.549062399677947,11.05172248092117,-2.4406849593748445
-2.6588390263780797,-15.836147668026475,40.27825528181378,1.55110640416409,10.52450075218569,-2.433747894120319
-2.666951998814359,-15.88191950917423,40.84701884052477,1.5532652362617432,10.001501173549968,-2.426840990017162
-2.67346607648147,-15.923222431896091,41.3075982280623,1.5550900485900283,9.58221896205802,-2.4212833662113638
-2.675262836054068,-15.912211154066615,41.37123051295986,1.5557932582959926,9.507558842872985,-2.42087404313835
-2.6811983780362447,-15.646829454595998,40.944991625076945,1.5599810138214776,9.668210888137457,-2.430744651720224
-2.6915234886152093,-15.191784052076489,40.215762460794615,1.5672775987590775,9.94203773748877,-2.447815515123507
-2.701836005482156,-14.74533799163556,39.5023350757209,1.5745792480534384,10.20866245727954,-2.464744767780832
-2.707464589958017,-14.504933518251832,39.11899967062806,1.5785699862317089,10.351398678569794,-2.473935916631612
-2.7120511263704428,-14.310695204261906,38.80970740609224,1.5818246146589223,10.46629391907488,-2.48140071912279
-2.7140078635355405,-14.222777590141614,38.66295912182869,1.5832657633746128,10.52505300365331,-2.484863256706846
-2.7058261966059587,-14.304652245680968,38.46207065619939,1.5799642719504319,10.807914239900057,-2.4852193931569273
-2.6915104124054383,-14.453999161557286,38.114520571616815,1.5742768422038516,11.304983247772046,-2.485823096173021
-2.677326967616514,-14.609740498896883,37.77526103595835,1.568754931261082,11.80015493017661,-2.486398281640303
-2.6631690137146533,-14.773080874101593,37.441794001994346,1.5633560681643714,12.297133203698726,-2.4869513477206415
-2.649066878671003,-14.94376745613939,37.11493755775801,1.5580918934088552,12.794846753957568,-2.487482932801716
-2.6350608848930412,-15.121349882915561,36.7956936836796,1.5529766900631916,13.291842720404324,-2.487993424512072
-2.6210594577777586,-15.307072387105181,36.48207594680615,1.5479768778768064,13.791352850551597,-2.4884879116551266
-2.6074379101943506,-15.495788445440036,36.182423786057974,1.5432228998639763,14.279886594707508,-2.4889552449913084
-2.599759057770864,-15.605727635934535,36.0159340923509,1.540591244151853,14.556408888783837,-2.489213252344724
-2.5965182391185593,-15.652905619507775,35.946203786256405,1.539491078785205,14.67335662177879,-2.4893210442994413
-2.593452759901103,-15.697959689788608,35.88054190283781,1.5384561989802372,14.784109895460643,-2.4894224282611455
-2.59595906235522,-15.582985364865868,35.68650610131765,1.5405036458120216,14.863079671448483,-2.494052141400961
-2.6045366148938007,-15.210871980738277,35.08576535212307,1.5472385850749695,15.091407029055658,-2.5087679141119303
-2.615578859539708,-14.739394326622488,34.32652149518468,1.5559173814974192,15.378786500127141,-2.527609739865986
-2.6269282467376,-14.263319032705612,33.562060863911235,1.5648468266567426,15.666773690079255,-2.546860699153547
-2.638500880992593,-13.78639543337081,32.79846370829341,1.573960637241406,15.953040527871808,-2.566375795247158
-2.650275529694017,-13.309602267336786,32.03732401782835,1.5832416552006758,16.23697241777598,-2.5861182020953746
-2.662164880172715,-12.836461864161558,31.284260300438007,1.5926204955384695,16.51647617523097,-2.605942027346624
-2.674117617716095,-12.368862269273187,30.54223416273415,1.6020559906112906,16.79047998535571,-2.6257640454103455
-2.686304627544656,-11.900088938246347,29.800580910612545,1.6116824508702894,17.062927876211923,-2.64586827030244
-2.698635435674013,-11.433673770471856,29.06490168491514,1.6214278783493692,17.33175372557155,-2.666104950702418
-2.7111214208100467,-10.969161305386516,28.334469162602677,1.6313006663408085,17.597228913226253,-2.686493237931315
-2.7238122798148448,-10.504732786473264,27.606430352912774,1.641339532571538,17.860385815918058,-2.707113984504333
-2.736700488077466,-10.040731400128209,26.881341360823683,1.6515379488005546,18.121011689914262,-2.7279541253214687
-2.749820569033763,-9.576001974800981,26.157421256642344,1.661922641330362,18.379730957119374,-2.7490683401092952
-2.763087761589681,-9.11372207399319,25.43962986373143,1.6724541349576636,18.63475314713655,-2.7703308846475965
-2.776373598600807,-8.657961522151256,24.734238813798342,1.682973594314392,18.88390334204421,-2.791515438489229
-2.7857289014001894,-8.341277809109735,24.245443465563792,1.6903814091950518,19.055675863763966,-2.8063763985677386
-2.7902013113380475,-8.191092673590294,24.01402313830668,1.6939228596895637,19.136748670930476,-2.8134647990582455
-2.7921182543752305,-8.137714312305725,23.955257654553254,1.695140383899372,19.142078922085368,-2.815584607384121
-2.794847134727793,-8.189685075610754,24.343498811993022,1.6933745871053116,18.805877880909346,-2.8078450242308386
-2.79891519391564,-8.271283767183055,24.9254630637784,1.6908722814271475,18.30561514161922,-2.796375757326518
-2.803021750974679,-8.358634113170154,25.51682099677293,1.688501649921167,17.801710711427877,-2.784877136331626
-2.807109863117688,-8.450531816084961,26.109408470540526,1.686293967885533,17.301123054229198,-2.7735048470299235
-2.8112160115993676,-8.54776898993247,26.708523044961037,1.6842269192862374,16.79934769086323,-2.762153130760101
-2.815300241169095,-8.649366688594007,27.30834102428096,1.6823179483164235,16.301228432995902,-2.7509281937148926
-2.8194046178272223,-8.756343776903162,27.915051309522898,1.6805449490335633,15.801596338950954,-2.7397102819823758
-2.8234813317466094,-8.867418028843327,28.52159102398491,1.6789259636875526,15.306230935333067,-2.728625910844923
-2.8275787605117664,-8.983874822153998,29.13516572759101,1.677439333131252,14.809213280302936,-2.717539467998179
-2.831663106637623,-9.104747407193528,29.750744449867728,1.6760957215394854,14.314606818178188,-2.7065386915408722
-2.8357446820962675,-9.23029617097178,30.369880140844717,1.6748890828317737,13.821119289723136,-2.6955917330426074
-2.839175964935604,-9.33951075077284,30.893464005971524,1.673978641186407,13.406833441796572,-2.686422009510599
-2.8404315650145286,-9.380310915476638,31.085766390645126,1.6736690005463997,13.255361731669947,-2.6830736511909956
-2.8443795007760557,-9.245753254708214,30.884317508155906,1.676454660760194,13.32211718819505,-2.6888503473907095
-2.855682985677626,-8.853866569158095,30.282695605827392,1.6845803388822727,13.531454034573107,-2.7059774973550623
-2.8697223982294155,-8.374658269279406,29.54935687634677,1.6946777964441921,13.785088534039957,-2.727141515590992
-2.884041515550578,-7.894180180767926,28.81667838242392,1.7049812013205796,14.036781788549584,-2.748607863707294
-2.8986599857196635,-7.411944602129591,28.083963142887484,1.7155039849254285,14.286742255158375,-2.7704035586384204
-2.913494024632304,-6.93082332471541,27.355601030574416,1.7261850686791702,14.533454709018658,-2.7924021145665447
-2.9245267597977143,-6.5781758625785445,26.823433349036005,1.7341305552206705,14.712580924636397,-2.8086886790520915
-2.929740406279464,-6.4130267603684,26.57471018461121,1.7378856092245742,14.79596848690924,-2.8163634658430143
-2.9231468947565684,-6.344807746680209,26.472319556990684,1.734252105628261,14.83031226351192,-2.8110337178308726
-2.624092593236708,-6.552496431041191,26.793166078308307,1.5561906251819502,14.725269850223194,-2.5174944053258566
-2.1649354910214504,-6.877814871515545,27.29479500412607,1.2830756544992936,14.559666855856324,-2.0681171327039274
-1.708239120901955,-7.209300819823989,27.804873939757538,1.0117563614006866,14.38969058769566,-1.6227195819827918
-1.2612589306042052,-7.541582957512591,28.315242790790418,0.7465685841211959,14.21802665468704,-1.188417849775569
-0.8194313080473239,-7.877864280399577,28.83091981225895,0.48479075398791954,14.043091944321707,-0.7607019172663179
-0.3836386845793221,-8.217392249705759,29.350848511862747,0.22697024250641407,13.865205887747301,-0.3404721400462858
0.04479986351518277,-8.558986929609768,29.873313312398132,-0.026119614235372145,13.685020515430487,0.0710441701008953
0.4685886162808938,-8.90468826375627,30.401520002890614,-0.2760847391905675,13.501488343856606,0.4764867167472267
0.8856436817441107,-9.25270446798269,30.932822536469125,-0.5216742096460311,13.315490765160135,0.873814614465953
1.2977530089356117,-9.604414218637995,31.469403375599533,-0.7639622442802534,13.126349971581577,1.2648027425456494
1.701332842862334,-9.956602679386709,32.006447636634334,-1.000824765368821,12.93573504379394,1.6460157070823673
2.100546989311245,-10.312749596433452,32.549335436978545,-1.2347328554192358,12.741827942270316,2.0214715868588806
2.488996971648124,-10.666934436517042,33.089125905304535,-1.461925140476675,12.54780293309889,2.385129294009078
2.716688249122774,-10.878131511764847,33.410974764680425,-1.594913792150856,12.431585111270492,2.5975303584340903
2.7968347564969385,-10.95334144337868,33.5248289321297,-1.6416958544739175,12.390868250329646,2.6721743524607233
2.7884080790398333,-11.042035892426453,33.33906263643314,-1.6384951632853184,12.665439445038103,2.6722472538261965
2.773447172182237,-11.205342470795987,33.012617532604835,-1.6329046949907253,13.155387302016013,2.6723720243858806
2.7583514846759445,-11.377833545572608,32.68772383510079,-1.6273846224980566,13.652970096742717,2.672493439141458
2.743396060123143,-11.556535429731165,32.37044950558958,-1.6220370087735378,14.149142546123622,2.672611136933297
2.7284234397384006,-11.743412656064834,32.05755571931227,-1.6168056813833178,14.649110047312604,2.6727282368349594
2.7136506709814414,-11.935789020863261,31.75365206250214,-1.611765850136027,15.145583936864194,2.672844857445735
2.6989407778244185,-12.135416745819034,31.455957906990886,-1.6068691928675056,15.643098838475597,2.672963822569036
2.6844596585722553,-12.339984260863929,31.167851127623404,-1.6021689498510405,16.135963108648497,2.673085413666266
2.675550916836612,-12.46987784705928,30.99312654361214,-1.599337371510427,16.440698120622898,2.6731631516868295
2.6711960805172876,-12.534510264801579,30.908429519506885,-1.5979699911679932,16.590084667543803,2.6732021125163676
2.6679036822938675,-12.570426505686747,30.861853578929594,-1.5966880246945991,16.672631910878447,2.6723419435642732
2.458717253115639,-12.557854651308965,30.84794288535985,-1.4715702230551984,16.679297994386665,2.465117390618826
1.98065927989456,-12.532992162623321,30.820443121986223,-1.1855435550359787,16.69245440978695,1.9914441420246696
1.4888996025880838,-12.513015758823723,30.798350630989205,-0.8912100327927795,16.703056168657504,1.504085710764658
0.9959771957171991,-12.498683466119132,30.782506832823753,-0.5960951094229928,16.710638462179144,1.0154835178425528
0.502891413426114,-12.490038511352031,30.772951907505533,-0.3008259599174568,16.7152091358096,0.5266612540921427
0.0105891125354105,-12.48708191149689,30.769684780134057,-0.005997619393839166,16.716767149205758,0.03858645583810154
-0.4831207738428675,-12.489809825645512,30.772700372153043,0.289674102397925,16.71531499714205,-0.45088425550008215
-0.9756597858054307,-12.498212143537344,30.781984244227758,0.5846177508456535,16.710889615171077,-0.9391630812968381
-1.4677311489925013,-12.512279901632285,30.797536647309702,0.8792256214179184,16.703432516194844,-1.426924344920097
-1.961568024431917,-12.532104988649689,30.819458793415837,1.174806854201093,16.69292738221899,-1.9163493688733688
-2.440052612079537,-12.556776896199676,30.84674872826485,1.4610925941924688,16.679855839507542,-2.3904493783686664
-2.668996584241503,-12.571987638122144,30.87077506552794,1.5979685576064704,16.665252600430865,-2.6170342966305444
-2.670993162472985,-12.628651426073263,31.200550464496086,1.5969019914006204,16.392194256594095,-2.6110684517543694
-2.6745369134845474,-12.732930928220268,31.78913917539482,1.5951088649460985,15.907979375934577,-2.6005177041483964
-2.6781973926257825,-12.845613679970755,32.40152474809286,1.5933893353336515,15.40837373863262,-2.589667496657426
-2.6818640969609526,-12.963541736625379,33.0194748355187,1.5918002617563385,14.908448847489497,-2.578844116162822
-2.6855169206077685,-13.086045776522898,33.639619883401075,1.590348243798079,14.410904450017334,-2.568103093197551
-2.6891791105720766,-13.213891700872733,34.26593434193396,1.5890222129844869,13.912532659067667,-2.5573723553066166
-2.6928346678319235,-13.346523235775495,34.895725023965454,1.5878266017460392,13.41547001148888,-2.546695224636381
-2.6964776244847664,-13.48368429956151,35.527968959323324,1.5867609884934843,12.920483284636425,-2.5360853294070265
-2.700145308393969,-13.626806351667485,36.169211426226525,1.5858137780571893,12.422459690930479,-2.525430562900695
-2.7037893913431983,-13.774009162233602,36.81105157183739,1.584996310673304,11.92791862332144,-2.514867840056345
-2.7074308330589987,-13.926091659443697,37.45718002578864,1.5843014668176836,11.433968978872757,-2.504332698299433
-2.7110205961402665,-14.080902368047932,38.098840704274515,1.583734905824716,10.947214110900632,-2.493963219454986
-2.7134474119962553,-14.188313652237342,38.535299172852824,1.5834180491754257,10.618231329185106,-2.4869604767054376
-2.714255128945263,-14.217865368901558,38.662027398722195,1.5833876157732079,10.521071574376345,-2.4849772924991416
-2.7191258025375893,-14.013921138779114,38.33788683308,1.586847604640775,10.64109928910016,-2.4928699341784717
-2.729494708173361,-13.585047365480268,37.65764646089269,1.5942215486886602,10.89210671234887,-2.5095935791534165
-2.741614553674896,-13.092551662468296,36.87883821287899,1.6028538169324975,11.177999015252833,-2.5290111230508288
-2.7540150541986725,-12.598043219102113,36.099388449586264,1.6116992943512458,11.462509830645594,-2.5487399567988454
-2.766550189021536,-12.107388682412973,35.3285512996594,1.6206531546962977,11.742256651025656,-2.5685476281521904
-2.7789060731644395,-11.632430991665647,34.58480320226501,1.6294899022432894,12.010616830358515,-2.5879450797271444
-2.787881314882677,-11.292619702533734,34.05416146829034,1.6359150232242803,12.201134313800443,-2.6019594927886547
-2.792755290426301,-11.109863801925547,33.7692862920952,1.6394061703593887,12.303083471081308,-2.609544095747773
-2.7964585276658256,-10.971826719573098,33.554356210853236,1.6420596320147425,12.37984713399821,-2.6152949314320297
-2.7969614530393363,-10.953133653912484,33.525265837619806,1.6424200476734867,12.390226871488023,-2.616075159883184
-2.7969614530393363,-10.953133653912484,33.525265837619806,1.6424200476734867,12.390226871488023,-2.616075159883184
-2.7969614530393363,-10.953133653912484,33.525265837619806,1.6424200476734867,12.390226871488023,-2.616075159883184
-2.7969614530393363,-10.953133653912484,33.525265837619806,1.6424200476734867,12.390226871488023,-2.616075159883184
-2.7969614530393363,-10.953133653912484,33.525265837619806,1.6424200476734867,12.390226871488023,-2.616075159883184
-2.7969614530393363,-10.953133653912484,33.525265837619806,1.6424200476734867,12.390226871488023,-2.616075159883184
-2.7969432059358272,-10.9529994628223,33.525139881176734,1.6424093244311688,12.389990127504317,-2.6160580446816035
-2.7280227008400013,-10.446150925975802,33.04939414583724,1.60190693584794,11.495792594841934,-2.551412807307373
-2.6591218588559418,-9.939446993690968,32.573784141388785,1.5614161026500415,10.601850177924893,-2.4867860133053417
-2.590176350687175,-9.432414581654943,32.09786581437566,1.520899020556157,9.707328247086645,-2.4221173238455074
-2.465428419653888,-8.515005368954931,31.236753492302658,1.447588629539159,8.088807141073204,-2.3051077400884177
-2.333011632485901,-7.541198593501212,30.32270444848128,1.3697714957070204,6.370787747511563,-2.180905013673316
-2.200267604720321,-6.564985256780185,29.406396522219627,1.2917620529847262,4.648522625707679,-2.056395346006398
-2.0680109937219058,-5.592356433476876,28.493453145419554,1.2140390495924724,2.932581410990245,-1.932342859733751
-1.9354281456396178,-4.6173284288501595,27.578257813252264,1.1361243270431565,1.212407487951013,-1.8079843734731782
-1.8031468195018039,-3.6445178478504308,26.665143832331534,1.0583867993496308,-0.5038543891968444,-1.6839087051874135
-1.6705705562814046,-2.6695382689804448,25.749993954270497,0.9804759465141922,-2.223942878050047,-1.5595563953174405
-1.5379401363276117,-1.6941604158807093,24.83447024211007,0.9025332674891852,-3.944734014356431,-1.4351532881574485
-1.4053965169664442,-0.7194209033344624,23.919545698683372,0.8246415984114629,-5.664398970933703,-1.3108315971871178
-1.2731747323595204,0.2529518030766891,23.006842722141627,0.7469390613817113,-7.379888336476501,-1.1868117769598185
-1.1404254874287936,1.2292035073708707,22.090498782736063,0.668926552697411,-9.102221147514454,-1.0622972157582575
-1.0080622623755255,2.202616381482196,21.176819468469297,0.5911408956163591,-10.819545608403168,-0.9381447288998082
-0.8755438710408199,3.177170364507413,20.262069069529552,0.5132640522473213,-12.538883248182856,-0.8138467010143148
-0.7427641638096097,4.153646091716218,19.34551485439366,0.43523364183798857,-14.261611287228689,-0.6893035671456939
-0.6105759528316212,5.125771894180874,18.43304363051774,0.3575508349620339,-15.976665057354491,-0.5653152379123889
-0.4784056595523435,6.097765928032364,17.520696089263378,0.2798785577476754,-17.691486357303884,-0.4413437149094611
-0.34545486882838256,7.0754998209765905,16.6029609158343,0.20174760701157152,-19.41643409042893,-0.3166401101768452
-0.2165605195847865,8.023402222896951,15.713226621566726,0.12600049790394133,-21.088752203993167,-0.19574131827936822
-0.1478670838118547,8.528580868411229,15.239048304542628,0.08563155073903085,-21.980003663814188,-0.1313090646936122
-0.0790399212652372,9.034742954477567,14.763946895875586,0.04518401660288052,-22.872990139229113,-0.06675137965583498
-0.010182152161200034,9.541130124338988,14.288634215698771,0.004718495966484965,-23.766373714289337,-0.002164986642588752
-0.005525926896803572,9.575372487467433,14.256493137956573,0.001982180486390598,-23.82678512794852,0.002202404267653285
-0.005525926896803572,9.575372487467433,14.256493137956573,0.001982180486390598,-23.82678512794852,0.002202404267653285
-0.005525926896803572,9.575372487467433,14.256493137956573,0.001982180486390598,-23.82678512794852,0.002202404267653285
-0.005525926896803572,9.575372487467433,14.256493137956573,0.001982180486390598,-23.82678512794852,0.002202404267653285
-0.005525926896803572,9.575372487467433,14.256493137956573,0.001982180486390598,-23.82678512794852,0.002202404267653285
-0.005525926896803572,9.575372487467433,14.256493137956573,0.001982180486390598,-23.82678512794852,0.002202404267653285
-0.005525926896803572,9.575372487467433,14.256493137956573,0.001982180486390598,-23.82678512794852,0.002202404267653285
-0.005525926896803572,9.575372487467433,14.256493137956573,0.001982180486390598,-23.82678512794852,0.002202404267653285
-0.005525926896803572,9.575372487467433,14.256493137956573,0.001982180486390598,-23.82678512794852,0.002202404267653285
-0.005525926896803572,9.575372487467433,14.256493137956573,0.001982180486390598,-23.82678512794852,0.002202404267653285
-0.005525926896803572,9.575372487467433,14.256493137956573,0.001982180486390598,-23.82678512794852,0.002202404267653285
-0.005525926896803572,9.575372487467433,14.256493137956573,0.001982180486390598,-23.82678512794852,0.002202404267653285
-0.005525926896803572,9.575372487467433,14.256493137956573,0.001982180486390598,-23.82678512794852,0.002202404267653285
