RAMEL-ESPOL/ARCHIE/matlab/data/joint_goals_square_t35_h35_p12.txt
Joint0,Joint1,Joint2,Joint3,Joint4,Joint5
-0.004015040056461628,9.582456477443683,14.252270201330752,0.005555423851436686,-23.824758011963596,-0.00364352660716852
-0.004015040056461628,9.582456477443683,14.252270201330752,0.005555423851436686,-23.824758011963596,-0.00364352660716852
-0.004015040056461628,9.582456477443683,14.252270201330752,0.005555423851436686,-23.824758011963596,-0.00364352660716852
-0.004015040056461628,9.582456477443683,14.252270201330752,0.005555423851436686,-23.824758011963596,-0.00364352660716852
-0.004015040056461628,9.582456477443683,14.252270201330752,0.005555423851436686,-23.824758011963596,-0.00364352660716852
-0.004015040056461628,9.582456477443683,14.252270201330752,0.005555423851436686,-23.824758011963596,-0.00364352660716852
-0.004015040056461628,9.582456477443683,14.252270201330752,0.005555423851436686,-23.824758011963596,-0.00364352660716852
-0.004015040056461628,9.582456477443683,14.252270201330752,0.005555423851436686,-23.824758011963596,-0.00364352660716852
-0.004015040056461628,9.582456477443683,14.252270201330752,0.005555423851436686,-23.824758011963596,-0.00364352660716852
-0.004015040056461628,9.582456477443683,14.252270201330752,0.005555423851436686,-23.824758011963596,-0.00364352660716852
-0.004015040056461628,9.582456477443683,14.252270201330752,0.005555423851436686,-23.824758011963596,-0.00364352660716852
-0.004015040056461628,9.582456477443683,14.252270201330752,0.005555423851436686,-23.824758011963596,-0.00364352660716852
-0.004015040056461628,9.582456477443683,14.252270201330752,0.005555423851436686,-23.824758011963596,-0.00364352660716852
-0.004015040056461628,9.582456477443683,14.252270201330752,0.005555423851436686,-23.824758011963596,-0.00364352660716852
-0.004015040056461628,9.582456477443683,14.252270201330752,0.005555423851436686,-23.824758011963596,-0.00364352660716852
-0.004015040056461628,9.582456477443683,14.252270201330752,0.005555423851436686,-23.824758011963596,-0.00364352660716852
-0.004014022660248904,9.58245859816792,14.252265058618192,0.005555425274760712,-23.824745055135438,-0.003642501104802476
0.014304186395759854,9.620558105716446,14.159779011860438,0.00551849913990488,-23.59161881044832,0.014796361222382268
0.054950356779615586,9.70449833455753,13.955331296467701,0.004992520527511136,-23.075474876309872,0.05553395763630838
0.09809160228786155,9.792697792504562,13.739474601867933,0.0037740476008305585,-22.52932169129312,0.09851865870775449
0.1410797084819613,9.879679721624422,13.525530662803066,0.0018946995157385384,-21.986770628484958,0.1411060324482311
0.1844497121169911,9.966530166094005,13.310823597753076,-0.0006633880140480379,-21.441030654498057,0.1838391843961148
0.22773433861384265,10.052314269420382,13.097656989093423,-0.0038692492683436376,-20.89794851952812,0.2262698589641537
0.2713347208621586,10.13782977439335,12.884043347886672,-0.007748020269048236,-20.352454970361162,0.26880383791220935
0.3149064398765246,10.222401795393338,12.6716608563804,-0.012266246315988487,-19.808826924343204,0.31111701033681355
0.3586092730785135,10.306346484049573,12.459714926037194,-0.017433990550910227,-19.265029870605783,0.35337747639498857
0.40274465982619867,10.390234630839924,12.246745281875953,-0.023290855271377166,-18.7172957237147,0.3958867275103273
0.44709759624319695,10.473646632891416,12.033794226213477,-0.02981439497895796,-18.168279580034707,0.4384473003855552
0.4915427774094495,10.556345869931608,11.821456168767135,-0.036985288004321284,-17.619503190088174,0.48095044843033363
0.5363095898411254,10.638754901814725,11.608631904624051,-0.044842197155952265,-17.068110002462543,0.5236265277256066
0.5810239331119161,10.720184965319445,11.397091764646353,-0.05331835079306717,-16.51867740071343,0.566130480370054
0.6257864087739756,10.80082684767132,11.186342737853877,-0.0624264407650727,-15.96992772229761,0.6085704599232266
0.6707861169563056,10.881020101209868,10.975487671704373,-0.07220496030703835,-15.419514303844231,0.6511370665202595
0.7158062146407879,10.960377797396113,10.765535135832627,-0.08260656093091003,-14.870060342382464,0.693636506494295
0.7609741191242197,11.039126365526766,10.555880813848237,-0.09365900249615085,-14.31997857853581,0.7362005909932322
0.8061764698872304,11.117069274861523,10.347041701134286,-0.10533357733335835,-13.770618721791728,0.7787338689912083
0.8514388767345273,11.194254218178582,10.138887653323787,-0.11763441069335227,-13.221635785058973,0.8212719116406142
0.8969519642976179,11.271003347963708,9.93053745567011,-0.1306155892599077,-12.670692422941649,0.8640049357486602
0.9423965487134287,11.346778953007721,9.723443952209802,-0.14418611012160804,-12.12162303540434,0.9066444507981172
0.988018121758739,11.421992798213976,9.516478076480604,-0.15841817031268782,-11.571430040420998,0.9494320484732846
1.0336507241605288,11.496371199380055,9.310385197749069,-0.1732608574856124,-11.022086701975084,0.9922232039383522
1.0791989498310066,11.569765711823102,9.105581083421383,-0.18867911285895833,-10.474705551889802,1.0349395421318623
1.1251465017594888,11.64295178745726,8.899887561617788,-0.2048407025203697,-9.923450133971055,1.0780458432828244
1.170976087669051,11.715102266520168,8.695616399611621,-0.22156736283365075,-9.374502493749127,1.1210679550321552
1.2168714972767043,11.786512325136705,8.491934922796837,-0.23892359506729405,-8.825627646806431,1.164189307628611
1.2628492576323163,11.857207774096826,8.28876241629594,-0.25691737403416176,-8.276600663124562,1.2074365039651347
1.3089952658958075,11.927317787927413,8.085715078122247,-0.2755864062498122,-7.726371600213119,1.25090164679881
1.3552519601324833,11.996751089153118,7.883042916184891,-0.29491237752475574,-7.175603459882472,1.2945419898328243
1.4015505075165597,12.065403824994448,7.681040912374529,-0.3148693346715781,-6.625089486799617,1.3383038725574445
1.4476136516406364,12.132873595006423,7.480902911282225,-0.335334016485543,-6.078092307327375,1.3819355134981872
1.4940969736920358,12.200118820043867,7.279775324513373,-0.3566018398931109,-5.526802144118039,1.426069360240739
1.5406274534944904,12.266590323693517,7.079274686977281,-0.3785121878986131,-4.975624645937159,1.4703637892453467
1.586873805940743,12.331824180975433,6.880812455096783,-0.4009054038459226,-4.428450812048661,1.514513433856605
1.633400463708974,12.396619354014275,6.681956880496889,-0.4240561742242705,-3.8785746155828003,1.5590680860141075
1.6799520981685052,12.460614640005062,6.4837979451789405,-0.44784530726456734,-3.3289922914808074,1.6037956044203983
1.7265656551870747,12.52386090866311,6.286171598726965,-0.4722955126080317,-2.779242243649164,1.6487429990422247
1.7732704740691563,12.586396107149561,6.088948569970339,-0.49742770212223836,-2.228954486719213,1.693950539436776
1.8199275245431403,12.648035012808382,5.89270848585606,-0.5231706868549543,-1.6797415433610663,1.7392951302237576
1.8666255234439657,12.708896942158633,5.6970697041990155,-0.5495763539677673,-1.1305330598033763,1.7848742681632341
1.9134634844840614,12.769107842881654,5.501613815981851,-0.5767078772713632,-0.5801417235847527,1.8307971945058366
1.9602091335422205,12.828369524143778,5.307303336021417,-0.6044354162186103,-0.03127238586775685,1.8768480073250438
2.0071042912947727,12.886988533331643,5.113126732133108,-0.6329076959937504,0.5189385581547964,1.923277012511755
2.0538309730999496,12.944569209633121,4.9203927569631425,-0.6619356955088408,1.0667850672978152,1.96978098735152
2.1009452775422264,13.001792166754411,4.726805587661066,-0.6918743720080823,1.6188089115218385,2.0169271057986107
2.147881592657681,13.057965932395616,4.5346870853924095,-0.7223739440548743,2.1684047227728342,2.0641632109864214
2.1946462532181337,13.113108330599683,4.343996175128535,-0.7534364647763678,2.7156742030631653,2.1115048594598775
2.241709174252863,13.167770791096705,4.152812983817577,-0.7853827686632877,3.266138831621622,2.159441358239499
2.288825591582216,13.221660405343814,3.96213329296163,-0.8180606390198939,3.816955872890286,2.2077393415448676
2.3358664252100674,13.274630649692485,3.7724725695251995,-0.8513867119193909,4.36663962465462,2.256279131345899
2.3829654754530987,13.32683292052922,3.5832848265195993,-0.8854625327585948,4.916776559791207,2.305211732304767
2.4300195655704115,13.378152873513002,3.3949786681878016,-0.9202210810160315,5.466184045407699,2.354443311268394
2.477061323425588,13.428627673392658,3.2074164346080885,-0.9556930174526149,6.015265710971929,2.40402087635108
2.5241986547304003,13.478370903779924,3.0201640143104744,-0.9919698512122291,6.5653027082793995,2.454072851280986
2.5710895336402917,13.527025492208004,2.8345713002873643,-1.0287934339521574,7.112326486884022,2.5042481682686724
2.6183148582562525,13.575191614443572,2.6483356372985973,-1.0666310889521344,7.663135049471374,2.5551837811804066
2.6654649492554627,13.622444136741677,2.463073026088667,-1.1051703213951718,8.212970672237624,2.606455745628424
2.712613614109773,13.668858595111255,2.278486716872022,-1.144479557265384,8.762715599215518,2.658158192353722
2.7596314542952696,13.714310484340514,2.0950756107111657,-1.1844580697172409,9.310882363759927,2.71016255194726
2.8069448130500234,13.759206869938165,1.911175258752925,-1.2254833626070798,9.862462277630877,2.762958302242215
2.8540192109697515,13.803038157431768,1.7288597305084914,-1.2671048387479558,10.411244998635022,2.8159657683116213
2.901182291657459,13.846112551050851,1.5468524061349416,-1.309620133037829,10.961070705337857,2.8695678042801784
2.9482061980859893,13.888222121568838,1.3660273336332789,-1.3528349448313526,11.50930327370444,2.923521257917016
2.99537252813002,13.929617825783918,1.185297494152434,-1.3970209652804324,12.059245881583426,2.9781662487184772
3.0425820252813724,13.970206304987018,1.0050429312786773,-1.4421036064440764,12.60976156330777,3.033408370141042
3.090259497407523,14.010337518931879,0.8236481304676946,-1.4885168491748866,13.165825471929264,3.0897719544910873
3.137871731092101,14.049550184234828,0.6431460785754431,-1.535767810660138,13.721240115698008,3.1466528065548878
3.1853037842357157,14.087754641163407,0.4639638161923967,-1.583750983207216,14.274683773354306,3.2039283112132897
3.2327787976278084,14.12513262185424,0.2852520021045726,-1.6327042252811526,14.828779297965813,3.261885018951034
3.2804751468959346,14.161815429997317,0.10634099686907324,-1.682836170574058,15.385629633379907,3.320766472041442
3.3278490292486014,14.197385614806631,-0.07073472874981503,-1.733589670891975,15.938904881459697,3.379920157827822
3.3755834546918897,14.2323528250619,-0.2485306216827481,-1.7857159819247983,16.49660163340455,3.4402214660486115
3.4230500980027423,14.266252019774521,-0.4247076209059779,-1.8385508138107112,17.051398865266375,3.5009009178055432
3.4703169405126344,14.299142371488957,-0.5995301915627261,-1.892174525723033,17.604106720711624,3.5620574612594087
3.5179702848376286,14.331424229205206,-0.7751660112886118,-1.9472788436506525,18.16160153192054,3.624477662811128
3.565184009441306,14.362536894554559,-0.9485739477257162,-2.0029278358158606,18.71423675981222,3.6871021730907287
3.612718754616803,14.392982346892557,-1.1225526328445072,-2.060036055198846,19.270933260945462,3.7509618643869564
3.660081993051043,14.422438263716291,-1.2952989870571838,-2.1180397458228715,19.825942780123768,3.8154245353878173
3.7073639373795175,14.450964893832863,-1.46714914992926,-2.1770643707216792,20.380338186666606,3.8806327692398668
3.754819236227449,14.478710471423843,-1.6390291936849626,-2.2374557222291105,20.937124506263974,3.946967544091493
3.80192758259605,14.505372666314093,-1.809059982978551,-2.2985707838021288,21.49021299874539,4.013724645036908
3.8481063948803227,14.530654214411268,-1.975164510016425,-2.3596322649652772,22.032765781434666,4.080069732841563
3.874035581231024,14.54447772345679,-2.068184187104397,-2.39442772884124,22.33757678821222,4.117725523443021
3.8854001446606428,14.550451965645124,-2.10889805654064,-2.4097954319860095,22.471212671967912,4.134322899583156
3.876390444315583,14.465211667108543,-2.213233088574278,-2.408051763459238,22.667722984334464,4.133637527255759
3.8505277312972574,14.23314002484883,-2.4809430753261283,-2.4008516313776087,23.16812583304555,4.128964086854756
3.823360286660838,13.98041647853841,-2.7605925660691226,-2.3935629341018094,23.701146477124837,4.124245537905155
3.7965007635684627,13.721245475798272,-3.035329374260551,-2.386644088077473,24.235689461734157,4.11978207663888
3.773684490037861,13.493580419134501,-3.2672165576759675,-2.380999454768503,24.695777200572582,4.1161555295479015
3.764303206355232,13.397922295838306,-3.362134979034959,-2.3787423570218773,24.88657282504092,4.114709996574119
3.757462988477045,13.327409189048836,-3.4311797794103374,-2.37712051337177,25.02629006261974,4.113673161154366
3.735334499951429,13.094802176814335,-3.653557725523665,-2.372014358726121,25.48178808005531,4.110420400762571
3.709715959033898,12.816739363420679,-3.9090116684729344,-2.3663784804564427,26.015894195326737,4.10685484774618
3.684465481293848,12.533179569363995,-4.158529002078908,-2.361123714498224,26.54954726239845,4.103560478135606
3.660451765778655,12.254490286582632,-4.393569185351626,-2.356413416065104,27.063819796780948,4.1006396838333865
3.648782935967403,12.115813166624763,-4.506936322763366,-2.354228811117435,27.316126273091612,4.099297981509238
3.6432730426675497,12.050287318105921,-4.564339722871791,-2.353293167518376,27.43917611553915,4.0988381920506
3.6559767682522306,12.273565839902002,-4.847069622196358,-2.3627562078192956,27.498058821736763,4.11577953001889
3.6825453262111982,12.735770921223734,-5.429851097285172,-2.3825059516178597,27.617440883024315,4.151105241755174
3.711007412306143,13.223951837278038,-6.04171902647951,-2.403601125268181,27.73984093903438,4.188792078750146
3.740131601760196,13.716256160863807,-6.654920514053656,-2.4251202022623763,27.859413205784435,4.227190014749512
3.769918331784636,14.212423812679972,-7.2690159827814895,-2.447058602374759,27.97597764900585,4.266290257862396
3.800236834055648,14.710066358199422,-7.880964946560845,-2.4693155088204564,28.088887736019757,4.3059128925792995
3.8313619504436067,15.213440364775362,-8.495893898242919,-2.4920875801060642,28.199000199401773,4.346407541438865
3.863099646643692,15.719130772561003,-9.109511416685928,-2.515227362884136,28.30544709155997,4.387511406594384
3.8955411165014713,16.228361555919133,-9.723210329110747,-2.5387961921265276,28.408392473937745,4.429333159326845
3.928619799578708,16.739856152190175,-10.335359014084913,-2.562740386636753,28.507483854010275,4.471777259281747
3.9625227066042354,17.256241985569496,-10.948991584012967,-2.5871894574156045,28.60311846574271,4.515072825292276
3.9968489435554853,17.771230203663432,-11.556570936903869,-2.6118492745468176,28.694066596367705,4.558698990102569
4.031385260080268,18.28165203668447,-12.154415769937641,-2.6365641528662778,28.779825678587247,4.602381444779461
4.055932556928979,18.63986888384297,-12.571392870066969,-2.6540723499348187,28.83739668345112,4.633302427298891
4.037624737482875,18.711827119135187,-12.654189285352452,-2.6423986265239034,28.84906616523352,4.6131125485209346
3.6755937445568536,18.732918497238273,-12.66814044855795,-2.405835224252963,28.857817187027045,4.202119622954894
3.1142755406442584,18.761680723755806,-12.687149387713552,-2.038830649485428,28.86970529800704,3.564817332653184
2.541083610281295,18.786122918534446,-12.703298393022484,-1.6638291285137004,28.879848224815525,2.913962098154248
1.9686540009424602,18.805573303771464,-12.716140331789216,-1.2891321845950827,28.887897730771318,2.2639114718095232
1.396683986496152,18.82006904303977,-12.72571129761686,-0.914586831037419,28.89392901543074,1.614336838484949
0.8230058816302244,18.829654275216594,-12.73203546836158,-0.5388164877038997,28.897892420250653,0.9627888376007222
0.24870540413409778,18.834287011663132,-12.735094713446568,-0.1625750543204846,28.89983245549359,0.3105145507672369
-0.32320412206700133,18.833966600010303,-12.734881733637875,0.21211811348611698,28.899683217098488,-0.3390499696410233
-0.8965333322501695,18.82870478386296,-12.731412017136455,0.5877179585767416,28.897514438191774,-0.9902195404373492
-1.4694452258534005,18.818501358802855,-12.724676616691497,0.9629743761168162,28.893262586695986,-1.6408932877134796
-2.044666528323767,18.803279823168726,-12.714630850985673,1.339632754310012,28.88696313277427,-2.294155556753142
-2.6165245226763254,18.783194906126674,-12.701366148346036,1.7139307321174908,28.878619428745168,-2.943548760943828
-3.1899130309212023,18.75809038547935,-12.684783210618091,2.089033840188955,28.868235853453612,-3.594619139958897
-3.7364434691758768,18.72952114716901,-12.665901035795404,2.44634102315397,28.856427304639347,-4.215122602378362
-4.0386208042368805,18.711775441111772,-12.654165216427245,2.6437862743601914,28.84908405524518,-4.5581651784101185
-4.063085149378562,18.716510197420302,-12.533590870004675,2.6565617941622626,28.72278621422224,-4.579279449040586
-4.071294678842125,18.73680167717408,-12.071594367561868,2.649787670118701,28.24063740202214,-4.5631522706396535
-4.080660452170509,18.75383108159806,-11.542742079202368,2.642466796996956,27.694908327914803,-4.54513419364243
-4.090049355062946,18.764508179673015,-11.010734816513134,2.6355477099885998,27.152370681753023,-4.527461277076011
-4.0995333232246525,18.768951220101346,-10.471526058802572,2.6289693768280262,26.60886100351452,-4.509987942016947
-4.109101469708774,18.76713183844774,-9.925746877321544,2.62273554592775,26.065038689830214,-4.492727906038173
-4.11858061555417,18.75924004283716,-9.38333795239048,2.6169441537520783,25.530652210519943,-4.475977097888154
-4.128066393237976,18.74542279416984,-8.838907597260949,2.6115180267989806,25.00016457563525,-4.459546647819119
-4.137513652527799,18.72591733040849,-8.295110870709802,2.6064682577364535,24.475993287680524,-4.443498636819632
-4.146957218024635,18.70082803013383,-7.750006974537221,2.601761668325076,23.956093886156452,-4.427758039652363
-4.156037106801224,18.671557237898377,-7.224509779689716,2.5975473096246455,23.459973992269074,-4.412895370001233
-4.160271169864223,18.656473728310793,-6.980087299020732,2.5956994155919815,23.230682481384196,-4.406092880216573
-4.17644582025415,18.883125489530855,-7.241065448035363,2.606435271256242,23.26425484300164,-4.425010768179629
-4.212064347322155,19.3766471500181,-7.8064806485255716,2.6300253518593535,23.334480014926307,-4.466533963219193
-4.250797832180066,19.90482493092566,-8.40726473191029,2.6555984868248417,23.405259722079823,-4.511478876613721
-4.290482979391844,20.437078894687556,-9.008136931509023,2.6817141705564516,23.471993213117653,-4.557305413970522
-4.331031229207227,20.971903647217292,-9.607299457808475,2.7083089434191305,23.53439142812747,-4.6038999728448005
-4.360652608817664,21.357020058222414,-10.035874336219047,2.727680689838454,23.57642420352571,-4.637794584858839
-4.344623043577058,21.412116510143615,-10.09640366804083,2.717794649996857,23.58259867547635,-4.620945581687651
-4.001075016151664,21.170263425019364,-9.818713585449947,2.502744321391221,23.562156178447747,-4.2520284507082415
-3.48189146960269,20.798343852370074,-9.391410184193512,2.177717624284046,23.527597898862567,-3.6948264125731916
-2.9603084667818047,20.41674341668149,-8.952575720651208,1.8511885347977917,23.488365662643783,-3.135479776634241
-2.4351827706198157,20.02427105871244,-8.500729930340409,1.5224902893543448,23.444161707051684,-2.572827036350361
-1.9182652188752325,19.62959667328155,-8.045753702801724,1.1990265341874995,23.395898618317958,-2.019511230948152
-1.408844984533947,19.232330260388768,-7.587114885138924,0.8803961855169347,23.34358463614535,-1.4748066647378368
-0.903037303222771,18.829484725220958,-7.121274973020138,0.5642122639587553,23.286833323765805,-0.9346011058770405
-0.39834677450211364,18.418954876042747,-6.645693974116861,0.24896012101265377,23.225283224089072,-0.39628372629870445
0.10168524873232967,18.003526955074726,-6.16349411892395,-0.06310436911502565,23.159297478593583,0.13631506781985972
0.5280345583494287,17.64229614293654,-5.743380821068696,-0.328928880102207,23.098976661482524,0.5897906866338488
0.7248266755305794,17.47333518509512,-5.546605924749975,-0.45154133141014896,23.06985989719379,0.7988963702205472
1.1639986769610309,17.09109366458649,-5.100767985131346,-0.7249443582089181,23.001845234016375,1.2650277117290885
1.6587314029363684,16.65173308680318,-4.58711628834134,-1.0325375571582873,22.92013311005382,1.7892332299328566
2.1506900425301394,16.20536435882063,-4.063907131413077,-1.3379388415436138,22.833349498007287,2.3094819848046013
2.630413545588035,15.760722465242136,-3.541296674993594,-1.6352482627817764,22.74323141841391,2.815738681532997
3.0982182587753218,15.317944013913184,-3.0194120205235837,-1.9246615388353767,22.649981517152362,3.3083536097470674
3.555341434452996,14.876243885358276,-2.497285503212923,-2.2069220797055777,22.553498373411124,3.788608347464737
3.854783583716166,14.581936081713675,-2.1485277888272716,-2.3915076944993774,22.487342126241526,4.102572716312196
3.8817630621139765,14.51239212780043,-2.1574675076224064,-2.4095816279335422,22.56465438665023,4.134634819716752
3.858687599707914,14.307232729876509,-2.396643957040819,-2.4030992074950563,23.00954556652335,4.130424836577579
3.8314261313384477,14.056412492157197,-2.677757506124609,-2.395699853628947,23.54213073506569,4.125630378980588
3.80449489211234,13.799358097594958,-2.9537641065196936,-2.3886757523754842,24.0758301310619,4.12109380419396
3.778863823949986,13.545867865764853,-3.2147155791761945,-2.382264547259872,24.59087461766492,4.116969854620402
3.7659074462563313,13.414357248013546,-3.3459322474559032,-2.379128550092008,24.853904794758225,4.1149599914716415
3.7594066315483725,13.34750258890254,-3.4115851102180486,-2.377582194343776,24.9865638267125,4.113971004360287
3.7427563149175267,13.173581622546655,-3.5791541802486733,-2.3737056206318674,25.328440492339407,4.111498517645386
3.717254451243006,12.899548076807806,-3.8340822239272017,-2.368008413779595,25.857990208668824,4.107885769822816
3.6918826877514626,12.617462732891768,-4.085485355231719,-2.3626385070995584,26.39205886616346,4.104509436114304
3.6669311379131657,12.330562655484249,-4.330382502356749,-2.357658946949614,26.9244217471525,4.101411279895641
3.650434526433524,12.135568623423815,-4.4909300573959765,-2.354536543126519,27.280334584846603,4.099489111530024
3.64370637765685,12.05480169576037,-4.556082034469262,-2.3533028569101315,27.42640427099036,4.098734871695927
3.4794889534966575,12.057553892327151,-4.568628779030412,-2.2476371445758816,27.44273821604201,3.915880917682773
2.9970444293441934,12.083024231604872,-4.58772174272818,-1.936317661758997,27.45383271412027,3.3769745396781405
2.4529957114272443,12.107176317700242,-4.605818935959124,-1.5850462212804308,27.4643650628997,2.769171501368917
1.910460383043161,12.126446403203838,-4.620252585978315,-1.2345784984466783,27.472775316339593,2.162986919116506
1.3663938124380544,12.14095022904137,-4.631109403863116,-0.8829859083824846,27.479078970116497,1.5550335834291444
0.8238516682174772,12.15061480750955,-4.63834524253564,-0.5322823799263848,27.48330491741101,0.948745049215429
0.28030932619322696,12.155494930140675,-4.641999206945592,-0.18087388356726808,27.4854436408346,0.34131444912510356
-0.26420093456414895,12.155566265695384,-4.642050211792731,0.17117958936968217,27.48545187869191,-0.26720694404569745
-0.8069035703638597,12.15084068912431,-4.638514823590024,0.5220463750090161,27.483398309873305,-0.8736996086013753
-1.3489857870970168,12.14133767315735,-4.631402851021206,0.87245540627421,27.47926047653126,-1.479475377887592
-1.8924555317299159,12.127006898799662,-4.620674767454163,1.2236661652970022,27.473018266026912,-2.0867620995192766
-2.4356149153458477,12.107872109854512,-4.606341675629288,1.5745404084796697,27.464652853466692,-2.6936462031690627
-2.979152125801739,12.083901161833227,-4.5883833783969346,1.925488601799968,27.45421709662137,-3.3008807601580457
-3.4599694087403616,12.058664938626011,-4.569467978586307,2.2357654425618145,27.443232997619834,-3.837972498545488
-3.6433325523418,12.048351889311943,-4.560673353860296,2.354019664061052,27.437484001860927,-4.042723366682573
-3.650354768471231,12.113228329148914,-4.382445245934875,2.3533844562727793,27.19429863614395,-4.039314654581875
-3.6654724849144773,12.247965637425368,-3.9976332785550546,2.3522482680927372,26.674572616469572,-4.032170821131829
-3.681321543874468,12.382147812207245,-3.592650571797926,2.351386068311136,26.135218540902027,-4.024956107958652
-3.6973497365375643,12.510676624360347,-3.181569864584005,2.350844078625178,25.59541380144065,-4.01793290475115
-3.7135084869953716,12.633149797117767,-2.765690410241299,2.3506212207977626,25.05686057767041,-4.011117648503765
-3.7298545510975303,12.74998429035418,-2.3436050953413523,2.350714220479796,24.517734148396716,-4.004481682277021
-3.746319369205895,12.86068724630871,-1.9171398805101978,2.3511199474099267,23.980354259606788,-3.9980478731700027
-3.7630271224770997,12.966059829684697,-1.4831285935680674,2.3518402927034514,23.440752022225773,-3.991763916226205
-3.7798798006428522,13.06543827613052,-1.0441658056260708,2.352870575810274,22.90218709093685,-3.9856633887998454
-3.7954925689488177,13.151483415153164,-0.6365131978780416,2.3540878228003543,22.408279162618694,-3.9802149990789153
-3.8019896376128033,13.185620705564538,-0.46661082482862903,2.354666811530379,22.20415123014627,-3.978003187681514
-3.8073808224912447,13.264097948455314,-0.5316105630018844,2.357772170808844,22.190468975499012,-3.983079545071271
-3.8308316995848086,13.652064877640836,-1.0106960179668274,2.3738049953545683,22.280565776137323,-4.011837072994739
-3.8611409020771164,14.146612594994911,-1.6180356161105889,2.39447992059413,22.392029911708583,-4.048861072431473
-3.880412633461471,14.457129378843486,-1.9974412706063003,2.4075983549532105,22.460070330802644,-4.07231913945294
-3.8859899452395332,14.54844911301392,-2.1145407682004027,2.411499595853048,22.485598413807264,-4.079380340320893
-3.871094888951115,14.417470591295839,-2.269204808247828,2.407271737322787,22.771600294985603,-4.076636245027142
-3.8441233334298177,14.173428583192644,-2.548116266591705,2.3998265040782076,23.295200574745,-4.071812447789337
-3.8170315475876855,13.919131637053889,-2.8266405300868636,2.3926299574392615,23.828666422139495,-4.0671634018949
-3.7903753225529004,13.659652309513572,-3.0989246337073433,2.3858354993638238,24.36105907321168,-4.062790721191044
-3.7694898661370417,13.449721399836225,-3.310928094294956,2.3807176173725946,24.783482871688154,-4.059510900968225
-3.761440031494388,13.367217138628249,-3.39230639125179,2.378794613899688,24.947553217899785,-4.058282266327368
-3.752796318797953,13.277625730812566,-3.4794728846494403,2.3767609923037867,25.124512228871247,-4.056985476029075
-3.729275859225066,13.028502716283498,-3.715480257052693,2.371394478150871,25.610187032960614,-4.053577674776431
-3.7038034332873995,12.749690646840028,-3.968998040288549,2.365866379934752,26.143101749380442,-4.050093730785922
-3.6784960805867453,12.463111758987198,-4.218560313533983,2.3606774186202526,26.679819003081555,-4.046855206978091
-3.6562089667282476,12.202533011647487,-4.436323082037013,2.356398983535633,27.15864031724837,-4.044193127171549
-3.6465305034870417,12.0869646408662,-4.530235140511971,2.3546054375682814,27.368337996200164,-4.043096471780023
-3.644448315983185,12.068310012195125,-4.587199205379452,2.3548740727009205,27.44397767508075,-4.044272622019645
-3.661913894855179,12.374732430152267,-4.974923805573393,2.367879801779722,27.52449752545777,-4.067552751945141
-3.689500273674953,12.853079645981547,-5.577234336878417,2.3883728339927885,27.64721919798034,-4.104197838312746
-3.718205211691886,13.343689044725807,-6.1912242073101895,2.409632632067277,27.769299945336627,-4.142167745634571
-3.747484648338114,13.836850548073931,-6.804548491787863,2.4312501838421885,27.888128895867922,-4.180730392165855
-3.7773049481014613,14.331810571094465,-7.416197594825414,2.4531964775365354,28.0034511418104,-4.21983392007741
-3.807809678240514,14.830731210978538,-8.02875328294513,2.4755725333186285,28.115679289929563,-4.2596580304954434
-3.8391063170194464,15.335067135240951,-8.643867340139527,2.498451560238743,28.22500490347218,-4.300332250832929
-3.8708907567725928,15.83969433100736,-9.25520017311466,2.521606281805325,28.33022599913921,-4.341452263417689
-3.903603829747911,16.35134753384322,-9.870799065655412,2.5453522663808528,28.432633948694985,-4.383578000738583
-3.9369009657327596,16.86434802631247,-10.483706629714664,2.5694333847080566,28.530965641876904,-4.426254475073197
-3.9709976987483357,17.38178185080798,-11.097516580515071,2.5939999467403876,28.625717967711857,-4.4697477827883105
-4.005360365901247,17.895431377096216,-11.702452820064321,2.618663161336166,28.715357430244694,-4.513369934411444
-4.039266398924971,18.39479980909307,-12.286364576050977,2.642905369194414,28.79826483763578,-4.556207890907561
-4.058889498920964,18.680514567299333,-12.618579747290516,2.656893290566707,28.843813696043316,-4.5809084657204515
-4.062514943295435,18.71491626113315,-12.565492484498343,2.657028637421752,28.75625167944038,-4.580389687955908
-4.070226237332284,18.734450100912653,-12.131674368967815,2.6506339688011873,28.30303092557385,-4.565211685953323
-4.0795100615101765,18.752087618800434,-11.60767058714724,2.6433271623045953,27.7615416578274,-4.547304803605746
-4.0853975369181015,18.760009322425077,-11.274419782070577,2.6389084416161928,27.420462338174833,-4.536148753472689
-4.089588838659137,18.764131544259595,-11.036741414701611,2.6358617589431383,27.1787266161386,-4.52829834507025
-4.093080803034418,18.7666135474806,-10.838448010982566,2.6333851772398407,26.97800433833518,-4.521814739133809
-4.096159030298864,18.76809042385632,-10.663446120551935,2.631247895787255,26.801571729221447,-4.516141494785574
-4.097930033514808,18.76864012438563,-10.56267659722795,2.6300375264391667,26.700278777978678,-4.512895176832531
-4.101752510149555,18.769085778375192,-10.344968906408448,2.6274725201555724,26.48218144453501,-4.505931817170995
-4.11046152793989,18.766365832574575,-9.847896876777181,2.6218660578352764,25.98795351588784,-4.490283232039371
-4.119877310656758,18.75769357565111,-9.308882503357797,2.6161657183861227,25.457740421708685,-4.473691745019459
-4.129261276587654,18.743264215901693,-8.77008682288159,2.6108450576645885,24.93349755382825,-4.457480006471469
-4.13870951859815,18.723040341850496,-8.226038926313493,2.605838771202005,24.409792900962852,-4.441469441216414
-4.148170996861426,18.69721420923507,-7.680037366566019,2.601203119183061,23.88972876314383,-4.425771814386549
-4.15697021189083,18.668279707108056,-7.170634808900089,2.5971532004762095,23.409363462773356,-4.41139822672389
-4.160767318366042,18.663399289866394,-6.988071692936968,2.596047083099148,23.231694618625863,-4.4066793314205945
-4.180448104668778,18.938910081849,-7.305169666450522,2.6091076271492333,23.272363940338277,-4.429691411836419
-4.217051345648686,19.44509113670598,-7.884583752908116,2.6333407126940362,23.34388105695088,-4.47233846885877
-4.255948907419195,19.974362493121404,-8.486023855710073,2.6590112643501334,23.41421377232039,-4.5174453700493595
-4.295700069503552,20.506345080776683,-9.0859937161365,2.6851590814801067,23.48031139741961,-4.563318981128273
-4.33590753025644,21.0355725769773,-9.678316457434878,2.711519303621062,23.541481650689995,-4.609493735484337
-4.362459178062706,21.380308885472513,-10.061711466015288,2.728878721580306,23.57886164729719,-4.639863619588117
-4.315582283352121,21.40657257489233,-10.089428904004286,2.6996679503400802,23.582493410480424,-4.589841592356656
-3.91087062795779,21.240276442723246,-9.894050586475602,2.4465701914606086,23.571253562716567,-4.155890428207179
-3.340595123648129,21.000751838868982,-9.613932015728347,2.0898403657033593,23.55282033790623,-3.5446738325535296
-2.768432905664521,20.754224556691007,-9.327077682072984,1.73186340210014,23.531221371722406,-2.9317674195232724
-2.1952911856627044,20.500923247639037,-9.033723269359234,1.3732529853630235,23.506406982796754,-2.318176437742505
-1.621628044383764,20.24090248031612,-8.733890676057547,1.014343913266115,23.478291283943864,-1.7044288075702483
-1.0577072098664342,19.978849934048473,-8.432916508944317,0.6616020109053861,23.447457453352257,-1.1015218065417907
-0.49805584626602406,19.712334735652895,-8.127916550827516,0.31164736475594196,23.413633035850214,-0.503625356474906
0.06034313356278013,19.43988726170338,-7.817145187591948,-0.03736298979662144,23.37662022250867,0.09245598763934763
0.613102252937304,19.163635743670145,-7.5029590162614594,-0.38264240741486394,23.33667395306602,0.6820072960613651
1.1643682341566828,18.881502055630666,-7.182932100768598,-0.7267451853203039,23.29355671619232,1.2694346532888747
1.714184615604159,18.593375921120177,-6.8568754036746835,-1.069653653464924,23.24719147031611,1.8547465352237091
2.2616292130332663,18.299666450241595,-6.5251875517198545,-1.4107510603415176,23.197620931311107,2.436928439901041
2.805120126881931,18.001192496060085,-6.188722957819201,-1.7490132881480964,23.144975966703214,3.014268916918639
3.3480465539121718,17.696025373898493,-5.845238385396395,-2.08650987641849,23.088895483547557,3.590334795381151
3.8536863107765735,17.40538178743894,-5.518504845358742,-2.400416172644428,23.03345920355849,4.126193284786484
4.064373764626251,17.281048620359346,-5.381750386013691,-2.5311355668924054,23.012161691157335,4.349407620974725
4.049285900156407,17.15593639174532,-5.52641831549288,-2.526839365442186,23.282330822527758,4.346307267787244
4.020349366962029,16.909159353849386,-5.802973201503339,-2.5188229523420644,23.806404169759215,4.340523483340248
3.9911430312330185,16.6507146853498,-6.080774147405886,-2.511039259973643,24.343391918556073,4.334911177377899
3.9626108161695717,16.38882932507943,-6.350707618006789,-2.5037457061584543,24.875929611536584,4.32965822066466
3.946377872126202,16.23556096997265,-6.503575420238105,-2.4997379302629863,25.182471994809436,4.326775406628437
3.9389287613117094,16.16416884863022,-6.573541679204896,-2.497934083180514,25.324016108977034,4.325478977126534
3.9240478070071005,16.019524287518802,-6.712950725775247,-2.4943982508734193,25.608439463170765,4.3229400932250615
3.896783218694482,15.747363623263617,-6.967047770532294,-2.488159680965213,26.135370093900715,4.318469834596624
3.8692056413229494,15.462407779736527,-7.2221710063662945,-2.4821758811157437,26.67612376087104,4.314197000040025
3.8421394749641213,15.172963596779539,-7.470537597462006,-2.476635374463277,27.214590556068206,4.310258657524632
3.8167315942402134,14.8921569299848,-7.70169747943721,-2.471746097887298,27.727167352446532,4.306802852277418
3.804864215526714,14.757902789173338,-7.808960492291079,-2.4695692869593087,27.968967652320703,4.305271884332498
3.7899494955903616,14.69357443619696,-7.860464822945487,-2.462557915608157,28.085330710369192,4.29416014439735
3.4909913603357134,14.710784481037138,-7.87275877815948,-2.268579652954638,28.092693477661303,3.9577555131810547
2.958571711001949,14.73791412106897,-7.892126417363488,-1.9229390733590215,28.10427269729495,3.3585767652663367
2.4025839149187704,14.76144466448695,-7.908915279683115,-1.5617863736604924,28.114311977375745,2.7327948724738205
1.845159593378239,14.780124400473309,-7.922240417984539,-1.199524551753327,28.12230798830045,2.105331311842405
1.289344423944496,14.793860965881397,-7.93203295230289,-0.8381726971503088,28.128161987989515,1.4796269972442249
0.7355196514633359,14.80270083752494,-7.938336501097374,-0.4780211785106745,28.131955306096824,0.8561295780499356
0.17796764991960415,14.806715129009753,-7.941199664916675,-0.11539164480992256,28.133684725644212,0.22841571801318963
-0.3756093703452298,14.805852804268,-7.940582922715423,0.24466490660782697,28.133295076336882,-0.3948285824912346
-0.9335545749547943,14.800097295127442,-7.936482120937067,0.6075357680016054,28.130844326182753,-1.022979740141196
-1.488822567116046,14.789495223572748,-7.928925398440356,0.9685973497460592,28.126320729236085,-1.6480913920928584
-2.042516023882686,14.774075734581038,-7.917927634483995,1.3285248548808746,28.119707124240747,-2.271389966846167
-2.5993320372209214,14.753682397852428,-7.903382008777542,1.6903344665632427,28.11100429497643,-2.8981476235238626
-3.155534070902454,14.72840841846151,-7.885347048119134,2.051554703627975,28.10022385038786,-3.524142964631471
-3.635719092930698,14.702637761776213,-7.866947980539904,2.3632215536600003,28.08923422960876,-4.064513447157538
-3.799416291407193,14.693173025390713,-7.855512454519612,2.46931544050454,28.080397162504283,-4.248480681183755
-3.803611551675603,14.701542061079754,-7.583317448792356,2.465624503619823,27.79991387218421,-4.23951775683964
-3.811547990230221,14.712855829045557,-7.066806936446429,2.4589197867627726,27.272238584764885,-4.222813581227104
-3.8197230752074436,14.718442150171118,-6.532650513477451,2.452381999403508,26.732644360266068,-4.205938805396307
-3.827919754261967,14.717993282736941,-5.994985221753001,2.446189380284406,26.195572036693918,-4.189342959681721
-3.8360938438177996,14.71164386142023,-5.456764977983317,2.4403626971050674,25.663840348066643,-4.173101502000804
-3.8442483224615804,14.699563496279094,-4.917862029468424,2.4348853406417605,25.137152233629628,-4.157192943355737
-3.852472745726409,14.681690544577867,-4.372390778475921,2.429688954549232,24.609685384036098,-4.14143256345197
-3.860620377862438,14.658471339036323,-3.8301344726915785,2.42485518605713,24.090774572569224,-4.1260891353663585
-3.8688399839189236,14.6296050243134,-3.281241200711858,2.4202852849258916,23.57087124446615,-4.110870627405488
-3.877044615772514,14.595455968103897,-2.7315436271712765,2.4160210472616788,23.055442534092542,-4.095929568320741
-3.884283528258715,14.560989481216856,-2.245085702480465,2.412498039071382,22.60355395850199,-4.08294579163243
-3.8875371365544,14.571181022491006,-2.1364186169214205,2.4124362028194968,22.48466687794012,-4.0809668746672
-3.907267057976213,14.884870673924626,-2.5176281566253254,2.425836315992768,22.551313514497497,-4.104892541273651
-3.939044181806921,15.383719982703049,-3.1206976781519327,2.4473715720876843,22.654120066123077,-4.143289052781794
-3.972029946763959,15.893443671677144,-3.732898022817346,2.4696645715871988,22.75511992168818,-4.182968158341477
-4.005813481184458,16.407211825719433,-4.3458314699327465,2.4924320569611313,22.852762831215717,-4.223422347398251
-4.039681979553178,16.914123858853394,-4.946510962657357,2.515191266584711,22.944994086292077,-4.263794000363284
-4.061145617146625,17.23126490892636,-5.320251236085525,2.5295806920192003,23.000614598821137,-4.2892848241381305
-4.064620842697489,17.2823200632408,-5.38026941652279,2.5319080528123385,23.009418783960673,-4.293405310343245
-4.064620842697489,17.2823200632408,-5.38026941652279,2.5319080528123385,23.009418783960673,-4.293405310343245
-4.064620842697489,17.2823200632408,-5.38026941652279,2.5319080528123385,23.009418783960673,-4.293405310343245
-4.064620842697489,17.2823200632408,-5.38026941652279,2.5319080528123385,23.009418783960673,-4.293405310343245
-4.064620842697489,17.2823200632408,-5.38026941652279,2.5319080528123385,23.009418783960673,-4.293405310343245
-4.064620842697489,17.2823200632408,-5.38026941652279,2.5319080528123385,23.009418783960673,-4.293405310343245
-4.064599431089584,17.282279418512744,-5.380165888259816,2.5318946747873174,23.009171853489253,-4.293382651753769
-3.9775925496713147,17.117118023336033,-4.959474862154664,2.4775325623397415,22.00576051040178,-4.201308613390974
-3.8906639009360595,16.952105133873633,-4.539162102540113,2.4232193298639766,21.003251389762205,-4.109317363871309
-3.803871365810498,16.787350622982135,-4.1195074721814935,2.3689911415046674,20.00231200633982,-4.017470155024248
-3.6911964130411734,16.57346463951159,-3.5747075583792296,2.298591555257858,18.702882307818918,-3.8982331733660276
-3.542761970612728,16.291697965380326,-2.857005270046705,2.2058493523555707,16.9910544522547,-3.741154120264291
-3.3937059148832605,16.008751309638594,-2.1362973902806575,2.1127187639414906,15.27205780926708,-3.5834172519875658
-3.2443775110423734,15.725287667270951,-1.4142726674720505,2.019418011760861,13.54992029765147,-3.425392174433023
-3.0955538553026334,15.442782166365676,-0.6946884757241446,1.92643262742913,11.83360381952007,-3.2679012407906742
-2.9466597160082815,15.16014286958096,0.025236514342578127,1.8334032047999793,10.11647448616337,-3.110335718731807
-2.7974707918877533,14.87694399552633,0.7465868322567459,1.7401895998899874,8.395945531609646,-2.9524582439980267
-2.647851982803545,14.592929089461244,1.4700157069876825,1.6467074018026036,6.670458906561958,-2.794125848412099
-2.4993148168013937,14.31096741961844,2.1882146788574555,1.5539010169600627,4.957446386091021,-2.6369380892619203
-2.350178210502092,14.027867858218224,2.909312032436657,1.460720100352814,3.2375207895063327,-2.479115979264816
-2.201315191880616,13.745287636459153,3.629086549488009,1.367710121996239,1.5207503569130978,-2.3215833903025205
-2.051609327663913,13.461107477405964,4.352936348546076,1.2741735316490175,-0.20574023593569812,-2.1631588696170807
-1.9028884416864382,13.178797059889968,5.07202363342828,1.181252358116265,-1.9208715164884382,-2.0057766909016883
-1.7541234582463663,12.896402934070357,5.791324136006444,1.0883036323809592,-3.636511353300755,-1.8483478465502372
-1.6048521737741175,12.613047718926653,6.5130726782944866,0.9950385685216467,-5.35799013285441,-1.6903832149150686
-1.4559424147129583,12.33037877181502,7.233073192223447,0.901999386623967,-7.075299601976649,-1.5328011634164043
-1.3070282660779293,12.047701492165402,7.95309493038554,0.8089574621097907,-8.792659694085721,-1.3752144667013355
-1.157968131976132,11.764747094626093,8.673822529679653,0.7158243255186979,-10.51170337111237,-1.2174732825336816
-1.0088618266001803,11.481705052156496,9.394773373852605,0.6226623410025157,-12.231279520737226,-1.059683238142579
-0.8599412261765387,11.199015525355945,10.114826307358419,0.5296163853950241,-13.948714018430909,-0.9020897138959105
-0.7108358172746498,10.915975184624239,10.83577281694786,0.4364549609980306,-15.668279829422449,-0.7443006181882442
-0.561744249898382,10.632961118661218,11.55665240073188,0.3433021848201202,-17.387686012306563,-0.5865261701169514
-0.41255443887400217,10.34976056103541,12.278007006956182,0.2500880257704311,-19.108225195124657,-0.42864775682730155
-0.28555376216445705,10.10868067618241,12.892073896035244,0.1707376921455222,-20.572867043135822,-0.29425074145513125
-0.1983796563916871,9.943201846255176,13.313573476408033,0.1162710975119954,-21.578206909708005,-0.20199973982942424
-0.1117740975672473,9.778802264379118,13.732324048941638,0.062159732403226184,-22.576989979303523,-0.11035039651715514
-0.024806017383057048,9.613714523904779,14.152827465392097,0.007821863061663421,-23.5799538451597,-0.01831741911708861
-0.003541659407279912,9.573349314009105,14.255643753373873,-0.00546415984320972,-23.825186149186255,0.004185344803499643
-0.003541659407279912,9.573349314009105,14.255643753373873,-0.00546415984320972,-23.825186149186255,0.004185344803499643
-0.003541659407279912,9.573349314009105,14.255643753373873,-0.00546415984320972,-23.825186149186255,0.004185344803499643
-0.003541659407279912,9.573349314009105,14.255643753373873,-0.00546415984320972,-23.825186149186255,0.004185344803499643
-0.003541659407279912,9.573349314009105,14.255643753373873,-0.00546415984320972,-23.825186149186255,0.004185344803499643
-0.003541659407279912,9.573349314009105,14.255643753373873,-0.00546415984320972,-23.825186149186255,0.004185344803499643
-0.003541659407279912,9.573349314009105,14.255643753373873,-0.00546415984320972,-23.825186149186255,0.004185344803499643
-0.003541659407279912,9.573349314009105,14.255643753373873,-0.00546415984320972,-23.825186149186255,0.004185344803499643
-0.003541659407279912,9.573349314009105,14.255643753373873,-0.00546415984320972,-23.825186149186255,0.004185344803499643
-0.003541659407279912,9.573349314009105,14.255643753373873,-0.00546415984320972,-23.825186149186255,0.004185344803499643
-0.003541659407279912,9.573349314009105,14.255643753373873,-0.00546415984320972,-23.825186149186255,0.004185344803499643
-0.003541659407279912,9.573349314009105,14.255643753373873,-0.00546415984320972,-23.825186149186255,0.004185344803499643
-0.003541659407279912,9.573349314009105,14.255643753373873,-0.00546415984320972,-23.825186149186255,0.004185344803499643
