RAMEL-ESPOL/ARCHIE/matlab/data/joint_goals_espol_t5_h20_p21.txt
Joint0,Joint1,Joint2,Joint3,Joint4,Joint5 
0.0009605611486326998,0.00437786705007155,-0.004300583745093419,0.003455975361602378,0.0009956975146891824,-0.002866369038532978
0.0009605611486326998,0.00437786705007155,-0.004300583745093419,0.003455975361602378,0.0009956975146891824,-0.002866369038532978
0.0009605611486326998,0.00437786705007155,-0.004300583745093419,0.003455975361602378,0.0009956975146891824,-0.002866369038532978
0.0009605611486326998,0.00437786705007155,-0.004300583745093419,0.003455975361602378,0.0009956975146891824,-0.002866369038532978
0.0009605611486326998,0.00437786705007155,-0.004300583745093419,0.003455975361602378,0.0009956975146891824,-0.002866369038532978
0.0009605611486326998,0.00437786705007155,-0.004300583745093419,0.003455975361602378,0.0009956975146891824,-0.002866369038532978
0.0009605611486326998,0.00437786705007155,-0.004300583745093419,0.003455975361602378,0.0009956975146891824,-0.002866369038532978
0.0009605611486326998,0.00437786705007155,-0.004300583745093419,0.003455975361602378,0.0009956975146891824,-0.002866369038532978
0.0009605611486326998,0.00437786705007155,-0.004300583745093419,0.003455975361602378,0.0009956975146891824,-0.002866369038532978
0.0009605611486326998,0.00437786705007155,-0.004300583745093419,0.003455975361602378,0.0009956975146891824,-0.002866369038532978
0.0009605611486326998,0.00437786705007155,-0.004300583745093419,0.003455975361602378,0.0009956975146891824,-0.002866369038532978
0.0009605611486326998,0.00437786705007155,-0.004300583745093419,0.003455975361602378,0.0009956975146891824,-0.002866369038532978
0.0009605611486326998,0.00437786705007155,-0.004300583745093419,0.003455975361602378,0.0009956975146891824,-0.002866369038532978
0.0009605611486326998,0.00437786705007155,-0.004300583745093419,0.003455975361602378,0.0009956975146891824,-0.002866369038532978
0.0009605611486326998,0.00437786705007155,-0.004300583745093419,0.003455975361602378,0.0009956975146891824,-0.002866369038532978
0.0009605611486326998,0.00437786705007155,-0.004300583745093419,0.003455975361602378,0.0009956975146891824,-0.002866369038532978
0.0009605611486326998,0.00437786705007155,-0.004300583745093419,0.003455975361602378,0.0009956975146891824,-0.002866369038532978
0.0009605611486326998,0.00437786705007155,-0.004300583745093419,0.003455975361602378,0.0009956975146891824,-0.002866369038532978
0.0009605611486326998,0.00437786705007155,-0.004300583745093419,0.003455975361602378,0.0009956975146891824,-0.002866369038532978
0.0009605611486326998,0.00437786705007155,-0.004300583745093419,0.003455975361602378,0.0009956975146891824,-0.002866369038532978
0.0009605611486326998,0.00437786705007155,-0.004300583745093419,0.003455975361602378,0.0009956975146891824,-0.002866369038532978
0.0009605611486326998,0.00437786705007155,-0.004300583745093419,0.003455975361602378,0.0009956975146891824,-0.002866369038532978
0.0009605611486326998,0.00437786705007155,-0.004300583745093419,0.003455975361602378,0.0009956975146891824,-0.002866369038532978
0.0009704858301836147,0.004396945206092491,-0.004322598025697332,0.0034559735363357703,0.0010030331781363268,-0.0028564164408858986
0.11565035540788109,0.22406318765874542,-0.257465270058729,0.003333503329859999,0.08516113707380384,0.1121451862419895
0.36188384994530665,0.6904912273474286,-0.7927816598822423,0.0023907421422717243,0.26182788736247975,0.3590660054907839
0.6258254040433507,1.1827268849892107,-1.3544845351108927,0.0003674746108441763,0.445270373279114,0.6237444559616727
0.8954491381102008,1.677523810241979,-1.9157660595954245,-0.002759335503377878,0.626555179979207,0.8941276645201853
1.1698516026243386,2.172985371104797,-2.4744437482766246,-0.007018823151420928,0.8049486474394074,1.1693163224661811
1.4525780566306057,2.6751667000329897,-3.0372730870248312,-0.012520270103039214,0.9825532526004928,1.4528728142921048
1.739493489272615,3.1764091994528445,-3.5956148647389115,-0.019233428986871904,1.156597782902424,1.7406569188458028
2.0351365736192744,3.6843194307776588,-4.157887487495599,-0.027316253288702592,1.3296611878979117,2.0372281079130885
2.3361855444588886,4.1928231807430425,-4.717296985934416,-0.03673605063085095,1.4995969381457492,2.3392614031586927
2.6448182099132413,4.7052899087896005,-5.277509113052337,-0.047611443023291455,1.6674806756935932,2.6489487064613795
2.961859893404036,5.222660050260859,-5.839466551709466,-0.06003894081521897,1.8335273457104635,2.9671257279672036
3.2847812018370672,5.74045894553975,-6.39826186299102,-0.07397561519609186,1.9962434142369003,3.2912610460509226
3.6180988512332117,6.26550686934721,-6.961184096054288,-0.08968343430000413,2.157690845566225,3.625895793144046
3.9579914805890923,6.7913420881362,-7.521231491367934,-0.10705240961533494,2.3157980527709077,3.9672009368073975
4.306136943663931,7.320219309934033,-8.080777426095219,-0.12622432859825544,2.4712015962523766,4.3168678245925935
4.663788230080592,7.853587002694985,-8.64128794463643,-0.14734058322876992,2.62424769480153,4.676162068018353
5.031119560616317,8.391202311489257,-9.202430277893288,-0.1704908948054909,2.7747752697388366,5.045265968215218
5.408869105879976,8.933616673103472,-9.764700599627966,-0.19580523068351183,2.9228441543251575,5.424928467335119
5.793930140792944,9.475948769252192,-10.323007383538233,-0.22314327166779943,3.0670729362653475,5.8120329936490425
6.192356938785654,10.0261971640619,-10.885522052842962,-0.25301850443446977,3.209507599229069,6.2126723597900835
6.600289216621399,10.578423314764512,-11.446090647209301,-0.2852366476997701,3.3485080403240626,6.6229714640669455
7.019687607933751,11.134765490402188,-12.00684394014403,-0.3200344072188032,3.4845506081905153,7.0449075440750475
7.450077549994305,11.69403121746379,-12.566532769815076,-0.35746106637624686,3.6172725238782317,7.47800818378354
7.890409683276552,12.254368612080368,-13.123291909741205,-0.3975028430155974,3.7461966597976644,7.921221048374146
8.34143794496326,12.81627375830982,-13.677619665264942,-0.44030176367569696,3.871415126264131,8.37530766071184
8.803472923531425,13.379640933452244,-14.229416006757267,-0.48596471417220494,3.9928791664631524,8.840582830737647
9.273238515287376,13.940112044178559,-14.774466334664593,-0.534225624073477,4.109673168537108,9.313747656794048
9.744933908547743,14.490764796575665,-15.306211219729493,-0.5844916672592142,4.22050049669983,9.788955760761372
10.223885884256287,15.037836182889087,-15.830851930544219,-0.6373298406775748,4.326768605626944,10.27156925483478
10.7036497511014,15.574020817475299,-16.341568782383284,-0.6920221297010107,4.427219456007902,10.755089109873985
11.190452139682215,16.106341375579536,-16.845238059724018,-0.7492693788404814,4.5233310315570066,11.245785134072413
11.680383161326741,16.63049884888708,-17.337950802272083,-0.8086150988119496,4.614459441964894,11.739710869881025
12.178992135743067,17.152352127384198,-17.825358276797733,-0.8707421917317734,4.701739106003152,12.242455515255141
12.690246585582543,17.67564896826499,-18.311018882235867,-0.9362036824507263,4.785816814116596,12.75801556142146
13.210064460434724,18.19582083627357,-18.79076097937886,-1.004532532349139,4.865987306810305,13.282269896416505
13.72602813318917,18.70061512941622,-19.253497120233497,-1.0740673392999829,4.940553550693885,13.80268714913505
14.2457117835327,19.19777122631777,-19.70656766009594,-1.1457759414569326,5.010889743086928,14.326898498627113
14.764343207785597,19.682943968651415,-20.14622291542302,-1.218962623118199,5.076573917122055,14.850082489466926
15.283398547164934,20.157829875011018,-20.57422489217919,-1.2937838889728561,5.138048440219833,15.373720511087841
15.680628337652825,20.514212652961515,-20.893942200708132,-1.3520790068182176,5.182358754288323,15.774470708770608
15.721450596506607,20.539353694280024,-21.04233822460672,-1.3586496470391705,5.3146942711064,15.81870956664223
15.706590277434897,20.480853234558413,-21.464882684477068,-1.3585059160634176,5.795956247723558,15.815245465191364
15.68974772090229,20.40795014384916,-21.94103093568859,-1.3584687361664447,6.345252451007174,15.811408989695124
15.673001537433601,20.328378166011603,-22.411494769748018,-1.3585673490789907,6.895530462743785,15.807693482536342
15.656735439998986,20.244187188845913,-22.86559177444021,-1.3587958297186375,7.434052447088804,15.804183611743829
15.647912761809376,20.19563065979998,-23.110686616771197,-1.3589756283783916,7.727830205879827,15.802322356709933
15.645248978018671,20.180566325331135,-23.184518388673236,-1.3590377450373454,7.816764396158222,15.801766421130962
15.739390006318757,20.146472732294093,-23.193983646092637,-1.36714905807156,7.858074724716633,15.897681812246077
16.22163244499118,19.99881058678031,-23.10333542129996,-1.4081052304419062,7.903411236336597,16.385071796318897
16.801992320454872,19.8145498826755,-22.989818249388158,-1.4572818782121872,7.95964461056204,16.971760244685843
17.38672203972229,19.621582769956607,-22.870458651011393,-1.5067004906775974,8.018129150126946,17.5630176428565
17.96854997460376,19.42219832942506,-22.746614359814597,-1.55574181289763,8.078121077248069,18.15149550749062
18.55250725646298,19.21459759788821,-22.617109047541447,-1.6048259143866346,8.140110873862675,18.742285801434665
19.130130006181794,19.00177702964999,-22.483752807735854,-1.6532327439941157,8.203124840772894,19.326832290191955
19.69372567371055,18.786878041481263,-22.34848842190159,-1.7003325248306607,8.266265403124262,19.897334775062713
20.03919904258565,18.65157027250019,-22.26300688736072,-1.7291352156819089,8.305752147553894,20.247119333614876
20.341542862234807,18.53090168607456,-22.18656844691849,-1.7542985096441912,8.340791095486452,20.553284998567793
20.893718723515182,18.305046159669235,-22.042977729280988,-1.8001476356477248,8.405927395131727,21.112559730002847
21.4645228751038,18.064046884028762,-21.889009089325636,-1.8473948758310887,8.474787652439352,21.69086575567841
22.036005046339998,17.814992647442075,-21.729078847501896,-1.8945429161848166,8.545248645783559,22.270027319623495
22.580531721831903,17.57034985816976,-21.571169626430407,-1.9393115975385224,8.613735073974185,22.822035512587817
22.850877140730447,17.44558504789191,-21.488032979813568,-1.9614761011725166,8.646160893543993,23.096078370025385
22.82488380475174,17.395676835007322,-21.227122498267732,-1.9582836164436437,8.436169228817393,23.0625724409731
22.771102598460196,17.28885015324907,-20.68344516728855,-1.9517699774968764,8.00140458409036,22.993312228957
22.715564932742613,17.17348979256116,-20.116516392488688,-1.9451722218317673,7.551983329550132,22.921878247893225
22.660837848406803,17.054794441566326,-19.552327612372995,-1.9387972363320258,7.108598870498686,22.851570321052268
22.606118144247787,16.93112777305889,-18.982647171398703,-1.9325473833341464,6.664687061533795,22.781350524357272
22.55174629131478,16.803299114388487,-18.410996910824306,-1.9264592267565193,6.222947478150303,22.71165092242851
22.497784310022134,16.671546912007262,-17.838067126660935,-1.920536178729069,5.783829804651305,22.64254549574741
22.444406047768283,16.536417963553454,-17.26577848120175,-1.9147931759110708,5.348701515533779,22.574251127889966
22.391366063101568,16.397401204760953,-16.69156316131214,-1.9092000638065492,4.9155154306899576,22.50644838936802
22.338479595997057,16.254062249919553,-16.113415851947682,-1.9037351465890318,4.4827077804485125,22.438896582222796
22.29946828230998,16.14529597678337,-15.683321035565902,-1.899775335543495,4.16285127456098,22.389100325854912
22.286948421882133,16.109842485761313,-15.544631666006032,-1.8985173179890058,4.060087142444478,22.373124894266756
22.279220645343347,16.087218907733146,-15.433134981952714,-1.8976859084132807,3.971518852490995,22.362431401570458
22.389878249215865,16.378223241652567,-15.646476349867855,-1.906447372071278,3.890225628564194,22.470697113801265
22.604337358190463,16.935184007360665,-16.051459860903318,-1.9234101618643566,3.7311668064850165,22.680400786127986
22.830355725997663,17.51236237778883,-16.46653617088624,-1.9412634315644341,3.5615359266760698,22.90124014519499
23.00158206873946,17.943081562758554,-16.77324218854059,-1.9547730429504167,3.4317743784940125,23.068431583837725
23.06701534207334,18.10621676823688,-16.888729808061857,-1.959932223793852,3.381919909068795,23.13229805778121
23.068364728943006,18.11527419757181,-17.056379312367525,-1.9603682204609338,3.5403729986779573,23.13908398337868
23.04653550902118,18.07446147953796,-17.514017917030987,-1.9597423953729822,4.039279198169061,23.134309569423344
23.022890314236193,18.023886604347318,-18.00680601626729,-1.959240582228698,4.58313289427595,23.12924535099488
22.999386839989388,17.966934746274344,-18.493584679773072,-1.9589269469089716,5.127349043784389,23.124328047056885
22.975911512342304,17.903279562713944,-18.976691488718586,-1.9588019664101555,5.674593840848721,23.119538822264957
22.95245482967917,17.832790134867476,-19.456281914414692,-1.9588692260384977,6.225153775829376,23.11488171778976
22.929291288215246,17.756302332675737,-19.92675556496145,-1.9591284700256106,6.772586912757209,23.11041508421645
22.90620411333739,17.673139531096496,-20.392539096307427,-1.9595819968686299,7.322000900693704,23.106100432689924
22.883145835801812,17.58305115503131,-20.854559216620878,-1.9602340950069939,7.874573895663465,23.101934579286727
22.86399056313662,17.502776531955412,-21.235918596483472,-1.9609306924044596,8.336591740979795,23.098587743557914
22.85795822220856,17.47646209584012,-21.355548441936065,-1.9611796803028616,8.482656508492646,23.09755586237658
22.853099413354663,17.454903959048796,-21.45174169074544,-1.9613906518991084,8.600504801487876,23.09673256829349
22.864723574148314,17.481536447550152,-21.515924062380904,-1.9625280880180433,8.637635625986897,23.10975420579817
23.01862854567085,17.88062201674835,-21.79915744070659,-1.974400474342821,8.516577361458793,23.260909599891665
23.24767800933222,18.466648776152244,-22.211023844453205,-1.9920366222663684,8.334611464609473,23.485710101200866
23.48164878719596,19.05570986764016,-22.620200480628263,-2.0100125142636,8.146682749614252,23.71515143583829
23.719563617840347,19.64504270746897,-23.02475327263286,-2.028252547602864,7.953649391903822,23.94826968787302
23.961309108023805,20.234136154870388,-23.424356367024785,-2.0467478368077745,7.755697123389984,24.18494969508258
24.207357025250896,20.823894423594826,-23.819643943881097,-2.065534254193883,7.552535693551551,24.425649085444153
24.459957929624792,21.419310734395104,-24.213912570419776,-2.084782851996863,7.342383877814423,24.67256229822517
24.71652640790836,22.013918615791916,-24.6028493748602,-2.1042959825250622,7.127482447554979,24.923155626579735
24.977391797983255,22.608249304471197,-24.98684253769157,-2.1240986092588963,6.907672545997723,25.17774709098165
25.24284027427967,23.20269357678131,-25.366174535690384,-2.1442122776810457,6.682831170542717,25.43661188682206
25.51326492196385,23.797838303589856,-25.74123858289058,-2.1646664903011676,6.452745538308463,25.700128759700537
25.788579503591574,24.393190293118952,-26.111741869058335,-2.1854544135118505,6.217614276535596,25.968209028888136
26.017493777808703,24.880288531897783,-26.41140605311699,-2.2027122275118503,6.021556514318441,26.190957907794843
26.11471091527598,25.085005191629907,-26.536418243847177,-2.210056126845453,5.938148431353344,26.28550484795161
26.076680061560722,25.174494308921457,-26.588911012958995,-2.20691948943348,5.902645590757767,26.24587692758221
25.63875473280172,25.39110859607261,-26.707185561977074,-2.172048966703022,5.821110662686606,25.80231730345534
25.046005133027002,25.676812568163367,-26.862290415405553,-2.1246804942716566,5.7128283169854885,25.202189845843435
24.451880502485505,25.954666947118746,-27.0121614028431,-2.0770094530423604,5.606716290048291,24.600953176949073
23.850816292377747,26.227239636918192,-27.15825435946492,-2.0285890214149314,5.501854861539565,23.99297767573206
23.249132556732864,26.49164547425699,-27.299093205935215,-1.9799285263539779,5.3994142504696665,23.384656662844883
22.64565071073917,26.748486349152255,-27.43507496413389,-1.9309261836761977,5.299199527512777,22.774804026999345
22.038594822707356,26.998548049787804,-27.56669180211292,-1.8814581414459621,5.201021904568671,22.16160574318118
21.432231386843014,27.240140465800906,-27.693123164506318,-1.831865318746089,5.105576568731692,21.549376637783805
20.817119892714274,27.476989138109634,-27.816379392442645,-1.781376242754943,5.011442852167012,20.928584321063948
20.20306142057723,27.705285850761804,-27.934534633401757,-1.7307879355852185,4.920154219491043,20.30912734716873
19.584629975787575,27.92711115335636,-28.04873617596456,-1.679673695532532,4.8309917433277,19.685511422168513
18.962436099521565,28.142200314849998,-28.15889944785465,-1.6280764528646259,4.744077917426693,19.058358636570382
18.375815322782238,28.337665977192028,-28.258526032592147,-1.5792754175117865,4.664703665972268,18.467292409241917
18.07984927070108,28.433615717382057,-28.307261496752478,-1.5545986426800456,4.625605343646869,18.169166246692743
18.0315405297111,28.33068669227156,-28.100855127154947,-1.5503597084982619,4.523475366649164,18.117907993969972
17.942986134427585,28.05262783536698,-27.560679371497713,-1.5424555397815733,4.26384454154835,18.022030436494155
17.847579717330937,27.74903497519621,-26.971249888305618,-1.533970656014574,3.9806727572401637,17.918722197076512
17.75324749334484,27.444674290418458,-26.380681633514424,-1.52561352604808,3.697086159967682,17.81656386848598
17.660697152707066,27.1419276310908,-25.793580216428794,-1.5174461486504913,3.4152894726922667,17.716321433275233
17.569123877161456,26.83825683476543,-25.20500848340871,-1.5093968367535424,3.1329065483838714,17.617122778157828
17.478542012046596,26.53375222541002,-24.615131081899154,-1.5014665910996563,2.8500117384765473,17.51898288083328
17.38877690355627,26.227859551850624,-24.022865054205184,-1.4936399417895394,2.5660814989378125,17.421711926514046
17.29974570883978,25.920312439389836,-23.427686927750837,-1.4859096226966158,2.280861314291995,17.325219498031956
17.211845068287737,25.61251960279677,-22.83231395218424,-1.4783098582222758,1.9956493674898375,17.229934927909973
17.12505433519746,25.304475619465457,-22.236725189301907,-1.4708384313977059,1.710431161062419,17.135835419405815
17.041446926906744,25.003755272467235,-21.655546802491898,-1.4636722360137506,1.4322033548589301,17.045169279247034
16.99370714470131,24.830261550615212,-21.32035807635815,-1.4595943675059144,1.2717769713095608,16.993390629675968
16.969542575705255,24.7419431942906,-21.149757456769375,-1.4575342082907188,1.1901355081958522,16.967179305697865
16.9697929674075,24.69391058943397,-21.062000281862034,-1.4575344245617554,1.1504175742501466,16.966418243219508
17.32264311799449,24.588673743365593,-21.003680233840537,-1.4869573013286792,1.1882718480336512,17.319730763617226
17.915477115548367,24.40630180007153,-20.902276577885576,-1.5362692359454089,1.2536042105165168,17.913494078428215
18.469596168745877,24.229463857607477,-20.803541329720833,-1.582218552950303,1.3166285610654256,18.46865888014186
18.72205627889813,24.14682735786726,-20.757261045020588,-1.6031010103749812,1.3459388024697425,18.721666092810466
19.16398396178612,23.99903718578416,-20.674277737671485,-1.6395933856499953,1.3982379647310468,19.164618332580645
19.572235415129246,23.858923766991044,-20.595344561246637,-1.6732223354310924,1.4476119817668938,19.573918585489583
19.601886404950015,23.842285084795034,-20.713410679712783,-1.675762148364248,1.581394241832117,19.607459216542775
19.581309224607775,23.822020588657523,-21.184391780680016,-1.674528422108878,2.073030649527813,19.601276118601454
19.55840323623559,23.792837762638676,-21.70609440829822,-1.6733044204873584,2.62434954723506,19.59448787291531
19.5357096818754,23.75689260583797,-22.22022573136783,-1.6722503031535012,3.174853716216131,19.5878664685444
19.513282753778103,23.714338159293938,-22.72559088634551,-1.6713671694277303,3.723194205930587,19.58143022964115
19.49101052241695,23.665003952789696,-23.22473414152619,-1.670649880774452,4.272087825380159,19.575149864820894
19.468865784230452,23.608808678965495,-23.718261934173242,-1.6700983696245173,4.8222227815989624,19.56902149510533
19.446955067846282,23.546040502310234,-24.2038110187574,-1.6697153354055927,5.370945647809378,19.563077745062408
19.425059512353243,23.476037204245248,-24.686221019877884,-1.66949832691342,5.923762268880926,19.557263294794218
19.406425525157122,23.410610276696538,-25.094519408855746,-1.6694474284301077,6.397829187955138,19.552418239172113
19.400135115341218,23.38728976195127,-25.231877038808015,-1.6694585521446497,6.558622299154706,19.550804851592133
19.395559114237066,23.36993000575795,-25.33164683155924,-1.669475728692982,6.67583536797388,19.549638372147257
19.547850149751884,23.31232907120117,-25.308675240267167,-1.6821848156082078,6.705999079959954,19.70383627593377
20.07057556910326,23.116710803793726,-25.196647898107276,-1.7256055504112358,6.774020750991498,20.232136038519407
20.665539771789852,22.886697240642754,-25.06429908731404,-1.7748785309915518,6.853481341367871,20.833642928461845
21.25482188593665,22.65105099669339,-24.92800851842939,-1.8235213085667916,6.934301071283891,21.42961714301349
21.641721839463035,22.492043655879957,-24.835641984649236,-1.8553699296299124,6.988499018267219,21.821027518470984
21.92166242741043,22.374848353999575,-24.76735313816108,-1.8783661406436458,7.0282391123045365,22.10429868786571
22.39400576180498,22.172992081112838,-24.64932505521158,-1.9170870925747403,7.096393977748481,22.582359417999253
22.619926770183824,22.074601365423018,-24.591604779780383,-1.9355686116303379,7.129454661697846,22.811065387512414
23.10787082628856,21.85798576000015,-24.464089291120253,-1.9753983112665434,7.201869812025948,23.305136701540246
23.687448785955617,21.593303708581143,-24.30745655186933,-2.0225512942588786,7.289658875656172,23.892194190306142
24.209621075797898,21.347869171130796,-24.1614012676468,-2.0648812248056845,7.370346215152707,24.421303963507302
24.389790850579068,21.255550753499794,-24.09453677190243,-2.079411140147011,7.3892770205076825,24.603566786447917
24.333445221432132,21.137634897619154,-23.745620971889053,-2.0738384337370364,7.160468821614774,24.53842524263418
24.242419441118773,20.943562982266034,-23.1769195295419,-2.06490687250379,6.789368538023404,24.433231225736503
24.150892502075777,20.74392709140531,-22.598721067783103,-2.056014526835942,6.4143403663482355,24.327507159736363
24.05999654064508,20.541162042631633,-22.01807430745857,-2.047271104287814,6.039954571824155,24.222557796377597
23.969828975384647,20.33554031218601,-21.435627017851424,-2.0386839870793296,5.66658306541926,24.118491734467387
23.880231739134086,20.126751065642676,-20.85037738057721,-2.0302363005055173,5.293541264673048,24.015122810534802
23.791806409064122,19.9162777509469,-20.26632275453888,-2.0219824011584135,4.923320567867113,23.91314118500855
23.70449701906346,19.704109300149526,-19.683223422854564,-2.013914009250765,4.555695009856826,23.812478263754024
23.617346697445132,19.487965763568997,-19.094707818378485,-2.0059411422340028,4.1866095233976015,23.71202746602358
23.53152546513062,19.270809175817064,-18.508720137710437,-1.9981690635032685,3.821002512266793,23.613134034261403
23.44983848922605,19.060094193287835,-17.94490591014037,-1.9908446886840945,3.47096066591732,23.519025640670723
23.40926057082267,18.95394954922542,-17.66260159330551,-1.987232998784674,3.2963156411803074,23.47228431463262
23.384171236073097,18.88782766110911,-17.48730360086987,-1.9850087829300627,3.1880746808477523,23.443386271518765
23.385651648897138,18.88931446834648,-17.43793956452915,-1.9850299369292366,3.1372031466484294,23.443103271626164
23.543274842704463,19.269899228190962,-17.701778192453148,-1.9974293905206715,3.0150519518278105,23.596741794565787
23.784722085054344,19.844383958649512,-18.096241899333666,-2.0164037917944584,2.8266884634050493,23.831941628501514
24.03158762558062,20.42138178834775,-18.48785362002904,-2.035781066537827,2.6326940038280813,24.072244492709167
24.28439822721194,21.00168674636216,-18.877103589373757,-2.055602027948343,2.432741068184539,24.318156392499503
24.51301862528909,21.517477131567503,-19.21921899453702,-2.073507266864686,2.250947982843828,24.540387674049388
24.615061292947253,21.744996071967922,-19.36897786912952,-2.081493434334723,2.169542566694196,24.639533556382382
24.606256644426075,21.78065242697767,-19.391769719601463,-2.0807777420325686,2.157006453538417,24.630268851153243
24.20915207263653,21.44027791200426,-19.16160744300334,-2.0493918530346864,2.2814503364153516,24.237430376306428
23.679388678996347,20.976793491611787,-18.845939762284765,-2.00737601159347,2.447918746497349,23.713179261137967
23.14961765870045,20.502297265684437,-18.520048861611222,-1.9651959787575646,2.6147923527629726,23.18870940019645
22.634046180690564,20.029675424426507,-18.19267894757055,-1.9239916635001333,2.777452963697318,22.67808740210494
22.121789576926002,19.54922061605447,-17.857026737610116,-1.8829031176259572,2.939189420409633,22.170537201730554
21.62820786723723,19.07575959811157,-17.52341556359142,-1.8431742270053595,3.0949931969296682,21.68128192190948
21.39760899810621,18.850946622867504,-17.364012062964633,-1.8245671136695898,3.167737851803355,21.452633324772393
21.383154788135737,18.830155011853854,-17.56176039101475,-1.8237902326378224,3.386627095140393,21.445135929561264
21.36190292734709,18.7894228307325,-18.03615494857698,-1.8231050341814345,3.9021690811128718,21.440281508594776
21.339536032032992,18.740017431821993,-18.53250576649291,-1.822551196293462,4.448360539022229,21.43527542316725
21.31740648754693,18.684415946342824,-19.02058162390672,-1.822175640733793,4.992466610203661,21.430432073847577
21.295411797286636,18.622403794039094,-19.5026705185786,-1.8219760247618282,5.536991819709212,21.425732043833477
21.27326470376111,18.5530337146978,-19.98501476624498,-1.8219539065387238,6.089131191725761,21.421120059237996
21.25141168373226,18.477640954995863,-20.457868776802872,-1.8221121164564311,6.6377952505309645,21.416693979784167
21.22972300198111,18.39586665823263,-20.92408465913631,-1.822450165350304,7.186197414891966,21.412429706021868
21.20804535326734,18.307085972152024,-21.386941652980497,-1.8229726671389903,7.738244622796299,21.408301766908718
21.191837352954252,18.236023670595703,-21.730940025498633,-1.8234866748919778,8.153609969195998,21.40530682977714
21.186940965338138,18.213758471150225,-21.834508271434686,-1.8236630521540171,8.279535191672307,21.404417927152327
21.182332913771,18.192463588832876,-21.93182699311777,-1.8238380838423713,8.398235054650165,21.403588220451173
21.19716939095024,18.23123482876944,-21.998827134607783,-1.825188062725762,8.425978215543166,21.419455018740198
21.347116955104763,18.65099957340383,-22.291966955087055,-1.8368865726627044,8.294636180575367,21.566530338701696
21.562045268070094,19.244492041778347,-22.702241607736102,-1.8536279634772352,8.104605020631512,21.777189676592993
21.78187352261431,19.841769913415256,-23.110204829400963,-1.8707199471750882,7.908258362563723,21.992470759093752
22.004396377195313,20.436582827929076,-23.511597877475893,-1.8879911181316889,7.707655175955939,22.210209397792948
22.23003068658058,21.02990914116999,-23.907156012938973,-1.9054743114820787,7.502536454136906,22.43081137118929
22.45452633215187,21.61068470846622,-24.28969860498993,-1.9228414256670996,7.296923399202264,22.65012388022254
22.582941579511893,21.93870245416657,-24.503733696704113,-1.9327638077766718,7.178689382111468,22.775497127050347
22.63355809641894,22.06748729332759,-24.580862375345497,-1.9366445527543832,7.12535532129741,22.824673963985415
22.613013369259427,22.027966294375545,-24.281566278071672,-1.933903863770862,6.866421869641904,22.795164888459734
22.57591229229432,21.95239939298876,-23.737441030190062,-1.9290635111583305,6.399379903897755,22.741956835320543
22.538440121996814,21.870622242509853,-23.183086835819307,-1.924315300165002,5.92832988579924,22.688318585903495
22.500914680843746,21.783268091854808,-22.62307897034858,-1.9196998495975521,5.457200907155902,22.634701629536572
22.463748781976257,21.691393642908345,-22.06359005242145,-1.915264371946908,4.991092255986653,22.58168958550827
22.426775270120437,21.59473141410664,-21.50216293131586,-1.9109842022042194,4.527821218759751,22.529037128252508
22.390216072398236,21.494014434739537,-20.94223660234275,-1.906880262431672,4.070084980579603,22.477053528669902
22.353582851688525,21.387989977413145,-20.376346894193954,-1.9028945701895572,3.6116919115209885,22.425038737989052
22.31713559223832,21.277452552237104,-19.808478602019395,-1.899053589420097,3.155821945681183,22.37335707886049
22.283340615377732,21.170471807511873,-19.277562535850215,-1.8956020742894146,2.733237889723333,22.325494026745844
22.2677075767148,21.11952686122958,-19.03053267892403,-1.8940410148163043,2.5377769889164714,22.303371094789398
22.259460592118298,21.09228071380097,-18.89984730074439,-1.89322652539596,2.434666677169807,22.291704821512013
22.31774787658812,21.23711616362041,-18.984463546489774,-1.8978474631937459,2.372553670261398,22.347974079232895
22.523621772752872,21.745891623901272,-19.319883347357784,-1.9142177840411052,2.1924514034289717,22.547955854584426
22.742305304179936,22.277570738299385,-19.666640949333633,-1.931595192456112,2.0003024280186903,22.760242750019565
22.841510476712486,22.51585061516867,-19.820802084944525,-1.9394747011068127,1.912884247251005,22.85650030226606
22.872238112885007,22.59253490708021,-19.915375647645646,-1.9419643411362395,1.929723676587332,22.887800275245244
22.8529862587102,22.573146587792426,-20.302323774146654,-1.9409286686762695,2.3364784683442985,22.882341208389224
22.827329414275763,22.54136211844888,-20.815585731214203,-1.9397053097400694,2.8820805368044637,22.875163813946855
22.801968340058817,22.503136446595306,-21.3201660766373,-1.9386757271732264,3.4254335807319287,22.868184878812315
22.776718929220714,22.458212757300867,-21.81974408706001,-1.9378320855678135,3.9704776139710454,22.86135736105392
22.7518159383754,22.407051453435955,-22.30969914216079,-1.937181410790183,4.5121265307780885,22.85474789274768
22.72671594485225,22.34845204446456,-22.800695023497102,-1.9367121791408748,5.062256140595342,22.84821774637062
22.701808608922804,22.283155585779014,-23.28517696167292,-1.936464543862871,5.612555483905388,22.841875713765184
22.677101674253635,22.211236266332865,-23.762759102885113,-1.936382304063059,6.162577771889727,22.835726483343294
22.652879381307915,22.133655237097344,-24.2281353697854,-1.9364914518393872,6.706043050247823,22.829842047700353
22.637877842752435,22.082032039028114,-24.514922478997203,-1.9366554028129528,7.0447666125787025,22.826272243826175
22.63146371533574,22.069541409550055,-24.588630895534788,-1.9364980404591032,7.131132997680419,22.82275412232866
22.385544153132127,22.176652464095937,-24.651468476311496,-1.9163823272559597,7.095147571304828,22.57380168290946
21.83452717204451,22.41151923537722,-24.78873846631116,-1.8712027126264894,7.015806142272652,22.01612918546052
21.24749529723825,22.654026330718885,-24.929731230397348,-1.822909493435133,6.933259550139606,21.422217105570763
20.65905905071067,22.889244019205936,-25.065766837852735,-1.7743383689222292,6.852591216647286,20.827098205213158
20.067030507207928,23.118057214846303,-25.197420439687683,-1.725310714461079,6.773552108550022,20.228558412404382
19.474212020938303,23.33940531361501,-25.324144005797432,-1.676060976603478,6.696561854688294,19.62942891763079
18.871952634336505,23.556420677080713,-25.44777908157353,-1.6258686461472565,6.620543319352172,19.020974041580267
18.270885057336802,23.76522044548159,-25.56617276345674,-1.575625331615736,6.546964534129314,18.413922243135907
17.670302749450375,23.96618009857126,-25.67959967532627,-1.5252746943352409,6.475716402652798,17.807560533503892
17.069719924673876,24.159567211261322,-25.788270642682082,-1.474780624189035,6.406754510204849,17.20139294417692
16.4682370807219,24.3457467177695,-25.892445820265607,-1.4240716639945368,6.33999508341501,16.594506594618625
15.860714238121838,24.526266330586996,-25.993034230937837,-1.3727154569437272,6.274890280008215,15.98171873128986
15.258488547152192,24.697834128170232,-26.08825808977534,-1.3216774458755225,6.212732233835301,15.37444781537209
14.865199008777433,24.805950691714227,-26.148075459218205,-1.2882783143034668,6.173406613096885,14.977957146885
14.8201721167357,24.765622015993337,-26.027681662850256,-1.2842713123380065,6.094372870719981,14.930885918357669
14.76883527324872,24.572024318750326,-25.534782411165224,-1.2792256998550475,5.796294845391623,14.872561096857174
14.708657656530344,24.341110398468036,-24.95083615913714,-1.2733560607113537,5.444690938478645,14.80421012819519
14.649049121506595,24.10809699353389,-24.365731484122556,-1.26758984931976,5.094008420575743,14.736523288698509
14.590427525246044,23.87472905156344,-23.783702540031232,-1.2619658232829587,4.746726879339898,14.669972906142288
14.531793547997118,23.637075877839337,-23.194861535214198,-1.2563871876074924,4.39691289757596,14.603422645166283
14.473974947627129,23.39852196158438,-22.607528694593142,-1.250932003995579,4.049482952842246,14.537810288962486
14.416527927146939,23.15730683406692,-22.017269854404372,-1.245557281698386,3.70177389700107,14.472630405088529
14.35969939772269,22.914515532855535,-21.42666223952069,-1.2402852735811882,3.35527234099306,14.408161449908937
14.303741072090052,22.67132730265929,-20.838453332349037,-1.2351379147880026,3.0115409298851734,14.344687233595028
14.248169850899826,22.42572052656507,-20.247656585141108,-1.2300696564079188,2.6676260572448247,14.281658145163552
14.199534190617808,22.207364828435143,-19.725045452809294,-1.2256698125226635,2.3644823023677968,14.22649923727483
14.178199829151195,22.11056785961939,-19.49413891595543,-1.2237504348388966,2.230859121537205,14.202304284440094
14.166626101078753,22.057795762029812,-19.368446446740634,-1.2227119145522856,2.158202290778964,14.189178887572615
14.224702466300624,22.289112158599075,-19.51561560733297,-1.2275560454717231,2.0728336932250717,14.245415220606
14.366281086053586,22.846795610196555,-19.87367253629227,-1.2393729882508244,1.8702089169430103,14.382567176724834
14.521199950843144,23.446417076851237,-20.253949859154567,-1.252308821474198,1.647552479491459,14.532527056464586
14.680093947123153,24.05021072554431,-20.63196877931638,-1.265583318555284,1.4183462662311463,14.686213128784452
14.841068263950575,24.65064352854234,-21.003026558962866,-1.2790394091149744,1.1854595454327441,14.841789190722464
14.973384825210173,25.135909097753395,-21.299390018442512,-1.2901063931822476,0.9936443433142389,14.969578921566367
15.040322530247943,25.20296299855189,-21.34078955361377,-1.2957332660902676,0.9664894213836676,15.035779308698478
15.43396763331121,24.8612417570226,-21.13983269288346,-1.328904819085686,1.0982212624912633,15.431745997064976
15.969236638237748,24.386531829826144,-20.85827725701443,-1.3739272501099202,1.2787231682202287,15.970464523300057
16.505525092990432,23.899015473308513,-20.56621284306204,-1.4189369790093096,1.4610710289702005,16.510548185896074
17.038503208308644,23.402374129636318,-20.265624887278406,-1.4635690496020626,1.6436780690192598,17.04763476713699
17.573985013213747,22.89087377179238,-19.95279680654314,-1.5083083715221637,1.8284168380780186,17.587582003581417
18.10199803176078,22.373857237218704,-19.633220993356897,-1.5523174335683272,2.0116746080269494,18.12034460748668
18.618865775078792,21.855245603260265,-19.30923530252457,-1.5952999356489312,2.192046171765624,18.642162059913552
19.121047513858684,21.33917602682837,-18.983409025806633,-1.6369636274127093,2.3680631782821178,19.149450041462245
19.614076129011277,20.820490921451395,-18.652463902676004,-1.6777725149641833,2.5414755557614614,19.647773851295725
20.095488224060464,20.3022119389393,-18.318285185276977,-1.717526833777804,2.711241829182973,20.13462254412345
20.562613904925485,19.787844151917763,-17.983156411485407,-1.7560117576587428,2.876248091222628,20.607270990856126
20.86814854618012,19.445147880512916,-17.75794672916843,-1.7811332274764538,2.984239462875865,20.91655519776348
21.107930064961142,19.172666132759566,-17.57777412576299,-1.8008203604445767,3.068997303311821,21.15935246186255
21.370207107046006,18.871005564872572,-17.37716365339789,-1.822328925326826,3.161708222925882,21.424989420146126
21.387172296541607,18.837179304266353,-17.471838258084855,-1.8239378481081294,3.289604444028575,21.446062698181382
21.367507535806435,18.800742915369398,-17.911363124148803,-1.8232717564719754,3.7659502767805364,21.441551274467344
21.345279540139774,18.753345839202453,-18.40538820338755,-1.8226777728910188,4.307805445178861,21.436548921323485
21.32309663056463,18.69935362407579,-18.895414182864545,-1.822256545169741,4.852253901475384,21.431664906881846
21.301014496735217,18.638841448785552,-19.380192261173967,-1.8220111481380536,5.397970517412555,21.42691619689629
21.27896358887323,18.571551431910404,-19.86122681412291,-1.8219431335184493,5.946718822427021,21.422292722629663
21.256983116100727,18.497520986661794,-20.33763256563565,-1.822055466525862,6.497575297879981,21.417807921848162
21.23524118589069,18.417333111175285,-20.80577915480947,-1.8223476956864528,7.046323324201415,21.413499575421664
21.21354592515047,18.33028566336216,-21.269805268569257,-1.8228232289357793,7.597807330274097,21.40933336550462
21.193130431531653,18.24184052804018,-21.703568426192806,-1.8234425798388967,8.12039973834352,21.40553982722438
21.183703934365383,18.198833231577236,-21.902891758692032,-1.8237859213009735,8.362907009873345,21.403831302043024
21.172011243738446,18.188507886958686,-21.968619253052665,-1.823183841696623,8.43929272388477,21.394489478205696
20.861350488796283,18.31848089239865,-22.051536887730546,-1.7974476078651962,8.402058618567887,21.079770647782617
20.30582705726418,18.54526587641484,-22.19567757376739,-1.7513149922725981,8.336628232186731,20.51711297727491
19.734952430974364,18.770875230382423,-22.33839214946837,-1.703762360994089,8.27095610413355,19.939068581775683
19.166479894033962,18.988134853756428,-22.475186159430955,-1.656267440138695,8.207168867300863,19.363616707487825
18.589598148856435,19.201155284860114,-22.60870382808906,-1.6079287223050214,8.144108486615863,18.779813023157345
18.01168120722162,19.40712236653522,-22.737229936240073,-1.5593646773408512,8.08265035745395,18.195120909288164
17.42947804824113,19.607181013813324,-22.861529814320022,-1.5103036049239789,8.022467628834448,17.606257236357283
16.846306103849326,19.80018321659,-22.980948774418163,-1.4610292337482678,7.964014636935112,17.016561721693783
16.264427922119612,19.985468871019144,-23.09513229430808,-1.4117360146209548,7.907508369154244,16.428325441757043
15.680983151493264,20.16402465515447,-23.20474204513846,-1.362185791728307,7.852693928360937,15.83865295723753
15.09555217179307,20.33599040995831,-23.3099113468945,-1.3123460760446988,7.79956906735538,15.247117395679377
14.504818747236099,20.502279804784923,-23.411237941335997,-1.261936746984659,7.747855752864595,14.650372607173079
13.983978223450269,20.64292968155975,-23.496662091235805,-1.2173968522286611,7.703905559647625,14.124341219561366
13.824303541431318,20.678763879177346,-23.505545576373553,-1.2036953521252354,7.680332716446053,13.962875547207876
13.791959611386238,20.552679198400654,-23.15038488160772,-1.2002963143227379,7.451985162192028,13.925442351697768
13.740019465091125,20.346691639396614,-22.574841057491607,-1.194879940107849,7.083594743613435,13.86535086177566
13.688131205981009,20.136545247606215,-21.993365825484208,-1.1895206966181469,6.713425721970548,13.805344300597326
13.636686192525357,19.923836371945054,-21.41031512671797,-1.184258293750749,6.34422902845819,13.745873339797297
13.585367006759977,19.707272965020966,-20.82207603449911,-1.1790594693602936,5.9736909464679515,13.686569095870224
13.534436205284464,19.487974925481726,-20.23163092888651,-1.1739501548176907,5.603668225232541,13.627733109628005
13.48420902496976,19.26738488157465,-19.64272050146189,-1.16896049962527,5.236452133889386,13.56972740733424
13.434707567270326,19.045728932884984,-19.055759706006164,-1.1640907719442637,4.872231248537102,13.51257529349766
13.385338272307273,18.820403815820082,-18.463753603022464,-1.1592815282896751,4.506627019758373,13.455589601443966
13.336475798616192,18.593144868607155,-17.871194328816806,-1.1545685695838879,4.1423881723991665,13.399201069206612
13.288938766059083,18.367940499227434,-17.28825440082893,-1.1500284788569672,3.785681282108169,13.344352334184396
13.259374794777647,18.22581360572943,-16.922450291099906,-1.1472274397731643,3.562641817608336,13.310245575489928
13.247006165365603,18.16587702040009,-16.768656893598422,-1.1460607188651113,3.469051368044691,13.295977304755954
13.263434805274846,18.238033041319387,-16.786338119865263,-1.147391207107944,3.4142587349635227,13.311334937018518
13.369486770781856,18.709061733649886,-17.115386210127117,-1.1562336734417396,3.270175224804856,13.414649759827862
13.505516734422244,19.3040838792906,-17.526616715645645,-1.1675750371202287,3.083663514082826,13.547069603296414
13.643556287523776,19.89763678794256,-17.93191708923525,-1.1790840021224505,2.892624629428941,13.681334352860985
13.784193285804845,20.49201100146557,-18.332881340512287,-1.1908104190734812,2.696348879251572,13.818013138026815
13.928826829430943,21.09266972184398,-18.733128357922524,-1.2028718638549205,2.492961536919366,13.958460744576605
14.076483277085858,21.69508527558624,-19.12956461957132,-1.2151881410334517,2.283914714729761,14.101726404391218
14.226039907357752,22.294425916413395,-19.519047424281446,-1.22766660267561,2.0709193107199533,14.246718093574064
14.378044322880418,22.892712766091385,-19.90296529945228,-1.2403539536847656,1.8533299279555469,14.393964828023375
14.533812964714768,23.494758118220876,-20.284395703288467,-1.2533612168454313,1.6293819130983038,14.544737892939335
14.692256703078675,24.095970461111477,-20.660417456497125,-1.2665986520659032,1.400766873100577,14.697979027106427
14.853763110952407,24.697522665840776,-21.03179364648522,-1.2800998514652184,1.1670648065794451,14.854059963417152
14.968400463404167,25.117762595998155,-21.288363504846117,-1.2896882843808462,1.0008702650384944,14.964773296621214
15.000664340226297,25.23637153108504,-21.37357089319562,-1.2923924933349809,0.9667517507627624,14.996208507545912
14.989416358812539,25.227632165457337,-21.701962002305894,-1.291595238669371,1.304049602221154,14.992588912951893
14.97129307858328,25.207959726787095,-22.229010124976288,-1.290406838344619,1.8510390429428536,14.986817197609412
14.953247618528803,25.181374650375105,-22.751208970653753,-1.2893437673655663,2.400089660302014,14.981148165843129
14.935307429282268,25.147860978916142,-23.267749210469397,-1.2884085441166784,2.950407644829966,14.97559378892838
14.917507320018828,25.10746405841716,-23.77762632657025,-1.2876033464486414,3.500942593640342,14.970167774425216
14.899880435487967,25.060282470396842,-24.279903565999543,-1.2869293908036055,4.050658666645516,14.964882624495466
14.882426202279323,25.006359959279575,-24.77461708440561,-1.2863860873862665,4.599548267491099,14.959740259167058
14.865134881310048,24.945709747171055,-25.262061133349203,-1.2859726892453751,5.1478925512683595,14.954739884185443
14.852697214957079,24.89754003036955,-25.611014556652187,-1.2857539971408907,5.545194777481726,14.951203654139686
14.844968745119557,24.86566171906261,-25.827132468552954,-1.2856518993350885,5.79330195248714,14.949032767286496
14.838267653287183,24.83679886961289,-26.014073032647534,-1.2855846349643891,6.009201360618736,14.947167293333646
14.835197522154445,24.823192768664253,-26.099580421277466,-1.2855604806697725,6.108358765024205,14.946317931299289
14.839426386707032,24.8384052670322,-26.16735896185415,-1.28604534123242,6.160816670625668,14.951755576366006
14.938298138743063,25.21956912924318,-26.39856116746102,-1.294057281122757,6.00866712909157,15.047743398629185
15.097862681981523,25.82631724834684,-26.762658259356698,-1.3069876380412109,5.76245695064035,15.20254875111047
15.264169211348637,26.447912416590643,-27.130676529223145,-1.3204657913250573,5.505133455872271,15.363760376063375
15.432811293729968,27.067275135968533,-27.492383430101615,-1.3341360313152337,5.243639832595983,15.527099568365074
15.605031310685803,27.688676041939587,-27.850307147641182,-1.3481005007899722,4.976203345624806,15.693766394092956
15.781354063625411,28.313555247705118,-28.2052432917076,-1.3624033212412805,4.702164756310838,15.864263537949938
15.930913309387938,28.834823729848367,-28.49752264840251,-1.3745405805162347,4.46966854874777,16.008773355392545
15.9921761619616,29.046069335851907,-28.614989122254528,-1.379513891132345,4.37444404629835,16.067939826991523
15.986166464697725,29.02147806571716,-28.438638057905784,-1.3787341974150005,4.222872951368822,16.058251621461455
15.958553423674836,28.912695417879025,-27.924783963959683,-1.3757299740583633,3.8185824645375996,16.020819237173985
15.928360558249798,28.788838391266182,-27.358431595477853,-1.3725269257655632,3.3769386179524292,15.979947771176285
15.898431327054872,28.661029805953397,-26.792346838213568,-1.369435269606817,2.9395040461979787,15.939489887903482
15.86880135635705,28.52959046688464,-26.227283739305005,-1.366455466497538,2.5067111002043423,15.899488959272821
15.839311482209553,28.393947491979954,-25.66025748677334,-1.3635689373153597,2.076152405428817,15.859725860088021
15.810160331991487,28.255152373650837,-25.09514625757946,-1.3607925317138292,1.6506491862239299,15.820464269636343
15.780895178591068,28.111123086965627,-24.52317207697149,-1.3580816368563007,1.2235181803292021,15.781091000976625
15.751789869826728,27.963234275812013,-23.94964103574426,-1.3554609260978305,0.798683259998997,15.741971531099361
15.722982582049788,27.81231055183274,-23.377327941551258,-1.352940635699086,0.3780908735970066,15.70328789343977
15.702169943988237,27.70046196291235,-22.960929536772124,-1.3511651205737791,0.0741156056829501,15.675360099041542
15.695434810945526,27.66372401944484,-22.825513745241786,-1.3506235109505071,-0.02439412644659187,15.666314193905277
15.723635234540376,27.754144953538393,-22.844620391373688,-1.3529919013768001,-0.09635155347447061,15.692722373471405
15.870440367276341,28.241405850852107,-23.12227487233213,-1.3653248864382834,-0.3093684431222266,15.83395393144716
16.05223401017068,28.834067137197053,-23.45583796211956,-1.380611674077379,-0.5727306104229636,16.008730799338203
16.159664013270003,29.178840509742187,-23.647795806882723,-1.389653066927074,-0.7280870497031463,16.111956002554845
16.18960447372922,29.27921768595056,-23.73849934637696,-1.3921633295372209,-0.7384813332017353,16.14151587753898
16.174340295266692,29.284183854988324,-24.13094801076522,-1.3907948687348528,-0.35074404211319726,16.13573343295279
16.153354812481034,29.28517962155433,-24.66860688145474,-1.3890177844919154,0.18626834490548475,16.12784990622932
16.132222309351288,29.279196714585925,-25.207775785904172,-1.3873527519671454,0.7317706476570661,16.11999317323602
16.111188687251534,29.26609693476598,-25.74211703055984,-1.385822456404956,1.279559231738129,16.112260004118806
16.090466042067295,29.246035109705794,-26.266252278099813,-1.3844416367105592,1.8240974072091518,16.104730964053424
16.06992832704374,29.218960411448986,-26.783394167820212,-1.383200448336665,2.3686507052531556,16.097362181322563
16.04963907598412,29.184998113117153,-27.291957088123983,-1.3821019162266939,2.9115071838681774,16.09017868004036
16.029915588597635,29.14493150125106,-27.784068936177864,-1.3811587799697918,3.444006298966705,16.08329207956125
16.01918858491228,29.120158663427276,-28.050753506620477,-1.3806986337771154,3.7356375156351853,16.07958844008117
16.007552093280456,29.09086647783083,-28.33926978730969,-1.3802423486782072,4.053634045870683,16.07560529748963
16.001785406213095,29.075406290805343,-28.48194547098799,-1.3800329723628055,4.211862926313751,16.0736450020868
15.996464509555777,29.060581077718595,-28.61341116190844,-1.379849727589245,4.358239537196791,16.071844411162466
16.21160219910963,28.99877545531045,-28.592065054058423,-1.3979883303302123,4.393473198547796,16.288524865967034
16.775764701484636,28.83540034626488,-28.510129737834273,-1.4454216656445398,4.460892324326188,16.85621553485041
17.40335227519294,28.646282730898307,-28.41488321101352,-1.4980421810175637,4.538615387639823,17.48794560347692
18.033095731332125,28.448609910745304,-28.31486729595574,-1.5506845316053972,4.619486858945252,18.122083701052272
18.66144594295255,28.243375685034476,-28.210526323178758,-1.6030466754759174,4.703052387398661,18.75506396979009
19.286101469935108,28.031315469453368,-28.10217647183872,-1.6549289690230968,4.788936800006116,19.38457731925546
19.91123229038674,27.810969333749146,-27.98901860434621,-1.706683702129648,4.877744305883955,20.014821556479642
20.38196981955383,27.63960475756064,-27.900607155404114,-1.7455399456180962,4.946481391706556,20.48958345943526
20.62302777388199,27.550023550246106,-27.854247638661786,-1.7653982777950434,4.982298852731304,20.73276113332772
21.159590085658877,27.346136782998514,-27.748368633465567,-1.8095027373720192,5.063523853980107,21.27418732120041
21.77163571305122,27.105911389399918,-27.622964256411148,-1.859638776417918,5.158665726280948,21.89203659257316
22.379624968945947,26.859087006938296,-27.493382412956482,-1.9092672285940178,5.255853698521188,22.506054636400435
22.983593172548577,26.60568109790103,-27.3595674341236,-1.9583850588262823,5.354997831254762,23.11628322098294
23.58352406166488,26.345734380507118,-27.221477501504218,-2.006990592417238,5.456028429900954,23.722705871166674
24.11737397383642,26.107410295566787,-27.094141544856868,-2.0500849998323205,5.548053326195361,24.262565624727408
24.28679644505272,26.022044309488688,-27.034042370007377,-2.06369325081651,5.567224197038425,24.433563437496833
24.22416393072192,25.88357865598934,-26.67345748309938,-2.057934459586657,5.3475012857817985,24.36266882108323
24.125915878948753,25.662886850372203,-26.102650684181796,-2.0489599406523173,5.00113234095195,24.251488817201867
24.02777769274351,25.438146201434606,-25.526063212439052,-2.040067526379745,4.653011651220771,24.140465523058463
23.92978822632273,25.20941329752759,-24.943825935557435,-2.031260691879919,4.30321212180958,24.02964028728437
23.832260742027227,24.977408330425185,-24.35773523280384,-2.0225672180704493,3.952798279873405,23.919364650626243
23.736534526321936,24.745415426811004,-23.77594202157233,-2.014104354757881,3.606587062517356,23.811149614132635
23.64142597770253,24.51067469636728,-23.191373716537157,-2.005765210301691,3.2603107530914923,23.70365388163873
23.54786074518226,24.275561683797502,-22.60981659608508,-1.9976290348403969,2.917346053525469,23.59792063604806
23.454264838824137,24.036167128596876,-22.021516424035646,-1.9895578144801307,2.571906895513806,23.492168443339956
23.36176713526002,23.79539497107725,-21.433553717767285,-1.9816482629363092,2.2281283208188665,23.38767024046063
23.27438569439648,23.56406568516595,-20.871999743220684,-1.9742378774988598,1.9011142992162609,23.288962005032975
23.231567245074565,23.449320456046223,-20.59462538851785,-1.9706286934539292,1.7400540029109466,23.240596137171487
23.205207889099338,23.378224130657266,-20.42314280177468,-1.968414101216039,1.6406320693902703,23.21082255890994
23.20715811177528,23.378772471055516,-20.372681974640727,-1.968520923231062,1.589586166529312,23.211016701095005
23.375317701585143,23.767729561835736,-20.61816604082579,-1.9818594157194105,1.440410238939643,23.37394630421309
23.63238077896391,24.352974842217808,-20.98372316764395,-2.002239300294555,1.2119326941547304,23.62286927912486
23.895840647097497,24.941341363154983,-21.34663428121079,-2.0231139924444594,0.9773796881552798,23.877809685278336
24.164189930666105,25.529048850485655,-21.70456218860485,-2.044364133504227,0.7382407306085433,24.13730348611331
24.410581436532663,26.05865384990404,-22.02320548645251,-2.063865534722403,0.5186030504784885,24.375411141729764
24.52099849733411,26.292944910462953,-22.162994787195434,-2.0726018925619765,0.4201876950428641,24.4820696249969
24.539847567213968,26.379664731428093,-22.21405165947549,-2.074090400291247,0.38383670888106175,24.49957609403355
24.147039703686183,26.279237410041535,-22.146641025984334,-2.042891586454687,0.4309111855566556,24.109227827288713
23.53637062530851,26.117472669482414,-22.038459981827714,-1.9942024695730898,0.505926268432766,23.502372978757567
22.91597236445801,25.946034781675714,-21.92425685542607,-1.9445100268211184,0.584404352592622,22.885830759081053
22.29992827254207,25.768640960426985,-21.806470063890604,-1.8949450334307556,0.6645752510569659,22.273588690765063
21.679633808601505,25.582723966059007,-21.683345812659393,-1.8448107960242226,0.7475113722063534,21.657081393953618
21.058868786625645,25.38924537185935,-21.555480029563757,-1.7944366679660106,0.8327678082218176,21.0400685540199
20.442935103483098,25.189836452588235,-21.42389361433156,-1.7442503552505373,0.9195439698634628,20.4278065993797
19.836326567101544,24.986109099259387,-21.289590538221287,-1.6946305062936473,1.0071100149085708,19.82475649185629
19.232407169845867,24.775951543871585,-21.151119980500397,-1.6450453765160162,1.0963389273943094,19.224315239649094
18.63398927102768,24.56038664880132,-21.009095253143574,-1.5957260062220555,1.1867214731056097,18.629265989401535
18.032651012120965,24.336324604937637,-20.86142631812401,-1.5460026682692052,1.279549477339368,18.031241273094178
17.439230959201257,24.10778584450883,-20.710699207296397,-1.496769688901599,1.3730704776099603,17.441006821924702
16.841411471015572,23.86997817601217,-20.553689089495325,-1.4470116557956416,1.4691807295717765,16.84630468520633
16.252433000482714,23.62813612339249,-20.393786822841207,-1.397837292409362,1.5657014846319806,16.260300329585622
15.664088910735043,23.378949934110576,-20.228736806155734,-1.3485624143099988,1.663873515003705,15.674816028691692
15.076054582717601,23.122179498897072,-20.058313162183843,-1.2991802524495686,1.7637726808617948,15.08953832024762
14.493433977725049,22.860037455072675,-19.88391111776138,-1.2501183917084089,1.8644427849367378,14.509534255800254
13.9109085492448,22.59010890513333,-19.703850766694877,-1.2009354857952625,1.966742485321172,13.929504360403413
13.334451741418645,22.31515196772698,-19.519898007667877,-1.1521424178730408,2.069558601674948,13.355392174998205
12.754988095902785,22.030758779703394,-19.329019515723974,-1.1029702335925273,2.1744265816166366,12.77814485008836
12.253219235835216,21.77790798100828,-19.158764640053512,-1.0603043024480927,2.2664774627158653,12.278191992436822
12.10526018355648,21.701002680175005,-19.136918965854722,-1.047729649622663,2.3242490314665263,12.13130498669303
12.095717355264673,21.67989054212339,-19.495705851193645,-1.047220028929138,2.7042588642916625,12.128715811909354
12.082135779149414,21.644114972061015,-20.003990718789495,-1.04657709959897,3.2484764810340834,12.125081668212324
12.068625060508095,21.60172392512545,-20.50684132749857,-1.0460353960604436,3.793873854725109,12.121528780099705
12.055267340308633,21.55300289840233,-21.00121864462251,-1.045597936168506,4.337125495472298,12.118080619462827
12.041984399103159,21.497699877251772,-21.490037074567415,-1.0452618719690834,4.8813987073406695,12.114718792850093
12.028627437160548,21.435051513911784,-21.978719049830595,-1.0450257838652868,5.432880940317432,12.111409199989618
12.015429372319595,21.366072402451746,-22.45871552947292,-1.0448952572130763,5.982005886720724,12.108212490719382
12.002309167654607,21.29038322703581,-22.93299500949065,-1.0448692636118528,6.532122263956908,12.105110731828423
11.989454883170092,21.209204120971144,-23.394816586895114,-1.044946680440669,7.075266917011176,12.10214903776053
11.981604065982687,21.15614296180075,-23.67546719272203,-1.0450451769490152,7.409066229743701,12.100379322613849
11.979343253733742,21.14036738670026,-23.75608603874331,-1.0450808559217104,7.505485807045064,12.099875355586772
11.991286621405518,21.198001636251107,-23.83505719999133,-1.046158876140529,7.526601377244619,12.112300475551626
12.081681397714107,21.646971257402374,-24.128933683640362,-1.053555432326421,7.369879206686629,12.200492434747463
12.206447303435358,22.25807596790084,-24.52452671765652,-1.063761092532373,7.152100477807363,12.32212367165481
12.333715200973156,22.87141695293278,-24.91648135639434,-1.074168462622459,6.928379399175028,12.446083957847025
12.464345255805062,23.490700191054906,-25.307094025011633,-1.0848488146067474,6.697289100620478,12.573206319035664
12.598031563910034,24.11397998486488,-25.695044804617822,-1.0957781560626403,6.45945930770009,12.70318770011108
12.732603574837649,24.730936831451555,-26.07396960039799,-1.1067801500729502,6.218884958746076,12.833915619170446
12.869544862240705,25.34826150659695,-26.448082961996022,-1.1179772412177604,5.973060910987998,12.966830195760418
13.01047998925343,25.97281427031989,-26.82148070452719,-1.1295035247527438,5.719189931920866,13.103503324706187
13.153911788100247,26.59749187334731,-27.189858190834343,-1.141237909212733,5.46009762083324,13.242478198328575
13.299771693564521,27.221714001619105,-27.55290912792789,-1.153176153717816,5.196057892250671,13.383685548563605
13.449056941413867,27.849372961092403,-27.912894484276055,-1.1654013610728065,4.925418055791013,13.528086988070616
13.600221586812404,28.473661183650595,-28.265941282715154,-1.1777884328398918,4.651141812015638,13.674184109231641
13.753908907993713,29.097038565804244,-28.613524855900177,-1.1903915557233424,4.372230335121358,13.822596830077089
13.854360665921721,29.498452189318797,-28.834743652600565,-1.1986346956689786,4.189980232020078,13.919535983992832
13.879549596087227,29.597966402041934,-28.87554855115631,-1.2006819144117757,4.130756356981245,13.943551688434368
13.832518892910143,29.40331092086263,-28.512973263500506,-1.1964440625063992,3.9638573966682706,13.892896144074001
13.75802892205074,29.091760855174908,-27.932449699602923,-1.189750446495838,3.6964936963331745,13.812652822778428
13.683271626178415,28.775011971979932,-27.34197407826302,-1.1830562110625693,3.4243738101203736,13.73210601420261
13.609894538395668,28.460041220842218,-26.75455474643564,-1.1765089931675057,3.1534939185996973,13.653030515280108
13.53707546261988,28.143384633417266,-26.16373779088026,-1.1700351416318964,2.8808819907567025,13.574540211713686
13.465144421970463,27.82650308380831,-25.572252714314978,-1.1636639355914544,2.6077998857556572,13.49699060636222
13.393732860678012,27.507796255099997,-24.977115991899232,-1.157362685310859,2.332872430479823,13.419984117454264
13.323518474493097,27.190341121642675,-24.384078622783985,-1.151190974883531,2.0587596810678135,13.344251418429677
13.253971063807915,26.871806883582593,-23.788792348967963,-1.1451019050841773,1.7834555851283165,13.269220580128932
13.18519446169879,26.552699939613007,-23.19220733063911,-1.1391044795383833,1.507401979127622,13.195003411385256
13.117727374965543,26.235610005336053,-22.599172109836413,-1.1332452369749848,1.2328468687116416,13.122181284849525
13.051422680314632,25.919974115509667,-22.008642636074153,-1.127510734884085,0.9593125938523651,13.050595631021952
13.009721883097988,25.719384153680508,-21.633246389453124,-1.1239165285857087,0.785357704240839,13.005563917142057
12.957410482840384,25.49891886648903,-21.490890458232073,-1.119494785991648,0.8644740703458976,12.954917490458378
12.82756069568465,24.94767040124191,-21.156900702598726,-1.108531789224761,1.084211578479879,12.829600486612836
12.687001252572365,24.340130253111063,-20.78410471667571,-1.0966746018954774,1.3216127465967122,12.693845023926341
12.54919140915705,23.733250612831156,-20.406770423126975,-1.085058767909169,1.55373662605631,12.560638690168798
12.412993950496485,23.122245382536097,-20.021855102526278,-1.0735872549490393,1.7823491036058825,12.428884314201937
12.280924044644618,22.51880186873315,-19.636739962105118,-1.0624706523934655,2.003099090396762,12.30101881945845
12.158589739437879,21.949955625670302,-19.269166904185717,-1.0521792359330038,2.206593836190076,12.182485122214413
12.106651526755,21.70550968597436,-19.109854926376826,-1.0478114214407634,2.2926647153350683,12.132132610585257
12.099234264540135,21.688059555979628,-19.363536248799065,-1.0473885836446373,2.5638863349390504,12.129679397876862
12.085961307301467,21.654886258234672,-19.86100279227123,-1.0467345254774079,3.0946799489442762,12.126111643972122
12.072489390238003,21.61455826135571,-20.36320102903768,-1.0461664296024165,3.637361637421386,12.122550800497132
12.059015420383655,21.567375467528112,-20.862679287145273,-1.0456968692256854,4.184177510941902,12.119053668987544
12.045764656274347,21.51415489970962,-21.35110488911114,-1.045333460918539,4.7259752676231015,12.11568055741719
12.032387456556501,21.45342330166869,-21.8413429297414,-1.0450678583604545,5.277097235468078,12.112345279847665
12.019128540591927,21.38613984175566,-22.32436783803535,-1.0449074382521202,5.8275558570486155,12.109112528853723
12.00598349665032,21.312321594010736,-22.8003599523094,-1.044851970048534,6.377514434598511,12.105982981027777
11.993000187661808,21.232316139066146,-23.267620763449973,-1.0449009716328461,6.924926331105249,12.10296932877596
11.982306223866269,21.16101851308469,-23.650303231568444,-1.0450206927733514,7.379025785865049,12.100547485367853
11.979080111914017,21.138538834600368,-23.765356330216793,-1.045071134737011,7.516594463531269,12.099827935877453
11.885791149746376,21.153860562651953,-23.804806667857285,-1.0371077546784164,7.5424138214295935,12.006285040916357
11.40834311177894,21.257860136932056,-23.867113895436265,-0.9959145895793059,7.509197366222763,11.52452444894101
10.812505205779738,21.38136406389368,-23.94092417345135,-0.9444242186989712,7.469599306756792,10.923407138724693
10.216634087715848,21.49794864661762,-24.01041791819842,-0.8928434419796398,7.432068618307794,10.322365053107093
9.619371332250733,21.607905203133498,-24.075799661193244,-0.8410590747578234,7.39653747095252,9.720022830359369
9.016706470767115,21.711900955996718,-24.13749003156347,-0.7887306376143426,7.362781205169904,9.112329645352714
8.416198501986953,21.808625982839146,-24.19474505417546,-0.7365113970991845,7.331310613627365,8.506907095420122
7.814215008840911,21.8987175032491,-24.24796492702897,-0.6840940216612486,7.301908442422512,7.900084632899666
7.209132826902144,21.98237954770871,-24.297293049416535,-0.6313413378593465,7.274527205076,7.290220992222501
6.608621384932873,22.058611488450072,-24.342158650823315,-0.5789318728077154,7.24948140177815,6.685037041259392
5.9972960868962275,22.12929939651904,-24.38369755308147,-0.5255178701162719,7.22623162690859,6.069029050854524
5.38882403654762,22.192756399051717,-24.42093262136666,-0.4723019027452429,7.205315416193562,5.4559609994040175
4.782805793637932,22.249142611847166,-24.453975361515724,-0.4192548157460338,7.1866945606072,4.845423190350855
4.235321392188584,22.29425579714647,-24.480382683089132,-0.3712964228774642,7.17177281942268,4.293900113168462
4.045276939956434,22.306719314273206,-24.476117957820918,-0.35463927671860074,7.156222783786859,4.102392104077475
4.040986664289064,22.2543914885858,-24.132487782755515,-0.35404166103316476,6.8649525736771775,4.096256023536223
4.034110025975055,22.166161089051776,-23.577761999695174,-0.35310464975194045,6.398508574298218,4.08643605319343
4.027189213783295,22.07197028097337,-23.01452962621352,-0.352187252434555,5.929518564187138,4.076571081573689
4.020379949588288,21.974042377645716,-22.455485756517366,-0.3513094003316052,5.46845316960947,4.0668819035175385
4.013619899707386,21.871687944020692,-21.895633368506033,-0.350461883620874,5.011005274743158,4.057278358290079
4.006826945076111,21.763702973336233,-21.328136345842093,-0.3496340375808207,4.5515433815362885,4.047642866376315
4.000104674960148,21.651793950208585,-20.76163437059178,-0.348838039012106,4.096999926497996,4.038121407446277
3.9934535457879936,21.536142570794976,-20.196264960928143,-0.3480729859618631,3.6473307353437225,4.028713389024498
3.98681568548778,21.415848536777307,-19.627143726632692,-0.34733159562752697,3.1985521462443156,4.019335926053945
3.9804303147045905,21.2955454799778,-19.075014851733318,-0.34663910999394193,2.766772969599889,4.010325551375094
3.977015311825915,21.22936287412185,-18.777834046439672,-0.346277039524111,2.5357996670123972,4.005510593112415
3.981646725331953,21.29390031589788,-18.772850598015623,-0.3466617055716671,2.4662520422060474,4.009720946765349
4.013391109802885,21.75445379417925,-19.074464144695238,-0.3493837911733479,2.3071222205518973,4.040492942176132
4.055602593300052,22.35749003895526,-19.464991966259355,-0.35300624532444064,2.0943590939186003,4.0813808148056685
4.086107117341309,22.786762526883823,-19.73996309407502,-0.3556261821500216,1.939872106382241,4.110907527610102
4.08876597987381,22.83275932854292,-19.880302003270355,-0.35587773696798136,2.0341958856225095,4.11415079897798
4.084643770387165,22.808871107112097,-20.32888963079931,-0.35563521123651565,2.506688190972152,4.112967785459176
4.079927397518125,22.77519347946473,-20.839636654472212,-0.35538847448826283,3.0511316017241543,4.111633521365621
4.0752749237215635,22.735198399819335,-21.340802918088524,-0.35517790538622324,3.592311374951662,4.110338585578752
4.070635323645859,22.68846784349757,-21.837898498715397,-0.355001125610582,4.13615581296276,4.10906942815915
4.066009872082088,22.63492697845723,-22.330757119430633,-0.35485866422167744,4.682573463056032,4.107827401359211
4.061401609815803,22.574531601195158,-22.819027554470143,-0.3547510809130855,5.231257288302163,4.106614311749725
4.0568171181780395,22.507310097418316,-23.30199288016932,-0.35467891691058073,5.781461951107501,4.105432819653889
4.052269027633107,22.433435579454752,-23.778319960137825,-0.3546425611243745,6.33168115167001,4.1042869514803035
4.047960057092239,22.35670093747092,-24.226974123916037,-0.35464132535461845,6.857086549318812,4.1032266239334945
4.045949756157357,22.318618120896776,-24.435398540772205,-0.3546520358364674,7.103601494184657,4.102740686818958
4.046301544577168,22.321482480052072,-24.49703494234067,-0.3547283761541205,7.162370228166573,4.103461850932932
4.07010776564098,22.672956784719602,-24.72163435235539,-0.35671577085256034,7.035349927021922,4.1266411369483516
4.111418236323466,23.275334380839347,-25.102687297222303,-0.3601650353393464,6.813771057066787,4.166835270497651
4.15480620827503,23.897936953378213,-25.491411652557108,-0.3637888875279207,6.579623245009673,4.2090127290556465
4.199371749124578,24.52696185343606,-25.878888943891937,-0.3675127019536684,6.337795961150966,4.2522953182607655
4.244367593694627,25.1515600561766,-26.258443568188344,-0.37127453973557106,6.092467167391145,4.295956142299057
4.290318237050593,25.77879404036508,-26.63442103508111,-0.3751187638287692,5.840916438308507,4.340503316055475
4.33378591237691,26.362502433903323,-26.97967533584155,-0.3787580102597598,5.602181294550914,4.3826069746529255
4.3599534413331265,26.608973582442488,-27.124155939386576,-0.3809769854019982,5.500019383801081,4.408216350226034
4.660437759296511,26.58526882266885,-27.11158455794628,-0.4072126221166813,5.509086751619923,4.710149962541551
5.254652224031994,26.533695416510724,-27.084209616231718,-0.45906459707852143,5.5287945236603475,5.307271906712865
5.883877910074315,26.472263597165743,-27.051559056461397,-0.5139243135703531,5.552234275621814,5.939642764117483
6.511800434988957,26.403936295746046,-27.015188908394087,-0.5686161679707166,5.578260330045274,6.570779897987569
7.141085243823542,26.328386527475782,-26.97490408341158,-0.6233651290926849,5.606951803107163,7.2033717213238635
7.769387279145506,26.245858013788318,-26.93082091684585,-0.6779639475312339,5.638261992721226,7.835066239973393
8.397765532363483,26.15618341436672,-26.882825211327653,-0.7324979720613872,5.67220584005344,8.466937211037049
9.027040517173312,26.059184820709383,-26.83079758875087,-0.7870325632538936,5.708831110875581,9.099817809876027
9.652237011949842,25.955636599496227,-26.775128393792944,-0.8411315504248779,5.7478251129199185,9.728711213257696
10.280044045863047,25.844402209654934,-26.715175858576888,-0.8953656021438573,5.789562433561773,10.360355459847817
10.907532768821476,25.725910934876392,-26.651146562180077,-0.9494810414764131,5.833918491584973,10.99180772630583
11.53749515981745,25.599536570223876,-26.582665345686454,-1.0037100747125347,5.8810692394037005,11.625888103606115
12.093308807675982,25.481816324203784,-26.518695106145408,-1.0514687539957535,5.924845662656053,12.18545655763994
12.348901844255817,25.425711273407916,-26.488146426855447,-1.0734021551957373,5.945659885536295,12.442815992537488
12.747427149373515,25.33573673769984,-26.439071146976374,-1.1075601094633147,5.978941573625209,12.844150064510087
12.855579928082834,25.286290315077565,-26.377147823915376,-1.1167744492330423,5.964368555414061,12.952608759984518
12.80892637186809,25.080809423073383,-25.956889906004374,-1.1123611782815666,5.750539964943918,12.901525148519674
12.744195252669574,24.792113514555265,-25.367240481755786,-1.106262272317512,5.450896557799282,12.830644770524708
12.680465417227778,24.50372447345872,-24.77912432847152,-1.100285887013889,5.152452672005484,12.76085708511898
12.617559773975255,24.214933288120008,-24.191063737732613,-1.0944146867354951,4.854443464435287,12.691967520222132
12.554414313280656,23.920825592173895,-23.59304610483526,-1.0885494673814935,4.551792107706764,12.622810085286051
12.492482894026178,23.628182140681485,-22.998845821227157,-1.0828251196021785,4.251463413354533,12.554976349211781
12.431120910159668,23.334049345370047,-22.402436706168952,-1.0771813629100642,3.9503978457214983,12.48775969207396
12.370789876202732,23.040715025084996,-21.808432979250078,-1.0716600684869297,3.6509129415751103,12.421665090134468
12.311100255933935,22.746369202775732,-21.21314393742467,-1.0662249640094967,3.3511358717995186,12.356265260959695
12.25235481461547,22.45258273527721,-20.6197230479638,-1.0609030450590893,3.05264356575351,12.291891419451044
12.193574531863053,22.154465823816167,-20.018283205712198,-1.0556055290048318,2.7504578848592325,12.227470091739045
12.141157500797718,21.885041554894563,-19.4753408811644,-1.0509051984851545,2.477949294245693,12.170014119922442
12.117880933249179,21.76429922357643,-19.23220524240637,-1.0488252253305177,2.3560028435222544,12.144497168544559
12.095089292478836,21.70490968772174,-19.10931919682411,-1.0468341732638526,2.292933608580242,12.120550927340918
11.75255886871137,21.777289617315805,-19.152191672665012,-1.0175808218254594,2.2696007724125247,11.777627705294728
11.165536944672905,21.896213042865202,-19.22248368002741,-0.9673670869302065,2.23114354868069,11.190025058495225
10.567819505984524,22.01070881431098,-19.28998332594248,-0.9161391290991341,2.1939770848631532,10.591831434515008
9.968441368339503,22.118895897462593,-19.353605862351824,-0.8646733907057387,2.1587316901940894,9.992086628300017
9.366693388239632,22.22088867277171,-19.413445296184538,-0.8129133334303252,2.1253917970290312,9.390076200314992
8.761331617211935,22.316846334683614,-19.469616528720405,-0.7607532306597728,2.0938945160259324,8.784556865950483
8.153573792795685,22.406529359656755,-19.522008823925827,-0.7083080811607936,2.0643987186976127,8.176730413492535
7.546156520564763,22.489541965290158,-19.57041066861812,-0.6558161041490823,2.0370222101270143,7.569333612965773
6.938889898861898,22.565958971558647,-19.614887335039693,-0.6032665607180556,2.011757724255213,6.962170037667286
6.332972893254639,22.635688210991873,-19.65540196031168,-0.5507673422082006,1.9886207531253266,6.356436579215576
5.724034474810304,22.699246021691785,-19.69227847979439,-0.4979487916745094,1.9675162517480496,5.747747530594069
5.118810220083189,22.755968732093596,-19.725144838016252,-0.44539886094542047,1.9486465665926638,5.142833929636573
4.511106350570049,22.806483347541164,-19.75437887000213,-0.3925855611234817,1.9318147276740378,4.535498406855411
3.904755206305785,22.850478992652963,-19.77981322557521,-0.33984746207919714,1.9171343481377465,3.929564527028894
3.294650050724581,22.888306328944527,-19.801658422236248,-0.28674558337216005,1.904466075334141,3.3199266582088107
2.6814182758168346,22.919841621360803,-19.81985849125214,-0.23334055988321592,1.8939207400851108,2.7071976688143353
2.209788689857747,22.9396796094448,-19.831301129795634,-0.19224949137063568,1.887282649946493,2.2359757545844428
2.1289270357022656,22.939479823280934,-19.904570630254916,-0.18521112545870722,1.9610189173179562,2.155427597902556
2.1269203045013576,22.918092731996726,-20.323205601478808,-0.18509030828508927,2.4010451582414185,2.154846437200571
2.1244741717807933,22.885956835466413,-20.831126386173242,-0.18495832586745378,2.941106914930706,2.154147566530858
2.1220289285463996,22.847035341282698,-21.336201344514677,-0.1848435261788911,3.4851084205861302,2.1534599961327565
2.1196062516397816,22.801624708133332,-21.833939557068792,-0.1847470628544662,4.028262251656791,2.152790273544644
2.1171922550649986,22.749448915507752,-22.327192446483426,-0.18466844875499558,4.573695879340996,2.152134960419157
2.114770469969287,22.69000370214972,-22.81927117751957,-0.18460756171673134,5.125224762435329,2.1514902234965367
2.1123860671690893,22.624376549197354,-23.300992309025474,-0.18456564339496714,5.672577885977584,2.1508685035226
2.110022930484831,22.55223325838784,-23.775656520031642,-0.18454219735681454,6.219390159845843,2.150265771103389
2.1077096166665292,22.474616706881065,-24.23759566247913,-0.18453714622618136,6.758950501261926,2.149689348939266
2.1064194328232357,22.428268078722855,-24.494040057576022,-0.18454219319164902,7.061746105839623,2.1493739519753046
2.1044385740992433,22.41746610901214,-24.552368966902087,-0.1843960541242774,7.130883014200362,2.1476036995384713
1.7631198430631752,22.429489654235212,-24.55938384554298,-0.15443189802244883,7.126888784465115,1.8038503710983071
1.173634344847638,22.445252193506818,-24.568577546121844,-0.1026706141967726,7.121651891674703,1.2101737092116491
0.5629509841381495,22.454906076755602,-24.57420703892487,-0.049038010960118575,7.118446018360766,0.5951610833825491
-0.044914979970321824,22.45777370481473,-24.575879556581576,0.004352101715615446,7.117498324079887,-0.017007995113681413
-0.6526770104184909,22.453914765000725,-24.5736275245905,0.05773179212964098,7.118758713507118,-0.6290719030789366
-1.2643899866218034,22.44324369288988,-24.567406302748097,0.11145373523137965,7.122316636271332,-1.2451228025694971
-1.8715708093437884,22.42591004102909,-24.557297201103,0.16476700186121596,7.128089064380511,-1.8566231354080394
-2.4794954137024634,22.401819018206044,-24.543240454623408,0.2181297593246086,7.136103875401635,-2.468892848537097
-3.090037196627926,22.3708271305423,-24.52514284549336,0.2716989293132827,7.146372488678593,-3.0838251159940993
-3.6979440059381026,22.333192361781276,-24.50315322161374,0.32501253194439933,7.158864610876165,-3.6961373994603965
-4.308064315695459,22.28860214855234,-24.47707592095238,0.37848872889760954,7.173644725972111,-4.310719496126586
-4.914508218545972,22.237489433472522,-24.447149452834267,0.43160324524174726,7.190528796267038,-4.921644962995818
-5.519033342081464,22.179782503835007,-24.413325164869644,0.48451114325598493,7.209591779873296,-5.530689793234851
-5.937107246524444,22.13591396488245,-24.387583401645923,0.5210741299812651,7.224059152906502,-5.951923421165086
-5.973390166461644,22.112772112165487,-24.257459140363277,0.524121126830932,7.116751141615596,-5.987480769725044
-5.964456245008394,22.03825741896719,-23.77034448770568,0.5228840438773089,6.704249878790118,-5.974690930593656
-5.954256851440699,21.948079773686086,-23.209592094624405,0.5215078231344988,6.233787479257811,-5.960115376253049
-5.944121123109814,21.8530960641342,-22.647392719893286,0.5201778014976368,5.766683120657339,-5.9456568701021935
-5.934121313823675,21.754165531771356,-22.087849036925814,0.5189018725217264,5.306179458047216,-5.931416387149383
-5.92411785663192,21.650031740111377,-21.52319527618281,0.5176610757086128,4.8457686992591436,-5.917193405772435
-5.914199467637021,21.54170074486163,-20.95844579693255,0.5164655813512904,4.389458189342693,-5.903112532402213
-5.9043451494170895,21.429073394714276,-20.392459587381076,0.5153117254416487,3.9362063091823254,-5.889142269642871
-5.894563067036514,21.312360494804413,-19.82575061816658,0.5141994450283358,3.486316147494065,-5.875292609181517
-5.884780584794378,21.190761039882986,-19.25410617199989,0.5131198345275942,3.0363767873645755,-5.86145935542173
-5.87674490719658,21.087229339976343,-18.78081944165169,0.5122573024569854,2.666708319817531,-5.850108122740504
-5.874088361126707,21.052280161395455,-18.62360991543372,0.5119769500035902,2.544476549002355,-5.846357714973785
-5.900462415473328,21.312682513224267,-18.7950877650016,0.5142308881880154,2.455319855886292,-5.871934634297961
-5.9586976858476435,21.88084879065024,-19.166692093275888,0.5192106033415359,2.2582417243909605,-5.928383020252104
-6.016706280906825,22.437609724718342,-19.526546466173006,0.5241747970538378,2.060816248153029,-5.984567468107204
-6.0408406360857985,22.666863641707412,-19.676823888069148,0.5262423749288662,1.981622329895213,-6.007959880573591
-6.037329132946167,22.653993344487546,-19.937099039972324,0.5260303228748493,2.2547884695169516,-6.006959437986969
-6.030560518346133,22.62432714062408,-20.436866821815652,0.525656381617959,2.7842622241481787,-6.005052487961991
-6.023665980922879,22.58741791868942,-20.943284307665696,0.5253234302608667,3.327629281619768,-6.003140490509606
-6.01681835427998,22.543931124271413,-21.44355984282344,0.5250417065392504,3.8714315200575764,-6.001273614619884
-6.010015802213754,22.493846997978657,-21.937829685559972,0.5248112577283752,4.415824963712146,-5.999452458606005
-6.003229699220886,22.436900184974863,-22.428156707874713,0.5246316070537408,4.9631380002482475,-5.99767068957777
-5.9964635034495055,22.37302577561471,-22.91425773907427,0.5245036603190839,5.513152342302897,-5.995930760588997
-5.989743754668365,22.302427059504364,-23.394210333051976,0.5244284364544658,6.06374209639461,-5.994240818749542
-5.983096867727132,22.225420832785048,-23.866145192444595,0.5244061592388328,6.612721015021373,-5.992608370852088
-5.977718999400097,22.157790513519064,-24.245890235545783,0.5244270146574029,7.06012683971421,-5.991317414778581
-5.976145515098851,22.137089267438633,-24.356639799053585,0.5244398097131258,7.191586536532924,-5.990944908832617
-5.98065795339496,22.18104977769769,-24.416880713883682,0.5248528263748609,7.2078250102837655,-5.995639813787916
-6.023629320522656,22.609659369701816,-24.691420543386158,0.5284291456288758,7.053367408948074,-6.037487284505031
-6.086298033423698,23.226268554543296,-25.082027762612157,0.5336454170881257,6.826795167886134,-6.098469806870337
-6.151087177790065,23.853413881703425,-25.474068578456794,0.5390395045526715,6.591095277398569,-6.1614582233092525
-6.216688259541952,24.47798745339728,-25.859280454800224,0.5445031625782314,6.351124727786929,-6.225177939744421
-6.28337536566397,25.10241256552495,-26.239224338129187,0.5500599111652134,6.106018365995084,-6.289894151804881
-6.351170272858935,25.726641202173646,-26.613906779148166,0.5557123019223102,5.8558302482097035,-6.355626609638066
-6.4210712631421165,26.35938330112559,-26.988485056323903,0.561544427143663,5.596997803741688,-6.423340577758765
-6.491954982469594,26.990028351326313,-27.35663224095805,0.5674634591680068,5.333814911570783,-6.491945438117308
-6.564332297321219,27.62282951573953,-27.720863545589665,0.5735129416036464,5.064538316266565,-6.561934071302799
-6.637997270476276,28.255632195484775,-28.07994562259159,0.5796766172024702,4.790090859369819,-6.633105444606459
-6.712790335546133,28.886804545213163,-28.43300586067731,0.585942075106812,4.511232978461349,-6.705304030988089
-6.790202609912469,29.528377396658428,-28.786701958891893,0.5924354159329326,4.222576083346824,-6.779966263706804
-6.868296368485026,30.163848438212007,-29.131918198616685,0.5989952654346886,3.9315257654472924,-6.855220918049623
-6.933357790426624,30.68448041573849,-29.41097777669149,0.6044679944161576,3.6892840841784835,-6.9178685901545744
-6.951770951429754,30.83008297579065,-29.481476850422045,0.6060136008258997,3.6139904880367384,-6.935518862289917
-6.930164627550829,30.648180733755705,-29.157261780033156,0.6040476522589509,3.4719135172979874,-6.912373721749708
-6.892382090227339,30.327111501738898,-28.584316046647437,0.6006181732513254,3.2204476831326128,-6.871892062544071
-6.854009213711441,29.99705960597434,-27.994450218835567,0.5971462528385932,2.9610485268651745,-6.830766951751542
-6.816086189705118,29.66684967806372,-27.40342302450638,0.5937264087781274,2.7006388890247055,-6.790112843600696
-6.778610192567286,29.33649777988836,-26.811286062761262,0.5903583304495994,2.4392544181656053,-6.74992680552263
-6.741436496707683,29.004746768965603,-26.21580349042842,0.5870290168642678,2.1759180277113255,-6.710053673011473
-6.704705320756245,28.67286721796305,-25.61927297139012,0.5837510297516572,1.9116553841784985,-6.6706438668663415
-6.668565118981051,28.342270187745697,-25.024257107460027,0.5805374752586628,1.6476165494324557,-6.631856819961188
-6.632922574747252,28.012183396946607,-24.42939353247188,0.5773798782862416,1.3832125135423297,-6.593592559590163
-6.59773495382801,27.682272451665522,-23.83410254390627,0.5742743317896899,1.118198495913991,-6.555805324448184
-6.563076105714709,27.353299091023427,-23.239782173313785,0.5712272077683507,0.8532101033829897,-6.5185745530055765
-6.529913232471873,27.034696664100935,-22.663529328529044,0.5683228536244167,0.5959010518062202,-6.482939871400329
-6.511946397124951,26.86048955014683,-22.348170757980036,0.5667540529283059,0.45493381564455126,-6.463629303452041
-6.500950743431739,26.768902803141298,-22.183000497650223,0.565796481254778,0.3814621455545441,-6.451941472025266
-6.255222034154495,26.68238952329268,-22.130991403900563,0.5445135519354467,0.41833867665648095,-6.207334193691285
-5.685106888309166,26.476961904858115,-22.007373938794355,0.49509751244622263,0.5053031117852175,-5.63973375154017
-5.071063085261222,26.24826096163731,-21.8695197036459,0.44181946012959755,0.6011538383981658,-5.028256381573125
-4.458788667363375,26.012410231344468,-21.72705961724716,0.38864425111586837,0.6989680735711397,-4.418386850780347
-3.8430902253523507,25.767243750376203,-21.578610939502912,0.33512720676913516,0.7995351998266687,-3.804935347388201
-3.243068620798407,25.52048068972101,-21.428792695441892,0.2829337580606787,0.8997078191593644,-3.206947422981018
-2.643512206947147,25.266042997463384,-21.27385400074869,0.23074808679914252,1.0018880718532672,-2.609254041232773
-2.0478898173288873,25.005354222604332,-21.114590784179562,0.1788775511701924,1.1054383442093882,-2.0153083816163244
-1.4558830388820383,24.738283313196575,-20.9508511702483,0.12730184243399645,1.2103235240220998,-1.424781446167997
-0.8672555694132015,24.46472732323146,-20.782505326633213,0.07600221964742289,1.3165734438299375,-0.8374498143277088
-0.280514323325899,24.18395196051727,-20.60902288091099,0.024854667688072173,1.4243827792391728,-0.25181394807277085
0.3037538259813398,23.896177491647972,-20.430458791971883,-0.026084627505067147,1.5335879104811625,0.3315452667213601
0.883284031568727,23.602517673536305,-20.247426541751214,-0.07661355506761587,1.6436979250753294,0.9103685832996589
1.4595491563730383,23.30223633801807,-20.05938636826687,-0.12685231483912843,1.7548899670618148,1.486138415203167
1.9747450785586818,23.026663874105317,-19.886020781801715,-0.17176517378581338,1.8557567459985551,2.0010536269070256
2.129144702179177,22.941517724621214,-19.85938536529651,-0.18522670545973935,1.9137871400018822,2.1554903128953153
2.1273876993935064,22.923453413765102,-20.22616396959067,-0.1851192567789451,2.2986337156244847,2.1549804036999083
2.124883547913308,22.891784603507297,-20.74658679405119,-0.18498104625970926,2.850730550008243,2.1542629299052987
2.122422350245344,22.853740424977378,-21.255373094139973,-0.1848626460835921,3.397566118333083,2.1535689406237317
2.1199574413295132,22.80861256336943,-21.76218063557462,-0.18476179047674324,3.949506597155582,2.152885646128417
2.1175362546314864,22.757289006435176,-22.25726924223428,-0.18468039546790588,4.495923724491828,2.152226543895292
2.115118722939088,22.69897263478481,-22.748856353891956,-0.18461701981530634,5.045832141317389,2.1515810178426826
2.112723693454003,22.634081026067616,-23.233098268392567,-0.1845723018848732,5.5949705287565585,2.150954545439375
2.110336712141361,22.56220470759683,-23.712912781228372,-0.18454608110692414,6.14666618379343,2.150343759690372
2.108467708979709,22.50080498907348,-24.08661718297515,-0.18453864387141553,6.581774063549825,2.1498754208209534
2.1074992501936247,22.467192845518458,-24.27956108117818,-0.18453940018549372,6.808332047130734,2.149636286878926
2.1064141758468713,22.428058528810038,-24.49516513897429,-0.1845440423821368,7.063072592115472,2.1493713100361997
2.1064924546274995,22.42784531245869,-24.55901464161752,-0.18457660599246878,7.127134724004902,2.1496583282441284
2.1182594354967,22.761659941622153,-24.77186128976965,-0.18556080795275828,7.006129312277675,2.161113492654866
2.1397785903129884,23.36473462183493,-25.1525816482837,-0.18736106035569672,6.7837060321486815,2.1820478432515014
2.1624689193248288,23.990489381951093,-25.54245901702261,-0.18925998285572565,6.547755220748797,2.20410156217606
2.185524470837295,24.615914441273734,-25.926909848868185,-0.19119041041934862,6.306705646688886,2.2264897594139694
2.208936244662803,25.24054165017856,-26.30569268806796,-0.19315184906644275,6.060783998326137,2.249203250674759
2.2330802333858255,25.873939311027314,-26.684542822778507,-0.19517610405095231,5.806155966328329,2.2726059025628547
2.2574842251511567,26.503328895562767,-27.055790767723085,-0.19722389687097658,5.547932118097845,2.2962392387698194
2.282419510893155,27.13545963521621,-27.42346654131214,-0.1993182994259836,5.2833922859758715,2.320365505812952
2.3077475808441963,27.76649249893398,-27.78535036292613,-0.2014480122350959,5.014156143448474,2.3448500570910964
2.333914705363849,28.407025386117006,-28.147450103411643,-0.20365095762326163,4.735632061085419,2.3701232951596176
2.3604341722613817,29.044662330865126,-28.50271222717795,-0.20588657010796646,4.453164095516284,2.3957142100500906
2.387470661682278,29.683097878469635,-28.853254408995834,-0.2081691057902021,4.165174749111073,2.421781222774731
2.4150077135967867,30.32159510277919,-29.19869682693305,-0.21049758599853197,3.872021126872707,2.448307811738627
2.4409972494565926,30.913600479337354,-29.5144285389045,-0.21269881314388514,3.595653220171165,2.473322914191028
2.4531866733920857,31.18778232390133,-29.659178835688994,-0.21373247061841255,3.4661771440598867,2.485048524516056
2.1549889649225156,31.199644997695977,-29.664831722535997,-0.18771515817793846,3.461017280893923,2.1863918535892473
1.5430759587462357,31.21840939392312,-29.67373252278639,-0.13431271176009388,3.4528842502092147,1.5735593044550595
0.8817465970844803,31.231702491929756,-29.680035837483217,-0.07658178385217296,3.447123644462317,0.9112593270295403
0.23081119253587473,31.237705350257098,-29.682882051404395,-0.019748799750372303,3.4445262731949984,0.2593822299281464
-0.4282473428414515,31.2366265642368,-29.68236847950458,0.037795585489009,3.4449721683537695,-0.4006254069600947
-1.0839556022268375,31.228412417329768,-29.678475610895656,0.09504320392463315,3.44854594755606,-1.0572852217500668
-1.738190096866622,31.213110698353884,-29.671220928777455,0.15215099099385687,3.4551944886350197,-1.7124857812074683
-2.394615469850348,31.190612882013653,-29.660545981339762,0.20943060867640173,3.4649309468340657,-2.3699073953760794
-3.0505516584396455,31.160976065844356,-29.646478458419498,0.2666435786219377,3.4777882604442354,-3.0268759892144868
-3.709873458634757,31.123959029291385,-29.628893116210467,0.32411977664633707,3.4938341886305326,-3.687283041201521
-4.367892437780501,31.0797671274412,-29.6078748901913,0.38144117143660977,3.5129414299862405,-4.3464437833280885
-5.020597072547704,31.02876057243413,-29.58359048022311,0.4382562621561881,3.535007693500208,-5.000347046903873
-5.676174515767185,30.970308998388326,-29.55572373230962,0.49526925605449773,3.560264747383791,-5.6572056415864305
-6.332832481402369,30.904474722200135,-29.524289044970896,0.5523170317032979,3.588673866597109,-6.315234542765304
-6.843842421631287,30.84817078256512,-29.497361248037876,0.5966627630149274,3.6129077597948562,-6.8273802563284915
-6.948828485784628,30.805358674745612,-29.43742178901312,0.605753300818047,3.5946820881495842,-6.93235874792403
-6.920163126305995,30.563537587721676,-29.006297052105815,0.6031464250442341,3.405691064380204,-6.901650450448477
-6.881656098288785,30.235238501338305,-28.420207547762182,0.5996542016401063,3.1483185633299033,-6.860389555921335
-6.8434912787545805,29.905858256085573,-27.83129694529504,0.5962042643588435,2.889200098183047,-6.8194843121940485
-6.805711332027293,29.575777764599906,-27.24026353345676,0.5928004935014307,2.628652650671505,-6.778980473148056
-6.768205184272947,29.244029332993225,-26.645389186710997,0.5894329333592424,2.3659270406389603,-6.738758945966596
-6.731177082035073,28.912438794326953,-26.049965384589466,0.5861199266576078,2.102486801704512,-6.699038790350303
-6.694733248564336,28.582030222806686,-25.455858602046437,0.582870827237808,1.8391733008341786,-6.659934118890964
-6.658407570898741,28.248591819883007,-24.855510904776327,0.5796440971938469,1.5726453840163874,-6.620944782133966
-6.623128801441776,27.92074464111566,-24.264474341073377,0.5765220152722735,1.309824393213245,-6.58306785276891
-6.588004333957281,27.590297273680303,-23.668012149865458,0.5734253441056093,1.0441744025869233,-6.54534522018758
-6.553325671195128,27.259995848807133,-23.071092681257902,0.5703798290398775,0.7779146538101449,-6.5080898957700235
-6.522982631711789,26.96761022375496,-22.542108650715168,0.5677250128962373,0.5416281939808906,-6.475482701671944
-6.509502185436643,26.836681403866272,-22.3050575158613,0.5665486067295172,0.4356440013030301,-6.460993409049948
-6.504261446864947,26.764945252796345,-22.180709454134533,0.5660910163463895,0.38308625860588436,-6.455249470218674
-6.610623227345109,26.471610310464158,-22.009556574986668,0.5753104818732437,0.5042073158082301,-6.562493553891192
-6.817102730300893,25.89394488952077,-21.669211420765734,0.5932109697403211,0.7394180526051514,-6.770798949018266
-7.027826802591959,25.292967605284296,-21.31047788472948,0.6114838141552673,0.9794410907241428,-6.983539086055519
-7.234131512924003,24.693088683638166,-20.947643712393653,0.6293783656292622,1.214245306671431,-7.191965200422501
-7.436533962143437,24.09318213554924,-20.58001675804026,0.6469397612671303,1.4442628786712233,-7.39658886626005
-7.635638476345249,23.49175062353844,-20.20663713327955,0.6642206627397724,1.6700278598104925,-7.598011406075661
-7.827182215038975,22.902288402645052,-19.835984358288044,0.6808510510513908,1.886579438081035,-7.791907269305422
-7.942596364370808,22.541839869662436,-19.607030790546286,0.6908745017841499,2.016686555636387,-7.908795431296087
-7.977595378520601,22.43086542203883,-19.544873900257755,0.6939184357941182,2.0650785266545597,-7.94435879869496
-7.9722395278791875,22.41518367702716,-19.846676736217386,0.693604695806808,2.38260461271838,-7.942851302855658
-7.963197168633296,22.38343255525869,-20.354105231152577,0.6931249421338597,2.9218540894989586,-7.940336997754634
-7.954155678596452,22.344936797378573,-20.85879278562726,0.6927091219138087,3.4651069760900226,-7.937863567334246
-7.945176672949553,22.2998867329597,-21.35727764666992,0.6923608022179191,4.008710705965924,-7.9354497012938126
-7.936242019480182,22.24816770456296,-21.85056245388281,0.6920796021744393,4.5537827072535375,-7.9330920736245
-7.927325702455457,22.189554339714274,-22.340058436090068,0.6918655589193948,5.101959769610912,-7.930785710822096
-7.918449882060932,22.124112994321468,-22.82452132782072,0.6917201544442343,5.651931092937274,-7.9285382907664435
-7.9096600556455,22.052181041597603,-23.30147143380516,0.6916443595278564,6.200879258079368,-7.926362736534025
-7.900926709514376,21.97353981086668,-23.77252130272919,0.6916379934719612,6.750635700561952,-7.924252998210819
-7.89453698000081,21.911386908985943,-24.11533960532219,0.6916779009965855,7.155654490889149,-7.922743599209631
-7.892821973778291,21.89403193958655,-24.20708619846664,0.6916951341395362,7.264768792701892,-7.922343546385973
-7.896077263165662,21.917084013062624,-24.260501028964015,0.6920251791958065,7.295090093799676,-7.925991862903517
-7.948210554294665,22.31108304583496,-24.51444885960238,0.6963458767766681,7.1544184777885835,-7.976787699591435
-8.030015255077465,22.9212665343442,-24.903587492182037,0.7031257124526639,6.932392421791446,-8.056434735388901
-8.11437048554996,23.540388909478505,-25.293299639509648,0.71011764243116,6.701960579461775,-8.138491161597797
-8.200808958351745,24.16444199586274,-25.680920475839823,0.7172837742803047,6.46447114525701,-8.222498185440172
-8.288917682860752,24.790031620673922,-26.064292477655343,0.7245907644661546,6.221165144227614,-8.308051428320654
-8.378255235824465,25.413771167665438,-26.44137570139183,0.7320029187112629,5.973394171083808,-8.394720456717573
-8.469440065325301,26.039704121964736,-26.814643123215035,0.7395725155161308,5.719579429401044,-8.483103291089497
-8.562422127018188,26.667117041017654,-27.183655531754432,0.7472964554241576,5.459995087811314,-8.57314879208517
-8.657583042202074,27.29816972096744,-27.549653956740926,0.7552075814139786,5.193716752750328,-8.665223586389157
-8.754518282418852,27.929775797805902,-27.910830157258342,0.7632734630087236,4.922026969786355,-8.758933428688218
-8.853489314255713,28.563269734258583,-28.26795088247358,0.7715170986336984,4.644353858988901,-8.854528524669389
-8.953947601045014,29.194829225377585,-28.618895213259925,0.7798940492779353,4.36240528819949,-8.951476930820345
-9.05711205961982,29.831703494841914,-28.967684887227197,0.7885073551383845,4.072936715683273,-9.050952137031409
-9.147194817577809,30.378365595964013,-29.263004186608896,0.7960379212882768,3.820373299684091,-9.137745049141056
-9.200752221348683,30.530476446817072,-29.34473753942806,0.8005910562932019,3.7492572938720943,-9.190421253579064
-9.596782463556188,30.467634792797952,-29.314406551260408,0.8347469876356648,3.7761215388121623,-9.587648076605513
-10.228055721513961,30.36176667754535,-29.26320285371853,0.8891164801949977,3.8212968988250147,-10.220940390909652
-10.877083600345632,30.24556797962409,-29.206849894312143,0.9449134534916933,3.8707613258294704,-10.872195319402381
-11.52354714150776,30.122352952387708,-29.14691619497309,1.000378895727504,3.923044886247108,-11.521043602521678
-12.175449708823741,29.990483434767224,-29.082576521599083,1.0561971158514554,3.9788780838503173,-12.175518917885524
-12.822833110078554,29.851882880717906,-29.014729946541713,1.1115069309745789,4.037386741756882,-12.825638281605722
-13.469218463680358,29.705818801840525,-28.942982420549043,1.1666046594997852,4.098851922709241,-13.474944558840463
-14.073371905944704,29.562288013677218,-28.872228364144597,1.217979097246581,4.159025175016046,-14.08201258678356
-14.379249360283765,29.487016918357085,-28.83502654868289,1.2439454286409306,4.190520496500841,-14.389431166759996
-14.77706463747125,29.386483342676787,-28.785233492154624,1.2776691536684956,4.232503031436732,-14.789321504965349
-15.398592376195207,29.22339508693779,-28.70420070121013,1.3302473462160593,4.300405115767539,-15.414255891834104
-16.00650748971345,29.056703643153117,-28.62104517995481,1.3815353299765427,4.369515656589746,-16.025710222903637
-16.338359938050484,28.962688839069386,-28.573999815093394,1.409477188131543,4.4083953470447135,-16.359577612470236
-16.318067138232053,28.868160839674335,-28.359107733424015,1.4075502956165655,4.288566380539866,-16.33626595795504
-16.251856319047914,28.63369787359519,-27.819838928113334,1.401457107294001,3.985474395770241,-16.26241642070695
-16.180920552233083,28.37851663806045,-27.23554655305875,1.39497151843697,3.658191376561881,-16.183306008451034
-16.110979289804106,28.122815492250265,-26.652690149332326,1.3886202090086728,3.3328304818890038,-16.105312660690213
-16.041622901533007,27.865173179342335,-26.067948901258482,1.3823649349138334,3.0075029509009106,-16.02797794711959
-15.972890026047375,27.6057771170143,-25.48168942599277,1.376208499281804,2.6823872182066464,-15.951343421775986
-15.904808452659681,27.344780934343945,-24.894199133728527,1.3701526784631217,2.3576165872315267,-15.87543857884062
-15.837179658482667,27.081458255761177,-24.303793054353804,1.3641792664604446,2.0322376893980234,-15.80004064505535
-15.770538604075478,26.817956068974038,-23.715220379737637,1.3583346818623427,1.7088394972614604,-15.725744633837403
-15.704591010651136,26.553197610271535,-23.12600100186692,1.3525920671404381,1.3860263400416966,-15.652221111757077
-15.639223534496953,26.286777616795277,-22.535180014129438,1.3469409041950908,1.06325162453679,-15.579342413678742
-15.58990032764731,26.083078749315796,-22.084817410721215,1.3427041278913825,0.8178104035604185,-15.524349504589896
-15.569888473128644,25.999769527971033,-21.900958730447318,1.3409919115840652,0.7177558282340332,-15.502036623301743
-15.558696381203678,25.953009035283024,-21.79784391897402,1.3400360275264744,0.6616780014633064,-15.489557438713025
-15.632120383425306,26.20601827396763,-21.94705371498534,1.3461754752777697,0.5561913924615091,-15.560335347840743
-15.798583437036404,26.772439859278958,-22.28104684061502,1.360102927473743,0.3199098506399283,-15.72078503660391
-15.979970880716952,27.378039592251316,-22.633480560245733,1.3752916973029272,0.06250230958118129,-15.895492608499776
-16.166027475077122,27.987001287417943,-22.983037999461704,1.3908858902790138,-0.20129919500481694,-16.074563490587288
-16.354190297459446,28.590619609750046,-23.324769781762992,1.4066722189280392,-0.46768064810719034,-16.255527864137086
-16.493598015706798,29.0301037716712,-23.57061253303532,1.418378643964266,-0.6646833135377925,-16.389518120226544
-16.541158022897566,29.178559741286115,-23.653094110913973,1.4223744791497301,-0.7318104623962657,-16.435213854755002
-16.54313071061532,29.184702035369476,-23.656500910760588,1.4225402401305456,-0.7345938338321025,-16.437109049755296
-16.54313071061532,29.184702035369476,-23.656500910760588,1.4225402401305456,-0.7345938338321025,-16.437109049755296
-16.54313071061532,29.184702035369476,-23.656500910760588,1.4225402401305456,-0.7345938338321025,-16.437109049755296
-16.54313071061532,29.184702035369476,-23.656500910760588,1.4225402401305456,-0.7345938338321025,-16.437109049755296
-16.54313071061532,29.184702035369476,-23.656500910760588,1.4225402401305456,-0.7345938338321025,-16.437109049755296
-16.54313071061532,29.184702035369476,-23.656500910760588,1.4225402401305456,-0.7345938338321025,-16.437109049755296
-16.54308892975723,29.184628352180855,-23.656441180708576,1.4225366423691788,-0.7345919722895683,-16.43706753242884
-16.111875901396136,28.424156874280648,-23.039977618532447,1.3854047679884576,-0.7153793129477849,-16.008574368654056
-15.683497466992298,27.668684382297243,-22.42756640119119,1.3485169812855626,-0.6962929486956466,-15.582897919711327
-15.118228655009444,26.671797042196904,-21.619456250284017,1.2998415259133966,-0.6711074454597218,-15.021194525566845
-14.141912331243587,24.950001389467694,-20.22371122595832,1.215770654428586,-0.6276077557364594,-14.051036290771853
-13.167237754852746,23.231101062182063,-18.83031324907421,1.1318411542690472,-0.5841812139261007,-13.082509448074438
-12.196248683787932,21.518700356887788,-17.44218408271361,1.0482290140030988,-0.5409188794881409,-12.117644864477263
-11.221780017059542,19.80016316432912,-16.049080474959496,0.9643172447821379,-0.4975015119650592,-11.149322632672636
