RAMEL-ESPOL/ARCHIE/matlab/data/joint_goals_square_t35_h35_p12.txt
Joint0,Joint1,Joint2,Joint3,Joint4,Joint5 
0.0038259523279695596,9.573383552818937,14.253534606955755,0.000134066801534978,-23.82925047912121,0.004409786113626945
0.0038259523279695596,9.573383552818937,14.253534606955755,0.000134066801534978,-23.82925047912121,0.004409786113626945
0.0038259523279695596,9.573383552818937,14.253534606955755,0.000134066801534978,-23.82925047912121,0.004409786113626945
0.0038259523279695596,9.573383552818937,14.253534606955755,0.000134066801534978,-23.82925047912121,0.004409786113626945
0.0038259523279695596,9.573383552818937,14.253534606955755,0.000134066801534978,-23.82925047912121,0.004409786113626945
0.0038259523279695596,9.573383552818937,14.253534606955755,0.000134066801534978,-23.82925047912121,0.004409786113626945
0.0038259523279695596,9.573383552818937,14.253534606955755,0.000134066801534978,-23.82925047912121,0.004409786113626945
0.0038259523279695596,9.573383552818937,14.253534606955755,0.000134066801534978,-23.82925047912121,0.004409786113626945
0.0038259523279695596,9.573383552818937,14.253534606955755,0.000134066801534978,-23.82925047912121,0.004409786113626945
0.0038259523279695596,9.573383552818937,14.253534606955755,0.000134066801534978,-23.82925047912121,0.004409786113626945
0.0038259523279695596,9.573383552818937,14.253534606955755,0.000134066801534978,-23.82925047912121,0.004409786113626945
0.0038259523279695596,9.573383552818937,14.253534606955755,0.000134066801534978,-23.82925047912121,0.004409786113626945
0.0038259523279695596,9.573383552818937,14.253534606955755,0.000134066801534978,-23.82925047912121,0.004409786113626945
0.0038259523279695596,9.573383552818937,14.253534606955755,0.000134066801534978,-23.82925047912121,0.004409786113626945
0.0038259523279695596,9.573383552818937,14.253534606955755,0.000134066801534978,-23.82925047912121,0.004409786113626945
0.0038259523279695596,9.573383552818937,14.253534606955755,0.000134066801534978,-23.82925047912121,0.004409786113626945
0.0038263051464948765,9.573384287309436,14.253532808600943,0.00013406749015631338,-23.8292459609873,0.004410141838659323
0.02190333694163638,9.610934066565939,14.161498713788735,0.00010826298734822326,-23.59791116943509,0.02261137037851944
0.06285438962396941,9.695388696472776,13.953790790655654,-0.00039953326126622256,-23.07499883216096,0.06366528777151297
0.10621519227922357,9.783901083105292,13.735024802922961,-0.001607047468784516,-22.523003731817752,0.10687767579966284
0.1494877845587942,9.8713093169103,13.517874749045337,-0.0034876055485927376,-21.973809010694826,0.1497537203958656
0.19288746837177165,9.958057785116923,13.301239092499056,-0.006040544118766598,-21.424631914110325,0.19252166710616989
0.23635117281120033,10.044024618600218,13.085418415704135,-0.009256242914589428,-20.876230466800827,0.23513262933659457
0.28005943799446004,10.129567238339167,12.86950690780878,-0.01314516734120621,-20.326293687693155,0.27777581207291857
0.3239510846946463,10.214562229411287,12.65380245959042,-0.01770207778099661,-19.775565302040178,0.3204027566933308
0.36781901040187204,10.2986127951124,12.439308885852737,-0.022900183531794537,-19.226604884717812,0.362825167487887
0.4118000778171536,10.381987326235594,12.22534081749574,-0.028749266886604532,-18.677658067434194,0.4051884432767201
0.4561003129631972,10.465071851405623,12.010892758319295,-0.03527813683682159,-18.12612904137691,0.44770197307319526
0.5004053214988338,10.547275228054424,11.797479847573076,-0.042439905266966546,-17.575903009690474,0.49007548433406894
0.5445258766257217,10.628259613589114,11.585989425434818,-0.05019317436772459,-17.029279050865195,0.5321416343840714
0.5890532664575036,10.709111413579201,11.373577522204698,-0.05863987668119029,-16.47889928201653,0.5744758199404403
0.6337987343437674,10.789476637849944,11.16114936481616,-0.067751146435974,-15.92708264327133,0.6169085556914925
0.6782908657165487,10.868516814388906,10.95092523747783,-0.07742438473885989,-15.379600997686207,0.6590051338245524
0.7230036750288124,10.94708172843183,10.740648432588753,-0.0877566098296859,-14.830581000416434,0.7012261602167239
0.7678596861875524,11.025031183239298,10.530679860274901,-0.09873236745314895,-14.280949840586588,0.7435093137328506
0.8129285864211173,11.102482258145024,10.32068980003277,-0.11037132116031832,-13.729829332618758,0.7859312076663746
0.8578828177670308,11.178875236884155,10.112192903773593,-0.12258661066583974,-13.181191650711064,0.828194907492055
0.9029444472597548,11.25459347734672,9.904144686154128,-0.13543453705418207,-12.632290154061998,0.8705206384184053
0.9483385004598184,11.330008106506495,9.69550605312363,-0.14898455169920718,-12.080363335611006,0.9131306147831317
0.9934335670454424,11.404074469222982,9.489166603752876,-0.16304569469525532,-11.533054647822713,0.9554433177069885
1.0388261087109942,11.477777381872547,9.282383841532548,-0.17780107287335836,-10.98309067081812,0.9980295545012919
1.0844085767456686,11.55093335845328,9.075649573540113,-0.19322294343489962,-10.431756074572265,1.0407994636037552
1.1297462244613559,11.622850855343101,8.87092139987379,-0.20916099195176016,-9.884274700643433,1.083356069939879
1.1753413479920023,11.694330736263744,8.665919313408232,-0.2257902465558125,-9.334548996852629,1.1261817893163755
1.221210855248528,11.765388924857692,8.460570914880766,-0.24312594684865,-8.782358189504828,1.169303961171842
1.2668252927564232,11.8352087733619,8.257235388467981,-0.26096721258100253,-8.23404516963174,1.2122357175378602
1.3126296539372162,11.904477041080941,8.053915955903536,-0.2794860217986846,-7.684228329746113,1.2554066070914092
1.3585640922283244,11.973098028650657,7.850876316267958,-0.29866405162181886,-7.133603848862893,1.2987717012753313
1.4042948111581384,12.04057856558667,7.649579197081658,-0.31836033153991533,-6.5861415319261,1.3420264452750919
1.4503677901566068,12.10772383835803,7.447614639048488,-0.33881290509357587,-6.035279060219024,1.3856984461513373
1.4962417933933954,12.173744236624971,7.24734899380045,-0.35978485090357865,-5.487462123165908,1.429285866548418
1.5423436762582152,12.239256154391082,7.0469097431822485,-0.3814727591758839,-4.937565550671717,1.4732052192999123
1.588424837914394,12.303903450208908,6.847373633995527,-0.4037649444559002,-4.388530955586499,1.5172312921545767
1.6346609911992445,12.367931608700543,6.647973913024417,-0.4267505488892407,-3.838239783509237,1.5615434383660787
1.68087079490781,12.431088438404336,6.449486847457955,-0.45034380713133365,-3.2888255269982647,1.605979402367205
1.7272687945479657,12.49366497779914,6.250986187550225,-0.47465971939390067,-2.7377133335398796,1.6507573740369539
1.7736635928550728,12.555400218987726,6.053286758704748,-0.4996041817562232,-2.1871531688803714,1.69570475499031
1.8198591930567742,12.616040806426101,5.8572101272037,-0.5250704437596736,-1.6394414667768107,1.7406416610186228
1.8662426240600372,12.676096797376173,5.661105115994914,-0.5512748080610935,-1.0899636006669162,1.7859557671119888
1.9127903827488453,12.735529957200702,5.465071768950057,-0.5782146774182809,-0.5389776725788339,1.8316377323582471
1.959248661036409,12.794015715698142,5.270172973182159,-0.6057484933881878,0.010536145906347189,1.877450467141694
2.005575723033565,12.851508689857711,5.076570942559763,-0.6338511189912407,0.5581117874262199,1.9233628249179913
2.052352160726506,12.908722147964506,4.881839530292709,-0.6628858744773053,1.1106324852158578,1.9699643597861112
2.0987000282054598,12.964582685143046,4.689627008252047,-0.6923130993199009,1.6577518587961932,2.016392410082664
2.1453078711803015,13.019925625595581,4.497066805610904,-0.7225715339791956,2.207623747722429,2.0633473457429266
2.1920480454988023,13.074589614538096,4.304688701571999,-0.7535923488823391,2.758762006907056,2.110716212073466
2.2386110525941527,13.128214533792718,4.1137588500728475,-0.7851750629063904,3.307541039589651,2.1581973166730855
2.2852357797279303,13.181079077647883,3.9232885785612965,-0.8174854693694775,3.8568004583141673,2.206045726922894
2.3317962183561445,13.233040845350054,3.7337863018146784,-0.8504427816115958,4.405078670416289,2.2541447843872615
2.3786254344672684,13.284466176451046,3.543895050707723,-0.8842944914650086,4.95631899805913,2.302853719989365
2.4254500611605114,13.33504801499602,3.3547232050376765,-0.9188563352516325,5.507324472799678,2.3519042455865264
2.472197250592189,13.384709741189425,3.1665575136029993,-0.9540806277523067,6.057260643955615,2.401232679411025
2.5186542374531276,13.433235073431932,2.9802406293068713,-0.9898066993360166,6.603648205575163,2.4506238180567346
2.5656244338389604,13.481456907330468,2.792549913363112,-1.0266663089704453,7.15595712091674,2.5009485017555004
2.6125841419195375,13.528823685292828,2.6055836983156673,-1.0642695482307207,7.708049348241655,2.551666242432649
2.659820288603446,13.575617057319933,2.418200194887239,-1.1028623667904554,8.26331931379622,2.6031052609043015
2.707021501886026,13.621521392148065,2.2316347116314574,-1.1422064860728365,8.818127995513226,2.65494494300195
2.754166330193954,13.666517528438517,2.0459651107037544,-1.1822924611303331,9.37224493850747,2.7071759949701604
2.801432461722776,13.710772367130259,1.8604881983502628,-1.2232842460987214,9.927779959913067,2.760012160830344
2.848750251878402,13.754214937616776,1.6754762904433387,-1.26513763838855,10.48393576737897,2.8133945513999987
2.895926858336553,13.796669444925936,1.491677024871349,-1.3076920226524167,11.038466769570402,2.867120931614565
2.9430419138837838,13.838211882134674,1.3087715091968783,-1.351026555871655,11.59232954370599,2.921295720451626
2.9904750388512777,13.87916853175423,1.1252871570169125,-1.3955106552566499,12.150007992830716,2.9763772925780456
3.037613189082428,13.919007935658803,0.9435917901226492,-1.4405838663432189,12.7043150306335,3.0316720782924436
3.0846532207626645,13.957905561214803,0.7629146824818623,-1.486438033210134,13.25758454583392,3.0874223865775523
3.1319342722292545,13.996136284323864,0.5819522997469874,-1.5334226716531412,13.81382606075632,3.144051565475932
3.1790479068494504,14.033365948708818,0.4022657707444067,-1.5811496375555023,14.368254778333965,3.201091157524193
3.2263002115975126,14.06983523819414,0.2226836290710888,-1.6299445017030998,14.924492457786934,3.2589311301368458
3.273365943144374,14.1052924580598,0.04443758689537057,-1.6794867937335702,15.4787298004982,3.3171927286893172
3.320344773240646,14.139818031570842,-0.13285845748988379,-1.7298907698990171,16.032158218724906,3.3760145629793836
3.367512188057655,14.173609387989927,-0.3102453045539667,-1.7814732711808163,16.58804306509022,3.4357652317972316
3.4145847500156212,14.206458484600521,-0.4866581259474751,-1.8339461919301794,17.14306381527418,3.496109904687799
3.461662249711867,14.238434926504288,-0.662475487272835,-1.8874376899834662,17.698415421777675,3.557197325973134
3.5088873708128627,14.269628840436848,-0.8382300703084878,-1.942135327835758,18.255801390384445,3.619239797863382
3.555668002963983,14.2996546978533,-1.0117265800767228,-1.9973647098286416,18.808249085330438,3.681476313251335
3.6028884877806324,14.329077470198948,-1.1862473995079224,-2.0541918798141796,19.36622062838679,3.7451082828942406
3.6497805193532193,14.35741241689789,-1.3589531730231725,-2.111718922523588,19.92065707906909,3.8091288723502625
3.6966214841743206,14.384834862176055,-1.5308750239324602,-2.1702965758562334,20.474852209910818,3.873933078712026
3.743435794278351,14.411358246015595,-1.7021061440734304,-2.2299771103082064,21.029111976364174,3.939579634153902
3.790494134278122,14.437126594360318,-1.8736344849115263,-2.291139244733007,21.5866618786282,4.006482476691243
3.8365594520857007,14.461480568382337,-2.0409669439065032,-2.3521732055464653,22.13285307080966,4.072889368369116
3.8655558253035758,14.476367246449538,-2.1460047177856802,-2.3911935120425465,22.476873741958936,4.11516759198822
3.876721468753979,14.482008140720131,-2.186391668160739,-2.4063448141841093,22.6093910924021,4.131547991608495
3.870619939493151,14.41413704392674,-2.2730839344536458,-2.40642404491561,22.77878745700364,4.132579521994174
3.8455821116416886,14.187824301393437,-2.5319759868932956,-2.39950392726816,23.26459274367538,4.128089939853903
3.8185282517575585,13.934482986694057,-2.8101513406732614,-2.392297253268717,23.796753391181984,4.123427137142354
3.791752153211155,13.674438031420257,-3.0837084865650857,-2.3854518363997217,24.33098778140882,4.11901423132789
3.7712751729297875,13.469127804599237,-3.2916186819039415,-2.3804166078001416,24.744688268323053,4.1157813735278275
3.763411889623994,13.388769926136037,-3.371140404131512,-2.3785302955384555,24.904751403923225,4.114573733330323
3.7544673264268447,13.296322290880246,-3.46137408181798,-2.3764170539603993,25.08764093561448,4.113223358565599
3.730753019975817,13.045772601140753,-3.6994041797747226,-2.37098489160681,25.576769877288182,4.109766394422697
3.7052038479775136,12.766768022537676,-3.9537698435684074,-2.365417717807919,26.11072699509955,4.106249519232133
3.6799605755809974,12.481575449583238,-4.202795117699542,-2.360218856331885,26.645519728201787,4.102996170915589
3.6557075387389864,12.198366962852385,-4.439730269875595,-2.355517299300685,27.166210952078465,4.100087637987604
3.6426566018939606,12.042137880422166,-4.566226282873423,-2.353110149813773,27.449228749258086,4.098614083046302
3.6364403510783525,11.966765045279201,-4.626219631449922,-2.351994525642952,27.584733859492236,4.097935376833134
3.647028626514871,12.154035546081221,-4.86632015798364,-2.359966625861445,27.6370874455314,4.112227848148979
3.672841765526207,12.604881394040014,-5.435852754516899,-2.379220964475264,27.754613789074828,4.1466662811693435
3.701122417367002,13.09197236541771,-6.04756378128021,-2.4002547251938493,27.87795515902037,4.184242992959989
3.7300219346488075,13.582541480231122,-6.6598334308158575,-2.4216824107653285,27.99834111376253,4.222477847462071
3.759647961988143,14.078140067955003,-7.274476894930378,-2.443578846432821,28.116030096924806,4.261503709250816
3.7897759828340183,14.574786467178866,-7.886462410004807,-2.4657734308946946,28.229981800994775,4.301016208290133
3.8205859159015785,15.07524590082229,-8.49911798890778,-2.488394144306172,28.340750263869484,4.341243055523193
3.852270771714687,15.582325614068727,-9.11573189671472,-2.511576654121809,28.448806925082728,4.382424653366374
3.884442861776024,16.08957264991408,-9.728353138555521,-2.5350319328905755,28.55267126798317,4.424047205097027
3.9172128471678778,16.598589003326072,-10.338871786611243,-2.5588363092617534,28.652625736350775,4.466246409162268
3.9508689830332084,17.113576938051178,-10.952210328032756,-2.583193186095254,28.749376311000013,4.509382361268189
3.985281562167894,17.63223053455693,-11.56547969926043,-2.6080019836713686,28.84234530448797,4.553276213310555
4.019780407757599,18.14441017507499,-12.16670790723213,-2.632776163930428,28.929732074573113,4.597067919681481
4.046040820741886,18.529210994350073,-12.615532060391809,-2.6515693210886204,28.992483181475613,4.6302611582017805
4.043037980745452,18.62104920317195,-12.72200049680343,-2.6499814504774797,29.007236431893563,4.627623282774771
3.717954163046977,18.64016147394292,-12.73466914994424,-2.4372442834166397,29.015176544696136,4.257906345919504
3.1654330804772313,18.668947191276317,-12.753733952005298,-2.0754612857412047,29.027088560330206,3.6294578649401967
2.5948913740609534,18.693801182223783,-12.770189894861309,-1.701643592197127,29.03741553419294,2.9804388518738087
2.0219314992204307,18.71379055593212,-12.783415721126486,-1.3260423276065598,29.04569971474133,2.3286054749404355
1.4484664911161629,18.728821829430704,-12.793361127277388,-0.9499550938334921,29.051961710636796,1.6761489782535277
0.8766596248888145,18.738858841817702,-12.799997346425275,-0.5748444934886291,29.056118286863768,1.0255435861676014
0.3051600630355664,18.743957314571773,-12.80337092328222,-0.1998681680124564,29.0582545152695,0.3752668579234277
-0.2659946710833416,18.744126293355787,-12.803481107682844,0.17490434308555108,29.05830879366586,-0.27462477839050176
-0.8376170391199346,18.739366144546654,-12.800335897411209,0.5499645845395627,29.056345414431224,-0.9250423631550097
-1.410779313831273,18.729638551062493,-12.793904673487429,0.925971079328826,29.052313357796006,-1.5771918968380259
-1.9835237946799376,18.714957139784115,-12.784192205330525,1.301593848882251,29.046201102077966,-2.228831263989864
-2.5549237139582575,18.695362709304177,-12.771228855492895,1.6761855251605597,29.03808063862816,-2.8788938243205684
-3.126672702078154,18.670799035442425,-12.75496643235796,2.05080822776787,29.02787361270925,-3.529290604121006
-3.679753265386832,18.642309256730584,-12.736098788127533,2.4129753225741424,29.016080461687025,-4.158380680188859
-4.010313677039554,18.623055565687824,-12.723340143199376,2.629307941174475,29.008104109972237,-4.534330320834684
-4.053802608254969,18.624614042553517,-12.646781326349661,2.6557342980286687,28.928079216377917,-4.5796025131757006
-4.061438129736005,18.645700974396487,-12.21650503077964,2.6492724704134663,28.47684811993028,-4.56443349236513
-4.070765898127624,18.66548820418114,-11.689108262825494,2.641777942114647,27.929819492355588,-4.546276502974024
-4.080248678024979,18.679024293863083,-11.151028084805537,2.6345929336510987,27.378354668114543,-4.528221597879886
-4.089784714117829,18.68611022689197,-10.608042426948373,2.627792119220424,26.828429071815503,-4.510457475633922
-4.0993377158420055,18.686806888274166,-10.062262209609221,2.6213900971286392,26.28209241891607,-4.493038457027509
-4.108981015954585,18.681172013349016,-9.509531497729864,2.6153291381339154,25.735132311934418,-4.475820000573274
-4.118507822632573,18.669504870973928,-8.961771219221161,2.6097231780545607,25.199167802128223,-4.459153807438132
-4.128038013880236,18.651915551566365,-8.41217744893251,2.6044812839433265,24.667286854949054,-4.442808813139728
-4.137540638293009,18.628625842270377,-7.862596611903988,2.599606373344351,24.14111397705664,-4.426822530377907
-4.14670403405619,18.600857993418,-7.331193408984191,2.595226929018008,23.637588244358213,-4.411688676598094
-4.151295464691577,18.58502267434572,-7.064409746872868,2.5931479559547146,23.38669326675126,-4.404205963903301
-4.166074920248211,18.792210618954456,-7.301098218972506,2.602935640322214,23.415507203699676,-4.421426794283715
-4.200994287159558,19.278132435152553,-7.858633271345653,2.6261180582451797,23.485485222569842,-4.462252736252076
-4.23947639369851,19.805236069546577,-8.459126241502926,2.6515862548779103,23.55706039197143,-4.507036788141636
-4.279033647038659,20.3381788436013,-9.06171613766921,2.6776798007977436,23.624829472543983,-4.552849389674402
-4.319411349925046,20.873182029428378,-9.662015514016023,2.7042251687295384,23.68819492953523,-4.599383440997836
-4.349956978819943,21.2720522645995,-10.106547368622554,2.7242471736938234,23.732386762271243,-4.634435262916857
-4.342016455277545,21.343615072166642,-10.185638644165165,2.719445391751035,23.74027731872769,-4.626324976034072
-4.018697217093545,21.115784114071065,-9.923752850595715,2.5168043618597684,23.720762468132154,-4.278500557848029
-3.501772323727391,20.74529311558424,-9.49761822539925,2.1927892249573935,23.685995401190592,-3.7227113866508876
-2.9784765164225817,20.36224541187584,-9.056633388621746,1.8647821173232255,23.64625842685223,-3.160508754865683
-2.4567150092944234,19.972102071955103,-8.606977101114676,1.53778695380126,23.60195565837523,-2.600448621827937
-1.9407874317559126,19.578030672838285,-8.152203988946361,1.214546249935781,23.553412574184204,-2.047194744548064
-1.4319279237946894,19.181059716989022,-7.693414127551079,0.8958776616402525,23.500782632370502,-1.5021098784437856
-0.9255711441799129,18.777632434240452,-7.226403584316164,0.5789660978121446,23.443583494271127,-0.9603484342608948
-0.4220693123100057,18.36792907427669,-6.751277257656752,0.2640769028156699,23.38178417267152,-0.42234013499587575
0.07847901546902919,17.9519353688198,-6.267912858295954,-0.04868412866022038,23.315327365214458,0.1117562051402133
0.5042945804978041,17.59103948288495,-5.847750243774072,-0.3144915458388806,23.254728402929473,0.5654652891984695
0.7008972667095426,17.422189541121643,-5.650900179533918,-0.4371309516771279,23.225474491483176,0.7747383026138783
1.137349578084159,17.042222192658315,-5.207258713623201,-0.7091613072198362,23.15751876125392,1.2387994715690123
1.6320481426155213,16.602813217456717,-4.693028806636404,-1.0170939822618057,23.0754045357174,1.7638907371191952
2.1229140494461753,16.15736906053114,-4.170378566089088,-1.3221712542186843,22.988402184497854,2.283893190612795
2.603248022138358,15.712102488048188,-3.6465124259658945,-1.6202016791903546,22.89775682483538,2.7916776271925903
3.0705950913751296,15.269699422706415,-3.1245540007248587,-1.9096606911958278,22.804182643553034,3.2846632832113585
3.5273695413508164,14.828290545743386,-2.602260293622886,-2.1920231127608285,22.70735983959205,3.7653790013212767
3.8235426968569683,14.537190884200168,-2.2569722186271512,-2.374798099749785,22.641665106373118,4.076451381617539
3.8772280915930137,14.47258034673728,-2.2045555695252204,-2.4082917840298226,22.651661414393672,4.133795231144576
3.858434146360578,14.304943416502148,-2.3992645265930816,-2.4030287770466385,23.014459291335783,4.130377824241972
3.8312953959940996,14.05518700091882,-2.679101114087569,-2.3956647352963527,23.544700707846104,4.12560633998859
3.8043614377345443,13.798061132137518,-2.9551269544343306,-2.388641329258726,24.078490857597757,4.121070293051528
3.7786380005347064,13.543595578549612,-3.2170063633654324,-2.3822089362921606,24.59544074118986,4.1169328427827026
3.7658532457264235,13.413802152306339,-3.3464797054964373,-2.3791152517938983,24.855006375166127,4.114950154761198
3.7593710747707236,13.34713532547268,-3.4119434464361356,-2.3775734523234875,24.987288016417587,4.113964090785296
3.7425825026009107,13.17174513498518,-3.5808983892481185,-2.373665473977666,25.332022976020724,4.111471639255798
3.71709286570366,12.897781774631076,-3.835690167244076,-2.3679729225494417,25.861365927101332,4.107862021338869
3.691807990007079,12.616617961082724,-4.086221655289635,-2.3626228125174205,26.39363940087792,4.104498280593287
3.6667435181948753,12.328368631241506,-4.332214240581713,-2.3576223371037788,26.928449506194024,4.101387302061515
3.646364843970517,12.086801348651974,-4.530361565529739,-2.3537871923836216,27.368622377751713,4.0990292525131355
3.6381599842780235,11.987675499539845,-4.609643542279091,-2.3523030929687345,27.547213756746125,4.098124721395737
3.5585312522133354,11.970087382090439,-4.630654991516118,-2.3017258390011275,27.58899354131742,4.01087896335977
3.1388822322326626,11.993059558624507,-4.6479069982280565,-2.0306005969220187,27.5990119407575,3.541342931111823
2.593654930660177,12.018587092411119,-4.66707073028721,-1.67814625376813,27.61016137278029,2.931217961093524
2.0524352046959784,12.039109985409583,-4.682471240292261,-1.3280985257416773,27.619132484322268,2.325500001629986
1.5107259423027524,12.054854900996725,-4.694282744242133,-0.9775889208665973,27.62602053284001,1.719172945055934
0.967858273109788,12.065825398869471,-4.7025072095267575,-0.6262224594000918,27.630792848174938,1.1115028700002265
0.42580994743886813,12.071984046128232,-4.707126339445918,-0.27531784641358165,27.633494262400085,0.5047223726812816
-0.11760108876705914,12.07334960724509,-4.708151627349296,0.0764993746679367,27.634100434040604,-0.1035964054500387
-0.6604054678589578,12.069908456661528,-4.705573102615062,0.42791568039906763,27.63260497742425,-0.7112326599065621
-1.1998451351140917,12.061727779917991,-4.6994366204223805,0.7771058963430548,27.62900602377431,-1.3150831627946693
-1.743671753175352,12.048674950927888,-4.689648829567164,1.1290519762945805,27.623310972873057,-1.9238081398403883
-2.2848422404924973,12.030889004458007,-4.67630751905974,1.4791559536725696,27.615550483362306,-2.529508180773309
-2.828360346015184,12.008201814251066,-4.659283140606046,1.8306165647316968,27.605655160753678,-3.1377674747010436
-3.345167888389261,11.982135552011654,-4.639710115076963,2.1646159451044475,27.594258886566664,-3.7160555247531466
-3.6112972505372327,11.967001508598955,-4.628345845641537,2.336529685989147,27.58767995713665,-4.013810332132326
-3.640430514763251,12.002626778344942,-4.527308423323145,2.3524118023561327,27.449951752880192,-4.040055701453106
-3.654435112923771,12.130869917944088,-4.171126636711446,2.351200666664934,26.96536525350409,-4.033297057543434
-3.670073945715144,12.267287326465958,-3.771855993004482,2.3501655906495658,26.429493005098944,-4.026015910658834
-3.6859592776695345,12.398706186572944,-3.3647401695737273,2.3494448231116127,25.890767318812102,-4.01889489665839
-3.70203557372516,12.524566040123803,-2.9512363994947703,2.3490421331033473,25.351206563801,-4.011957396992101
-3.7183103303814478,12.64486188298017,-2.5311949637034994,2.348957022021716,24.810665963669567,-4.005197272449602
-3.734679993793826,12.758832085174907,-2.1073455372935874,2.3491868660803266,24.272638182439223,-3.998652243481928
-3.751218178627824,12.86701497088662,-1.6778432876891496,2.349728763758821,23.73473920287106,-3.9922869169350372
-3.7679474434965443,12.969527176458811,-1.242153063442881,2.3505822536530743,23.196316991230002,-3.986088782762681
-3.784476256738485,13.064164833008116,-0.8105607306331061,2.3517164553190946,22.669866582658614,-3.9801914651549337
-3.7932835260896463,13.11195769244466,-0.5801629177624198,2.352435407041004,22.39155718452915,-3.9771373802662033
-3.796728521260605,13.143841802616938,-0.5459314446225395,2.3534501349311694,22.325359295399036,-3.977835363346046
-3.8156161635696506,13.458171747242208,-0.934930385137682,2.3664003255694244,22.39920611347805,-4.001076903385082
-3.8456548820888368,13.95180170109066,-1.542754918093247,2.386953545578334,22.512086585978622,-4.037909122475289
-3.8694689767708166,14.337801146004834,-2.01542915545609,2.403210478383822,22.59771389988287,-4.066996306334511
-3.8776788808971574,14.469802960940786,-2.1765421640025617,2.4088074129947197,22.626462813044853,-4.077001280479489
-3.869402868329745,14.402422367266688,-2.2867470066986253,2.406797007830745,22.804231315481076,-4.076327645957598
-3.8439016447062344,14.171384555864064,-2.550402796931767,2.39976683331804,23.299536303398362,-4.071773168827353
-3.8167398646738966,13.916341967179152,-2.829630305346782,2.392554427341125,23.834452655181245,-4.067114028630518
-3.7900861015912453,13.656785176691583,-3.101869350622986,2.3857637394563866,24.366877597815794,-4.062743978639167
-3.7693910969292923,13.448713689326384,-3.3119282490240347,2.380694235987495,24.78549291931596,-4.059495288881361
-3.7614064206805016,13.366870225190837,-3.392646338930562,2.3787870177099126,24.94824073764256,-4.058276757769015
-3.7526922299494427,13.276539928894623,-3.4805217310866383,2.3767370775340777,25.126649171192042,-4.056969584163321
-3.7290785433089466,13.026378884384965,-3.7174531557454,2.3713508822165204,25.614288188739536,-4.053549430816825
-3.70350367102663,12.746351954836397,-3.97196845202573,2.36580350624618,26.149417581702387,-4.050053639640014
-3.678442823043141,12.462497742075916,-4.219083453998087,2.3606672090935508,26.68095724308072,-4.046848226669701
-3.6543894143905145,12.18097494085894,-4.4539675296718055,2.3560270369228857,27.197906954162264,-4.043986310887768
-3.6423505240638967,12.03658946366961,-4.5706713834498345,2.3538460579736458,27.45924307232912,-4.042633794852837
-3.6365276990302613,11.966146405162428,-4.6280322525089295,2.3528234596057445,27.58717632687598,-4.042045357762718
-3.6486827044246857,12.180392081967472,-4.899711331670418,2.3619071685475443,27.644065410958934,-4.058305476414048
-3.674823014395225,12.6365550683359,-5.4757524679005,2.3814025115660904,27.762768134656092,-4.0931725281685
-3.7032195183384458,13.125167031951651,-6.089122710699213,2.4025185984360506,27.88624208975181,-4.1308934311753
-3.732239193761443,13.617276098925945,-6.703047950025248,2.4240311345875014,28.00673777467696,-4.169276703729382
-3.7618943435403476,14.112848603137545,-7.317383388072527,2.4459445460288376,28.124143011222444,-4.208329810695144
-3.7920322579108645,14.609148141922025,-7.928665606252992,2.4681417176156586,28.23773734042824,-4.247843984064504
-3.8229365728134836,15.110620947229739,-8.542278572947772,2.4908267381002074,28.3484449364881,-4.288182259811387
-3.8544261428709228,15.614074538578318,-9.154208364530431,2.5138613889170265,28.455452207924786,-4.3290984362156335
-3.886775384653718,16.12361821731504,-9.76932923936659,2.537440703019742,28.559510715123164,-4.370938412093735
-3.9196701784257697,16.634048909524278,-10.381252769869063,2.5613301086367692,28.65944926689673,-4.413285566145374
-3.9534833553920974,17.150884970203442,-10.996481887404835,2.5857944373295885,28.75623420268934,-4.456608918237367
-3.987691324046423,17.665916827535536,-11.60516593439045,2.6104495151619758,28.84824878249236,-4.5002280418761496
-4.022118656160615,18.176540598094856,-12.204288019204238,2.635166462997139,28.935088165315378,-4.543916104957279
-4.047658238024554,18.55048530130305,-12.640283015344492,2.6534402181673524,28.99590081684966,-4.576190517022763
-4.052924151499978,18.621906300553288,-12.696066833001707,2.656480575149222,28.980037858735834,-4.581343898282515
-4.0592838009328975,18.64020548053766,-12.337906832381547,2.6510490109048406,28.603689480503537,-4.568663174982341
-4.068134219027673,18.660564927740243,-11.837965730730287,2.64383265309154,28.083537937019912,-4.55133705101622
-4.072684395990498,18.668758759878553,-11.5802699959295,2.640273482723152,27.817722704084225,-4.542570147376817
-4.078284602843607,18.676758524246452,-11.262500099292998,2.636030040972932,27.492042480620754,-4.531907441695474
-4.081401023543747,18.68022574085233,-11.085381494095085,2.6337329381894876,27.311505472181068,-4.526033351647593
-4.086646204694137,18.68449052930194,-10.786824526636558,2.6299686370174604,27.008764364221715,-4.516240795067501
-4.089641270547007,18.686050557367633,-10.616093623754976,2.627875646609917,26.836518651848777,-4.51070105730543
-4.091447212891424,18.686686370697693,-10.513060467951577,2.6266332088692166,26.732876660849225,-4.507378704560675
-4.094023971045563,18.68719942708175,-10.365938167428366,2.624885698708214,26.585279427688064,-4.502661390465583
-4.101466632917312,18.686102782584772,-9.940260976916655,2.62000239141299,26.160806606489462,-4.489185763084664
-4.110868073174335,18.679334089443284,-9.401035813787301,2.6141737339820534,25.628481303864554,-4.472471918411587
-4.120228440982013,18.66675823968429,-8.8625367916109,2.608734947288942,25.102683524296648,-4.45615910579187
-4.129662345433409,18.6483317134242,-8.318217296490957,2.6036084717181267,24.576911933531676,-4.440034870886212
-4.139066744694433,18.62436859820105,-7.774389494788457,2.598877501777496,24.057159947535887,-4.4242988806632715
-4.147881812137591,18.5969283951248,-7.2629928731929265,2.5947083577457013,23.57330838940878,-4.409778467168124
-4.151757469256103,18.590775198948393,-7.068862571212309,2.5934285590062953,23.385351911256766,-4.404640651328516
-4.170731943774927,18.85739191467916,-7.376103207515518,2.6060493450001356,23.425090917245537,-4.426887561151954
-4.206876178553241,19.359211754184198,-7.951289902297853,2.630034184566836,23.496763548368893,-4.469117445154722
-4.245629176923282,19.888665369661542,-8.553758812628319,2.6556685970888267,23.567949897607324,-4.514182906635282
-4.285156009357293,20.419827822387234,-9.153627553728072,2.6817285876183545,23.634777506441704,-4.559925666424087
-4.325369451603578,20.951326133839334,-9.749306268112665,2.708152574811653,23.6970329522917,-4.606236355268306
-4.352330995831483,21.302796489165335,-10.140701354465552,2.7258191425672855,23.735659393822488,-4.637159837044956
-4.311110290512317,21.335188138674273,-10.17540676336284,2.7001237861660328,23.73988725314525,-4.593150053001102
-3.913734707093212,21.171706381187406,-9.983106894266655,2.4513082030197593,23.728640967245372,-4.166303588658159
-3.346261286123009,20.93311127933248,-9.70372591510893,2.0958958659648865,23.70994618997486,-3.55700934650858
-2.773929710358653,20.686262659393385,-9.416140629955434,1.737376594105323,23.68801054675817,-2.942832927028714
-2.202963038056015,20.433671959033067,-9.123246104179374,1.3796939275234354,23.66295458159244,-2.3304887340707467
-1.6297882228493967,20.173621930661742,-8.82300751070481,1.0206578723376254,23.63452132722304,-1.7161819278886532
-1.0678667503740797,19.912253594610068,-8.522446743618984,0.6687448626884126,23.60345706307273,-1.1143564852157235
-0.5105283422432421,19.64660906210912,-8.218064586899896,0.31982037807653046,23.56943552955628,-0.5178874491058371
0.047810335260922994,19.373961358653293,-7.906678366844349,-0.029566826207415027,23.532085052867146,0.07917042280322456
0.599628997356271,19.097946972088657,-7.5923737745723505,-0.37466572233941114,23.49185997348084,0.6687419067555055
1.1514751321703076,18.81527390836954,-7.271341000868985,-0.7195345735135474,23.448339618212124,1.2578048318238095
1.6988875860974257,18.52816683184464,-6.946039499235926,-1.0613415733830984,23.401815238360754,1.8415612633685596
2.2458123231966423,18.23450293076898,-6.613997572011564,-1.4025098810876604,23.35192708519719,2.424188071983071
2.788687503120721,17.936131944323602,-6.277239646783719,-1.7407774204149964,23.29897059434488,3.0018585699704263
3.330072542302632,17.631600408841905,-5.934054738716607,-2.0777002785423875,23.242673823627708,3.577264672367845
3.8384205368664,17.339166868512493,-5.604912854356868,-2.3936445522159824,23.186572563611524,4.116901861538333
4.05591366663559,17.211189947079234,-5.46290704707636,-2.5287173027777086,23.16339478087358,4.34766171354469
4.04138094694005,17.089419431450267,-5.60209042894518,-2.5246203596345715,23.42472249082705,4.344705285129313
4.012650262122282,16.841956374086955,-5.876342020743129,-2.516740961830479,23.94717166393912,4.3390210733871095
3.983443991533434,16.580976890025244,-6.153761618742512,-2.5090408009896574,24.486311214718377,4.3334703827840135
3.954745827237692,16.31496157323931,-6.424841067945685,-2.5017912032025484,25.024127335891308,4.328251190178486
3.9262906446809485,16.04149827367313,-6.691971551240285,-2.4949257036527546,25.56543013612427,4.323317857495928
3.8984935346516525,15.76471170995857,-6.95116181340121,-2.4885420985943627,26.102093461958816,4.318742699557595
3.8709488206568112,15.480712701415243,-7.206105097983521,-2.4825445270165534,26.641709923571717,4.314458970293881
3.8438098077496767,15.191111156569614,-7.455272380288157,-2.4769678929262318,27.181136920917677,4.310493677232545
3.817179055495453,14.897179098839297,-7.6976448508059825,-2.4718298993976586,27.718081305993998,4.30686115221293
3.7996387478161164,14.698151148555617,-7.856042724052421,-2.468633202189903,28.075925265909397,4.304614503309464
3.792410596490803,14.614852949024886,-7.921014486222678,-2.467360353603147,28.224366761587877,4.303723460504118
3.6299672768170437,14.617061913313373,-7.9334977302647225,-2.3621204386867913,28.24144167690767,4.121254675483
3.14398159114196,14.64314651209573,-7.952158050674528,-2.0462390965612407,28.252595908176282,3.5734063018907416
2.5891049120311656,14.668332337532876,-7.970167443484788,-1.6853650725214273,28.263380183511497,2.9478163019972263
2.0326283328515524,14.688679165036902,-7.984706955926194,-1.3232587379203051,28.272069417192746,2.3203484170958637
1.4781851936872505,14.704070761385188,-7.995705173293893,-0.9623270510579789,28.278673169589506,1.6951184483205564
0.9243685813413929,14.714587616262131,-8.003218806121277,-0.6016947559551128,28.283190793626726,1.0705538343936665
0.37044781006632754,14.720254997821456,-8.007264152022046,-0.24092721978341133,28.285599309570088,0.4458450860614095
-0.18618538178796382,14.72106596505327,-8.00784509622404,0.12163451627590201,28.285958772010552,-0.18193204681985872
-0.7408544443824198,14.717003904867594,-8.004946005054599,0.48290353115105095,28.28422931509191,-0.8074889910689017
-1.293980415061539,14.708109533410433,-7.998591346073783,0.8431120149794652,28.280397544159328,-1.4312854678219435
-1.8478606671408537,14.694352827619808,-7.98876565962468,1.2037185793653074,28.27451646632894,-2.055896446830615
-2.403587179173799,14.675666083613981,-7.975413979291348,1.5653915006888144,28.26652769351623,-2.6825380792821467
-2.9594636716278417,14.652070306222335,-7.9585438014952565,1.9269824420420574,28.256412523815005,-3.309281342031072
-3.4897327289832774,14.62498207749531,-7.939171274351896,2.27171585863444,28.244842330126477,-3.907076111252555
-3.7729866044867424,14.608675105501714,-7.927502469749182,2.4557670706584402,28.237866629642838,-4.22636435431977
-3.7940388286743367,14.612424085733753,-7.79006547822717,2.4661799023453295,28.09591478286506,-4.243180592961303
-3.8013492201166343,14.626116414364171,-7.3141515579690575,2.459790332819717,27.606448883348804,-4.227582305285502
-3.8094393682954464,14.635424983740332,-6.785424476831074,2.453076743008398,27.068563722045887,-4.210643383789474
-3.817598132255035,14.6387235854177,-6.250087449529845,2.4466736245313534,26.530074952288444,-4.19389030056435
-3.8257666431403576,14.63603246051679,-5.712028673011823,2.4406196065057224,25.99484963218143,-4.177434422545152
-3.833942510407142,14.627463256753332,-5.171453578758578,2.4349052816023407,25.462981712974795,-4.1612678585038285
-3.8421029991386537,14.613174258769583,-4.629920559809748,2.4295344067917024,24.93587113939927,-4.14542208364884
-3.8502472994991135,14.593322050726108,-4.087544729505257,2.4244946105066414,24.413476655271698,-4.129884606060784
-3.8583921923911064,14.568000561721584,-3.5432620225256035,2.4197641737263216,23.894640738210697,-4.114610797351143
-3.8666025146728953,14.537058786556763,-2.992763641079313,2.415299189088538,23.375206734997604,-4.099470842927289
-3.874507790545603,14.502234464005246,-2.461011675435412,2.4112790515807654,22.87839379530574,-4.085126507078283
-3.878456657298745,14.483021733072448,-2.1947745622924946,2.409370796530681,22.631425531089704,-4.07804382119861
-3.890952490610287,14.682093296977985,-2.435080872667267,2.4178416139965186,22.672109652429143,-4.093144287698208
-3.92045577020638,15.148935229151096,-3.0011650564759345,2.4378997466392613,22.770041644538974,-4.128936076820098
-3.9530132140511385,15.656330534552382,-3.6125655345321817,2.4599755820823868,22.87259202935704,-4.168262911816243
-3.986403997616079,16.168502253178847,-4.225629345641394,2.482552573138246,22.971982435519017,-4.208414054160968
-4.020590565088409,16.684539368932594,-4.839145000338366,2.505600731367121,23.067913393643927,-4.249334097727506
-4.046989515041391,17.077418777110353,-5.303418374269067,2.5233523769902244,23.138105337099628,-4.280804533579952
-4.0555354660839305,17.203578732125994,-5.451985652436612,2.5290903900747987,23.16012223807413,-4.290968595059015
-4.0561095081664,17.212035617969235,-5.46193570950417,2.529475671594935,23.161589161815687,-4.291650923026664
-4.0561095081664,17.212035617969235,-5.46193570950417,2.529475671594935,23.161589161815687,-4.291650923026664
-4.0561095081664,17.212035617969235,-5.46193570950417,2.529475671594935,23.161589161815687,-4.291650923026664
-4.0561095081664,17.212035617969235,-5.46193570950417,2.529475671594935,23.161589161815687,-4.291650923026664
-4.0561095081664,17.212035617969235,-5.46193570950417,2.529475671594935,23.161589161815687,-4.291650923026664
-4.0561095081664,17.212035617969235,-5.46193570950417,2.529475671594935,23.161589161815687,-4.291650923026664
-4.055998691093606,17.21182708799083,-5.461397119930418,2.52940652872047,23.160305339856702,-4.291533783068483
-3.9690126018727585,17.04814105253253,-5.0386301262277255,2.4751326871941273,22.15256665255067,-4.199584531957932
-3.8824939077572513,16.88533453760988,-4.61813475118643,2.421150470778244,21.15024276356616,-4.108129344096959
-3.7956574532803455,16.72193007726574,-4.196095007454585,2.366969991908532,20.144237603100873,-4.01633826543408
-3.684786000789646,16.513297769890364,-3.657241139246539,2.2977931879370592,18.859785652295013,-3.8991408248160027
-3.5362174661719568,16.233728994661526,-2.935173124673912,2.2050957787781145,17.138610905945704,-3.742095421130758
-3.387975523135763,15.954774782998747,-2.214692400003776,2.112602142198173,15.421219741253752,-3.585395243350097
-3.2392772665367078,15.674961903488045,-1.4919939148286592,2.019823794692393,13.698542158526955,-3.42821271614147
-3.0912356699665846,15.396384693700425,-0.7724869076105706,1.9274551616900037,11.983472018800411,-3.2717243159873575
-2.942919481365853,15.117290770478952,-0.05164533703510962,1.8349152005535738,10.26522071510904,-3.1149456564158875
-2.7945789585562713,14.83815105637059,0.6693145018797092,1.7423600564033244,8.546687498253137,-2.9581412741995656
-2.646057732453917,14.558671303919851,1.391152589127359,1.649692164778587,6.8260608236882865,-2.801145878309764
-2.497713922609967,14.279525404436,2.112128403580917,1.5571349697259003,5.107489526356194,-2.6443380215108827
-2.3490159352594175,13.999713031583555,2.834825580163106,1.464356790214232,3.3848150628883227,-2.4871557789132623
-2.201192352481756,13.72154606915483,3.553273003757534,1.3721241840884224,1.672270625087198,-2.3308978317560385
-2.05258745029664,13.441908859271845,4.275517770811931,1.2794040838577336,-0.04932544155581703,-2.1738139854804954
-1.9043159158751852,13.162898964032756,4.996142314581172,1.1868919841169743,-1.7670594240937636,-2.0170825279200626
-1.7558131386368274,12.8834539277238,5.717890737253268,1.0942356034215113,-3.487472367541924,-1.860106633530369
-1.607418535068097,12.604212447170491,6.43911341773468,1.001646716283412,-5.206632113003973,-1.7032450848711391
-1.4592916110652547,12.325474672523562,7.159035130597477,0.9092248443366958,-6.922690775789888,-1.5466664887603165
-1.3109270947200358,12.046289808589979,7.880111582122664,0.8166547297312561,-8.641501959092194,-1.3898367440101331
-1.1618974929662584,11.765853420478871,8.604420460364013,0.7236696437161474,-10.368018193886876,-1.2323039660992534
-1.0141107014690165,11.487755690026031,9.322689072160408,0.6314599930323048,-12.080136402655677,-1.0760849094210962
-0.8657648711990136,11.208605988606331,10.043674706223701,0.5389015373610017,-13.7987311067361,-0.9192749169167913
-0.7171998522411518,10.929043828968842,10.765725634099486,0.4462063217523824,-15.519865123970547,-0.7622332294842393
-0.568953015732202,10.650080409015837,11.486230141868555,0.35370963195361865,-17.23731297981686,-0.6055278790241391
-0.42039525128447547,10.37053190054963,12.208245811607455,0.2610189427024546,-18.958362953147432,-0.4484938600220229
-0.2883793401116252,10.122111017269823,12.849865297980356,0.17864932813385578,-20.48777463518168,-0.3089455221699565
-0.20217483496549737,9.959895727303293,13.268833661895746,0.12486314584809789,-21.486458627460806,-0.2178224499460989
-0.11547159670167316,9.796741946510025,13.69022595247248,0.0707657855057536,-22.490920470679608,-0.12617218840855932
-0.028977197404709346,9.633981148351577,14.110603250617915,0.016798727526619765,-23.49296290283847,-0.034742681554642385
0.0001320394398957297,9.579204854613243,14.252079027492178,-0.001363603043797738,-23.830195032584935,-0.003972560122172492
0.0001320394398957297,9.579204854613243,14.252079027492178,-0.001363603043797738,-23.830195032584935,-0.003972560122172492
0.0001320394398957297,9.579204854613243,14.252079027492178,-0.001363603043797738,-23.830195032584935,-0.003972560122172492
0.0001320394398957297,9.579204854613243,14.252079027492178,-0.001363603043797738,-23.830195032584935,-0.003972560122172492
0.0001320394398957297,9.579204854613243,14.252079027492178,-0.001363603043797738,-23.830195032584935,-0.003972560122172492
0.0001320394398957297,9.579204854613243,14.252079027492178,-0.001363603043797738,-23.830195032584935,-0.003972560122172492
0.0001320394398957297,9.579204854613243,14.252079027492178,-0.001363603043797738,-23.830195032584935,-0.003972560122172492
0.0001320394398957297,9.579204854613243,14.252079027492178,-0.001363603043797738,-23.830195032584935,-0.003972560122172492
0.0001320394398957297,9.579204854613243,14.252079027492178,-0.001363603043797738,-23.830195032584935,-0.003972560122172492
0.0001320394398957297,9.579204854613243,14.252079027492178,-0.001363603043797738,-23.830195032584935,-0.003972560122172492
0.0001320394398957297,9.579204854613243,14.252079027492178,-0.001363603043797738,-23.830195032584935,-0.003972560122172492
0.0001320394398957297,9.579204854613243,14.252079027492178,-0.001363603043797738,-23.830195032584935,-0.003972560122172492
