RAMEL-ESPOL/ARCHIE/matlab/data/joint_goals_square_t35_h35_p12.txt
Joint0,Joint1,Joint2,Joint3,Joint4,Joint5 
0.001610057374235036,9.571514199052027,14.255082469526762,0.0014349257010930437,-23.82359691254692,0.0017635562865188732
0.001610057374235036,9.571514199052027,14.255082469526762,0.0014349257010930437,-23.82359691254692,0.0017635562865188732
0.001610057374235036,9.571514199052027,14.255082469526762,0.0014349257010930437,-23.82359691254692,0.0017635562865188732
0.001610057374235036,9.571514199052027,14.255082469526762,0.0014349257010930437,-23.82359691254692,0.0017635562865188732
0.001610057374235036,9.571514199052027,14.255082469526762,0.0014349257010930437,-23.82359691254692,0.0017635562865188732
0.001610057374235036,9.571514199052027,14.255082469526762,0.0014349257010930437,-23.82359691254692,0.0017635562865188732
0.001610057374235036,9.571514199052027,14.255082469526762,0.0014349257010930437,-23.82359691254692,0.0017635562865188732
0.001610057374235036,9.571514199052027,14.255082469526762,0.0014349257010930437,-23.82359691254692,0.0017635562865188732
0.001610057374235036,9.571514199052027,14.255082469526762,0.0014349257010930437,-23.82359691254692,0.0017635562865188732
0.001610057374235036,9.571514199052027,14.255082469526762,0.0014349257010930437,-23.82359691254692,0.0017635562865188732
0.001610057374235036,9.571514199052027,14.255082469526762,0.0014349257010930437,-23.82359691254692,0.0017635562865188732
0.001610057374235036,9.571514199052027,14.255082469526762,0.0014349257010930437,-23.82359691254692,0.0017635562865188732
0.001610057374235036,9.571514199052027,14.255082469526762,0.0014349257010930437,-23.82359691254692,0.0017635562865188732
0.001610057374235036,9.571514199052027,14.255082469526762,0.0014349257010930437,-23.82359691254692,0.0017635562865188732
0.001610057374235036,9.571514199052027,14.255082469526762,0.0014349257010930437,-23.82359691254692,0.0017635562865188732
0.001610057374235036,9.571514199052027,14.255082469526762,0.0014349257010930437,-23.82359691254692,0.0017635562865188732
0.001610057374235036,9.571514199052027,14.255082469526762,0.0014349257010930437,-23.82359691254692,0.0017635562865188732
0.0016109698188566618,9.571516106689339,14.255077848864863,0.0014349274084546506,-23.823585272401385,0.0017644763014285551
0.01988026815450816,9.609627514276147,14.162669620255548,0.0014067442601658744,-23.590683373007867,0.020160113415409447
0.06056085029844303,9.693889537271984,13.957675491724554,0.0008986081924592962,-23.073221984907107,0.06094510590075801
0.10347073787077948,9.78187894037284,13.742585070208694,-0.0002940876756244078,-22.5290743679506,0.10371274465816313
0.14661867995459002,9.869445825924217,13.527456308995657,-0.0021620735655519022,-21.983585401167925,0.1464714961766368
0.18973602618756916,9.956049003474252,13.31361488069081,-0.004687798883268013,-21.44011219799256,0.18896827358039606
0.2329827463529745,10.042016924909055,13.100249842257766,-0.007872661585601232,-20.896594010386874,0.23137449141767924
0.27651419154399665,10.127655431780564,12.8865899079649,-0.011727709289261803,-20.35105226634729,0.2738536250496355
0.3200178728717009,10.21235134988208,12.674158424668892,-0.016221780348809153,-19.80736932099579,0.3161128297500702
0.3636914089473009,10.29649426324992,12.461976068382032,-0.021369646506378147,-19.263036389620602,0.3583567578708172
0.4075170895794674,10.380049129613695,12.250121690102047,-0.027167941037677373,-18.718245128492917,0.40057964805421087
0.45193634538515004,10.463843683887108,12.036469775381383,-0.03368324002163539,-18.16749978329409,0.4432158530856741
0.4964463999368416,10.54691725166258,11.823444883766033,-0.04084895198311961,-17.617022653294015,0.4857923346907807
0.5410244433590086,10.629230682524756,11.611143745912074,-0.048657576011850244,-17.06705966482509,0.5282995016662527
0.5855815194364671,10.71062617521945,11.399974141091908,-0.057087756055112994,-16.518668018108603,0.570665025913346
0.6304414181569472,10.791694406293264,11.188394274063656,-0.06620035350306398,-15.96783351483123,0.6132081718368202
0.6751227197508549,10.871568974311328,10.978662489677134,-0.07589425473412138,-15.420432433244548,0.6554841827614714
0.7201427646442831,10.951177021112425,10.768339691253278,-0.08627948187483037,-14.87009362892501,0.6979941718780894
0.7652509804505552,11.03006981927809,10.558594961506273,-0.09730185613312768,-14.319858406002751,0.7405123095063124
0.810337949003389,11.108060486191127,10.349924068605814,-0.10893128735484407,-13.771026069811263,0.7829470993735775
0.8555924919453419,11.185477639711412,10.14144300980452,-0.12121508583251284,-13.221266385958327,0.825487624870568
0.9008768479574248,11.262085973116314,9.933778257154664,-0.13411581941642192,-12.672223591742632,0.8680155741337584
0.9463628677229812,11.33817535145073,9.726134953795686,-0.1476834691668501,-12.121786441567457,0.9107034786387533
0.9917678624406441,11.413274954519164,9.519793666810301,-0.16183286271251368,-11.57334490430933,0.9532972121703378
1.0375194949663908,11.488089963327036,9.312805632205567,-0.17669962553268018,-11.021707447158954,0.9962090895038092
1.0830247996149012,11.56165288357737,9.107843698816007,-0.19209055443855047,-10.473993150644436,1.0388940271554148
1.1288196849463952,11.634833746135024,8.902482626335468,-0.20818548543334803,-9.923719653065385,1.081865802463089
1.1747633124453927,11.707399874082103,8.697354648941419,-0.2249417597471057,-9.37255977590293,1.1250035443407451
1.220604113744999,11.778957128534705,8.49357222769683,-0.24226694315110636,-8.823500576623209,1.1680820547702109
1.2664134207609197,11.84962476901439,8.290802733520081,-0.26018412076557434,-8.275652472708954,1.2111790584010316
1.3125028713995728,11.919880683204331,8.087662486126828,-0.27881924097365907,-7.725264273781594,1.2545990196194043
1.358625387207401,11.989343497601466,7.885238198898912,-0.2980780325602548,-7.175264175978709,1.2981206588813556
1.4047720477806884,12.058001859758097,7.683559784033419,-0.31795767652097306,-6.625729928414983,1.341746557631881
1.4510247260463596,12.12597748619722,7.482262465771051,-0.338496133222338,-6.075660117322102,1.3855653397688235
1.4971926997925191,12.192992795486365,7.282166600584282,-0.3596095443940719,-5.527294406810517,1.4294072125838504
1.543563367047995,12.259464827175846,7.082019786614347,-0.3814324718832589,-4.977193206950815,1.473556386479291
1.5899234001977642,12.325085503622415,6.882738180101896,-0.4038694334478039,-4.427863193915499,1.5178213796995534
1.6363290809466162,12.389936312252603,6.684071261739956,-0.4269497685835298,-3.8786103847972835,1.5622670203751774
1.68281684275547,12.454067328812037,6.485857123547714,-0.45069589062725635,-3.328978668333574,1.606939773568857
1.7294125307276524,12.517511522920666,6.287981444503443,-0.4751269090114909,-2.7786389849123547,1.6518764858897104
1.7759238753513453,12.580008740281112,6.09125253506874,-0.5001448819467983,-2.229835997824067,1.6969029814270378
1.8226288406580196,12.64193165723541,5.8944888772670945,-0.5259042923023605,-1.6792654276074757,1.7423002084092951
1.869221341120872,12.702874238619792,5.698973676541617,-0.552241041788278,-1.1305108980111085,1.7877824241510551
1.916050110075164,12.763291096180536,5.503238484089867,-0.5793582424661978,-0.5794413263124607,1.833702298963354
1.9627657715790034,12.822729855726584,5.308738712624334,-0.6070598676442666,-0.03014457437141474,1.879729588259862
2.009531330867141,12.881401142367825,5.114786390638785,-0.6354453229026269,0.5193219451974589,1.926036094646461
2.0562410993254456,12.939173858011742,4.9218122215318365,-0.6644547634431235,1.0677411286086682,1.9725288595336767
2.1032948930692825,12.996536022831217,4.728164004791029,-0.6943474433554361,1.6198281364850178,2.019620094125115
2.150130648283554,13.052800173057237,4.53615073457765,-0.7247741224491737,2.16901090042193,2.0667604123559844
2.1971786336902372,13.108484323274004,4.344001274373832,-0.7560197170248001,2.7203587159053124,2.114395148438492
2.2437875979297335,13.162824460188379,4.154363452163132,-0.7876526471106859,3.2662653413512666,2.1618752131353705
2.2908479682101226,13.216859062606714,3.963608081764868,-0.8202837370159957,3.817183094829385,2.210120391910732
2.3378075455900156,13.269945344964336,3.773975086131743,-0.8535444406662525,4.366667566550902,2.2585807895878958
2.3847028566368738,13.322129295244359,3.58530707195467,-0.8874640101039993,4.915170226553762,2.307305437159796
2.4316734531466624,13.37356631198379,3.3970367009241422,-0.9221509004082987,5.464345784226316,2.35645259353405
2.478895054034546,13.424440158334056,3.2084611505109453,-0.9577502910728598,6.016269024933624,2.4062233365729475
2.5258618074176518,13.47420606519858,3.0215946166154803,-0.9938888832012591,6.565049763491787,2.4560981588707262
2.572907848825402,13.523222620316718,2.835098263647216,-1.030828330692965,7.1146150127378345,2.5064437948824785
2.6198694947038437,13.571319193454412,2.6496154655786217,-1.0684490062671363,7.6630743369320165,2.5570992165958994
2.666906370459512,13.61865913152531,2.4645103550160252,-1.106888055540357,8.212313436989872,2.608251009657105
2.7140808168320083,13.665299083265733,2.2795370515725297,-1.1462114981759952,8.763080925410405,2.659984660048369
2.76109113374803,13.710940836340223,2.0958730784533213,-1.1861776193794378,9.31187553998023,2.7119841233217787
2.808181752103355,13.755823294374096,1.9125568605032464,-1.2270029411354044,9.861571790011713,2.7645340457850076
2.8554616675012636,13.80004221135128,1.7291651929041876,-1.2688002801776903,10.41346254330016,2.817776053132102
2.9022999962869966,13.843013444472145,1.5481353624410938,-1.311017135968794,10.960204115767805,2.8710119329404273
2.949522946926344,13.885495389759866,1.3662685880044485,-1.3544091558918794,11.511461181200682,2.9251965265141227
2.9965216999487962,13.92693494649806,1.1859086541604285,-1.3984339156804633,12.060146931631934,2.979650794577819
3.043559275578589,13.967567730950384,1.0060383377433506,-1.4433461940925367,12.609351670755567,3.0346937380051253
3.0910524502421928,14.007738974421587,0.8250700736366938,-1.4895716511751418,13.16396280237066,3.0908398456079667
3.1385651675993804,14.047065522943559,0.6446711615533165,-1.5367138895492651,13.718909639258687,3.1476009071001725
3.186100808823521,14.085547371363226,0.4648258554959442,-1.5847930281677223,14.274251897399372,3.2050011043692637
3.233770767803285,14.123268631029639,0.28511223900146127,-1.6339425717978147,14.831311626432115,3.2631979820181214
3.281275864252173,14.159991521588807,0.10665408256781775,-1.683870045397191,15.386612347762236,3.321846152705438
3.32868439750398,14.19577404247714,-0.0708137888937289,-1.7346568685187673,15.940970601330646,3.381045473827437
3.3762170339075808,14.23077984343717,-0.24812005845405413,-1.7865585555193995,16.496986315231428,3.441093707807324
3.423478615166481,14.264719786637311,-0.42379670636376465,-1.8391578334531313,17.050055285043058,3.5015104366294545
3.470841951550863,14.297864035476394,-0.599235837665945,-1.8928837374648553,17.604558033173088,3.5627910457275185
3.5182381801486846,14.330158244078286,-0.7741825449734863,-1.9476828864280418,18.159708305112797,3.6248730150663366
3.565686564504736,14.361610688152592,-0.9487090076434179,-2.003601560545968,18.715751273278563,3.6878078182301595
3.61294197122201,14.392060231852856,-1.1219189126905598,-2.0603680291324826,19.269831561957606,3.751291585984803
3.660340330156941,14.42172203143061,-1.2950470210878406,-2.1184069805655446,19.825906054796953,3.81579998527403
3.7075474666172727,14.450385447674064,-1.466875940223973,-2.177331260191854,20.380072049350275,3.88090333356774
3.7549568304938568,14.478286260331481,-1.6388398788775222,-2.237656957133141,20.936966595180515,3.9471717854468755
3.802163884712328,14.505183423081277,-1.8094736157370244,-2.2988948562982965,21.491855812248865,4.014067958039408
3.8483671117979115,14.530650854063031,-1.975904544565756,-2.3599863392100024,22.035321468074105,4.080449354487194
3.8740897785886705,14.54446054023914,-2.0683158993253343,-2.394502684156228,22.338051712735698,4.117805264931954
3.885390589967456,14.550444014352678,-2.1088598117871458,-2.4097825961385246,22.471089841144643,4.134308965515445
3.8763609001832675,14.464951278524573,-2.213539692302364,-2.408043394186768,22.668290688612995,4.133632089264678
3.850469142560731,14.232604959198218,-2.4815479421004003,-2.4008356069022034,23.169267167260116,4.128953697932193
3.823252476764298,13.979394790628579,-2.76169887086374,-2.3935345890070514,23.703277029124934,4.124227218013372
3.7965354280299675,13.72158614222896,-3.0349760112776427,-2.3866528262565216,24.234994615616685,4.11978770201805
3.773739963414093,13.494142450787852,-3.2666545231725994,-2.3810129142817686,24.69465183670737,4.116164158219511
3.7643020728049637,13.397910667368409,-3.3621464330074313,-2.3787420867078337,24.886595933602703,4.114709823718268
3.7574879968862542,13.327668162144814,-3.430927598666862,-2.3771264066092406,25.025778326563337,4.113676925826823
3.7353476556152367,13.094942570068635,-3.65342599028708,-2.372017328597679,25.481515647341944,4.110422286999384
3.709624622764453,12.815730600845548,-3.909918334399065,-2.3663589364810957,26.017811715611796,4.10684253713972
3.684425882829866,12.532727201216945,-4.1589184080644435,-2.361115718089638,26.550389935436634,4.103555491983338
3.6604855545896684,12.254888786255218,-4.393240109488301,-2.3564198403737673,27.06309146006996,4.100643642511879
3.6488160547222104,12.116209804181931,-4.5066153669814515,-2.3542349140446306,27.31540793675525,4.0993017168470836
3.643273523099286,12.050295790136996,-4.5643504657858776,-2.353293525883133,27.43917836462898,4.098838833647731
3.655989209197126,12.273783762263303,-4.847345182937559,-2.3627654690279383,27.498115902125324,4.115796104944152
3.6826153562699324,12.736980727083825,-5.431372031989445,-2.382557933931184,27.61774885444051,4.151198164904148
3.7110303806019402,13.224342923404125,-6.042207676995945,-2.403618122701638,27.739937461421427,4.188822426308025
3.7402520818806764,13.718277845725597,-6.657430713538646,-2.4252090813922744,27.859896222553097,4.227348513815026
3.769976045303305,14.213378193376984,-7.270193437603996,-2.4471010412483842,27.97619807313506,4.266365852312172
3.8002772908446762,14.710725562966703,-7.88177293584444,-2.4693451594008744,28.089034651209463,4.30596564822999
3.831291918026293,15.21231598157219,-8.494524834287207,-2.4920364287150565,28.198758773993784,4.346316629633339
3.8630147458767987,15.717788083558306,-9.107887711493467,-2.5151655715880774,28.30517004737796,4.387401703308507
3.8955762446134616,16.228908779499946,-9.723867498227886,-2.538821666254836,28.40850076492447,4.42937833799377
3.9286973221770203,16.74104595256601,-10.336777965841977,-2.5627963988514835,28.507709330934443,4.471876497997488
3.9624764098271426,17.25554223171722,-10.94816308765713,-2.5871561352522776,28.602991931736103,4.515013846268901
3.996866026086999,17.771484602895026,-11.55687001008517,-2.6118615236182587,28.694110449727226,4.558720649901834
4.0314086301928045,18.28199484630592,-12.154815826765827,-2.6365808444980194,28.779881795835085,4.602410932738826
4.055971749323948,18.64043783021715,-12.572053438990276,-2.654100265196417,28.837486402558042,4.633351712394899
4.037439200167684,18.711838450092632,-12.654196781811587,-2.642277421638344,28.84907086344568,4.612901928721671
3.6761466184408556,18.73288778529486,-12.66812013758153,-2.406196578251212,28.85780443657584,4.202747296246401
3.114669049236942,18.76166222575771,-12.687137305438274,-2.039088059739505,28.869698807815425,3.565264173924286
2.540070160645899,18.786161723683378,-12.703324301524344,-1.6631659614227108,28.879866628955277,2.9128113357125556
1.9684228834224433,18.805580202964997,-12.71614517825808,-1.2889808938689913,28.88790301475233,2.2636490507629823
1.3937069007407752,18.820131547320145,-12.725752985680385,-0.912637010025795,28.893958557143744,1.6109557661341607
0.820177987982064,18.82968931495588,-12.73205927431812,-0.5369638899216176,28.8979126369714,0.9595770590316528
0.24893129249531787,18.834286304487406,-12.735094904345377,-0.16272290341844947,28.899837625591818,0.31077109832298605
-0.32360376472424307,18.833964778521214,-12.7348811993249,0.21238015578133443,28.899688003145897,-0.3395039287343408
-0.8979084912717045,18.82868632992864,-12.731400504016115,0.5886190689493046,28.897512285771356,-0.9917814741071007
-1.4727966161687869,18.818427292997228,-12.724628427195427,0.9651696170088029,28.893237602703778,-1.6446996156916445
-2.04426274588313,18.803292383598134,-12.714639798734558,1.3393688188911015,28.886973778729743,-2.293697176351799
-2.616461635252268,18.783197517990377,-12.701368518469497,1.71389005440209,28.878625858451592,-2.943477554786545
-3.191963161376474,18.757991985315805,-12.684718857852863,2.090375160873566,28.86820065694092,-3.59694714270101
-3.738102033144519,18.729426829017896,-12.665835485118551,2.4474219813594704,28.856361897698516,-4.217004157492514
-4.038589354470539,18.71177749424522,-12.654167205687582,2.643766353712032,28.84909012557562,-4.558129768094201
-4.063099887434346,18.71655112243074,-12.532766979223343,2.6565500463694063,28.72192634129589,-4.579250693493376
-4.071303242875046,18.736820240735856,-12.071115865601463,2.649781489164052,28.240145167607167,-4.563136084324245
-4.080650658215323,18.753816671223834,-11.543300333760019,2.6424749357153843,27.695485525329463,-4.5451532950032965
-4.090070147115002,18.764524895172155,-11.009558948102342,2.635533541350074,27.151183104912068,-4.527423018040893
-4.099557344261547,18.76895460483829,-10.47016241409016,2.6289539194134894,26.607499015611573,-4.5099446043707285
-4.1090775407622395,18.767144402560028,-9.927118401567084,2.6227513231668227,26.06640200264511,-4.492771059388799
-4.118593338727491,18.759225728766044,-9.382613245836191,2.6169373046864415,25.529946679344526,-4.475955268555572
-4.128065524109517,18.745424613781207,-8.838962030513422,2.6115191772224544,25.000221867686665,-4.459548560738829
-4.137525013355936,18.725890816588983,-8.294460522570876,2.606463056290746,24.475374284582276,-4.44347993647211
-4.146968002477442,18.700796654673244,-7.749388198434861,2.601757139004849,23.955511304484208,-4.427740635688732
-4.156020517837168,18.671615619717517,-7.225475668471298,2.597555392156706,23.4608859984299,-4.412922690283385
-4.160270612285948,18.65646514936351,-6.980077946233735,2.595699621391599,23.230686427574035,-4.406092438637518
-4.176439099880118,18.883030912273366,-7.240957258809972,2.6064313917466806,23.264246238678215,-4.425003128564637
-4.212134267700633,19.377607709091833,-7.807577836319756,2.6300721723140814,23.33461805130781,-4.466615505827019
-4.2509389977766885,19.90673303966227,-8.40942740773871,2.6556921218425287,23.405512301334696,-4.5116424968893
-4.290635716946378,20.439109375370585,-9.010420827944992,2.681815105026804,23.472244041319946,-4.557481572308209
-4.331183304241316,20.973891820539357,-9.609518609896913,2.70840911265635,23.534619798281284,-4.604074513939178
-4.360621034368684,21.356611258851185,-10.035421209291814,2.727660665334464,23.576386091405617,-4.6377587448322055
-4.344745236317449,21.41220210091822,-10.096502455207707,2.717871733750625,23.582610868437534,-4.621077054743839
-4.001993984056198,21.170915078651763,-9.819462510161571,2.5033201673082486,23.562218694749497,-4.253015277979565
-3.4803204168258097,20.797206761964194,-9.390103810099994,2.1767345090569523,23.52749258035402,-3.6931409644644932
-2.957044180441067,20.41432979916787,-8.949799278268198,1.8491453858792581,23.488112037225655,-3.1319804830590248
-2.4343952950724703,20.023676342223,-8.500045470055964,1.5219976274222298,23.444098237299155,-2.5719834343007495
-1.9185685495164548,19.629830974057608,-8.046024624343888,1.199216401295957,23.395934538492895,-2.0198354321261642
-1.4074942474052838,19.231266123602218,-7.585886060243588,0.87955149538795,23.343446127752483,-1.4733626721670718
-0.9014141280749304,18.828178449796066,-7.119763734359219,0.5631978108143293,23.286649437483057,-0.9328680710560519
-0.398575919071165,18.419143532463487,-6.645913371734316,0.24910289884283543,23.22531856794187,-0.3965272264971019
0.10206678335294872,18.00320697736205,-6.163122990926531,-0.06334282663150537,23.1592516408399,0.13672210841413882
0.5271156507320566,17.643082272893114,-5.74429668319594,-0.3283569269172293,23.09911780699874,0.5888152861349861
0.7256234844600924,17.47264858106917,-5.545806653527028,-0.45203840296477027,23.069747383172224,0.7997440829630964
1.1651202230373128,17.090108482616362,-5.099618379485101,-0.7256430734659359,23.0016732509819,1.26621873673004
1.6610071297450386,16.64969062120532,-4.58472612643754,-1.0339525012111526,22.919751622404263,1.7916440193707126
2.1518462325769034,16.204304332320945,-4.062663693692544,-1.3386573584371309,22.83314632185866,2.310705583837116
2.6319648092592254,15.75926986836137,-3.5395877848461463,-1.6362104884243829,22.74293892758785,2.817376624752877
3.1019600481504392,15.314362931488233,-3.0151824771118174,-1.9269678956544658,22.649189060279028,3.3122793739646044
3.5584320608789306,14.873227080312112,-2.4937148781682965,-2.2088304533583356,22.552835359735834,3.7918544150304294
3.8551620562174507,14.58156215166653,-2.1480850294965754,-2.391742982175715,22.487264767760678,4.1029725376416675
3.8816855678541375,14.511711382524394,-2.1582770088031755,-2.409561778041005,22.56615332589468,4.1346240447707965
3.85858848934928,14.306334914495483,-2.3976733294635877,-2.403074053976033,23.011481953625108,4.130410659365045
3.831286292395107,14.055098964323681,-2.679199522627528,-2.3956649138907955,23.54489642946716,4.125609936135976
3.804427705226683,13.798702382235062,-2.9544547563509265,-2.3886608704122465,24.077184904876425,4.121086393750483
3.7787130316290214,13.544347872777724,-3.2162498002785207,-2.3822299232189645,24.59393918661554,4.11694983896958
3.7658928620845433,13.414204999639939,-3.3460838838820046,-2.379127359836215,24.85421584235281,4.114961445440923
3.759376302744099,13.347186418890624,-3.4118953110491614,-2.377577323807959,24.98719772628288,4.11397011332342
3.742641516678721,13.172365740444281,-3.5803106113118415,-2.3736816343209775,25.3308222865712,4.111485490407277
3.717168785259178,12.898608618591018,-3.834938986033912,-2.3679920974388082,25.85979521913341,4.1078777289672255
3.6918361252552825,12.616933028790012,-4.085948583365536,-2.3626312685909876,26.393059681502823,4.104507201526598
3.666827694599357,12.329349789267134,-4.331396578641267,-2.357641296561624,26.92665784740243,4.101402693200936
3.6503944548024223,12.135086345842641,-4.491322523204364,-2.3545314872498606,27.281217050461205,4.099488365388995
3.6436720200281703,12.054384200230215,-4.556418136385777,-2.353298974442356,27.427165460705204,4.098734864051664
3.4776237373793375,12.057659818018251,-4.568709143855214,-2.2464360857587007,27.44279207020359,3.9138010629487994
2.9943502813812226,12.08315607630587,-4.587821570879894,-1.9345807012127985,27.453898531925628,3.3739682196252136
2.4506867370313112,12.107268681914464,-4.605889178892157,-1.5835568677584269,27.464414000203174,2.7665949133993917
1.9054483371753377,12.126601461715982,-4.6203660594323885,-1.2313410586229259,27.47282104388111,2.157387707840675
1.3643007710277346,12.140996999418727,-4.63114563943003,-0.8816344791902812,27.479109471299846,1.5526972565800712
0.8204363666753494,12.150660662569823,-4.638380835369686,-0.5300756240412879,27.483335429555236,0.9449307182095853
0.2778914275947094,12.15550624067954,-4.642009000008792,-0.1793115192773133,27.485459562756375,0.3386144427580468
-0.2673925355571126,12.155552649159096,-4.642041447439402,0.1732425508236542,27.485457735914686,-0.27077201500414794
-0.8100633555486797,12.150799631212498,-4.6384855746074996,0.524088806913791,27.48339265375331,-0.8772292784915416
-1.3531987729638844,12.141245227383369,-4.631335179208839,0.8751783796404765,27.479232829091977,-1.4841820314027956
-1.8969571833678713,12.12686779257228,-4.62056841554159,1.2265732031945653,27.472939473820407,-2.0917914032459874
-2.4385462476086457,12.107756092798699,-4.6062564446791825,1.5764342644142382,27.464616120225752,-2.696920771459937
-2.982364017271992,12.083745415642136,-4.588268274182006,1.9275627471459902,27.45416256666926,-3.304468584024013
-3.462218408823487,12.058538272028473,-4.569374561823682,2.237217417951195,27.443190664102605,-3.840484571024061
-3.6433380625613365,12.048404508511375,-4.56052638970798,2.3540170205008257,27.43726691942482,-4.04271990134863
-3.6504156778038532,12.11378591608009,-4.380890617307545,2.3533771285120753,27.19216827998463,-4.039284578556889
-3.665540580901603,12.248558576721702,-3.9958892355697175,2.352241753402762,26.6722173934391,-4.032138493910499
-3.6814139672074138,12.382910197434992,-3.5902769565868056,2.351379930347218,26.13206398918151,-4.024914130120922
-3.6973899577953175,12.51099105689664,-3.1805289023058196,2.350841061302444,25.594040475194127,-4.017914928087567
-3.713538918609579,12.63337463280115,-2.7648982493376724,2.3506190472595074,25.055825762880566,-4.011104389329975
-3.7299160788585355,12.750411594687792,-2.3420061083133423,2.3507131225544944,24.51568963533729,-4.004456534299045
-3.746376177248162,12.861057775111012,-1.915658458649043,2.351119857721511,23.978484135001988,-3.9980254772805996
-3.7630761226845695,12.96635913885019,-1.4818460521743093,2.351840846074742,23.43915208860466,-3.991745240119915
-3.7799907734752263,13.066070391134552,-1.041263531711411,2.352876355756481,22.898633780152096,-3.985623408405324
-3.7955726200173157,13.151910300917386,-0.6344126651935782,2.3540927141608043,22.405733221593575,-3.9801869898369397
-3.80201069335251,13.185730065621046,-0.4660518619438758,2.354666775655231,22.20346518247664,-3.9779955180931412
-3.807410512046452,13.26459469521259,-0.5322234825004124,2.357790626044114,22.19056641417093,-3.9831157731793603
-3.830970563670652,13.654350782439913,-1.0135099564926717,2.373897965346726,22.281070302476287,-4.012006819230862
-3.8613414957466015,14.149862711276906,-1.6220124762554973,2.3946146871957965,22.392730399496493,-4.049105309221631
-3.880450418836847,14.457737735446575,-1.9981811220685315,2.407622156889174,22.460182718009545,-4.07236480223161
-3.8859813050130354,14.548374952092036,-2.1146255769700626,2.411495138655983,22.485740155787663,-4.079378252329403
-3.870994371051,14.416578631998293,-2.270242051566717,2.407241499758708,22.77351448063229,-4.076617429260104
-3.8439405669629525,14.171744989162606,-2.5499959114742285,2.399775012206687,23.298750742577496,-4.071779913396625
-3.8168901088653118,13.917780695661417,-2.828085187278476,2.392591140173114,23.83144793574328,-4.067139134152785
-3.790155853811065,13.657478402581798,-3.1011539244473085,2.3857787495866223,24.365449993264683,-4.0627550260986744
-3.7694188299549474,13.448998350098607,-3.311642240715811,2.3806985135013123,24.784904289654257,-4.0594994144796575
-3.7614301533528347,13.36711666784282,-3.392401382725339,2.378790249979721,24.94773147294334,-4.058280203822319
-3.7527441484405193,13.277083145628884,-3.479993564397643,2.3767467932591155,25.12555926852839,-4.056977147244253
-3.7290637571724092,13.026221766030332,-3.717595732611045,2.371345175938744,25.61457091178886,-4.053547169145086
-3.703617173775992,12.747617963015575,-3.97083878036982,2.3658250334358004,26.147001993779604,-4.050068463862857
-3.678496620853597,12.463119506128406,-4.218550459771192,2.3606754721748686,26.67978395215075,-4.046854641707207
-3.6560628634991095,12.200799889713696,-4.43774343516498,2.3563713954119736,27.16179588158302,-4.04417626405276
-3.6465051886242317,12.086660604980809,-4.530479959024605,2.354600657877847,27.368886221811398,-4.043093612209361
-3.6444913228632068,12.06906830221444,-4.5881604237710345,2.3549059865121253,27.444177484422216,-4.044330004410546
-3.6619215089742156,12.374865621209114,-4.97509188280773,2.3678853241710534,27.52453087365615,-4.067562866856345
-3.689691824932648,12.856377535122435,-5.581374151952704,2.3885147762089387,27.648051280530208,-4.104451734548228
-3.718344503555423,13.34605279070948,-6.19417312326879,2.4097354935306847,27.7698775932846,-4.142351581283162
-3.747525523730735,13.837534153682483,-6.8053958033899296,2.4312801688470325,27.888289537987628,-4.180784085630551
-3.777525739585196,14.335448209530623,-7.420677944898203,2.4533585529832096,28.00428250559691,-4.220122772690077
-3.808063599388583,14.834853344740118,-8.033797230604284,2.475758325722692,28.11658815976952,-4.259988747994045
-3.8392847527496166,15.33792134539608,-8.64733660022236,2.4985816278201938,28.225610449871777,-4.3005635967713145
-3.8711684835986797,15.844071101150762,-9.260484210273487,2.521808095266197,28.331119057479246,-4.341810710256087
-3.9037250032154263,16.353228832247737,-9.873054574336429,2.545439913567706,28.433001249109566,-4.3837336489091685
-3.937048900681528,16.866610358845218,-10.4863998755768,2.5695400224935687,28.531388337830567,-4.426443605205207
-3.9710993840817395,17.383313643242587,-11.099327057008837,2.594072918033577,28.625990598062188,-4.469877153165622
-4.005581286967747,17.898709178781655,-11.706299042520028,2.618821262302768,28.71591403074956,-4.51364968151067
-4.039392279663488,18.396640684248695,-12.288509406079433,2.642995045618235,28.79856150465358,-4.5563665315205535
-4.058928339993609,18.681077888985484,-12.619233233681797,2.6569207891018,28.84390077867079,-4.580957256924499
-4.062531558816106,18.714963110519694,-12.56455808696551,2.6570143583488464,28.755269525993892,-4.580356602272297
-4.070295844046265,18.734606328449907,-12.127751516814243,2.6505774130652937,28.298951815649254,-4.565075860911133
-4.079542998326188,18.752138747255323,-11.60580715631436,2.6433018171969858,27.75962643238824,-4.5472418996535255
-4.085407783013061,18.7600209447676,-11.273838125798521,2.6389007153405943,27.41986802544401,-4.536129391919534
-4.089595509530342,18.76413709909043,-11.036361764841965,2.635856797864898,27.178340319520363,-4.528285833851977
-4.093097426781971,18.766623302604504,-10.837502356867963,2.63337334347873,26.97704798584115,-4.521783919702335
-4.096173548640244,18.7680957192938,-10.662619177334651,2.6312377461887713,26.800738512461162,-4.516114759970595
-4.097935468082524,18.76864141787624,-10.562366180634335,2.6300336610663955,26.69996595391231,-4.512885162709959
-4.101805276875095,18.769084859321342,-10.34196051465422,2.6274373874134027,26.479173544188317,-4.505836030287972
-4.110521909311061,18.766328809392718,-9.844444387639617,2.621828160956162,25.984537699805195,-4.490175707145486
-4.119930389738202,18.757627810373364,-9.305838158464018,2.616134465195897,25.454761360014903,-4.4735990930575875
-4.129336639230806,18.74312547207382,-8.765752358284098,2.6108035674670576,24.929301610211787,-4.4573510010487984
-4.138766649431547,18.722900723268925,-8.22274338900321,2.6058093870367585,24.406636494900937,-4.441373497870925
-4.1482067510035945,18.697106075790444,-7.677968684594037,2.601185930670741,23.8877684411904,-4.425712776849318
-4.157007835465764,18.6681458381027,-7.1684526531046,2.5971363281797477,23.407315408447136,-4.4113371576553995
-4.1607896368555535,18.663713460156156,-6.988433990523074,2.5960617740656895,23.231741506816814,-4.40670539380766
-4.180460416068896,18.93908201211043,-7.305367149781487,2.6091156572229677,23.272388718155177,-4.429705720502798
-4.21716971423467,19.446715457366288,-7.886436444610079,2.6334188241125775,23.344103660489473,-4.472475996005154
-4.256094323451626,19.976325034203057,-8.488245542501515,2.659106940756336,23.414465829954658,-4.517613520242743
-4.29582839714974,20.508048423882926,-9.087907333619302,2.6852432186271322,23.48051534983843,-4.563466640403293
-4.336130080230041,21.03847792084007,-9.681555641791174,2.7116648301085915,23.541804598514087,-4.609748621036451
-4.36251744274754,21.381061686385305,-10.062546598199157,2.728916639435297,23.578940966599752,-4.639930088695976
-4.314394131684104,21.406088705350783,-10.088859294440907,2.6989248698976436,23.582462443962275,-4.588567313105259
-3.9082937148166237,21.239207720665327,-9.892797096649076,2.444958253649108,23.571173847524385,-4.153127978692208
-3.336923606174189,20.999189948898323,-9.612110146992725,2.087543308046745,23.552691947191487,-3.540739668290837
-2.766220683448683,20.753259283941496,-9.325957295647713,1.7304791279239913,23.53113278901728,-2.9293981723011226
-2.193404311339598,20.50007863363566,-9.032747398855657,1.3720722822440825,23.506320836240725,-2.316156874208807
-1.6188818970918184,20.239641881110426,-8.732440188686544,1.0126258227730174,23.478149797620002,-1.7014916039895092
-1.0552008901885788,19.97767084940262,-8.431564907398577,0.6600343721317815,23.447314092492554,-1.0988430200066832
-0.496044072099046,19.711365110896043,-8.126808852678712,0.31038952276369897,23.413506482007133,-0.5014767656086524
0.06115139482530713,19.439488206487624,-7.816690769501126,-0.03786815740199327,23.376565086981437,0.09331860357444738
0.6149006422481188,19.16272638474945,-7.501926281740405,-0.38376553015787374,23.336539676890858,0.6839247431512049
1.1675602780402505,18.8798487335764,-7.181059137539898,-0.7287370057509568,23.29329818678984,1.2728346438192877
1.7177483807392613,18.591486044212026,-6.854739169425367,-1.0718754007915616,23.246880806380815,1.858538635685234
2.2634418568546333,18.298682550046003,-6.524077644576635,-1.411880097635281,23.197452714150103,2.4388553947415437
2.807060986860762,18.00011405136168,-6.187508403131354,-1.7502207647121946,23.14478325261118,3.0163297956310746
3.3520428283301276,17.69375311060674,-5.842682721504939,-2.0889926963780385,23.088471413417302,3.5945727950054924
3.855362489643753,17.40440790525789,-5.517410764083986,-2.4014563062245737,23.03327173308358,4.127968910234151
4.0643566183324005,17.28090760316908,-5.381915517604894,-2.5311309010485132,23.012469637022914,4.349404448578008
4.049265557950317,17.15576591034077,-5.526613711568401,-2.5268338858358392,23.282698577496237,4.346303510663162
4.020198299295686,16.907847142475816,-5.804414278695558,-2.518782138597103,23.809162667454633,4.340494242347472
3.9910099710729683,16.649515252203077,-6.082037030418905,-2.5110047789635677,24.345858955678093,4.334886527982705
3.9625747176759223,16.388491673872938,-6.35104867090191,-2.5037369446928412,24.876610575394462,4.329652117863746
3.946353504239719,16.235328274637972,-6.503805012548946,-2.4997322585936557,25.18293624494456,4.326771532988525
3.9389175573054946,16.164060704495544,-6.573647344680371,-2.4979316532441724,25.32423155183044,4.3254774355372625
3.9238292190236925,16.01737943474714,-6.714995426596336,-2.4943472453321185,25.612635789600546,4.32290369879156
3.896515541225471,15.744644988727329,-6.969534068391725,-2.488100260989281,26.140582957978335,4.318427532385366
3.869110651298204,15.461408675358989,-7.223046752230244,-2.482156126835126,26.67800227820554,4.314183134490244
3.8420198208102008,15.171661518762392,-7.471631292363371,-2.4766119117225567,27.21699056973351,4.310242238395265
3.81670118105112,14.891815158924262,-7.701973454396081,-2.4717407025300075,27.727787179963972,4.306799266873439
3.8048151283899703,14.757343043470149,-7.8094036856995155,-2.469560699496878,27.96997311441051,4.305266072612455
3.789824251522055,14.69358200324874,-7.8604704112443855,-2.462476927455527,28.08533544563434,4.294019598396467
3.4903807383268917,14.710818210343517,-7.8727830520992805,-2.2681836240252755,28.092709424404102,3.9570687520525047
2.955151469569918,14.73807330077949,-7.892237692810553,-1.9207173622632745,28.104321324341694,3.3547264441667903
2.398898175398244,14.76158421904762,-7.909015386593876,-1.5593918702949976,28.114376164932303,2.7286467013974884
1.8419765635428318,14.780217061991165,-7.922307137650137,-1.1974557427556598,28.122352898392823,2.1017486463780117
1.2873968772024469,14.793900763021062,-7.932062159708712,-0.8369065049068715,28.128185920856023,1.477434961528034
0.7319960072017648,14.802741609158018,-7.938366524809586,-0.4757295954814349,28.131980701910436,0.852163004633316
0.1767091416736676,14.806718973263964,-7.941203449146101,-0.1145730241177233,28.133695025922787,0.2269992156085614
-0.37807919388771327,14.805838381875883,-7.940573905338348,0.2462715383799813,28.13329936387397,-0.39760889357621454
-0.9354828755249097,14.800069066130765,-7.936463234377335,0.6087901476869877,28.13084249362139,-1.025150408795116
-1.49042399033568,14.789457157128078,-7.928895618515746,0.9696372678716815,28.1262825676295,-1.6498941937899476
-2.046771693785559,14.77393873431319,-7.917831168097401,1.3312913808766504,28.119658836804252,-2.276180386951996
-2.60058782234622,14.753631040165212,-7.903346564733294,1.691151002911256,28.110992275807018,-2.899561118338943
-3.158808427410027,14.728244405774104,-7.885227304586253,2.0536785024162363,28.10013175359442,-3.5278275277618616
-3.6372807919833434,14.702547403191609,-7.866880778639744,2.3642326063481,28.08917360099673,-4.066270230027371
-3.799419432987944,14.693179985778835,-7.855315988398783,2.469313771913818,28.080202287073647,-4.248474465166663
-3.8036309001765267,14.70157682657421,-7.582067879995834,2.4656088509114173,27.798638397251853,-4.239477163264127
-3.811593754849975,14.712904353042678,-7.063829885377818,2.4588832713268447,27.26922234546729,-4.222718697655045
-3.819744800163705,14.718449034160239,-6.531235486948087,2.452366224350838,26.731231328653575,-4.205894899057573
-3.82796904619866,14.717972933242196,-5.991753081138092,2.446154301052444,26.19236958918781,-4.189244587054227
-3.8361512758752827,14.71157922955123,-5.452983836395335,2.4403240381166427,25.660133291741744,-4.172988908820806
-3.8442745649050254,14.699515860320647,-4.9161321439645205,2.4348693210814436,25.13547890160699,-4.157142668633576
-3.852496250189685,14.6816319943045,-4.370836779936408,2.429675625597834,24.60819879753282,-4.141388361264922
-3.8606687323686564,14.658317894225677,-3.826918475342173,2.4248284716501987,24.087721250257367,-4.125999291232142
-3.8688778540944204,14.629460172898167,-3.278715821043944,2.4202659758607585,23.568499769629106,-4.11080152290968
-3.8771018347814477,14.595199948350238,-2.7277116163103594,2.4159933743961384,23.051875858798688,-4.095826636951256
-3.884308790956218,14.560863073629438,-2.2433936256139715,2.412487152680531,22.601997136522208,-4.082901192928618
-3.887550305943533,14.571390279038036,-2.136674410744648,2.412446067846444,22.484721331990656,-4.080982972560411
-3.9074307916093765,14.887460135034587,-2.5207697148600294,2.425948345856488,22.551866848782602,-4.10509093111975
-3.939144996732109,15.385289106305464,-3.1225894676389703,2.4474407263595563,22.654446730487386,-4.1434107120163635
-3.972182412843976,15.89577953786877,-3.7356949853302974,2.4697683991630717,22.755582666496238,-4.183151259395661
-4.00597043262217,16.409578133964704,-4.3486457621789585,2.492538615401134,22.85321221528825,-4.223609976459794
-4.039916891534227,16.917610829924715,-4.950629910992449,2.51534984379962,22.945623869349557,-4.2640735115324215
-4.061205423290981,17.232143015142903,-5.321284803577997,2.5296217016796327,23.000775822671535,-4.289355881282006
-4.064620946419302,17.282320422873752,-5.380270816125619,2.5319090750090227,23.009428314406886,-4.293405565323049
-4.064620946419302,17.282320422873752,-5.380270816125619,2.5319090750090227,23.009428314406886,-4.293405565323049
-4.064620946419302,17.282320422873752,-5.380270816125619,2.5319090750090227,23.009428314406886,-4.293405565323049
-4.064620946419302,17.282320422873752,-5.380270816125619,2.5319090750090227,23.009428314406886,-4.293405565323049
-4.064620946419302,17.282320422873752,-5.380270816125619,2.5319090750090227,23.009428314406886,-4.293405565323049
-4.064620946419302,17.282320422873752,-5.380270816125619,2.5319090750090227,23.009428314406886,-4.293405565323049
-4.064615237687305,17.28230961249805,-5.380243266536891,2.531905516300627,23.00936256962933,-4.293399546567765
-3.977480282643005,17.117305965207933,-4.959741449865183,2.477587342617203,22.005870333348327,-4.201532566059464
-3.890376453324605,16.952361259341448,-4.5393898418471625,2.4232885720835773,21.00273655739216,-4.109698401617379
-3.8035261458188643,16.787896636625693,-4.120261696706188,2.369147841935072,20.00252247274247,-4.01813152696055
-3.6912437465335017,16.575272375797756,-3.5784016262471128,2.299153258671982,18.709418965698944,-3.8997514235757547
-3.541946846216659,16.292555375842188,-2.8579144489166195,2.2060845819545354,16.990036884275924,-3.7423466779787184
-3.3926458054083484,16.009830535219308,-2.137407290119646,2.1130133241382127,15.270607118762875,-3.5849375670331405
-3.2433601505724297,15.72713483033834,-1.4169743819989766,2.019951657626782,13.551354546246994,-3.427544677623743
-3.0943616387368413,15.444982875578372,-0.6979271881788666,1.9270689902708114,11.835408864420247,-3.270454525048272
-2.9451489438246288,15.162425331708807,0.022153624959402853,1.8340528055044025,10.116996536981231,-3.113138557786658
-2.795178080783822,14.878432078066815,0.7458932576294515,1.740563994016957,8.38985274430586,-2.9550232486689967
-2.646449586387812,14.596791443503657,1.4636373828496145,1.6478496500872524,6.6770167261512885,-2.798217777331338
-2.496608447238083,14.31304384231145,2.1867509851069955,1.5544417058573032,4.951366902428917,-2.6402392370014396
-2.3477312232071985,14.031121564954054,2.9052128599561815,1.4616346468727173,3.2368180351218294,-2.483276958990028
-2.198589874084489,13.748699125480664,3.6249493677111215,1.368662937632621,1.5192273635363285,-2.3260362120834395
-2.0488777982825677,13.465195925896388,4.347440127250659,1.2753354488908146,-0.20493609839877022,-2.168193744126005
-1.9001220443680096,13.183503671177098,5.065315803317043,1.1826041119270014,-1.9180860515891176,-2.011359532891045
-1.7508860972517228,12.900902095627277,5.785508828529674,1.089573432205511,-3.636766163710563,-1.8540190506712562
-1.6014013638679954,12.617829404421258,6.506902463501827,0.9963876641422863,-5.358311430094646,-1.6964162713840034
-1.452055012613332,12.335018761391012,7.227628284545153,0.9032881607075036,-7.078263014676912,-1.5389593893241833
-1.3031364418810159,12.05301818759637,7.946289693129755,0.8104553270231032,-8.793288052469899,-1.3819535192019756
-1.1537920501258574,11.770211255184497,8.667006057886553,0.7173570451007935,-10.513217070419307,-1.224498703055918
-1.004700838761116,11.487883759387012,9.386500607425083,0.624416590727863,-12.23023032906141,-1.0673108167313043
-0.8550291242164004,11.204456990147422,10.108796588853249,0.5311142623798144,-13.953928969407608,-0.9095109019240621
-0.7058699349149974,10.922000767509155,10.828619190960872,0.43813143193211157,-15.67172509792832,-0.7522513459947632
-0.5563133479630624,10.638792010348677,11.550359581789502,0.3449008718035708,-17.394097868014086,-0.5945728109979148
-0.4070807644127642,10.356196804236422,12.270536374875679,0.25187228886128316,-19.112739243530292,-0.43723587500880856
-0.2797490506483294,10.115074315837239,12.885022454895397,0.17249626645846852,-20.57915861713301,-0.3029891761892728
-0.19299174560520704,9.95078580781083,13.30370178240095,0.11841351216953523,-21.578301636225333,-0.21152035466641528
-0.10585250272946214,9.785774040842142,13.724224291582464,0.06409266553846305,-22.581843253441487,-0.1196488534680236
-0.018972403400822985,9.621253002656438,14.143496208136932,0.009933363768388086,-23.58240043648343,-0.028050569088056962
0.00243185295257866,9.580720700045525,14.246790330186302,-0.003409617972722741,-23.828903175402463,-0.005483914865157137
0.00243185295257866,9.580720700045525,14.246790330186302,-0.003409617972722741,-23.828903175402463,-0.005483914865157137
0.00243185295257866,9.580720700045525,14.246790330186302,-0.003409617972722741,-23.828903175402463,-0.005483914865157137
0.00243185295257866,9.580720700045525,14.246790330186302,-0.003409617972722741,-23.828903175402463,-0.005483914865157137
0.00243185295257866,9.580720700045525,14.246790330186302,-0.003409617972722741,-23.828903175402463,-0.005483914865157137
0.00243185295257866,9.580720700045525,14.246790330186302,-0.003409617972722741,-23.828903175402463,-0.005483914865157137
0.00243185295257866,9.580720700045525,14.246790330186302,-0.003409617972722741,-23.828903175402463,-0.005483914865157137
0.00243185295257866,9.580720700045525,14.246790330186302,-0.003409617972722741,-23.828903175402463,-0.005483914865157137
0.00243185295257866,9.580720700045525,14.246790330186302,-0.003409617972722741,-23.828903175402463,-0.005483914865157137
0.00243185295257866,9.580720700045525,14.246790330186302,-0.003409617972722741,-23.828903175402463,-0.005483914865157137
0.00243185295257866,9.580720700045525,14.246790330186302,-0.003409617972722741,-23.828903175402463,-0.005483914865157137
0.00243185295257866,9.580720700045525,14.246790330186302,-0.003409617972722741,-23.828903175402463,-0.005483914865157137
0.00243185295257866,9.580720700045525,14.246790330186302,-0.003409617972722741,-23.828903175402463,-0.005483914865157137
