RAMEL-ESPOL/ARCHIE/matlab/data/joint_goals_square_t35_h35_p12.txt
Joint0,Joint1,Joint2,Joint3,Joint4,Joint5 
-0.0033872897629038394,9.571953523236084,14.249023139076318,-0.0022974777628891256,-23.82630948232056,-0.0051318380714779855
-0.0033872897629038394,9.571953523236084,14.249023139076318,-0.0022974777628891256,-23.82630948232056,-0.0051318380714779855
-0.0033872897629038394,9.571953523236084,14.249023139076318,-0.0022974777628891256,-23.82630948232056,-0.0051318380714779855
-0.0033872897629038394,9.571953523236084,14.249023139076318,-0.0022974777628891256,-23.82630948232056,-0.0051318380714779855
-0.0033872897629038394,9.571953523236084,14.249023139076318,-0.0022974777628891256,-23.82630948232056,-0.0051318380714779855
-0.0033872897629038394,9.571953523236084,14.249023139076318,-0.0022974777628891256,-23.82630948232056,-0.0051318380714779855
-0.0033872897629038394,9.571953523236084,14.249023139076318,-0.0022974777628891256,-23.82630948232056,-0.0051318380714779855
-0.0033872897629038394,9.571953523236084,14.249023139076318,-0.0022974777628891256,-23.82630948232056,-0.0051318380714779855
-0.0033872897629038394,9.571953523236084,14.249023139076318,-0.0022974777628891256,-23.82630948232056,-0.0051318380714779855
-0.0033872897629038394,9.571953523236084,14.249023139076318,-0.0022974777628891256,-23.82630948232056,-0.0051318380714779855
-0.0033872897629038394,9.571953523236084,14.249023139076318,-0.0022974777628891256,-23.82630948232056,-0.0051318380714779855
-0.0033872897629038394,9.571953523236084,14.249023139076318,-0.0022974777628891256,-23.82630948232056,-0.0051318380714779855
-0.0033872897629038394,9.571953523236084,14.249023139076318,-0.0022974777628891256,-23.82630948232056,-0.0051318380714779855
-0.0033872897629038394,9.571953523236084,14.249023139076318,-0.0022974777628891256,-23.82630948232056,-0.0051318380714779855
-0.0033872897629038394,9.571953523236084,14.249023139076318,-0.0022974777628891256,-23.82630948232056,-0.0051318380714779855
-0.0033872897629038394,9.571953523236084,14.249023139076318,-0.0022974777628891256,-23.82630948232056,-0.0051318380714779855
-0.0033872897629038394,9.571953523236084,14.249023139076318,-0.0022974777628891256,-23.82630948232056,-0.0051318380714779855
-0.0033872897629038394,9.571953523236084,14.249023139076318,-0.0022974777628891256,-23.82630948232056,-0.0051318380714779855
-0.0033872897629038394,9.571953523236084,14.249023139076318,-0.0022974777628891256,-23.82630948232056,-0.0051318380714779855
-0.0033872897629038394,9.571953523236084,14.249023139076318,-0.0022974777628891256,-23.82630948232056,-0.0051318380714779855
-0.0033872897629038394,9.571953523236084,14.249023139076318,-0.0022974777628891256,-23.82630948232056,-0.0051318380714779855
-0.0033844746814443117,9.571959447052649,14.249009047576916,-0.002297465453771774,-23.826273792830463,-0.005128995202439464
0.014944062700647368,9.610444521571239,14.157369902425442,-0.002280207086883526,-23.59407042241125,0.013354908406209006
0.05604202927944776,9.696131667018934,13.952669660082845,-0.0026957160268740294,-23.074588183048757,0.054620035670698404
0.09933623406930112,9.785498262370416,13.738180840691635,-0.0038031987069302034,-22.529075937362045,0.0978317331717419
0.14266915596525165,9.87403177186463,13.524659390916602,-0.005588311479146777,-21.984800957713635,0.14083173603826843
0.18593952883643328,9.961536864903447,13.312581248168655,-0.00803538921010691,-21.442982046667133,0.18353479791031269
0.22963547740521603,10.048999868834708,13.099546652797155,-0.011169895930532976,-20.89747726561448,0.22643448570896066
0.2732590836402724,10.135423392562224,12.887975831420597,-0.014954150873384373,-20.354473151096858,0.2690536585444233
0.3172017564426244,10.221585112873848,12.675959460240824,-0.01941814377649481,-19.809062797992034,0.31178710048914393
0.3611360338185941,10.306842947326658,12.465069361808693,-0.024526507714618354,-19.265280136526208,0.35432808272663735
0.4051298519891827,10.391336294602658,12.254962144090847,-0.030279750443710323,-18.722241180264465,0.3967555466731344
0.4494080201983068,10.475495425017124,12.044557960566674,-0.03670665465844116,-18.177143446358997,0.43929756437124295
0.493787507106561,10.558969470308696,11.834722189927355,-0.04378130964533394,-17.632215217223987,0.48178924009298285
0.538299602908252,10.641818633064453,11.625297367127763,-0.05150642918348552,-17.087040394337983,0.5242722032905193
0.5826313798844104,10.723469754866288,11.417737012422695,-0.05981993105992715,-16.54540782974463,0.5664604722023917
0.6274292335650018,10.805112668270382,11.209007795507324,-0.06884264221271935,-15.999391945531752,0.608980368973342
0.6721555207188478,10.885763461596811,11.001611872764608,-0.07846849376956154,-15.455523016115485,0.6513322551273226
0.7170234845223101,10.965811742497209,10.794546912548068,-0.08873922553108278,-14.911171761837071,0.6937297921778177
0.7618218687567314,11.0448853475651,10.588774902404579,-0.09960277598133849,-14.368866045002363,0.7359848604278203
0.8068573074358139,11.123527320468396,10.382877856594202,-0.1111320926022103,-13.824863176939617,0.7783978525085953
0.8521097846676424,11.20169618872375,10.176947225919756,-0.12332679049593209,-13.279385765183488,0.8209604495769883
0.8972305108691103,11.278793154317974,9.972558736170003,-0.13609049539576337,-12.736605365446996,0.8633557707288104
0.9427447440311318,11.355714254772794,9.767327338944545,-0.14957329988416304,-12.190177437462095,0.9060882818050315
0.9881512995926962,11.431610159532756,9.563508243315619,-0.1636290424487302,-11.646094424500216,0.9486982842343521
1.0336906224300497,11.506887513344788,9.360009714197952,-0.17832959555388334,-11.101441898411666,0.9914224665387862
1.079352604023252,11.58152776817441,9.156871758836898,-0.19367405871263643,-10.556315774611603,1.0342622534599848
1.125371552733236,11.655905742809399,8.953053661507086,-0.20974831323151097,-10.007901136772801,1.0774485344730815
1.1714695561210824,11.729565161444063,8.749786739977612,-0.22646186231558613,-9.459490766434307,1.120731715304137
1.2181471546045732,11.803292380658583,8.544870929231946,-0.24400760058846707,-8.905117242184495,1.1645934980042945
1.264046972719908,11.874953402377816,8.34424755626734,-0.2618699259875188,-8.360863947213405,1.2077690870381692
1.3106648665802878,11.946889631422946,8.141365010730992,-0.2806286857618412,-7.8089605233694375,1.2516765026724612
1.3572311914482484,12.01789935844421,7.939580401062639,-0.2999867329203071,-7.25850619775732,1.295603082138189
1.403701601803269,12.087922979834248,7.739070665411119,-0.31992225083790377,-6.709990648826925,1.3395176290589654
1.4501930073198508,12.157142446479492,7.5393185863524055,-0.3404838222046258,-6.162002130145703,1.3835413285488791
1.4969870686116753,12.225971977841297,7.339112357458678,-0.3618027199454523,-5.61119924013317,1.4279528077757788
1.5437464434406187,12.293911550303694,7.139892334337927,-0.38373121765723683,-5.0615301014413,1.472443776286207
1.5906570579223447,12.361231389932689,6.9408595204003785,-0.4063597987935232,-4.51078302867432,1.5172026375500238
1.6375613023527564,12.427704574332866,6.742676655703653,-0.42961655638420015,-3.9607832549624304,1.5620906669799692
1.6844102652339314,12.493266317556017,6.545539335171546,-0.45347758814949424,-3.41207520318949,1.607071877126336
1.7314450324484154,12.558253266487341,6.34842722215231,-0.4780702391980197,-2.861810409701729,1.652389526309935
1.7782475026425157,12.622091499276541,6.153082385522544,-0.5031772147442857,-2.314852543514196,1.697651686068929
1.8253652744576228,12.685528191420765,5.957212554518264,-0.5290965120376014,-1.7647769709834338,1.7433996571296095
1.8725041552576818,12.748160583724767,5.762040636698607,-0.5556761340971441,-1.2149979923819303,1.7893611363900257
1.9197913077320898,12.810155250431862,5.567035993065925,-0.5829945759068347,-0.6640093135983532,1.835672709637011
1.9668869513393807,12.87106985661665,5.373590611336696,-0.6108582249208072,-0.11574370930273782,1.882012895737441
2.0141229147758333,12.93133673145321,5.180332359252714,-0.6394663061709372,0.4336879025405982,1.9287195578940544
2.061517929274635,12.99097354631917,4.987184122497228,-0.6688407861809895,0.9845240523399269,1.9758252833444296
2.108741191991133,13.049565952600116,4.795486158799692,-0.6987809881979465,1.53294494491734,2.0230131459306024
2.15614059942231,13.107546819801076,4.603819029637883,-0.7295126440685894,2.083015189071269,2.070642984566178
2.2034624704336547,13.164604495283594,4.413203725804576,-0.7608787632852597,2.63181366618643,2.1184729873174097
2.251086252523932,13.221191711899257,4.222110055368328,-0.7931415219675139,3.183762269729142,2.1669012237294063
2.298377260875036,13.276556081326182,4.0330772830839505,-0.8258764113843691,3.731529008331099,2.2152946424977107
2.3458912143892796,13.3313519320593,3.8438749312969605,-0.8594721699500237,4.281575197109879,2.2642337199561933
2.3934613786510446,13.385380354801955,3.655166880029866,-0.8938240658682731,4.831991091831158,2.3135626310224775
2.440938264933736,13.438473103316058,3.4675390628740144,-0.9288306182341586,5.381070173129693,2.363139270541082
2.4883579226498327,13.490674895896234,3.28083957328155,-0.9645226258849346,5.929253070933123,2.4130131013906677
2.5360117538785065,13.542302182725898,3.0939191454034236,-1.001131646297982,6.4799295331551505,2.4635064121824066
2.583579072506059,13.593003878431912,2.908033152948276,-1.038423288447491,7.029414941033254,2.5142951810232432
2.631174813525952,13.642904026999808,2.722725629532537,-1.076495311183637,7.579059261217921,2.5655157684437513
2.67885512214589,13.69205853209357,2.5377749450535534,-1.1154047077953706,8.129532037524145,2.6172446431303653
2.726380297274451,13.740221956225307,2.354104111105448,-1.1549639997265118,8.678087671887614,2.6692356981357883
2.773995493723715,13.787644175318494,2.1707591585463484,-1.1953859423507103,9.22757735541043,2.721771431866438
2.8217078145529744,13.834326877447568,1.987711780869205,-1.2366920853455472,9.77810356217671,2.7748779375909947
2.8693258740216545,13.880082236872074,1.8056914345132091,-1.2787280583131995,10.327478892784972,2.828358127068201
2.916928815491532,13.924988578339748,1.6243885982663306,-1.3215726417967155,10.876637320236364,2.8823154574144683
2.964528795776171,13.969057054127937,1.4437521040194996,-1.3652485908253749,11.425739565670245,2.936780052755981
3.012139375419614,14.012299138225233,1.2637262787028118,-1.4097813317517744,11.974962331408992,2.991784565382583
3.0599415364194704,14.054872941264714,1.0836266284810403,-1.4553589026473364,12.526413614015182,3.0475589677892057
3.107547673923138,14.096432271606515,0.9049092932354238,-1.501625531031632,13.075641946400909,3.103668856427264
3.1550374760322026,14.137053710085427,0.7272648703842627,-1.548664491508173,13.623586003039387,3.160220897697531
3.2027227679222476,14.17700068674188,0.5495245956641093,-1.5968017936281393,14.173863413126508,3.217606609215349
3.250404125635553,14.216099541370097,0.3724319887185906,-1.6458573826779201,14.724192849695537,3.275609061553613
3.298008770514968,14.25429132204162,0.1962520903185534,-1.6957702241673793,15.273753366422083,3.334157925911035
3.345618997610771,14.291642301138397,0.020675491420350623,-1.7466414560324273,15.823513879355009,3.393373382079077
3.393209358372925,14.328131153417656,-0.15420755013355017,-1.7984610626428166,16.373199441420304,3.453244432360749
3.440719837405714,14.363712769472784,-0.328181678755554,-1.851178794810028,16.92213511667415,3.5137148497061856
3.4884317950099737,14.398592622533476,-0.5022778608710453,-1.9051297707642127,17.47359115378939,3.5751677183864117
3.5358181342115076,14.432386776319339,-0.6745781756018912,-1.9597335559375038,18.02149300206734,3.6369439108733976
3.5834110861808575,14.46547579246643,-0.847022922148808,-2.0156201753610663,18.572012139270186,3.6997580050519407
3.630867095700874,14.49761683751221,-1.0183687366191865,-2.0724095737371835,19.121193200346998,3.763182239587903
3.6783943714480873,14.52895029953827,-1.1893711690618092,-2.1303708911635897,19.671463230614712,3.8275181970154923
3.725717951379669,14.559296176612758,-1.359045945245352,-2.189186928466213,20.21965537816948,3.8924156461444253
3.773256710013947,14.588920227860593,-1.5288970312430252,-2.249402528562699,20.770639711898344,3.958475776559794
3.820622024623874,14.617576589708195,-1.697537394663227,-2.3105515338786073,21.31992994545385,4.025186847052643
3.8659901377457575,14.644217665534024,-1.8585157226159785,-2.3702249380533167,21.84637082348675,4.089945658580433
3.8885713629936594,14.657182699455275,-1.9384395313789813,-2.40033598100457,22.108516620814576,4.122500220719538
3.898949951371218,14.663075697071264,-1.9751288334701878,-2.4142677680187745,22.229028962999546,4.137535642452135
3.8863996148680204,14.55285486628163,-2.109265519385361,-2.4109041184043227,22.475870576643054,4.135492547475607
3.8597466808871217,14.316802922702568,-2.3856738090364797,-2.4033887358575083,22.98897274768588,4.13061070807658
3.8323517306365904,14.065093025751665,-2.668225245568591,-2.3959427494158825,23.523888837489267,4.125785589063781
3.8054461301547398,13.80860911976668,-2.94403235308345,-2.388915274696269,24.056817820253233,4.121246304746272
3.7789599562550062,13.546845560405018,-3.2137279445094573,-2.382284481640836,24.58889996067989,4.116980775219253
3.75273976445705,13.27834017182133,-3.478772230867074,-2.376011811212967,25.123061342293173,4.112966346254135
3.726833335394004,13.00358846453822,-3.7385710123650586,-2.3701101894153833,25.658211198401812,4.109213514207424
3.701382121807887,12.724208888661183,-3.9916206209485545,-2.364609963632513,26.191224252487775,4.105743461629055
3.6766229913028856,12.443145450683117,-4.23553833936769,-2.3595534083496035,26.716768574507594,4.102583923401592
3.6617503623413916,12.269791373204619,-4.380916811558461,-2.3566601046200173,27.0358370806433,4.100792732753436
3.655279942840131,12.193293156520658,-4.44388450784361,-2.3554359240146483,27.175448599282223,4.10003919174057
3.661567612330656,12.30758891025111,-4.60638239535888,-2.360499571556994,27.223353533577026,4.109268161892707
3.685699798578563,12.727068288124737,-5.134927496194127,-2.378357932260602,27.33133706182606,4.141227840760414
3.7141985778122812,13.215773481530633,-5.7471975738582195,-2.399389052613519,27.45361677633538,4.178821239885214
3.743272046490297,13.707100877492344,-6.35893594185684,-2.420778577702902,27.57270870713776,4.217008175702606
3.773258362112706,14.20643745443255,-6.976703377021706,-2.4427699038880997,27.68977072716086,4.25622213166157
3.8034548729841378,14.70189709106049,-7.585724591462949,-2.464843539601068,27.801945308215966,4.295536648676577
3.8346085682423308,15.205544644059154,-8.200757427426439,-2.4875411375191683,27.911890664490308,4.335916307460093
3.8662243265313023,15.70909789091574,-8.81156905497703,-2.510496591611637,28.01767849699349,4.376709133361788
3.8987001570233466,16.21866290440291,-9.425472715630901,-2.5339937920197455,28.120496920130748,4.41841924956626
3.931793167970346,16.730149073574566,-10.037421820017208,-2.5578512639732702,28.219400708636016,4.460723891502608
3.9657318441181566,17.24682248049059,-10.651214484921576,-2.5822279657697824,28.314910512355397,4.503904402939797
4.000373171544529,17.766219675788005,-11.263803982172304,-2.60701501547051,28.40644916681332,4.5477672752588045
4.035030765737111,18.278052695712084,-11.863099335434129,-2.631718490588583,28.49224614184085,4.591439423514419
4.065007728604228,18.71464933455732,-12.370858313288316,-2.6530090398370683,28.56195925888277,4.629045024309104
4.074761429690911,18.85551080098241,-12.534000935237867,-2.659921118501672,28.583767127647196,4.6412474786145275
3.8313522689872004,18.87368836060408,-12.547822468277246,-2.5013037760270636,28.590328075042628,4.365788617022508
3.2958343821092817,18.902361551877778,-12.566710555634975,-2.1521202484607667,28.602150341686546,3.7596357453436675
2.7216991344785573,18.92829354043414,-12.583786947699688,-1.7775171289186158,28.612880677591725,3.1097002215890135
2.145556751475884,18.949324714501675,-12.597626611045984,-1.4013964146196534,28.621565197864204,2.4574290639561984
1.5720712508856196,18.96530550411786,-12.608142516887101,-1.0268479619569164,28.628197663642347,1.808117306440507
0.9983044583438776,18.976354662159203,-12.61540828923829,-0.6519967273152444,28.632759921658973,1.1584505938367329
0.4210887224629866,18.982491751132393,-12.619446485661571,-0.274815722468632,28.63532013735708,0.504855862517569
-0.1530224740862595,18.983644481152716,-12.620203010261884,0.10036798737729778,28.63578262010597,-0.14523324388606024
-0.7286959020906617,18.979844072532952,-12.617706344975463,0.47656201324956304,28.63422413464925,-0.7970879799938496
-1.3010619442636824,18.97114269297295,-12.611985785606397,0.8505398700339262,28.630631730743605,-1.4451811130462306
-1.8784716793324068,18.9573856266868,-12.602935454628167,1.2277123014160924,28.624923337018416,-2.098954601565877
-2.452272157001616,18.93875551699437,-12.590679156625882,1.6023865901348873,28.61723043183933,-2.748599119059918
-3.0272409108767384,18.915117935554324,-12.575117557085754,1.9776347855780039,28.60744168232706,-3.3995088294576936
-3.5969556792023756,18.88678003154521,-12.556456087809764,2.3492303113123696,28.595753620419377,-4.044403316572526
-4.003367539992265,18.86356571706907,-12.541159524921397,2.6141494579212137,28.58617783681874,-4.504396191473755
-4.075864337576241,18.860981869541817,-12.499541915041178,2.660363263682584,28.54384756971085,-4.584302397973043
-4.082794217431948,18.87681053183065,-12.111045472015215,2.6547515121005616,28.13963795102341,-4.570816276216689
-4.092151085747029,18.892597361384972,-11.584873190536527,2.64754573748963,27.59782915796297,-4.552953636114183
-4.101630267797841,18.902191427751088,-11.04998887921884,2.6406658179230273,27.053496770300296,-4.535247146052071
-4.11119303263513,18.905502794573515,-10.508582847919419,2.6341375988911695,26.50892053783815,-4.517764291470633
-4.120755066495129,18.902576226619274,-9.965468376262542,2.628008643619627,25.968867946653763,-4.500647184188754
-4.130351448858545,18.89352108933468,-9.418704864652053,2.622243960431367,25.431289780508507,-4.483818710034395
-4.1398455131606315,18.87867848437072,-8.876155042834286,2.616907891168455,24.903706138850747,-4.467499565348242
-4.149327591096343,18.858154644570764,-8.332740990302062,2.6119302624760596,24.380934390004388,-4.451514173302952
-4.158800775703743,18.832097721841894,-7.788342959554098,2.6072962839631137,23.862706927680886,-4.435842713534533
-4.168329578209246,18.800423441737266,-7.239293608401765,2.602965368599753,23.345441653681505,-4.420367566170475
-4.174750551077911,18.7760549333381,-6.868519043287866,2.600228250208965,22.99910714093026,-4.410096399544685
-4.183263788924703,18.88657294205091,-6.971088054120176,2.6053634359915807,22.99078816954642,-4.41874370117507
-4.21497896200009,19.325330312111255,-7.473799385969185,2.6263086488889447,23.05325950373386,-4.455600195368283
-4.253752374722511,19.853653808096993,-8.075035390236057,2.6518407595817814,23.12434775265119,-4.5004615504560865
-4.293573618482458,20.387285199143005,-8.677755611941144,2.6779782170969844,23.191549703509196,-4.546312819611851
-4.33428206617526,20.923713848869145,-9.279007162014766,2.7046101129238,23.254429781085403,-4.592956812982369
-4.3704427493148215,21.392744930442813,-9.800904491870917,2.7281929544487906,23.305558500299632,-4.634199265785551
-4.380327713845628,21.547011498397158,-9.97171883295129,2.734686078758278,23.32162618163648,-4.645590278502833
-4.136844139760205,21.376558999290786,-9.77639804845399,2.582592945855864,23.307860261926677,-4.384883191350911
-3.6350108021432157,21.01992640090081,-9.367518908494397,2.2690822985422083,23.27646097775139,-3.8478051794541908
-3.1090490378494917,20.638297158196007,-8.929601774540165,1.9404790640307683,23.239124018488518,-3.2853070774948314
-2.585678764046198,20.250362325105193,-8.483971001396496,1.61352337257086,23.197341854779488,-2.7260448702371516
-2.0636625152789216,19.855072946376286,-8.029320051052954,1.2874907183814748,23.15092918420927,-2.168749354728145
-1.5501832916287126,19.457879056376033,-7.5718243554398645,0.9669132861834525,23.10051934814791,-1.6211333953013363
-1.0399692782288734,19.05475870982967,-7.106761201090175,0.6485434235870633,23.04561391740393,-1.0776161040507362
-0.5342742621474642,18.646660407579688,-6.635126246694272,0.33320714817598807,22.986310809022882,-0.5395812011568208
-0.03226044756626015,18.23287419628378,-6.155999796187355,0.020424266322934048,22.922478484263333,-0.0061851043368820816
0.44255894830506487,17.833340746045053,-5.69244350629597,-0.2751405399228101,22.8574435621276,0.49760342849168526
0.6662478820459116,17.64230298978333,-5.470448763740792,-0.4142703680592775,22.825152192092837,0.7346698886448825
1.0360923399822426,17.32240908587517,-5.0982086193958205,-0.6441509409557481,22.769484198426255,1.1262605772046264
1.5301221510598109,16.887080245027818,-4.590567693859844,-0.9508638763585412,22.690450893383808,1.6485278011365176
2.0257197039337003,16.44089790291725,-4.0689298311398305,-1.2581024535100855,22.60566794666616,2.1714629779050085
2.5115156841728674,15.994049912257763,-3.5450937646785126,-1.5587810251211345,22.517031579102586,2.6830172709045343
2.9848896095806197,15.549312691779322,-3.0222653629720453,-1.851264184201717,22.425212679816788,3.18042597090411
3.448047675205794,15.105004135862641,-2.498431075270872,-2.1369158751214266,22.330021864255052,3.6660223469904074
3.820284699039328,14.741149565795984,-2.0682871734240185,-2.3660754854373756,22.2494994874519,4.055445550181752
3.8979454829740874,14.65246125108435,-1.989127117167573,-2.414246526271356,22.25586242459728,4.137672794187092
3.878946630415072,14.48769392233439,-2.1867212381028036,-2.408782500054636,22.618683427678256,4.134119637944892
3.8513541053829705,14.240668591255277,-2.472430458893311,-2.4010833939483667,23.152081068321987,4.129121591336808
3.824187426720177,13.988235981475857,-2.752121794855087,-2.3937861785697265,23.684852761068278,4.124397052907888
3.7974100409075797,13.730161798817967,-3.026075645768651,-2.386879092791789,24.217514193341497,4.119940574650575
3.7709862936692162,13.466179740016393,-3.2945579416355684,-2.380351989093916,24.75059854424763,4.115747751935836
3.744920733242983,13.19640759045051,-3.557424531681289,-2.374205325230013,25.28384386689403,4.111820971946157
3.7191693903597103,12.920449361176685,-3.815019570477678,-2.368428615953204,25.817991413388008,4.108155613147193
3.69378885097305,12.63898690571212,-4.066683021363672,-2.3630340573335715,26.35169807817116,4.104761398332662
3.6701523823192796,12.36813770610886,-4.298907459426378,-2.358287319261057,26.855308039012893,4.101804607958981
3.6594189926884275,12.242295184037795,-4.403635100005375,-2.3562227775286564,27.086120280291468,4.100529399023041
3.6420337210163107,12.185393519956293,-4.451512789092409,-2.3472493180643275,27.191519041359918,4.086021814016957
3.3209574556533306,12.203549602158896,-4.465088799757969,-2.1405824856844093,27.19942274537469,3.7283993971833533
2.790770330258379,12.229845721188893,-4.484736465871864,-1.7991400470874856,27.21081936096459,3.1377881427032057
2.2457734086674264,12.252104539071592,-4.501363698297454,-1.4479680702930806,27.220501561056732,2.530602646881962
1.7019803568283627,12.26950262332723,-4.514355587288089,-1.0974139136305363,27.22807579611132,1.9246938493160861
1.15613717704555,12.28214011111014,-4.523790371601695,-0.7454179297941582,27.233582635249252,1.3164516201307337
0.6107223596218159,12.289943266538305,-4.529611636151075,-0.3936164381097344,27.236955761806602,0.7086518922690143
0.06659344378053197,12.2929278744057,-4.5318403405042815,-0.0426014791746994,27.238263787695768,0.10226908003542237
-0.47863593764671364,12.29110968935428,-4.530485037556605,0.3091282435081213,27.237481597553323,-0.505342113819964
-1.0222389272701655,12.284503389590567,-4.525552498790513,0.659774190823171,27.23458427691905,-1.1111279194440324
-1.568597562494757,12.273039172263928,-4.51699697965625,1.0121264048285192,27.229606045223388,-1.7199542706668012
-2.1135413873953337,12.256781197222836,-4.504860236599751,1.3634557721819762,27.222544942252235,-2.327158981715797
-2.6588921933749106,12.235680410290355,-4.489102454253827,1.7148986533695005,27.21338284211692,-2.9347563715215954
-3.19864025427796,12.21002853013515,-4.469933576591629,2.0625438832703638,27.202218284263154,-3.536035975530252
-3.5862955516103043,12.18867250672039,-4.4539699189182365,2.3120947500748987,27.192946044858218,-3.9678292418154593
-3.655844156813437,12.19502484742905,-4.422041243779346,2.3560238831613565,27.151895344467412,-4.04347447028682
-3.6673147338533143,12.297242504862057,-4.130713254727182,2.3551599066464983,26.75821524424929,-4.038062835072324
-3.683162053627961,12.432234687401753,-3.7268600773922786,2.354256514754813,26.21918067732615,-4.030829024602187
-3.699158909480409,12.561349954906694,-3.3176794217402796,2.35367462333768,25.68068985965644,-4.023800639543719
-3.7154026921951204,12.685304872670176,-2.9007220130758746,2.3534105308248883,25.139575792131485,-4.016932158333101
-3.7316857795958787,12.802521772548419,-2.4813747922748632,2.353464193040014,24.60280572949111,-4.010305911651636
-3.748194950842898,12.914368549963756,-2.054888554746016,2.3538322614236438,24.064260284420058,-4.003839932820855
-3.7649574096132206,13.020922450309659,-1.6205975309205343,2.3545174138678004,23.523196098841876,-3.9975223894778904
-3.781805122270581,13.121100186123865,-1.1829095533110658,2.355510941926895,22.98510654445611,-3.9914122327340102
-3.798820453121645,13.215433467463022,-0.7397490958034291,2.3568135454405352,22.44738337252183,-3.9854733353801994
-3.8120834332814977,13.284320535128941,-0.3935951096165597,2.358030609777917,22.03216123605811,-3.9809986421424752
-3.8157071714061885,13.305459480340305,-0.31099354903978815,2.358543352741166,21.928363246632824,-3.980201042059026
-3.8290753014179426,13.526531436527913,-0.5840302561173196,2.3676535909582728,21.97974685879901,-3.9965442599580676
-3.8579014978558295,13.998075135876636,-1.1639055240388332,2.387264033406852,22.08681993045017,-4.031678592352674
-3.885478774637211,14.442747470497194,-1.707596847376654,2.405980958091775,22.1846280951158,-4.06515556855843
-3.8970124663981442,14.626898849627665,-1.9318597127120123,2.4137962397519908,22.224231192793763,-4.079118018616627
-3.8947594152546077,14.624329514918266,-2.023279732463103,2.414024208906244,22.31822977353923,-4.081022117378497
-3.87147983054906,14.42089087165632,-2.2652078926668144,2.4073776601771004,22.764158872696388,-4.076706814717804
-3.8440030432558134,14.17232159460395,-2.5493513814265145,2.3997916026028845,23.297530592302873,-4.071791705009493
-3.81697744160431,13.918616399164971,-2.827189875156456,2.3926135370910773,23.829717327985477,-4.0671546314729605
-3.7902708720995832,13.658619082279008,-3.099982791675536,2.3858071029501513,24.363137954334544,-4.062774283825502
-3.7638765827394765,13.392286177686643,-3.3676896532682528,2.3793713749757965,24.897795690980303,-4.058652306360629
-3.73800277706707,13.121857800985762,-3.6281152107437595,2.373354408362733,25.429250429219813,-4.054821398035821
-3.712348917187973,12.844291353053904,-3.884194249711469,2.367684998287865,25.96348663775365,-4.051238181786011
-3.6870744086921725,12.561342537179861,-4.134232153726116,2.3623993060423625,26.497050392233874,-4.04792760930243
-3.6659269104923413,12.317084072748612,-4.341634692726428,2.3582469783944404,26.94918089936953,-4.0453302776575315
-3.6572800268475527,12.215231972159243,-4.425905133016806,2.3565996930675315,27.13549824967502,-4.044316984258312
-3.6561265884292298,12.209635192064242,-4.482570490088362,2.3571716562345015,27.19775474238465,-4.045911212585384
-3.6741041065200446,12.523542558046882,-4.878838500662726,2.3704878570718297,27.279310758156196,-4.069751760342225
-3.7020530177503836,13.005784611738711,-5.484585815356425,2.3911399150870123,27.401558959931325,-4.106687383011585
-3.7310145514617274,13.498282482002715,-6.099419179522287,2.4124756352909613,27.52258400091627,-4.144798306211116
-3.760479282230151,13.992029955736388,-6.711940068305737,2.434114309194647,27.64001603005899,-4.183403299224664
-3.7905296296354805,14.488233228348955,-7.323580198998103,2.4561124303024306,27.754076397429245,-4.222603088290727
-3.821403062641083,14.990528778935754,-7.9386989817091695,2.4786386006382646,27.865476595256514,-4.262697383058958
-3.8528522290389655,15.494619592218001,-8.551918124453305,2.501507066379094,27.97314618332499,-4.303354928978541
-3.884955829755042,16.001562807093432,-9.164445612231523,2.524770322194567,28.0772318579646,-4.344668861639339
-3.9178226401527994,16.5128150557671,-9.77793310551136,2.548501710819516,28.177922983145354,-4.386768912610114
-3.951452977515089,17.028088887012036,-10.391910835999436,2.5726954680336083,28.275036580214955,-4.429644169445385
-3.985654491430724,17.54422137968399,-11.002528640822387,2.5972079396180723,28.36789393841393,-4.473039813158083
-4.020397427840244,18.06063146373514,-11.60906551821931,2.6220134012692085,28.456356075945088,-4.51691052067907
-4.054412610338802,18.558756235035375,-12.189929458243002,2.6462066489820324,28.537454840394528,-4.559657893062599
-4.073267956891074,18.83177724404878,-12.506545589090392,2.6595780978512087,28.5801361452677,-4.583267462210033
-4.076983451243631,18.863782667491105,-12.436761979543821,2.6594279870844977,28.47828540105271,-4.582090039255579
-4.085088193469028,18.881272342533922,-11.982105562839363,2.652933207282372,28.006273335622176,-4.566381566904062
-4.093434271361447,18.894270638349973,-11.512462963401223,2.6465774651847966,27.52376543950523,-4.550515294597351
-4.096620733867639,18.897914761769407,-11.332779309079456,2.6442374989882125,27.340487141635975,-4.544538048147027
-4.102133333911043,18.902523856812365,-11.021442504522021,2.6402997815346785,27.024625197673146,-4.534299417866623
-4.105184951815474,18.90416036387717,-10.84883583053557,2.6381792512012394,26.85042761318468,-4.5286862096626335
-4.107086929250675,18.90485392035956,-10.741163297822968,2.636878637601224,26.742089632136494,-4.5252070071764505
-4.109323383652081,18.905350076415683,-10.61446575800436,2.6353698252722846,26.61492868526727,-4.521134778147118
-4.116115514106354,18.904764083559655,-10.22909699421643,2.630921390021134,26.230243411627516,-4.508889728577783
-4.125574927879902,18.898782356215627,-9.690953439096138,2.6250537576173536,25.698212602528965,-4.4921340273494685
-4.135008607667498,18.886959186298743,-9.152656682895875,2.6195697198336965,25.17186439233313,-4.475755690644997
-4.144506025941238,18.86928961302547,-8.609147389918082,2.6144064303351335,24.646145818941008,-4.459586764488093
-4.153956547682131,18.84610183586061,-8.066806010361596,2.6096126889887206,24.127107951147572,-4.443802595458839
-4.16349032763904,18.817198936457608,-7.518534558511382,2.605149533999369,23.607848836519928,-4.428208967316383
-4.172214062455318,18.785984024912523,-7.015290136890808,2.601317581682675,23.135918050609593,-4.414156514718922
-4.175878308681577,18.783471402062407,-6.852510942675921,2.600498968311008,22.97565378993465,-4.410146287199143
-4.196835351351162,19.07501036657631,-7.187369767873252,2.614353992286048,23.01799622673635,-4.4345397810172535
-4.2338489315416865,19.583490570037746,-7.7681473687099025,2.638765595943458,23.08855815849068,-4.477466475501481
-4.273184354967482,20.115118342505326,-8.370924344808106,2.6646269726255096,23.1578502267625,-4.522870563345908
-4.313299334116623,20.648292780539702,-8.970883901962807,2.6909150285897874,23.22272786312061,-4.568949932365725
-4.353924587007713,21.179296294210275,-9.563838528332544,2.7174499244347023,23.282733341530808,-4.615388491519185
-4.380060307500205,21.516282243688824,-9.937773106960277,2.734474620412736,23.318422907631692,-4.645145295306451
-4.30851453596404,21.518523953287293,-9.938193149710791,2.6898965148681255,23.319924191242773,-4.568812453895624
-3.8719444298762085,21.339314418845426,-9.728109201680594,2.4174248111261067,23.308132249996063,-4.102095214258168
-3.2980582198911725,21.098334270405406,-9.446951107978691,2.059154662026572,23.289943124678988,-3.488845189140083
-2.7243777753530902,20.851202717223398,-9.160064951875489,1.7009450511384752,23.268646548316706,-2.8761441454954633
-2.1500439905365964,20.597424364185287,-8.866833124882561,1.3423065228461153,23.244116280511907,-2.2631087841113424
-1.5755475153126945,20.337083515869175,-8.567318832577486,0.9835919944979927,23.21637022922006,-1.6502893002902033
-1.00891149212161,20.073819720086803,-8.265635922975354,0.6298571511684031,23.185767315327848,-1.0462719397812708
-0.44886902155611275,19.807165240200305,-7.961158187984268,0.2803537830460721,23.1523016482448,-0.4497233724061904
0.11241435365069083,19.533349674468475,-7.6495138945724035,-0.06976144013097836,23.115455736097772,0.14766892174914945
0.6665265362034419,19.256451180977884,-7.335285634592938,-0.4152028246664201,23.07583282573523,0.7369330167118151
1.2200632279463586,18.973172933126225,-7.01465806489137,-0.7600400663362927,23.03293183233105,1.3250530641970195
1.7721685945456227,18.68384751645055,-6.687948659461401,-1.1036966459870172,22.98676903212804,1.91108526810291
2.320094650154981,18.389872633039463,-6.356667672961742,-1.4444220977720603,22.937555876046066,2.4920830192866066
2.8651789999451163,18.090512242442777,-6.019913779698026,-1.7830102665433731,22.88516449857624,3.0694364079697407
3.409272323691127,17.784666846669314,-5.67637877948572,-2.1205659010550018,22.82934680103566,3.645064624758643
3.9039707051905546,17.50035925512575,-5.357421822532424,-2.4270851396680158,22.775531041981523,4.167824390858084
4.078376005273355,17.39502909310549,-5.247228749944503,-2.535191901950303,22.763300270773755,4.352336453049481
4.061107233214562,17.254167358342876,-5.413096297786034,-2.5301985959695554,23.070476331177865,4.348733020199157
4.031662944777072,17.006726946804108,-5.694993048813913,-2.5219215890666487,23.600570379350614,4.3427604384418785
4.002151265721782,16.749252566702225,-5.976234703589728,-2.5139357808013836,24.14003872854011,4.337000678362399
3.973176509544288,16.48691284325323,-6.2509270263272585,-2.5064098037359335,24.67780313273112,4.3315776874665195
3.949972890304368,16.26977728893007,-6.469766672547751,-2.5006162737709836,25.114360253084335,4.327408531156889
3.9407430691874117,16.18162032102477,-6.556511088709383,-2.4983711647415197,25.28949196341749,4.3257946380292625
3.9322394816003716,16.099485524587845,-6.636268887989267,-2.496333221938694,25.451596178877246,4.324330679095033
3.907263794828146,15.853091753062394,-6.869582207808799,-2.4905203482778075,25.931921541340365,4.32016137976899
3.879603423062395,15.57101054535981,-7.126214128449254,-2.4843924091389478,26.471313611604746,4.315779323627497
3.852488105780691,15.284795709884119,-7.3758236600305205,-2.4787138398047133,27.007797510608125,4.311735279477139
3.82751571926854,15.012437724149011,-7.603829280039219,-2.4737834455030745,27.50876312813084,4.3082418359516215
3.816324520945962,14.887585909542038,-7.705383956799379,-2.4716700874774813,27.735437697760865,4.306750894597905
3.7932127003087617,14.835585225698773,-7.748815183921928,-2.4588905743739318,27.83176890207474,4.2854941360713665
3.4602114247999434,14.85459800974477,-7.762354282296777,-2.243324234207303,27.83988170644686,3.911860147659837
2.915765024880733,14.881900797370447,-7.781781358067049,-1.8906868732066324,27.8514835097667,3.3009065962996615
2.358060486075894,14.905016315096317,-7.7982247697740545,-1.529253696303847,27.86134340899936,2.6750006510801163
1.8014840215128176,14.923199330593903,-7.811154736808847,-1.1683796709469558,27.869107135148287,2.050297755605629
1.2456660252252068,14.93649374051034,-7.820602307778647,-0.8078662322106732,27.87475838569677,1.426396871077596
0.6870663573901138,14.94496636609726,-7.826625208823009,-0.4454578578068106,27.878386072324933,0.7993416898543934
0.13176391600429832,14.948533603976104,-7.829158013457257,-0.08513901857804623,27.879889221150304,0.1759685221192332
-0.42732762635465216,14.947237967653587,-7.828239316435129,0.2776485092711673,27.87934886168142,-0.4516607982694027
-0.98287504504723,14.941092124386886,-7.823873990111297,0.6381055916675338,27.876738579330834,-1.0753003501436975
-1.5429622054037913,14.929989146566475,-7.815981112203849,1.0014345411148562,27.871983197029337,-1.7040099634223707
-2.0980032307580645,14.914122549475513,-7.804703442676847,1.3613796328877001,27.86522883430994,-2.3270139819801314
-2.6552368240433712,14.893314972290426,-7.789908151460767,1.7225942068910793,27.85637302870245,-2.9524233126266983
-3.2137801113202467,14.867541983730288,-7.771569829903268,2.084460863462708,27.845377705277397,-3.579231104972369
-3.6721506745195254,14.842706955048165,-7.753893219675748,2.381255807484671,27.8348148051278,-4.0935597236593635
-3.811860714188928,14.834659815267766,-7.741767605243414,2.47153731964382,27.824881341041262,-4.249998543801505
-3.8162909643329797,14.84183166734121,-7.455046538854357,2.4677553844783526,27.531071906887394,-4.2406569965266785
-3.824351103459886,14.850245279173457,-6.931794167071187,2.4611581907473137,26.999553972147215,-4.223917540943735
-3.83257550060295,14.852779304451394,-6.395787595888013,2.454792336330382,26.461159539785964,-4.207165081018988
-3.840822386163816,14.849315234809755,-5.8562509182838465,2.4487671978657404,25.925228757604,-4.1906853400564446
-3.8490180408896495,14.840045055329174,-5.318072103341935,2.4431225206298053,25.396456590215582,-4.1746103249433935
-3.8572250325157134,14.825065490357325,-4.777208795209559,2.4378011805694078,24.870705244525983,-4.158802171515511
-3.8654819694137466,14.804366101054416,-4.231145351927146,2.432770752372921,24.34547029870321,-4.143177228612309
-3.8736798750872734,14.778348644338777,-3.687139964974428,2.4280866592411967,23.827606685686128,-4.127929402045215
-3.881942935808446,14.746730367536712,-3.136996311336597,2.423668268439014,23.309202903559868,-4.112816547032284
-3.890157204726458,14.710045254280903,-2.588340016777134,2.4195679294775685,22.79734908745203,-4.098036921758991
-3.8973298606442763,14.673814267130211,-2.1078534397071254,2.4162185926192468,22.353193252167962,-4.0853222463073955
-3.900003981563583,14.674502658423085,-1.9897481544133688,2.415818516169103,22.234395137716504,-4.082727979657411
-3.9183994035150054,14.965594056521137,-2.342957153028334,2.4282646948754856,22.29569899565677,-4.104941086840721
-3.949936558760203,15.458540731417077,-2.938091864639984,2.4495580334652893,22.39648505071855,-4.142891415009022
-3.983115442311489,15.96905255721277,-3.5504356050775394,2.471899320149749,22.49683261346244,-4.182640141168436
-4.017257702971755,16.485994627054648,-4.166331225414692,2.4948246499705937,22.59424869301599,-4.223356635976583
-4.0515439063559056,16.99682056357481,-4.770810275346663,2.517780808025127,22.686347655255233,-4.264057848848958
-4.074675712293262,17.33689500886762,-5.17094908542937,2.5332314451390396,22.745357726253502,-4.291413463058455
-4.078888344138318,17.39843953231797,-5.243168399742307,2.5360420158400663,22.755840017295917,-4.296386376974828
-4.078888344138318,17.39843953231797,-5.243168399742307,2.5360420158400663,22.755840017295917,-4.296386376974828
-4.078888344138318,17.39843953231797,-5.243168399742307,2.5360420158400663,22.755840017295917,-4.296386376974828
-4.078888344138318,17.39843953231797,-5.243168399742307,2.5360420158400663,22.755840017295917,-4.296386376974828
-4.078888344138318,17.39843953231797,-5.243168399742307,2.5360420158400663,22.755840017295917,-4.296386376974828
-4.078888344138318,17.39843953231797,-5.243168399742307,2.5360420158400663,22.755840017295917,-4.296386376974828
-4.078863282916625,17.398391497254494,-5.243048699399779,2.536026404788855,22.755553877562253,-4.2963600231537615
-3.9911548599223856,17.23027999344393,-4.824125456001927,2.481391371436609,21.754131636334225,-4.20412780423004
-3.9036460879422408,17.0625511624836,-4.406155809163187,2.4268807040168645,20.754988936331234,-4.112105533854152
-3.816084402323394,16.89472091148776,-3.987933430005379,2.3723370758127778,19.75524208802809,-4.020027620677466
-3.7017525682628167,16.67558008212174,-3.4418483322100655,2.3011178775433785,18.44984361431281,-3.8997988172281297
-3.5516577126998876,16.387891955696634,-2.7249477021088517,2.2076212992247863,16.736116226186162,-3.7419624190236656
-3.4007590251311393,16.098663117414034,-2.0042077154267197,2.113624000599657,15.013210982371799,-3.5832807290329898
-3.2505222352124727,15.81070294416411,-1.2866291618305299,2.0200390090136175,13.297863040417164,-3.4252950758296987
-3.0994251270877147,15.521093791461082,-0.5649414556473212,1.9259181109287642,11.572692304291781,-3.2664047312134334
-2.9490432383456,15.232855506023316,0.1533301359451872,1.832242734875785,9.855687677790597,-3.108266495327739
-2.7987919388456803,14.944867522131712,0.8709779919029024,1.7386487050306063,8.140174070819054,-2.9502655841728274
-2.6484752980555384,14.656754298015906,1.588937938584552,1.6450139730105549,6.423914421231937,-2.792195961576316
-2.497867270308561,14.368082569963626,2.3082896417802745,1.5511977312157106,4.70432782345197,-2.633819922963224
-2.3470954128593275,14.079096828083767,3.0284238475896723,1.4572794371784323,2.9828706788988084,-2.4752716046938703
-2.1968233892573594,13.79106912212396,3.7461706884310515,1.3636724979459005,1.2671204518169987,-2.3172489005360544
-2.0461732885422044,13.502316752444472,4.46572334546549,1.269830048200427,-0.45294651950805415,-2.1588286189291974
-1.8956850514042687,13.21387462810345,5.184502890722955,1.1760884259654474,-2.171165392546328,-2.0005785494454202
-1.7451189897381205,12.925283336806457,5.903654150607837,1.082298325539328,-3.8902728371813127,-1.8422466414257457
-1.5941580831941038,12.635935242868118,6.6246913148474995,0.9882622696811657,-5.6138884741772355,-1.6834995233501462
-1.4440025020678808,12.348130723223107,7.341881989497046,0.8947278644006623,-7.3283092042614495,-1.52559926749944
-1.2934642898252244,12.059592811160444,8.06090023170338,0.8009551118429613,-9.047098674508824,-1.3672966453115785
-1.1427807198207531,11.770776290600498,8.780612748677788,0.7070918135213115,-10.767547785764974,-1.2088411681475093
-0.9922905466668914,11.482330455480769,9.499401540961289,0.613348985309858,-12.485788763514991,-1.0505890627926195
-0.8418526880957821,11.193984892180753,10.217940462206917,0.5196387447208465,-14.203432432763492,-0.8923919702846669
-0.6908122724187159,10.90448440238957,10.93935738728094,0.4255531613032134,-15.927955875549305,-0.733561242180344
-0.5403999810003803,10.616187843875576,11.657774191696753,0.3318588469182858,-17.645307628530723,-0.5753910355192847
-0.38988696556841523,10.327698226761012,12.376672085944502,0.23810178987243522,-19.363809410939545,-0.4171149097348526
-0.2701185966343713,10.09813714330882,12.948723798396513,0.1634960837399086,-20.731280223338402,-0.29116916762081146
-0.1824146826288025,9.930034281916399,13.367625505434525,0.10886385911159158,-21.73265098260625,-0.19894169024888253
-0.09469760150078273,9.761906182984859,13.786590102825084,0.05422343246401913,-22.734172079194334,-0.10670036662503117
-0.0075428324100230764,9.594855872468248,14.202868919598355,-6.672067661669363e-05,-23.729272905511912,-0.015050357782058101
0.0013585214720665754,9.577794569391731,14.245384608646395,-0.00561152184423145,-23.830905262476662,-0.0056898928239283155
0.0013585214720665754,9.577794569391731,14.245384608646395,-0.00561152184423145,-23.830905262476662,-0.0056898928239283155
0.0013585214720665754,9.577794569391731,14.245384608646395,-0.00561152184423145,-23.830905262476662,-0.0056898928239283155
0.0013585214720665754,9.577794569391731,14.245384608646395,-0.00561152184423145,-23.830905262476662,-0.0056898928239283155
0.0013585214720665754,9.577794569391731,14.245384608646395,-0.00561152184423145,-23.830905262476662,-0.0056898928239283155
0.0013585214720665754,9.577794569391731,14.245384608646395,-0.00561152184423145,-23.830905262476662,-0.0056898928239283155
0.0013585214720665754,9.577794569391731,14.245384608646395,-0.00561152184423145,-23.830905262476662,-0.0056898928239283155
0.0013585214720665754,9.577794569391731,14.245384608646395,-0.00561152184423145,-23.830905262476662,-0.0056898928239283155
0.0013585214720665754,9.577794569391731,14.245384608646395,-0.00561152184423145,-23.830905262476662,-0.0056898928239283155
0.0013585214720665754,9.577794569391731,14.245384608646395,-0.00561152184423145,-23.830905262476662,-0.0056898928239283155
0.0013585214720665754,9.577794569391731,14.245384608646395,-0.00561152184423145,-23.830905262476662,-0.0056898928239283155
0.0013585214720665754,9.577794569391731,14.245384608646395,-0.00561152184423145,-23.830905262476662,-0.0056898928239283155
0.0013585214720665754,9.577794569391731,14.245384608646395,-0.00561152184423145,-23.830905262476662,-0.0056898928239283155
