RAMEL-ESPOL/ARCHIE/matlab/data/joint_goals_espol_t0_h20_p21.txt
Joint0,Joint1,Joint2,Joint3,Joint4,Joint5 
0.0026657757127548317,0.0011490854501061544,-0.004851940149701015,-0.0035021750066082675,0.005628015685048448,-0.002928529424234629
0.0026657757127548317,0.0011490854501061544,-0.004851940149701015,-0.0035021750066082675,0.005628015685048448,-0.002928529424234629
0.0026657757127548317,0.0011490854501061544,-0.004851940149701015,-0.0035021750066082675,0.005628015685048448,-0.002928529424234629
0.0026657757127548317,0.0011490854501061544,-0.004851940149701015,-0.0035021750066082675,0.005628015685048448,-0.002928529424234629
0.0026657757127548317,0.0011490854501061544,-0.004851940149701015,-0.0035021750066082675,0.005628015685048448,-0.002928529424234629
0.0026657757127548317,0.0011490854501061544,-0.004851940149701015,-0.0035021750066082675,0.005628015685048448,-0.002928529424234629
0.0026657757127548317,0.0011490854501061544,-0.004851940149701015,-0.0035021750066082675,0.005628015685048448,-0.002928529424234629
0.0026657757127548317,0.0011490854501061544,-0.004851940149701015,-0.0035021750066082675,0.005628015685048448,-0.002928529424234629
0.0026657757127548317,0.0011490854501061544,-0.004851940149701015,-0.0035021750066082675,0.005628015685048448,-0.002928529424234629
0.0026657757127548317,0.0011490854501061544,-0.004851940149701015,-0.0035021750066082675,0.005628015685048448,-0.002928529424234629
0.0026657757127548317,0.0011490854501061544,-0.004851940149701015,-0.0035021750066082675,0.005628015685048448,-0.002928529424234629
0.0026657757127548317,0.0011490854501061544,-0.004851940149701015,-0.0035021750066082675,0.005628015685048448,-0.002928529424234629
0.0026657757127548317,0.0011490854501061544,-0.004851940149701015,-0.0035021750066082675,0.005628015685048448,-0.002928529424234629
0.0026657757127548317,0.0011490854501061544,-0.004851940149701015,-0.0035021750066082675,0.005628015685048448,-0.002928529424234629
0.0026657757127548317,0.0011490854501061544,-0.004851940149701015,-0.0035021750066082675,0.005628015685048448,-0.002928529424234629
0.0026657757127548317,0.0011490854501061544,-0.004851940149701015,-0.0035021750066082675,0.005628015685048448,-0.002928529424234629
0.0026657757127548317,0.0011490854501061544,-0.004851940149701015,-0.0035021750066082675,0.005628015685048448,-0.002928529424234629
0.0026657757127548317,0.0011490854501061544,-0.004851940149701015,-0.0035021750066082675,0.005628015685048448,-0.002928529424234629
0.0026657757127548317,0.0011490854501061544,-0.004851940149701015,-0.0035021750066082675,0.005628015685048448,-0.002928529424234629
0.0026657757127548317,0.0011490854501061544,-0.004851940149701015,-0.0035021750066082675,0.005628015685048448,-0.002928529424234629
0.0026657757127548317,0.0011490854501061544,-0.004851940149701015,-0.0035021750066082675,0.005628015685048448,-0.002928529424234629
0.0026657757127548317,0.0011490854501061544,-0.004851940149701015,-0.0035021750066082675,0.005628015685048448,-0.002928529424234629
0.0026657757127548317,0.0011490854501061544,-0.004851940149701015,-0.0035021750066082675,0.005628015685048448,-0.002928529424234629
0.0026657757127548317,0.0011490854501061544,-0.004851940149701015,-0.0035021750066082675,0.005628015685048448,-0.002928529424234629
0.0026657757127548317,0.0011490854501061544,-0.004851940149701015,-0.0035021750066082675,0.005628015685048448,-0.002928529424234629
0.0026657757127548317,0.0011490854501061544,-0.004851940149701015,-0.0035021750066082675,0.005628015685048448,-0.002928529424234629
0.0026657757127548317,0.0011490854501061544,-0.004851940149701015,-0.0035021750066082675,0.005628015685048448,-0.002928529424234629
0.0026657757127548317,0.0011490854501061544,-0.004851940149701015,-0.0035021750066082675,0.005628015685048448,-0.002928529424234629
0.0026703580828222745,0.0011548711626350385,-0.004859535716040909,-0.0035021751605885908,0.005629825258761068,-0.002923946943536827
0.15218251484442574,0.1892067280092514,-0.25156778829975157,-0.0035043484548879017,0.06436700820694984,0.1466491425865393
0.47175667757401013,0.5862413141063418,-0.7713354013268124,-0.0035100452095280826,0.18729047853889996,0.46636472720550803
0.8096661743039525,0.998921378613967,-1.3100089351055921,-0.0035181573450511283,0.3135031465143436,0.804434936250084
1.1537311454670993,1.4117703576977607,-1.847319473764572,-0.0035292770581483858,0.4381835329867781,1.148660606007996
1.5066310291414673,1.8277141707121483,-2.3870826524116455,-0.003543609571024788,0.5622210900126672,1.501721206147471
1.8662509938814473,2.243959140060996,-2.925682588464129,-0.0035611409349862134,0.6847937630661973,1.8615019075232329
2.2336374131369205,2.6614551611358994,-3.464370987275163,-0.00358200749201993,0.8062032279140173,2.2290491010867006
2.609316993712897,3.0804952625252717,-4.003544492562777,-0.0036063291024580816,0.9265530648888847,2.6048895445783864
2.9933666268202037,3.500846241594878,-4.542924462125973,-0.0036342028061815204,1.0457977193375882,2.989100104017128
3.3845037222948533,3.920829271414437,-5.080391544961257,-0.0036656355433451384,1.1634968437360664,3.3803982696503754
3.784969118560037,4.342551778545347,-5.618679017137938,-0.0037008682037250806,1.2802760306890315,3.7810249015400372
4.196547777090172,4.767481162371156,-6.15968254507082,-0.0037413093289971394,1.3965932681294118,4.192784108519383
4.617362575186271,5.193259793733108,-6.700432528203949,-0.0037848085074746597,1.5117767765568886,4.613760518484128
5.043825867096001,5.616035777665852,-7.236102600818051,-0.00383373198591397,1.6249121521021224,5.04040470820794
5.483294510546678,6.042747327936946,-7.775540297322646,-0.0038857922444192543,1.7378483464046708,5.48003545067412
5.932638513549536,6.4699006232643805,-8.314376198889978,-0.003944307002142413,1.8497696891149755,5.929560990519706
6.394176133711345,6.899259039165796,-8.854896715989394,-0.0040080077147027346,1.9611690725993454,6.391280527264742
6.865409557657674,7.328076974839008,-9.393718228288368,-0.004076786450593978,2.0714085467277323,6.862696215619101
7.34716817372747,7.75674434991478,-9.931419261930593,-0.004150839188562031,2.1806765192722,7.344637457055148
7.834962786312547,8.181018197009184,-10.46278431479553,-0.004229805460405727,2.2880007945346277,7.832615062196176
8.338607431026281,8.609031076607012,-10.998101666738977,-0.0043148611382805594,2.3955362213010134,8.336443264340977
8.852565525358216,9.035554032477595,-11.530935832420308,-0.0044055316358572886,2.502076514614353,8.850585369631425
9.379244147030022,9.462165361671051,-12.063381924104858,-0.004506121523823269,2.608168091451851,9.377467937007479
9.914186788275092,9.884887603336953,-12.590613057186141,-0.004608708523422382,2.7129020549791534,9.912595719419656
10.448742711217683,10.29692264481407,-13.104304155995203,-0.004715865357936453,2.814781892585425,10.447337146938507
10.979045031150159,10.695673697149953,-13.601372963020056,-0.004827051666861578,2.913322380103163,10.977825263950553
11.5142626692567,11.088255441456331,-14.090834521984345,-0.004943474703077758,3.010423101131885,11.513229252798643
12.045915191692744,11.468636584122256,-14.565307268815353,-0.005063962032580352,3.104734369887903,12.045068470838748
12.578759688276676,11.84049901972613,-15.029513576142483,-0.0051891568330675025,3.197296243254562,12.578100173391997
13.114235158399556,12.204947413993121,-15.484962769546886,-0.00531345206095862,3.2884837272494467,13.113743956554762
13.627844294623626,12.545994988852037,-15.911759147910146,-0.005444474166790975,3.3744490744187154,13.627540828561996
13.902921049408965,12.725214886160181,-16.137170392811342,-0.0055113376264618345,3.4207316565392203,13.902702447901465
13.902918772064389,12.705079587129712,-16.38689282156813,-0.0055129481683350344,3.6905893832963415,13.902726181972136
13.902914386947101,12.661701339780118,-16.866585403237345,-0.005516421193724312,4.213660210313435,13.902772261274514
13.90290992053707,12.611160387567033,-17.35351596149013,-0.005520473952474871,4.7511317187153175,13.902819719321759
13.902905427174964,12.553683746121648,-17.8415821995695,-0.0055250912155952615,5.296674596137245,13.902868012946097
13.902901378870611,12.496073693399671,-18.279658464881823,-0.005529728226808248,5.7923609122537085,13.90291200797106
13.90289984539775,12.472783595142497,-18.445171710067733,-0.005531605424472714,5.981164254964448,13.902928795619129
13.67920506483283,12.53307459732156,-18.49691647497163,-0.005497028023148422,5.972639433321329,13.679229599714061
13.15030174400601,12.673842547421476,-18.598824649436523,-0.005414762424019087,5.933829759024924,13.150314073680363
12.597100233271453,12.81474246145721,-18.700542492387264,-0.005328252916144022,5.89469928433151,12.597100003088494
12.03587818584341,12.951119723788851,-18.79872325398782,-0.005240011096255662,5.856554280385006,12.035865426249366
11.475694254712513,13.080702600735584,-18.891764858821297,-0.005151459885474559,5.820063553516327,11.475669199142047
10.91436434790534,13.204044062593505,-18.98010104470915,-0.005062261516703591,5.785108063210228,10.914327178296418
10.354966394040025,13.320528501837451,-19.063325869824524,-0.0049729137089047325,5.7518971992818155,10.354917354348858
9.793517567647871,13.431026645094587,-19.142093869201616,-0.004882787802883055,5.720215112150752,9.793456813082342
9.227621401285525,13.535941734445595,-19.21672019245283,-0.004791499181219375,5.689973894727267,9.227549035747959
8.663308422321467,13.63414627733519,-19.286430586241238,-0.004700025156649509,5.661526268128733,8.66322466988072
8.094509004746103,13.72668456733287,-19.351992637342494,-0.0046073865066586705,5.634596014425055,8.094413963025684
7.530930795286183,13.812024905878356,-19.41234665627235,-0.004515173177546818,5.609654355215903,7.5308247485193505
7.06791317434319,13.87743194048945,-19.45853319999684,-0.004439102753627967,5.590469880479335,7.067798216533955
6.98200500131128,13.865490314984886,-19.40371058697703,-0.004424661065307422,5.547595508286012,6.981885341987363
6.959687612792288,13.70257167192237,-18.96420857513858,-0.004418969910929663,5.271013855054262,6.959546166402455
6.929993190099672,13.48186865353228,-18.373006014009313,-0.004411547395679875,4.900516592729272,6.929822646859088
6.900760038443667,13.260142317259449,-17.783684390846858,-0.004404409785238723,4.532923548370299,6.9005607233164445
6.8719076178121625,13.03690108703573,-17.194784061505285,-0.004397532849432792,4.167266660183365,6.871679774928964
6.843340779797794,12.811487979753418,-16.604462797220627,-0.004390890942096013,3.8023606898854063,6.843084556705822
6.814847996699996,12.582242610480092,-16.008333690687476,-0.004384434668864311,3.4354791313391,6.814563326240085
6.786697571744824,12.351345350805506,-15.412016783760782,-0.004378224184841368,3.0700616343440896,6.786384650567293
6.759043524533192,12.120180521672056,-14.818948338461563,-0.004372289096977135,2.7081601283149643,6.758702703228837
6.731585992814821,11.886329436809305,-14.222817344158237,-0.004366561996154479,2.345882311853857,6.731217317904027
6.70431267660723,11.649700995835488,-13.623352925095217,-0.00436104016374776,1.983048410568965,6.703916178127542
6.677854959478803,11.415935793130213,-13.034681953684427,-0.004355845603859646,1.6281446545298977,6.677431313186639
6.662247635251759,11.276062854756614,-12.684071915345413,-0.004352857568872056,1.4174087408918148,6.661807899555656
6.655783597763319,11.217698044317212,-12.538122205868795,-0.0043516368016097975,1.3298243329882058,6.65533718162951
6.677010177853035,11.418607127733184,-12.685484910857953,-0.004355027277674495,1.276276342370709,6.676559771251575
6.73387404562097,11.951268083049433,-13.078948407420869,-0.004364131592589482,1.137074558355249,6.733413241270593
6.797367421161725,12.536931648595134,-13.50681186106653,-0.0043743185480928865,0.9792696060095509,6.796894773116783
6.861575308618682,13.11966742301216,-13.927612109160657,-0.004384644847591006,0.817329173058403,6.8610904457868696
6.9269283716611065,13.703217826428556,-14.344093772490712,-0.00439518280805841,0.6502554267420668,6.926430843859753
6.977722172524432,14.15025051910067,-14.659831584072263,-0.004403393481485619,0.518956646283903,6.977214647613365
7.10634476283831,14.261887726503012,-14.738232928934696,-0.004424408663382799,0.485710877327886,7.1058348602663095
7.5855436820897015,14.440287540720142,-14.863147817795046,-0.004502556400591902,0.43218862964232124,7.585030232825851
8.142280727231666,14.641097408876965,-15.003209210824407,-0.0045929576246627815,0.3713959738631416,8.141763082986015
8.696658521391653,14.834244959575704,-15.137382373748588,-0.004682549650800024,0.31237672163430547,8.696136630958145
9.25710769453666,15.022684419053677,-15.267771556528771,-0.004772682018963327,0.25428020987451316,9.256581452621829
9.818705969940337,15.204712262609727,-15.393243319467567,-0.004862545912449451,0.1976769170937589,9.818175319642538
10.379131072319563,15.37965565024254,-15.513386811057893,-0.0049517610383458975,0.14282903152312715,10.37859598628003
10.945864683296623,15.549836002857758,-15.629841232993467,-0.005041503243670012,0.08905368595441625,10.945325085949001
11.511040191966531,15.712880999162222,-15.741026605940108,-0.005130511973779537,0.03714390188543575,11.510496081558923
12.076275274474446,15.869355303031844,-15.847376044158297,-0.005219035071534701,-0.013032005489034623,12.075726647886452
12.64372357345789,16.019883917780195,-15.949356418252316,-0.005307397943341012,-0.06163236365375636,12.643170421858118
13.218330203000088,16.165682466622656,-16.047825852932462,-0.00539634892061568,-0.10901514189507532,13.217772490099096
13.789391228320003,16.30403668738664,-16.14098894997616,-0.005484216989664274,-0.1542604796274025,13.788829014678234
14.360282819863897,16.435888576712358,-16.229521297180195,-0.005571517787542424,-0.1976350922902877,14.359716150705824
14.758124010512056,16.523984254249932,-16.288536277257386,-0.0056320310136856325,-0.22675468007444916,14.757554268452132
14.790422229813212,16.531478462272997,-16.420417240455524,-0.005636894781213765,-0.1023711011658079,14.789864705466387
14.790420539027458,16.531576288481176,-16.588666871689117,-0.005636887807669394,0.06578070321217251,14.78987955784031
14.79041581860221,16.528590383894294,-17.05777187436742,-0.005637127708915764,0.5378716086569909,14.789921284237273
14.79041044800853,16.51923625486543,-17.59028470033467,-0.005637874903889379,1.0797385615585622,14.789969234508314
14.79040511140743,16.503492915277725,-18.118033533039497,-0.005639131238617402,1.6232307317444092,14.790017397655095
14.790399873079874,16.4816177156972,-18.634586852822064,-0.005640877015710729,2.1616592490142943,14.790065188817849
14.790394680009408,16.453485379397016,-19.145109108384048,-0.00564312339316145,2.7003138387758594,14.790113085014287
14.790389534952794,16.419120439600622,-19.649249238680557,-0.005645869902124288,3.238818906761844,14.790161061418964
14.790384425822419,16.378439029691886,-20.1481110352233,-0.005649125079410621,3.778362111095062,14.790209232714941
14.790379835337504,16.33618215423153,-20.594737203176194,-0.005652510938583796,4.267245152582319,14.790252976790889
14.790377794192954,16.31562629188816,-20.792819054239,-0.005654159729091272,4.485882865125031,14.790272571234691
14.790374805939603,16.28354153568782,-21.082225024396372,-0.005656735558390507,4.80737359021063,14.790301420200034
14.70288577307777,16.304813393966104,-21.12944481545763,-0.005643628631037648,4.833330121416486,14.702813836888502
14.236300438156508,16.43439865068311,-21.216314830844887,-0.005572006920181203,4.790660394238615,14.236218334183942
13.663084118213929,16.58742976587456,-21.318599267362586,-0.005483541926125406,4.73996883729959,13.6629897938427
13.090100383208627,16.73365924098246,-21.416031343070028,-0.00539459634429764,4.691225657169222,13.089994137843636
12.513243232090693,16.87413086978658,-21.509345537588157,-0.005304535709515666,4.644121914375935,12.513125277505289
11.93422134417949,17.008380007449414,-21.598268739780398,-0.005213626685250001,4.5988489640447785,11.934091925962216
11.357422824633302,17.135444446103616,-21.682201464044464,-0.005122566311605829,4.555769121620097,11.357282269374382
10.78170752268083,17.255684155597013,-21.7614189994244,-0.005031186964045303,4.514797811432193,10.781556126338897
10.19979022893184,17.37058133605437,-21.836928749881096,-0.004938333983933627,4.475460863470365,10.199628147337911
9.616058024101509,17.479179704833587,-21.908130286187916,-0.004844705734190078,4.438113726143069,9.6158854921939
9.03372431945324,17.580918501800575,-21.974685849025796,-0.0047508256415707195,4.402979120550813,9.03354162256618
8.449393739283163,17.676422243503712,-22.03703192476333,-0.004656154229028979,4.369869293511362,8.449201096111437
7.870083836985117,17.764633168138264,-22.09450489337728,-0.004561840685686671,4.339177814785079,7.869881575744974
7.47663404286076,17.820886798558835,-22.131100159414444,-0.0044975315069996505,4.3195504742364745,7.476425382979943
7.438223242383644,17.772485782584283,-22.002364977894295,-0.004490781811058148,4.239219314018296,7.438007795558391
7.409193097128165,17.570150977933,-21.498889423949247,-0.004484349263610111,3.93808083363055,7.4089536653090775
7.375620082981551,17.332055722628827,-20.909727080934992,-0.004477055099012245,3.5870163668940926,7.375352776968737
7.342483651002119,17.092674334155273,-20.320820552345616,-0.004470011190159852,3.2374938105243056,7.342188683739742
7.309637215789039,16.85101538367871,-19.729651134130215,-0.004463184379342201,2.8879859008362665,7.309314675772284
7.27734984006456,16.609150371722453,-19.141190882650243,-0.004456627767629885,2.541393172831615,7.277000040622866
7.2451663396668256,16.36372510718417,-18.5472125277341,-0.004450247443983751,2.192842582939603,7.244789207618545
7.213451313506716,16.117557806201912,-17.954484816133824,-0.004444114891611678,1.8462846335246144,7.213047082588136
7.181902147800066,15.868350047294905,-17.35741419356928,-0.004438170397995749,1.4984242153568699,7.181470791000342
7.150771950280426,15.618142451868081,-16.760838239167445,-0.004432460825299797,1.152058266617413,7.150313655798401
7.120130208468298,15.367601981402704,-16.166253129880673,-0.004426995694261226,0.8080159975172478,7.119645225041729
7.092269048358472,15.136062431687291,-15.619142636669581,-0.004422162917441763,0.4924472063808754,7.0917596420645985
7.079574827922458,15.029370514908502,-15.367783970615958,-0.004420004883004171,0.3477814370397117,7.079054243204282
7.072818594466825,14.972277574362822,-15.233466358383765,-0.004418867655628496,0.27055728671525864,7.072292047040354
7.102427898748407,15.224351489949882,-15.406772375600301,-0.004423683863543689,0.1917871038304703,7.1018952924443965
7.168504913139645,15.78039366622289,-15.78698888226306,-0.004434457618880114,0.015956327017006514,7.167958734384043
7.2395742947542026,16.36865914676064,-16.18446332118288,-0.004446085764449521,-0.1748402215545063,7.239013313736808
7.311942231547675,16.95751404989656,-16.577435167560445,-0.004457971041902808,-0.3707289006649712,7.311365973166918
7.385626795531042,17.5468242662508,-16.965820283412143,-0.004470120457971349,-0.5716597411210272,7.385034782911927
7.439746577286787,17.973224136996667,-17.243799189096123,-0.004479075592608942,-0.7200849318941417,7.439142873089412
7.534696751020305,17.96000664873081,-17.23522039112408,-0.0044945448414282505,-0.7154536752658297,7.534093214183776
7.983661811724799,17.64594652886097,-17.030663914272793,-0.004567443476822771,-0.6059855284769206,7.983066082880726
8.517661291293,17.263850394078517,-16.779927915398073,-0.004653800930102773,-0.47466835509273175,8.517075305834805
9.042346490355941,16.87917434940023,-16.525425367198608,-0.004738278548720414,-0.34453785490569605,9.041770557764876
9.337746223295325,16.658489811441008,-16.378478759493145,-0.004785674886724122,-0.27082447193133985,9.337176157810852
9.654129750556558,16.418791055188525,-16.218092493335813,-0.004836305015553741,-0.191538543681696,9.653566133121073
10.16801300869124,16.021981619074474,-15.950795209478576,-0.0049182444538274,-0.062070129337378904,10.167460222737555
10.68394396431408,15.614088066991348,-15.673705808976562,-0.0050001373924137265,0.06868937214111191,10.683402492932926
11.196074718297677,15.199561968743815,-15.389689283803275,-0.00508105265092613,0.19915389635877298,11.195544905904839
11.704307327554375,14.778473755668127,-15.098670910624302,-0.0051609783463069485,0.32917831713386886,11.703789497451913
12.20835281290171,14.35106540038274,-14.800695488651922,-0.005239873176022706,0.4585655073677842,12.207847261393193
12.711902421690326,13.914108230605146,-14.49335961390647,-0.00531831534501861,0.588140413647223,12.71140951783504
13.20961990263201,13.47218133745273,-14.179741138823907,-0.005395475911902815,0.7164023053617903,13.209139861494126
13.687051729199089,13.038666932327052,-13.869362241369037,-0.005469138646938296,0.8394925557144846,13.686584351171033
13.90294565360038,12.839367039264733,-13.732076937788232,-0.005502343718822758,0.9014864791039919,13.90248471208196
13.902942846836865,12.832788224311445,-14.02509573108484,-0.0055028687683635336,1.2010840862417584,13.902510682963815
13.902937859745487,12.816299653052829,-14.544687576243433,-0.005504184105653277,1.7371645006648067,13.90255720538606
13.90293279485213,12.793125971224253,-15.070910989315568,-0.0055060330072318475,2.2865615935159624,13.902604959816983
13.902927832835557,12.76397793832472,-15.584883907882713,-0.0055083599605342416,2.829682542950259,13.902652253319351
13.902922891280545,12.728447402563386,-16.095079987125807,-0.005511199064739678,3.3754091559059587,13.902699867196798
13.902918013498253,12.686853011398926,-16.596951223156214,-0.005514526700505019,3.91887478105361,13.902747385656456
13.902913160243001,12.638878759828268,-17.094464621813238,-0.005518370324705728,4.464362429219089,13.902795191971617
13.90290838052531,12.585055002739239,-17.58253616196879,-0.005522689905370785,5.006257724407338,13.902842802431568
13.902904513220644,12.536624816922947,-17.975977014300856,-0.0055265833313418505,5.448128760872976,13.90288171876838
13.902902602058715,12.511052632350681,-18.169906262046556,-0.005528641727531718,5.667630192352993,13.902901083621428
13.902900272445116,12.478396148222293,-18.405832106297307,-0.0055312729753112305,5.936212519704896,13.902924809429066
13.911068746354259,12.508601584682534,-18.47917001343419,-0.005532965081831697,5.979344205760464,13.911097600961444
14.000887117837145,12.91152252973956,-18.7702300060228,-0.00554566714272341,5.867474616786513,14.000906525687633
14.133074595344468,13.496895531325142,-19.18892876870935,-0.00556434558704221,5.700787628219031,14.133079807315879
14.267961551238681,14.085080825164187,-19.60469349824594,-0.005583390190875794,5.528354005876342,14.267951932480988
14.405344561240723,14.674890088298636,-20.01664903156143,-0.005602775419616988,5.350486926609979,14.405319495624939
14.54495831862179,15.264937807381498,-20.423826083815612,-0.005622467263702596,5.167602642198393,14.544917218646154
14.68661799359296,15.854245731342955,-20.825577415912093,-0.005642443244100502,4.980032180343308,14.686560293895134
14.83123949873034,16.4463611019943,-21.224317829045404,-0.0056628362043056645,4.786643008009897,14.831164525579231
14.978592620845822,17.040016382334763,-21.619161908487815,-0.005683617514541216,4.587817266918508,14.978499725265426
15.128632028636506,17.634739153123746,-22.00978638916244,-0.005704784764202446,4.383704112640962,15.12852056607659
15.28136605284606,18.230282615738965,-22.396029233664617,-0.005726343234928232,4.174388302476645,15.281235377392402
15.436871338339024,18.826664568711017,-22.777905312955156,-0.00574830796909527,3.9598668980420384,15.436720794483202
15.594319092986854,19.420502873621306,-23.15329348179517,-0.005770566075303596,3.7414009725126918,15.594148133872752
15.734412881366108,19.94063663223944,-23.478126448616614,-0.0057903895830375045,3.5460860769461604,15.734223517739778
15.792522600901398,20.154145495886898,-23.610398821634558,-0.005798617903526848,3.4648437211143763,15.792325539809807
15.775887368365913,20.104428828836816,-23.434566185666785,-0.005795359811041173,3.338729433033814,15.775677376321948
15.719275895491581,19.926426562903288,-22.90997808451457,-0.005784915138280023,2.9921493119542975,15.719030354930423
15.6576596933807,19.728413224139096,-22.332656934766412,-0.005773779070612509,2.6128477107216,15.657375393542955
15.59656657811673,19.52763098999471,-21.753574265773334,-0.00576297866494659,2.2345534230771196,15.596243769107279
15.535825676991312,19.32356011111812,-21.171127215800354,-0.005752481201692696,1.8561833540352008,15.53546449375788
15.475563728368428,19.116662669698606,-20.58654091286691,-0.005742306483848929,1.4785005368860775,15.475164378562777
15.41618419573558,18.908418118789434,-20.003828947650266,-0.005732517504229533,1.104039069101951,15.415747136698508
15.357238790080139,18.697343441065005,-19.418686112345934,-0.005723035610090267,0.729976805400895,15.356764188825952
15.299171007112879,18.485114713392925,-18.835609584661874,-0.005713927548020027,0.35913480257645414,15.298659307829421
15.240978312098107,18.26809373532165,-18.244532494325043,-0.005705034930135189,-0.014915508936358865,15.240429311696625
15.185549305253906,18.057288416390396,-17.67512449601208,-0.005696786750730141,-0.3735126713499144,15.184964652022625
15.156167334432324,17.94390658299599,-17.370716310906285,-0.005692503571670193,-0.56453610189449,15.15556373063758
15.140193192906187,17.88178405131221,-17.204460971477154,-0.005690201064402886,-0.6686673224396632,15.139579270629083
15.169616538313331,17.99259924762299,-17.256310058465083,-0.005694716878850581,-0.7276363543851332,15.168996702854779
15.301059441290374,18.4843930262159,-17.573626831745607,-0.0057148012751139735,-0.9021264442717557,15.300421949163148
15.459914841052305,19.068933858182668,-17.94639888440389,-0.00573910923482833,-1.1139110975908606,15.459255756633395
15.621786094652744,19.653797484548313,-18.314624124089494,-0.005763919525736805,-1.330565727807574,15.621104738453148
15.752104119575398,20.11694974359725,-18.602860521246587,-0.005783924507676284,-1.5054947168138773,15.751404646200692
15.795861168262626,20.271035259919717,-18.700559616331105,-0.0057906412062832075,-1.5618855557386817,15.795155821551624
15.795858004755372,20.279969487486994,-18.990725575816406,-0.0057899331272614485,-1.2806538249371577,15.795181088055406
15.795852243650721,20.29178971439813,-19.518373725333202,-0.005788997263584672,-0.7648259043827876,15.795227457207629
15.795846969213851,20.297455898309096,-20.000486222190403,-0.005788549868737682,-0.28837959333537216,15.795270321625646
15.795844939756426,20.298294786249862,-20.185723802656565,-0.005788484176790433,-0.10398090154600954,15.795286921838365
15.795843153848647,20.29840779615398,-20.34860263968837,-0.005788475978800149,0.058784924931458545,15.795301579839727
15.79583805591027,20.295461408682844,-20.81284749968615,-0.005788711979320021,0.5259761705311047,15.79534368268318
15.795832196624946,20.28597388014467,-21.34505596750409,-0.005789467534684865,1.067672164714177,15.795392560589594
15.795826406399248,20.27001758136049,-21.869426698679455,-0.0057907370691523095,1.6079991924997157,15.795441388283232
15.795820687216967,20.247661065137642,-22.3857059927231,-0.00579251601577671,2.146635000592242,15.795490144695034
15.79581504384407,20.219006261704774,-22.893399717169157,-0.00579479748787282,2.6829835262993185,15.795538783583643
15.795811453769604,20.197290863315477,-23.215414096432312,-0.005796527717772212,3.026713302555975,15.795570005760924
15.795808542410718,20.177654424193012,-23.47597592475127,-0.005798093318596538,3.306911568857243,15.79559548849294
15.78029658639671,20.170717241818117,-23.620638502886962,-0.005796668830439987,3.458512895629091,15.78009876119826
15.408241189218776,20.278216758593935,-23.686980945179275,-0.0057404108721886005,3.417393218894928,15.408035858889809
14.825674454824169,20.440908305450236,-23.78708631764697,-0.00565186266719392,3.3548648706946804,14.82545769070539
14.23580853725171,20.59869800887979,-23.883832770001398,-0.0055616410230103774,3.2938792554716882,14.235580585532293
13.640319533336726,20.750978042854975,-23.97688143219034,-0.005469991823826407,3.234705129015415,13.64008067781158
13.045393064090216,20.896143677047643,-24.06529103193909,-0.005377868130013758,3.1780053365225007,13.045143699284392
12.449334938463148,21.034662567032562,-24.149387297798526,-0.005285015303208192,3.1236381036977603,12.449075421521183
11.85401705394768,21.16615386139846,-24.228977653333942,-0.00519173301499907,3.071791524673728,11.85374776587874
11.253322016983518,21.291947012145307,-24.304901038050744,-0.00509706518753505,3.021975628323795,11.25304323380891
10.654308902295321,21.410554833074173,-24.37629267837754,-0.005002128220376495,2.9748121792010296,10.65402100574784
10.050581966243966,21.52324527420052,-24.4439474674375,-0.004905913665459094,2.929828670167,10.0502852336619
9.450419227911246,21.628502486034616,-24.50698570183767,-0.004809748493453549,2.8876605237011823,9.450114048774545
8.849168958543824,21.72723078553394,-24.565978807551577,-0.004712899975427175,2.8479752434488628,8.848855644398787
8.268438523008333,21.81624496358745,-24.61905555614532,-0.004618881918782393,2.8120850595823557,8.268117652074235
7.977043876505115,21.85857217502025,-24.644256942282023,-0.004571533155707955,2.794982582155553,7.976719321948313
7.955948498286938,21.759553419314145,-24.41646659336472,-0.004567615297433307,2.666212670081491,7.955613498688424
7.919568599034711,21.517636407394658,-23.864886864308613,-0.00456062059456505,2.356552849176961,7.9192086491144895
7.881350852861184,21.259314405429524,-23.278117649480592,-0.004553408473351072,2.0281086748220782,7.880964523015631
7.843557814711396,20.99956737719159,-22.69032739675183,-0.004546416854151289,1.700068451003882,7.843145220876597
7.806183730785576,20.738418038301788,-22.101515209859546,-0.004539643469626864,1.3724085664303807,7.805744983924724
7.769166720978246,20.475484790629224,-21.510775576417767,-0.004533076309098056,1.0446051118752497,7.768701887397448
7.732649009755363,20.211843406711758,-20.920474651103515,-0.00452673934558156,0.717948458348915,7.732158255375531
7.696462098211654,19.946339702497358,-20.327980340353882,-0.004520602213623924,0.3909607097939833,7.695945468693648
7.660459008936792,19.67790221258779,-19.730880266352578,-0.004514640751384953,0.062300965478827255,7.659916441784352
7.625080036925517,19.409873812414254,-19.136565981076775,-0.004508926863728206,-0.263982132656777,7.6245117862607135
7.5901433071027,19.140984200316133,-18.542157305092193,-0.00450342857623357,-0.5894984478993105,7.589549496731747
7.561894358767013,18.9204488624204,-18.055952474765974,-0.004499090297049159,-0.8551657203794196,7.561279733220393
7.5500555121833575,18.827183473294486,-17.8506808941107,-0.004497301331907102,-0.967170982223884,7.549432122753835
7.546584697371402,18.799415410378078,-17.775173981075923,-0.004496800555665497,-1.0149095598111766,7.545957570198251
7.588057245232606,19.114689469241792,-17.975438768490548,-0.004503724057016995,-1.1299220876641454,7.587420956587213
7.664988495013869,19.69167217757959,-18.33836892167638,-0.004516611712609025,-1.343980696348381,7.664335082225394
7.745867378108767,20.287510239869114,-18.708323583361345,-0.0045302241458649575,-1.5698704792232951,7.74519579160508
7.828043998530492,20.881921414187556,-19.07251604879384,-0.004544122637858905,-1.8000956917821407,7.827353780350145
7.910534227298915,21.46775982116248,-19.42670905452538,-0.00455814362106317,-2.031747640763348,7.909825150368468
7.963515309780492,21.838432468973647,-19.64838880737492,-0.004567185927358369,-2.180744751310672,7.96279404361339
7.945695419323573,21.828621291838193,-19.642546451730983,-0.004564279385137813,-2.1767745106683067,7.944974580430682
7.770822307764068,21.392075085390843,-19.38121664006876,-0.004535345944963877,-2.00154423805598,7.770116433382246
7.543456510926169,20.814723638711957,-19.031590454647976,-0.004497737028395621,-1.773801062941894,7.542769823609155
7.319933886930385,20.23609249247402,-18.676594959211197,-0.004460773593858766,-1.5501479443431103,7.319265754165673
7.101382854112481,19.659454662932838,-18.318229356338456,-0.004424640643321474,-1.331858775975497,7.100732555785107
6.886460547410116,19.081611784567745,-17.95449757757082,-0.004389114538218505,-1.1177311488779489,6.8858274791190714
6.675721157811179,18.504349432623876,-17.586498347030442,-0.004354285282488126,-0.9084519498402419,6.675104675718567
6.46804237502595,17.924854775912515,-17.212401005731007,-0.004319965788032039,-0.7030389146916414,6.467441927843209
6.265223015928494,17.348470371185687,-16.83564784666634,-0.00428645169909268,-0.5033924364970394,6.264637919747766
6.065621629073769,16.770874410808332,-16.45341927449681,-0.0042534701774354965,-0.3080101728101278,6.065051331303877
5.869882445226597,16.19420674968192,-16.067110771052487,-0.004221126110530743,-0.11763653880516786,5.869326350819435
5.676852222857302,15.615313417283353,-15.674576758095123,-0.004189227388907601,0.06873694849515956,5.676309824973543
5.4878940399750915,15.038549975388086,-15.2787524218253,-0.004157997760080044,0.2496898189554207,5.487364740516869
5.340913489191517,14.582847244017756,-14.962657467342758,-0.004133702179401212,0.3893082314401917,5.340394159844956
5.287362590053344,14.415250102747997,-14.84565847382432,-0.004124849334451736,0.4399102386304984,5.286846844539672
5.286047763901329,14.408501057824527,-15.06698049373796,-0.004124788611631918,0.6679813975401412,5.285548436269384
5.286044170534671,14.398357695631475,-15.576262965568102,-0.004125390305001038,1.187407230475805,5.285582244348799
5.28604042359125,14.381488558664817,-16.106035544279237,-0.004126390003761579,1.7340489450060637,5.285617873731389
5.286036704454288,14.358219489729944,-16.63046116999001,-0.004127769011569738,2.2817436384986047,5.285653629481927
5.286033047270895,14.328827989908191,-17.144649274773748,-0.004129511792868716,2.8253232419561427,5.2856891802089585
5.286029423597553,14.293172631355722,-17.652533164142625,-0.00413162787782918,3.3688624887259175,5.285724798150178
5.286025817368256,14.251066934861827,-18.156274294698676,-0.004134129751854317,3.914709314615458,5.285760644166861
5.286022254520758,14.202819147825192,-18.65217052291959,-0.004137000757419472,4.458853328712057,5.28579646160285
5.28601913209639,14.154974622446286,-19.085211145793505,-0.004139852301552567,4.939738475935277,5.285828189608137
5.286017744689099,14.132018567027302,-19.277137885020846,-0.004141222115545667,5.154621270120391,5.28584239108918
5.286015670083447,14.095715359557929,-19.563544959654266,-0.004143390545637443,5.477331551529163,5.285863747758093
5.289813784003297,14.134991046532445,-19.639811957046046,-0.004144280366333547,5.514322588420292,5.289664609885476
5.325253615214192,14.553707792342596,-19.93247997957986,-0.004149312607610643,5.388271312123309,5.325095837390124
5.376123498928942,15.14696279905415,-20.342876988050982,-0.004156551743493773,5.205409642966418,5.375953191711579
5.428407270605171,15.747379156628872,-20.75315535164579,-0.0041640143539872715,5.015267868251786,5.428223876663073
5.481565322330536,16.348377272504827,-21.158743368450224,-0.004171627878408984,4.819853917132668,5.481368418522559
5.53574043697562,16.951303697369084,-21.56054215086304,-0.004179417101264416,4.618722340542102,5.535529565948489
5.590337800670686,17.54939398235814,-21.95410412303998,-0.00418730051451644,4.414190054360557,5.590112663249911
5.6303969123502675,17.98227110899791,-22.235849261949763,-0.004193107627454944,4.263055145826761,5.630161193034174
5.6335487721126905,18.021468423219527,-22.204824808514566,-0.004193250157786917,4.1928331483267325,5.633307938068737
5.616789981995812,17.873315197288242,-21.757024766357173,-0.004188920352836438,3.893187555748242,5.616526978398755
5.595174312972541,17.678202050599875,-21.173424045180255,-0.004183499876475297,3.5047015583367105,5.5948826344768
5.573811048447946,17.48086350192458,-20.58985347026564,-0.0041783263619675,3.1184710894342533,5.573490934347415
5.552720429609162,17.281596496693254,-20.006987371041735,-0.00417340021998599,2.734873531611405,5.552372142591309
5.53186377474557,17.080139477441325,-19.423871502041763,-0.004168708249775289,2.353216199729696,5.531487522441223
5.511150561417364,16.87568042950298,-18.838028409009855,-0.004164227690326913,1.9718336608210285,5.510746425938276
5.490599157800295,16.668440450650664,-18.24999787086024,-0.004159961110637006,1.5910445947190641,5.49016724143542
5.470225087303797,16.458625616070243,-17.660260687573203,-0.004155909999628158,1.2111237251204772,5.469765509166522
5.450104354479485,16.24709725591591,-17.071100360081218,-0.004152086607957642,0.8334932173237644,5.449617333700818
5.430195503914428,16.033509593851534,-16.48140627275109,-0.004148479784797647,0.4573882350796388,5.4296812004538495
5.414229693016664,15.859102058152878,-16.003571880297983,-0.004145716034472191,0.15396253472359622,5.413693412850739
5.408076516053109,15.791136495978206,-15.81822754050981,-0.0041446818591549086,0.03658420258635816,5.407531742095856
5.4153064836471385,15.871226099899902,-15.848693441909338,-0.004145878826240687,-0.013040022871853216,5.414758119667565
5.458153181984976,16.34205931433162,-16.16660797959077,-0.004152993369205208,-0.16596180215923528,5.457593732130341
5.512585452471843,16.931094442234908,-16.559920652019674,-0.004162071799567644,-0.36168820672790497,5.512011758587575
5.567878383863348,17.519259993463482,-16.947774952464425,-0.004171341102810483,-0.5620034778016071,5.567290048328889
5.618587140786385,18.049866776965626,-17.293506092465645,-0.004179884970912774,-0.7468828160356051,5.617985234949922
5.636283135676931,18.233246646458888,-17.42070715636359,-0.004182867551686793,-0.8030629127616619,5.635677089952555
5.636280720016675,18.23770259990177,-17.735302234865753,-0.004182609121289392,-0.49292378835245515,5.635697316710697
5.636278080082258,18.240175380628738,-18.07866219319351,-0.00418246647381935,-0.15203661146723016,5.635719561602918
5.636277219948134,18.240433127977745,-18.19042936585352,-0.004182451944557376,-0.04052718639052972,5.635726841411581
5.636274596718989,18.239532614876886,-18.530959490250975,-0.004182505966017665,0.30090345038959493,5.63574914196296
5.636270510612544,18.23298170381132,-19.06031686398523,-0.004182890320207825,0.8368117340597262,5.6357841798670245
5.636266412475611,18.219959440649607,-19.589805332824707,-0.004183652295021951,1.3793224649141096,5.635819698560201
5.636262364172279,18.20057787067051,-20.111322808880193,-0.004184785838186128,1.920221509801885,5.635855167262407
5.636258377923465,18.174994197685837,-20.623231810698435,-0.00418628252539333,2.4577141834616576,5.6358904738186535
5.6362544063791935,18.142924877167953,-21.131534446733475,-0.004188159964933563,2.998086138861519,5.635926037376465
5.63625055563743,18.105401382303846,-21.622619649147858,-0.004190358970783062,3.5266948350081515,5.63596089875711
5.6362483881180925,18.08143753800032,-21.89823883728821,-0.004191764703798214,3.8262778668088107,5.635980689976106
5.636246217751176,18.05535585896192,-22.173613054580862,-0.004193295925347874,4.127733762491252,5.636000631097788
5.623695524037038,18.04636464038688,-22.277343848145744,-0.004191817180242754,4.240456690487475,5.623458055953531
5.256827441305788,18.08333988865976,-22.301258937164853,-0.004130813338775716,4.2274231104854465,5.256584528960203
4.675722347902204,18.136753804735967,-22.3357731986955,-0.004033853753783457,4.208564758764445,4.675470969917877
4.0877993531304275,18.18438269892327,-22.366516447734977,-0.003935350622114579,4.191719901861365,4.0875395985727625
3.4976884832353305,18.225723524796184,-22.39317588424997,-0.0038360797781850178,4.17707843768488,3.497420501321245
2.9083691872934825,18.26056063859647,-22.415623394618496,-0.0037365504967356547,4.164727686844441,2.9080931590513317
2.318601084842584,18.288987972016336,-22.433928840158416,-0.0036365632844769084,4.15464365763572,2.3183171636040343
1.7295897906857076,18.310963673262123,-22.448072841347468,-0.0035363324552377643,4.146848741687252,1.7292981350563221
1.1421776916519153,18.326503328100074,-22.458071291697774,-0.0034360132034796124,4.141343196364539,1.1418784595696485
0.5515853457288642,18.335714093603777,-22.463997259191878,-0.0033347975959840265,4.138093214805813,0.5512786229585317
-0.03635897441587594,18.33850039438276,-22.46579167841749,-0.003233693776577488,4.137134958381323,-0.0366730391880617
-0.6262735910272339,18.33489623985701,-22.463477181377886,-0.003131918003970418,4.13845731201136,-0.626594918329051
-1.215602182510064,18.32489313738942,-22.457047339436627,-0.003029920013351475,4.142062190865082,-1.2159306724887415
-1.7631932838473094,18.30985915385134,-22.447379459374638,-0.0029348647660480294,4.147456733975877,-1.7635283563620598
-1.9844087863386135,18.29836705024783,-22.433017736471175,-0.002896369012288068,4.144598346512051,-1.9847467839722484
-1.9793632180462002,18.166211653469666,-22.10897740539114,-0.002896560007365424,3.952713158022752,-1.9797108783276012
-1.9705139172936983,17.93115852056858,-21.53509523738967,-0.0028969658391023484,3.6138836769263554,-1.9708786439990056
-1.9615415411022707,17.68852094727942,-20.945875224697637,-0.0028974715452535975,3.267300785086946,-1.9619237311510267
-1.952698871133743,17.44506364772683,-20.357770594595387,-0.002898065271733244,2.9226530084073183,-1.953098434433157
-1.9439672979746545,17.20037321207625,-19.769688048542182,-0.0028987469530773902,2.5792604572520648,-1.9443841796017356
-1.9352616045635052,16.952084225752476,-19.175902679823565,-0.0028995236375171413,2.2337636351858077,-1.935695920062532
-1.9266522899981837,16.70221940622926,-18.581220081518424,-0.002900389692957354,1.8889454213790609,-1.9271040155538963
-1.9181205157478152,16.450282870478294,-17.984403827496802,-0.002901346819220189,1.5440652717850734,-1.91858966591633
-1.9097498618747475,16.198843577634594,-17.391453408218123,-0.0029023842983553335,1.202553721962804,-1.9102362787174365
-1.901424533819541,15.944501016166193,-16.79428010547492,-0.002903515678162207,0.8597225593877628,-1.901928297312723
-1.893214257833342,15.689428318151258,-16.197939699809986,-0.0029047314901793323,0.5184544360590453,-1.8937353030684532
-1.887065651316289,15.495597040602512,-15.746422637013154,-0.0029057088568633462,0.26076833938231225,-1.887599755692104
-1.8845552126308516,15.415755987078876,-15.56084059808592,-0.002906124708386828,0.15502722679220615,-1.885094678401348
-1.8872872981609683,15.50328416727261,-15.59810376348662,-0.0029056447051538704,0.10476235062929297,-1.88782931429801
-1.9024043777315012,15.983295918145906,-15.924688932995043,-0.0029030172069143627,-0.048663464243512346,-1.9029541722982013
-1.9213007514508136,16.57416678513227,-16.322215999385953,-0.0028997621169352416,-0.2420063076949404,-1.9218603283434306
-1.9405883640938202,17.167048369928747,-16.71614039959751,-0.0028964738767149017,-0.44096251643317536,-1.941157984721938
-1.9602489245197883,17.761041855493648,-17.10584433453441,-0.0028931583129512516,-0.6452510735044835,-1.9608288347193743
-1.9781936535818097,18.294303626182028,-17.451490681443584,-0.00289016452405261,-0.8328655914592182,-1.9787829930781409
-1.9702967482954108,18.473989844790577,-17.567063343869947,-0.0028915844342405866,-0.8969795457480685,-1.9708893440033808
-1.6200180135052331,18.309600710111567,-17.46134573427489,-0.0029523043064048956,-0.8383258761623706,-1.6206085446202583
-1.0644588478003398,18.0427183281463,-17.288911382049267,-0.0030483836199974228,-0.7439069270875346,-1.0650457723159932
-0.50271226027893,17.765073990397692,-17.108466164834322,-0.0031452449093185993,-0.6467381575692236,-0.5032951194331532
0.05889478139234072,17.479528951273952,-16.921759154771223,-0.0032417844838366922,-0.5479314205526014,0.058316412083861194
0.6170009122228524,17.187726695776128,-16.729778011196007,-0.003337419524610822,-0.44814234220420845,0.6164274302773696
1.170883419249041,16.890065776391772,-16.532708280316072,-0.003432024786849501,-0.347583864905258,1.1703152103762635
1.716618541028824,16.588776909409855,-16.331964971008063,-0.0035249329124844436,-0.2470714307502782,1.7160559421035322
2.2610173523612005,16.280158375947487,-16.125009012589512,-0.0036173042228455615,-0.1454427787664652,2.2604607613917866
2.7997877173332353,15.966647726449153,-15.91339281946631,-0.003708409487342231,-0.043582757595572466,2.7992374781700655
3.3383841760446966,15.645045224536057,-15.694866919605968,-0.0037991692440065583,0.059458565340488885,3.3378406907457117
3.873675930351464,15.317141194509679,-15.470546628958372,-0.003889052332922595,0.16300639814111142,3.873139557430678
4.405401895161394,14.983093234472413,-15.240449809200186,-0.003978014576094801,0.266921041259081,4.404872980813843
4.931901156577126,14.643985502553418,-15.005239919154624,-0.0040657796865383525,0.3707819328616842,4.931380012111767
5.2727111146422745,14.41997172510749,-14.848959736284527,-0.004122417114059095,0.4384911798387367,5.272195202496654
5.286049686114536,14.409041752616234,-15.027785699034963,-0.004124755520619682,0.628246154870251,5.285547451587657
5.286045997297767,14.39961792994006,-15.52612917036851,-0.004125314593408234,1.1360134478295556,5.285580323808812
5.286042064107186,14.383360586013094,-16.056095740835854,-0.004126278033976103,1.6822373610908703,5.285615735072776
5.286038161324965,14.360728850698344,-16.580423968649935,-0.004127619195714532,2.2291973230818307,5.285651251736342
5.286034315036078,14.33192351704926,-17.095537647859683,-0.0041293270661495315,2.773116334805554,5.285686634672038
5.286030505693324,14.296871955816608,-17.60399287101717,-0.004131407073860999,3.316623118057705,5.285722060760324
5.286026709279105,14.255318992977205,-18.10890837712367,-0.004133875759321335,3.863091585855443,5.2857577569968806
5.286022968810313,14.20775794102787,-18.604494262995388,-0.00413670543822565,4.406238522531139,5.28579331944609
5.286019482415108,14.157372674948205,-19.06462508653157,-0.00413970800861975,4.916754611066444,5.285826826901741
5.2860178951684045,14.132462670155276,-19.273508519584414,-0.004141194330278773,5.150548048416043,5.28584219973096
5.286015728462708,14.096438844040373,-19.558021401941808,-0.004143346008126765,5.47108475620665,5.285863306081628
5.236858165352581,14.094825413393123,-19.611605795906996,-0.004135538119089767,5.5262861166374035,5.236708965037557
4.8058906771617425,14.136476666406761,-19.640856966510743,-0.004063505791222467,5.51391673479916,4.805733671219995
4.234253521334305,14.18616133537426,-19.67571782944287,-0.003967623357658055,5.499132817436425,4.234086289322225
3.664371911950133,14.229397992075503,-19.70602621160289,-0.003871659104510762,5.48624336032609,3.6641946228745024
3.090755439968767,14.266586823436942,-19.73207423701511,-0.0037746951834519617,5.475140665684566,3.0905681588460787
2.5206670515063814,14.297267590567937,-19.753549487609643,-0.0036779677696987282,5.465972067487793,2.5204699619887014
1.9491114577659108,14.32175489009752,-19.7706805236893,-0.0035806399652133255,5.458651854418926,1.9489046487574648
1.3763191348151096,14.34000357967352,-19.783442270549134,-0.003482757295366442,5.45320006914044,1.376102691613034
0.8031223081511343,14.351967054905883,-19.791807018765326,-0.003384469345163756,5.449635547844405,0.8028963219832197
0.23126534885697086,14.357628871562222,-19.795766481229528,-0.0032860849082102313,5.447966342538345,0.23102993111223066
-0.341163946967627,14.357022736727226,-19.795345745834048,-0.003187284550449131,5.448183943525356,-0.3414087253885139
-0.9110232890703539,14.350184719870064,-19.79056984329571,-0.003088621145935628,5.450277137248386,-0.9112773151215002
-1.4770290471695575,14.337232211323892,-19.781519011453334,-0.0029903308225827556,5.45420871455023,-1.4772921969496342
-1.8428845655491997,14.32559116517108,-19.773381846625526,-0.002926645937874066,5.457731408080609,-1.843153584333363
-1.8581421087366332,14.25723943228757,-19.592480524666826,-0.0029234433053794574,5.345182594985604,-1.8584171490467836
-1.8509492513746653,14.057553291985224,-19.062850594572883,-0.0029231691701494702,5.015238440130851,-1.851241081876858
-1.8430412054785956,13.833797192859153,-18.473606471630973,-0.00292296848095734,4.6497500147767505,-1.8433516327916275
-1.8352427967356355,13.60874943653369,-17.885254069350612,-0.00292287610606018,4.286444972669364,-1.835571708779122
-1.8275113794380318,13.381254849153914,-17.29467102331854,-0.0029228903387121703,3.923356121090256,-1.827858765523481
-1.8198219039917913,13.150594273175146,-16.69994426291688,-0.0029230114438190897,3.559289545697033,-1.8201878154704882
-1.8122248398521297,12.918321691397741,-16.105015550791528,-0.002923238338702152,3.1966330289060725,-1.8126092078535063
-1.804679808615185,12.68325111815333,-15.506776290948059,-0.0029235717645518613,2.833463958342391,-1.8050826633850459
-1.7972967924481882,12.448919428971509,-14.914105881122518,-0.0029240048849519533,2.4751248618166355,-1.7977178934494527
-1.7899415893420145,12.211156694709258,-14.31635658295304,-0.002924544125325774,2.1151379232838847,-1.7903810270530531
-1.782645075872046,11.970960387070505,-13.716011297811916,-0.0029251880451626215,1.7549885739881548,-1.783102866399175
-1.7760519257619019,11.75014229882724,-13.167094511768587,-0.002925865626554144,1.4268895401000772,-1.7765264437288883
-1.7730961929696458,11.649968822519254,-12.918994698474869,-0.0029261994864136914,1.2789630524034854,-1.7735782553733344
-1.7726918524732433,11.637205308364319,-12.84750399804978,-0.0029262040202716715,1.2202358455648936,-1.7731769133634168
-1.7832548863850106,12.011393072499086,-13.123150015667267,-0.002924268601400187,1.1216946383663207,-1.783745016756734
-1.7998247532571041,12.590750116441095,-13.545928421985478,-0.0029212483311804706,0.9651168460746473,-1.8003229245487904
-1.816938324503743,13.179570008276622,-13.970638813460962,-0.0029181501756779817,0.8010082179142325,-1.8174449051974209
-1.834371718250638,13.769674397350979,-14.391262227832842,-0.0029150174167423566,0.63152813080167,-1.8348869645889176
-1.8520040699653355,14.356792572552353,-14.804793259654362,-0.002911873884727625,0.45794188420722987,-1.852528172465055
-1.8700810884096302,14.948831375994311,-15.216794367279537,-0.0029086781718018376,0.27790510681604874,-1.8706143559632884
-1.888370633849106,15.537903859826095,-15.621768061727906,-0.0029054737439909513,0.09380724565035278,-1.88891325247061
-1.906913849873915,16.125218161168945,-16.020623050760793,-0.002902255365456177,-0.09465112660074484,-1.907466019879212
-1.925828873745363,16.71427511757648,-16.41575492704784,-0.002899004873251136,-0.2885752488853018,-1.9263908503047262
-1.9451516328118108,17.305837767760043,-16.80764061475246,-0.002895718827478463,-0.4882512339992184,-1.9457236841481678
-1.9649907399790563,17.90277000041479,-17.198097126490264,-0.0028923819011195217,-0.6947259526099282,-1.9655731854686482
-1.9812204849391932,18.38343020465411,-17.50887235132435,-0.0028896802634114376,-0.8646101129466113,-1.981811464873689
-1.984530088286068,18.481729777632726,-17.630724304273727,-0.0028890875812125436,-0.841057566121703,-1.9851198717875063
-1.984532317840268,18.48751644902606,-18.045228087269535,-0.0028888563898755884,-0.43234045492637974,-1.9851014917044896
-1.9845338476393675,18.489377148514475,-18.329235262935878,-0.002888782578713051,-0.15019397902994386,-1.9850887956607526
-1.9845345284269094,18.489645302970462,-18.455512206504533,-0.0028887722351722015,-0.024185190043117363,-1.985083123243763
-1.9845365728995457,18.488347745979226,-18.834301171993598,-0.0028888256888949305,0.3559013320571689,-1.9850660040789059
-1.9845394597613555,18.481046200398676,-19.367984848103212,-0.0028891210343060902,0.896886553205208,-1.985041611859461
-1.9845423298201124,18.467280132731627,-19.897076649377297,-0.002889676436061233,1.4397444216007778,-1.9850171003734707
-1.9845451456229084,18.44729764382431,-20.414599784602384,-0.002890482266792777,1.9772500451913917,-1.98499279183764
-1.9845479389520542,18.420968796828692,-20.926334285293827,-0.0028915443170528603,2.515313392334352,-1.9849684151563627
-1.984550710267242,18.388279156507807,-21.43228039558476,-0.0028928638906311494,3.0539491423996785,-1.9849439651710126
-1.9845532540206225,18.35237409404558,-21.895036457670653,-0.002894314713807211,3.552610266440146,-1.9849212836648082
-1.9845543769792724,18.334692012029954,-22.09879644305222,-0.0028950297974598286,3.774052333611356,-1.984911196264876
-1.9845560544831444,18.306156505785598,-22.402552323236765,-0.002896184671350432,4.106343719700498,-1.984896040930571
-1.9866080965082433,18.364685204122342,-22.482632311620847,-0.002895905618773977,4.127895113176744,-1.986947016492725
-2.001336041718355,18.810076552259787,-22.767464873810304,-0.0028927677061506172,3.9673370695882686,-2.001683273690075
-2.0215789948710214,19.413700698693855,-23.149137856597353,-0.0028884892902604903,3.7453869252115384,-2.0219376868763494
-2.042269695704464,20.02067785847798,-23.52790411655112,-0.002884158701879313,3.5171770659130304,-2.0426401352179853
-2.063362908097796,20.629315976196963,-23.90267164696363,-0.0028797892160170725,3.2833075380448817,-2.063745349731124
-2.0849916300461104,21.24303233234379,-24.275487323928765,-0.0028753573974103575,3.0424079437975218,-2.0853863965620025
-2.1069990167335573,21.856981564444148,-24.64336860254178,-0.002870899420222704,2.7963410927827783,-2.107406333508264
-2.1236753009021894,22.315307069109863,-24.91470556145387,-0.002867556373650287,2.609353381458568,-2.1240921288339947
-2.1250593772453734,22.356513589400137,-24.881187043077414,-0.0028671474540377362,2.5346284120840754,-2.1254799593593074
-2.1182112848785164,22.18911591672491,-24.42942593106122,-0.002867742796538476,2.2502646306763,-2.1186460610718703
-2.1094785838672387,21.971758758709008,-23.847238081758366,-0.0028686003876639645,1.8854335029823512,-2.109931580254557
-2.100811951957581,21.75167839824477,-23.262569446830998,-0.002869562679822635,1.5208447951894293,-2.1012831683588535
-2.0922577483806526,21.53012653996104,-22.678625824950178,-0.0028706234505723044,1.1584526036647291,-2.0927470881010457
-2.083827851060393,21.307529358462304,-22.09636850980478,-0.002871779030652126,0.7987920480960128,-2.084335191612018
-2.075460286391987,21.082330823633164,-21.511608847552225,-0.002873036711148749,0.4392305016614659,-2.0759856381053816
-2.0671226762998938,20.853668189663292,-20.922062353914306,-0.0028744020480687806,0.07834622427546657,-2.0676661220281076
-2.058882148204586,20.623416632774486,-20.33249596526259,-0.002875864098120883,-0.2809690205442691,-2.0594436270205554
-2.0507198179326025,20.391120726018233,-19.74164192314445,-0.002877425275359077,-0.6395275652418307,-2.0512993107197843
-2.0427079818117617,20.158951288873308,-19.154885879869134,-0.0028790697128590827,-0.9941145733527105,-2.043305308759186
-2.0362829251329315,19.969745627823528,-18.67938309696107,-0.002880470517692128,-1.2804120177148102,-2.036894666690588
-2.033741861301811,19.894166495492897,-18.490090290036488,-0.0028810450378853863,-1.3941258198904312,-2.0343593320623072
-2.0366894638560264,19.976128873766317,-18.515653983172793,-0.0028806032424638136,-1.4505243567951733,-2.037309758479632
-2.053880904729232,20.45461696414151,-18.811255733295273,-0.0028778634177474786,-1.6334098332171414,-2.054510312676295
-2.0756028195682235,21.049361130400968,-19.174284749064327,-0.0028744434317371794,-1.865123893512457,-2.076243749357553
-2.0979809245513152,21.6508728916652,-19.536510657599262,-0.002870968965092659,-2.1044086246098628,-2.098633724114173
-2.118641545147705,22.196392541095797,-19.860744283533702,-0.0028678050242139635,-2.3256936139065005,-2.1193052961584797
-2.1261557146039105,22.39304920377709,-19.98685803310106,-0.0028666436947452083,-2.396236151220595,-2.126822944908888
-2.126157596148661,22.40910242545315,-20.318307601333405,-0.0028660252542776145,-2.080839804964933,-2.1268090359809553
-2.1261606328740865,22.43040387741814,-20.852459678214142,-0.002865205500913046,-1.5679891805388253,-2.1267864096976883
-2.126163694936523,22.445972184259592,-21.389968831884303,-0.0028646072720788325,-1.0460483342095195,-2.1267633668315526
-2.126166763379049,22.45544430946325,-21.927361789098043,-0.002864244165126621,-0.5181275027057822,-2.1267400401436753
-2.1261687333192003,22.45820871422596,-22.27165481435091,-0.002864138844684111,-0.176598882543895,-2.1267249369054904
-2.12616942227278,22.458552657007314,-22.391925875682126,-0.0028641260007878206,-0.05667176410942584,-2.1267196308635725
-2.126171044821395,22.45807068328215,-22.674876837352773,-0.0028641455102806526,0.22676117101336252,-2.1267070849994414
-2.126174041485989,22.452333748114714,-23.196296419956937,-0.0028643682299485836,0.7539176882760759,-2.1266837279049544
-2.126177113899055,22.439771584384438,-23.72922174751348,-0.0028648540419575525,1.2994051790347294,-2.126659523455646
-2.1261800830213997,22.42103156188006,-24.242489936529818,-0.002865578234872361,1.8314133900386662,-2.1266358785057955
-2.1261818755435167,22.40650525129254,-24.551478280468785,-0.00286613963260681,2.154928044250063,-2.12662147958968
-2.1261834782854065,22.391430839160076,-24.827161894139106,-0.002866722374395497,2.445686069769115,-2.1266085244967785
-2.1012511463287002,22.384686151439475,-24.9555335589128,-0.0028713547039575993,2.580801175293069,-2.101669230501271
-1.6993061560074916,22.398180690560924,-24.963465775261966,-0.0029411721490985527,2.5752184926420387,-1.6997213880269018
-1.0918600599282233,22.413154944534067,-24.97226414848084,-0.0030464136058090067,2.569010915394851,-1.0922709011041771
-0.4803763925374964,22.421644934744585,-24.977249946581452,-0.0031520146272640995,2.565473691870558,-0.48078270286120595
0.13293965573277192,22.42352950177493,-24.97835419844131,-0.0032575781007691093,2.564659117150894,0.13253801619189567
0.7475122607922281,22.418757470351547,-24.975547334877117,-0.003362990777768862,2.566588824866098,0.7471154432092542
1.3590800342815719,22.407388264336216,-24.968863032655072,-0.0034675119794432166,2.571237322660264,1.3586881702375095
1.9737777574071134,22.38930046363971,-24.95822686891104,-0.00357217872370776,2.57865124636361,1.9733910426133634
2.5861867908550904,22.364632098932024,-24.94371521418168,-0.003676056364080988,2.5887692703351646,2.585805390143581
3.199426156346648,22.33326984905521,-24.9252548407204,-0.0037796642008407215,2.601631299293201,3.1990502749874334
3.8127234455138654,22.295225025505555,-24.902844012963175,-0.003882859781479585,2.6172243385612624,3.812353296088654
4.425739584277943,22.250505312377175,-24.876477081246637,-0.003985575288893986,2.6355350823094907,4.425375389731527
5.039681102255109,22.198991788775057,-24.84607184850335,-0.004088001248748747,2.656600174664206,5.039323111099019
5.641028847600779,22.141987410138853,-24.8123847751331,-0.004187884375578294,2.6798741077326977,5.6406771777382945
6.01785779423274,22.102952811633504,-24.789292173864588,-0.004250247830459253,2.6957883937829914,6.0175102147295645
6.02723146246565,22.024630823823216,-24.61503317781785,-0.0042514658882209,2.5998506915056123,6.02687682875283
6.0008229302386,21.792177903684497,-24.08936642278004,-0.0042461736750912535,2.3066388139966505,6.000446346278806
5.971645285006553,21.531260848302576,-23.50137652563243,-0.004240449314591339,1.9795681325354493,5.971244280881746
5.942707456857768,21.26816815568994,-22.91059064348098,-0.0042349025286643645,1.6518770831278156,5.942282052402395
5.914320243182826,21.00581857435681,-22.32349879947533,-0.004229590966923851,1.3271369175254406,5.9138707210537556
5.886120244381543,20.740936688709656,-21.732713534208255,-0.004224445031803257,1.001235618850856,5.8856465789348125
5.85842306276504,20.476560773355637,-21.144959753734785,-0.004219520999986688,0.6778597953463933,5.857925498743709
5.830642461059636,20.20710659072839,-20.547799923797253,-0.004214715295223101,0.35015619358353806,5.830120734843382
5.803425371528277,19.938875960866927,-19.95517143429792,-0.004210140015500678,0.02576033584736441,5.802879780404177
5.776343777473141,19.66772898629281,-19.35787810373355,-0.004205721821652418,-0.30038403032263294,5.775774244032739
5.749759083371546,19.397348238405506,-18.763989983536998,-0.004201518733607753,-0.6238894513739783,5.749165849791583
5.726553058056965,19.157855196577458,-18.23933023834997,-0.004197961378337165,-0.9090544531243402,5.725938971379328
5.716338605022115,19.051396657265265,-18.006516790461458,-0.004196429234236526,-1.0354086132051992,5.715715289536136
5.712511584433185,19.011128168520962,-17.909820001750234,-0.004195872981243681,-1.0918366327878775,5.711884147349377
5.740973299746359,19.297039018355747,-18.09065053734997,-0.004200731912392845,-1.1969190317759524,5.740338067396301
5.797995268930219,19.862523006245613,-18.444964007979074,-0.004210508310523977,-1.4080937327823018,5.797344317892709
5.859230314691013,20.459140701422925,-18.813992728056995,-0.00422106977179358,-1.6356872111727598,5.85856234306809
5.921463167554599,21.054479543690807,-19.177344759710863,-0.004231870734098174,-1.8676786095188906,5.920777760954489
5.984463423231621,21.646168263170114,-19.533653205919688,-0.004242874803468398,-2.103063538444646,5.983760237960186
6.02922614238162,22.06001439232358,-19.780023342084878,-0.004250736442052031,-2.2705428462906876,6.0285102526721825
5.974377578144836,22.083868676835845,-19.794153686948956,-0.004241711622547688,-2.280262723340214,5.973661328145391
5.543609894747077,21.81074555382192,-19.63191203270101,-0.00417016004351653,-2.169349650483339,5.542904566323787
4.9882701369904305,21.450469296745755,-19.416342065372476,-0.004077603341676378,-2.0246034084438684,4.987578617208823
4.4347381934009045,21.08201537364994,-19.194042468949043,-0.00398500452232972,-1.8784101499225345,4.434060117882317
3.8789499888156582,20.702450176331784,-18.963092345255127,-0.003891691756660135,-1.729756883765231,3.878285074903215
3.3353664616524807,20.321688527142957,-18.7294242424293,-0.0038001099323705873,-1.582626857391513,3.3347140773073276
2.797162988545569,19.935190640471735,-18.49019220244478,-0.0037091322062349687,-1.435325746400596,2.796522660229488
2.2594323989438876,19.539364924301516,-18.243046991475143,-0.0036179414156228087,-1.2866108602310298,2.258803753786214
1.7293326139568634,19.13947246704015,-17.9911582474393,-0.0035277650906224292,-1.1385740908568383,1.728715117285115
1.1997671040889035,18.730153048415392,-17.731031014825856,-0.003437409364871269,-0.9893497145010223,1.199160364918255
0.6782581629167687,18.317226899361827,-17.466247112965444,-0.0033481707978052404,-0.8411765825701623,0.6776616331784782
0.15774789884738893,17.895123607636307,-17.193117056724542,-0.0032588546916823466,-0.6921733313886198,0.15716116554819407
-0.3587692067294175,17.466173917861532,-16.913000805943764,-0.003169984580363762,-0.5433109091840037,-0.35934661985332333
-0.8728333389040416,17.029038995261207,-16.624880945241312,-0.003081305838371287,-0.3942677975718878,-0.8734018850302024
-1.3810811807050796,16.586574710837976,-16.33050819504514,-0.0029934098861410454,-0.24614931369866414,-1.381641372753219
-1.8868497375931221,16.13587150697173,-16.02781184203299,-0.0029057304842646956,-0.09811641932658692,-1.8874020346202331
-2.3883492912613447,15.678470851486018,-15.717676170976562,-0.002818587373574937,0.04917362370420098,-2.388894182454343
-2.8852323385752214,15.214704830317297,-15.400191157405786,-0.0027320514016133187,0.19547870603808337,-2.88577031692245
-3.3655593392321337,14.75612863007122,-15.083247094879969,-0.0026482188611108293,0.33713340191963603,-3.3660910458902134
-3.575555439303282,14.55235275104667,-14.947991138084186,-0.0026115154295619047,0.4056629654101096,-3.5760842338464105
-3.575556712828401,14.548903993240732,-15.242128222593895,-0.0026116452894467805,0.7032488074746818,-3.576071942612569
-3.575558989956325,14.5379353571717,-15.7672120756838,-0.0026120570294733314,1.2393012961804626,-3.5760497802287188
-3.575561289830073,14.520455080915172,-16.296328391931166,-0.0026127125287465306,1.7858978882210446,-3.576027149719281
-3.5755635719376544,14.496573039546199,-16.82002214362747,-0.002613608090712547,2.333473680820847,-3.576004441974319
-3.5755658172336,14.466548051448715,-17.33384152417626,-0.002614734602429795,2.87731804900342,-3.5759818485182615
-3.5755680394348737,14.430285681635315,-17.840855376758668,-0.00261609634710133,3.4205942709345165,-3.575959234312536
-3.5755702434249925,14.387721786453621,-18.34209507519631,-0.002617696634699808,3.96439786408715,-3.5759365496471403
-3.5755724356011322,14.338701912247199,-18.838923776600843,-0.002619542350274001,4.510246439227935,-3.5759137266916223
-3.57557419349971,14.294465153090472,-19.236001926095796,-0.0026212105305404056,4.951561347498218,-3.575895232785654
-3.575575061841126,14.27096645025944,-19.431687012053168,-0.0026220976773585723,5.170745136096757,-3.5758860329700033
-3.5755761624173434,14.239596343877972,-19.679255929564835,-0.002623283090264016,5.449684159747831,-3.57587431043936
-3.58095208111072,14.329942171802893,-19.776432176623736,-0.002622367866514409,5.456514823863773,-3.5812500048373246
-3.6083591225556604,14.80778436601495,-20.108900428594374,-0.002616924359546623,5.311142129385545,-3.608664174307953
-3.6433549914273904,15.409538594166165,-20.522974221238687,-0.0026099925128986747,5.12346328380517,-3.6436691986721756
-3.678798995489327,16.00961541048015,-20.9307989412855,-0.002602995081323383,4.931212794011675,-3.6791225280754114
-3.714950329214199,16.612179220130624,-21.33521840324965,-0.002595883607344065,4.73307008090527,-3.715283418358154
-3.7514420415429957,17.210935628420724,-21.73204813308754,-0.002588732857623371,4.531145048373491,-3.7517848142632664
-3.788825459773247,17.814687638587845,-22.127131511196044,-0.0025814375879824863,4.322478098234742,-3.7891781821749833
-3.827039088514294,18.422016466880308,-22.519457145181153,-0.0025740131975425943,4.10747661878429,-3.827402003315136
-3.865870320207175,19.02923052547585,-22.906622069916452,-0.002566504062111684,3.8874292229230405,-3.866243605700659
-3.9054888602863236,19.638694529183297,-23.290132797854888,-0.002558880369167629,3.6614777156390454,-3.905872731979472
-3.9454730139023204,20.243734666781087,-23.66584283156313,-0.002551225856458892,3.432149391687464,-3.9458675662849534
-3.9864998998362955,20.854319626671384,-24.039953858262066,-0.0025434138326185566,3.1956772797681197,-3.9869053996270463
-4.02848698707505,21.46873086832246,-24.41132357163321,-0.0025354638258241976,2.9526376100530554,-4.02890366968864
-4.067693588959462,22.033130639953907,-24.74799223548314,-0.002528081731705059,2.72490823288647,-4.068120687768832
-4.084600362924139,22.273961854992017,-24.88749607091445,-0.002524904923188745,2.6235815981114525,-4.085032073200988
-4.0730859335928375,22.122068290332425,-24.59976163862632,-0.002526658475402025,2.48774022353184,-4.0735235480195975
-4.050563596644085,21.821898338735625,-24.03101359612742,-0.0025301232533095934,2.2191611398594357,-4.051012910791295
-4.02728005915217,21.50723340725326,-23.43461902923741,-0.002533755726080769,1.9374304765019172,-4.027741683179539
-4.004390692552957,21.19347809962396,-22.83976887835042,-0.002537379505026219,1.6563346210855467,-4.004864636379254
-3.981842968976764,20.880015788591955,-22.24530093114679,-0.0025410031044242045,1.3753279863010617,-3.9823292659537977
-3.9595901382119947,20.56627391387045,-21.650134997859393,-0.0025446345167386693,1.09390294066359,-3.9600888437661927
-3.937678897262693,20.252990550784613,-21.055676773509223,-0.002548266539072293,0.8127271060051519,-3.9381900371410894
-3.916002960784408,19.938711408251763,-20.459171630681965,-0.0025519173689327926,0.5305001413308436,-3.916526618135152
-3.8943592319890756,19.620463319439388,-19.854977960358596,-0.002555623048362267,0.2445535954449176,-3.8948956090162468
-3.8732182318141306,19.305220725428974,-19.25634109600068,-0.002559303703776917,-0.03884161825478058,-3.873767251793105
-3.8522864448277443,18.988720140108722,-18.65517097585602,-0.0025630103073522154,-0.3235120884364409,-3.85284820131097
-3.8315934341887297,18.67144061486681,-18.052380905249592,-0.002566738618824978,-0.6090235597993267,-3.8321680015529447
-3.8157778392285517,18.42593505772341,-17.585858600730106,-0.0025696329574520613,-0.8300410157912539,-3.816362348810545
-3.805937990161807,18.274677856811195,-17.43884814887227,-0.0025713536601377368,-0.8257947081340392,-3.806522334311308
-3.774267051008824,17.786231302049774,-17.122268694638844,-0.0025768007171050144,-0.6539290304700138,-3.7748437457507764
-3.736292019148694,17.1911581402094,-16.732062531765823,-0.002583361490495473,-0.4490637416300755,-3.7368595532360467
-3.698903971039447,16.59501120459487,-16.336157076922387,-0.0025898519464161262,-0.24882394885970546,-3.699462506042604
-3.662334384204025,16.001791569671255,-15.937214973770901,-0.0025962297347583386,-0.054548072268719966,-3.6628841447359575
-3.626183333858863,15.405255570021726,-15.53101297065864,-0.0026025626122199745,0.1357842840142793,-3.6267244558511025
-3.5923684500655995,14.837934891687182,-15.140008794219911,-0.002608510970363738,0.31209924803918776,-3.592901531788806
-3.5755541515911444,14.552392298972201,-14.943155500695875,-0.002611478009493148,0.4007877812292254,-3.57608317533913
-3.5755552390600402,14.549788242577371,-15.180204284097483,-0.00261157612208503,0.6404406208262848,-3.576073339068379
-3.575557594645956,14.53987012831281,-15.692804321585584,-0.0026119485070979806,1.1629587721434622,-3.576051873468549
-3.575560046730515,14.52319403085588,-16.22503726768768,-0.002612573858712223,1.711867815243753,-3.5760292917241774
-3.5755624659395258,14.500221769873018,-16.74864320131263,-0.0026134352399825437,2.258446009393446,-3.5760067692355673
-3.5755648498884782,14.471081044947015,-17.263043935348044,-0.0026145284336826016,2.801987467897845,-3.575984331520494
-3.5755672109214203,14.435694214294788,-17.77083819258516,-0.0026158570714655653,3.3451685553290034,-3.5759618643822764
-3.5755695617535217,14.393844185689902,-18.274673666094145,-0.0026174301950686128,3.890854056980973,-3.5759392449102783
-3.5755718824656695,14.345896218262055,-18.770206865160727,-0.0026192351149154467,4.434335223013695,-3.5759166640920044
-3.5755739452454054,14.297615532909282,-19.20902732103751,-0.0026210554366511525,4.9214363638279615,-3.5758963776344928
-3.5755748533062013,14.274642334232672,-19.401689985172087,-0.002621922624575687,5.137072226454828,-3.5758873816211985
-3.5755761587129307,14.239748483523284,-19.678089397867666,-0.0026232410775403853,5.448365489593195,-3.5758743775658055
-3.6584964732969354,14.229766033074604,-19.706320134058178,-0.002608831352765754,5.486582446447645,-3.6587943269027625
-4.124829039971595,14.194899455026846,-19.681885903833148,-0.002526795454860961,5.497035606454804,-4.125134271312007
-4.696056638136525,14.146456424939991,-19.64790824976778,-0.0024260820681670566,5.5115255687916545,-4.6963708977373075
-5.270112761387063,14.091396139773304,-19.609248282424698,-0.0023246293884941678,5.527949586008414,-5.270436092858161
-5.841271331148094,14.03024697028637,-19.566262043419325,-0.002223458510459833,5.54613509023181,-5.841603697041755
-6.411806805648118,13.962801858606168,-19.51878773201819,-0.00212217781188837,5.566127435699745,-6.412148213812582
-6.984070126682525,13.888737757288322,-19.46657923059484,-0.0020203784305600297,5.588003635828512,-6.984420631703104
-7.555884418739167,13.808286838476558,-19.40977954113649,-0.0019184560705726246,5.611674436726903,-7.556244050103214
-8.129709659743439,13.721045054527089,-19.348080571940358,-0.0018159806495331341,5.637235872377795,-8.130078495806705
-8.7007789996047,13.627716199924494,-19.28195595419829,-0.0017138130142372906,5.664457624946099,-8.701157051525477
-9.271994280694393,13.527834349137864,-19.21105012351029,-0.0016114444457658653,5.693450149775862,-9.272381615365374
-9.844573685114414,13.421121722468191,-19.135137041327248,-0.0015086651524701537,5.724265217559854,-9.844970398725145
-10.380894807891762,13.31514251912338,-19.05958394447019,-0.0014122515118341794,5.754704935839705,-10.381300381909359
-10.618812817839244,13.26416317934274,-19.01770711234923,-0.0013694273935328273,5.763813194022683,-10.619222464977032
-10.598950759699385,13.176149394412825,-18.714770936149414,-0.0013724949883236206,5.5488903298894785,-10.599365221909553
-10.562481076142268,13.011179136075814,-18.153706106115948,-0.0013781684628884786,5.152794886734905,-10.56290447542074
-10.525354045650108,12.838721209130801,-17.57600849183126,-0.001383999949685467,4.747554307958972,-10.525786673072133
-10.488241324207795,12.661727006951297,-16.991838306730703,-0.001389887058451888,4.340377429639249,-10.488683310336224
-10.451512552014584,12.481981326686114,-16.406998789289734,-0.0013957719248340141,3.9352827020903502,-10.451963935143555
-10.415298638013828,12.300239239048137,-15.823696454438066,-0.0014016331561830895,3.533721572857628,-10.415759421124552
-10.37951844458003,12.11621632727157,-15.240761381074527,-0.0014074833288780608,3.134808535790629,-10.379988649573827
-10.343855844551369,11.928335859230291,-14.653072788111093,-0.00141337453708298,2.7349995342861253,-10.344335576606255
-10.308402493179036,11.73708544500134,-14.062105331950114,-0.0014192926527233428,2.3352816169765704,-10.308891834357649
-10.273585602850714,11.544873425114588,-13.47509489423371,-0.0014251660075643021,1.9404823356634102,-10.27408451770637
-10.241235900856788,11.362328467213562,-12.923661551634092,-0.0014306794240338686,1.5715931452761795,-10.241743835566545
-10.226314496378386,11.276832155749815,-12.667327234741741,-0.0014332412140587243,1.4007547671196516,-10.226826632734538
-10.220093436413743,11.24112857850993,-12.553543030264343,-0.0014343089139991513,1.322673984281654,-10.22060750067141
-10.26540198738314,11.518239957059226,-12.759469666696974,-0.0014261533886373264,1.2514903730459594,-10.265918011002213
-10.358112653940484,12.078705579255274,-13.172548316610845,-0.0014094700999904913,1.1041056947858185,-10.358632666266507
-10.456174497760044,12.662132235709509,-13.597710642842669,-0.0013918308404282788,0.9458437617538391,-10.456698693307983
-10.553640100070414,13.232689724293689,-14.008736041866328,-0.0013743061721736814,0.786314025016887,-10.55416841045182
-10.611695850394021,13.568224612861814,-14.248261533496644,-0.0013638710877468382,0.6903060154289643,-10.612226588870707
-10.619254973582843,13.610095831034833,-14.381537962912486,-0.0013625438654707328,0.7817114065076388,-10.619783554498946
-10.619256092234586,13.600070121277364,-14.84210791986245,-0.0013627413660698068,1.2523070731085835,-10.61977347946835
-10.619257380834494,13.582540414993769,-15.37129474089496,-0.001363086370037877,1.7990236003006654,-10.619761758643556
-10.619258661351276,13.558616914961279,-15.895607451225112,-0.001363557202313352,2.3472598105385654,-10.61974998577644
-10.619259921334113,13.528583679366298,-16.409877749462375,-0.0013641485813574267,2.8915633442465727,-10.619738275920158
-10.61926116483108,13.492469113800391,-16.915710596277354,-0.0013648603293373283,3.4335107565033356,-10.61972659338922
-10.619262405748142,13.449858643243905,-17.418683294116157,-0.0013657010881895097,3.979093924773265,-10.619714806765495
-10.61926363025089,13.401222656946977,-17.913113465632073,-0.001366662127745905,4.522160082460851,-10.619703046720504
-10.61926480951231,13.348051732445676,-18.387392972574016,-0.0013677145302665166,5.049610513781983,-10.619691596209076
-10.61926542986595,13.317539741029162,-18.63611137675977,-0.0013683192909701495,5.328840909319409,-10.619685522234732
-10.619266117575712,13.281635358375055,-18.911184213598915,-0.001369031726831132,5.6398181287402895,-10.619678747342247
-10.619266391876607,13.266698528914889,-19.020704767955465,-0.001369328367081226,5.76427551252799,-10.619676032792771
-10.653180622582408,13.46623642720825,-19.167253681856085,-0.0013630919456531028,5.711287332902142,-10.653592143994858
-10.745638799953143,14.00648848670665,-19.549559440340776,-0.0013460684997508997,5.5533432076044615,-10.746055707775799
-10.849227317857462,14.602905178313062,-19.966770948040903,-0.001327009637576818,5.374140429561708,-10.849650201229176
-10.954176300187289,15.197821518104005,-20.377895728793998,-0.0013077160777564413,5.190351273739039,-10.954605167161677
-11.060776039578771,15.79271418600313,-20.783995870676936,-0.0012881356754310496,5.0015611534429825,-11.061210905170832
-11.169452517319657,16.389702760533098,-21.186515019142984,-0.0012681915112931633,4.80709414334143,-11.169893409967095
-11.267504464734582,16.92029753504803,-21.54007312335607,-0.0012502127567308545,4.630059621072765,-11.267950713624924
-11.30827130002724,17.138700340076934,-21.68446090978372,-0.0012427421744958022,4.556045486688676,-11.308719752056087
-11.294146080301612,17.07963924821544,-21.481483773130815,-0.0012450402702852133,4.412129136234874,-11.294597467403829
-11.254787091104673,16.908563315253545,-20.94745821367118,-0.001251538840662471,4.049178654700843,-11.255245884431382
-11.212531283567378,16.720531559953763,-20.367699235902958,-0.001258561553268899,3.657450508866059,-11.212998165905857
-11.170598795054158,16.5294199409412,-19.78567450274679,-0.0012655791542532928,3.266536472894938,-11.171073848326813
-11.129043667127169,16.33553429914754,-19.202176468338287,-0.0012725831507155025,2.8769231613179524,-11.1295269621219
-11.087845305709726,16.13884290071549,-18.616967178221433,-0.001279577500673949,2.4884043532247286,-11.088336916512285
-11.047350970331413,15.94112067726758,-18.03511212897347,-0.0012865031096574346,2.1042706214993956,-11.04785089839182
-11.006914634643957,15.739281461111718,-17.447389492917708,-0.001293470870916828,1.7183862918510329,-11.007423013120077
-10.966875022893237,15.535033650753222,-16.858707896659674,-0.0013004234083856352,1.333951600087311,-10.967391914813456
-10.92733669768358,15.328999785517098,-16.27070103236643,-0.001307342684276202,0.9519777015843693,-10.9278621421028
-10.889263129486315,15.126465689017277,-15.698069144902387,-0.0013140579418682238,0.581879039873465,-10.889796949307431
-10.868515656723869,15.01437196115207,-15.38333416828104,-0.0013177395523219326,0.37923731471148,-10.869054099342689
-10.858645431696967,14.960614360005193,-15.232930988975683,-0.0013194966382318698,0.2825915094390542,-10.859186088272581
-10.889169109437459,15.128965129197878,-15.341184853112297,-0.0013140164441923139,0.22249530598519524,-10.889711171124823
-10.98489415897462,15.651515423551263,-15.699333938519015,-0.001296837699844087,0.05809627840384203,-10.985440008001564
-11.09352824731915,16.235046253386944,-16.094695062322096,-0.0012773510397062057,-0.13007098684439983,-11.094078310696261
-11.204793942063953,16.822519207419788,-16.48785970228308,-0.0012574017369921782,-0.3243768393076835,-11.205348223946165
-11.288876340687253,17.25978586429477,-16.77733898142388,-0.0012423323876386953,-0.47216238255105114,-11.289433741317664
-11.309542241242944,17.36664110008344,-16.870236403284004,-0.0012386251525510193,-0.48611974898952875,-11.310099912988061
-11.309542968377126,17.36892469811351,-17.179066629542824,-0.0012385859477043071,-0.17957312081669138,-11.310094013163894
-11.309543248031103,17.369260527817204,-17.29772885662024,-0.0012385802980792694,-0.061246723464567776,-11.310091734908013
-11.309543898482207,17.368861426377254,-17.573473555038255,-0.0012385876700820235,0.2148970763429398,-11.310086415858652
-11.309545123403174,17.363560670576003,-18.09173923184239,-0.0012386806286679845,0.7384635088524377,-11.310076321858402
-11.30954638662832,17.35172770274651,-18.624721636926022,-0.0012388872192960903,1.2832788816655412,-11.310065803958546
-11.30954762601815,17.333669013202012,-19.14605441574409,-0.00123920220985111,1.8226703499287698,-11.310055374605392
-11.309548854897347,17.309291359715,-19.66128598894619,-0.0012396274417299114,2.362279576518215,-11.310044923066151
-11.309550067051727,17.278770873537418,-20.167747087549593,-0.0012401601257734376,2.8992611611996817,-11.31003450270322
-11.309551275201272,17.241793629266674,-20.670678768613897,-0.0012408061001847953,3.439170086434311,-11.31002400381229
-11.309552394685667,17.20154775764312,-21.134942910313953,-0.0012415100088361514,3.9436800996637515,-11.31001417190547
-11.309552901711596,17.18139103985688,-21.344629955433017,-0.0012418628962050995,4.173523862526037,-11.310009685418718
-11.309553625999165,17.15047927980845,-21.64351392335081,-0.0012424045292698375,4.503319590430419,-11.310003239530342
-11.248233211208989,17.15861250026061,-21.6975909511942,-0.0012535249082696578,4.549262067424446,-11.24868095042481
-10.806014871941434,17.250604595675476,-21.75818224652889,-0.0013330514913007562,4.517851324724181,-10.80645703777759
-10.223943899951909,17.36581669751746,-21.833901224472655,-0.0014376006725879422,4.47834418103876,-10.224378826407982
-9.642221130732011,17.47433387107619,-21.90505112821888,-0.0015419330898201018,4.44096184187558,-9.642648921389302
-9.056985813429934,17.57686693745154,-21.972126927593102,-0.0016467300200964502,4.405488348893848,-9.05740651377488
-8.473354113625973,17.672529169661928,-22.034576059101198,-0.0017510646267488565,4.372258003950511,-8.473767819952121
-7.892402630300441,17.761254595375174,-22.09238305082584,-0.00185473654871022,4.34132135263466,-7.892809439407526
-7.309001771906679,17.843866963833445,-22.1461088583714,-0.0019586514575798547,4.312415443050654,-7.309401708021906
-6.725589950097037,17.920012839228,-22.195545268928484,-0.002062363930966855,4.28568557432803,-6.725983054835389
-6.134619903581586,17.99058246118211,-22.241289438391902,-0.00216720155165663,4.260838380363383,-6.135006119007612
-5.547284152059284,18.054202647215718,-22.28246953082979,-0.002271166520759397,4.238375611067031,-5.547663539032543
-4.956192323266494,18.111697992813294,-22.31963666267215,-0.002375556762696844,4.2180235041189995,-4.956564844620784
-4.369258614115282,18.162328240837553,-22.352327755949524,-0.0024789647480131013,4.200059562128459,-4.3696243126266925
-3.900742590510166,18.19813727259997,-22.375427384248386,-0.0025613255163277095,4.187329614606874,-3.901102830814824
-3.8111158733818544,18.174137814384718,-22.317399964677442,-0.002576957771054974,4.153297646677054,-3.811476500004397
-3.7959126455809393,17.959741590633147,-21.877650274762924,-0.0025789104203324943,3.9279434983997334,-3.796283248825548
-3.775599103745347,17.669433171037554,-21.282889930269754,-0.0025815701743409935,3.6234906610084776,-3.7759832126489394
-3.755554717453041,17.37856663079663,-20.68776381778976,-0.0025842539714375514,3.3192301871355476,-3.75595235477475
-3.735768482771303,17.087055120762923,-20.092075420473197,-0.002586963581125759,3.015052408632153,-3.7361796760957366
-3.7162543315120233,16.79517931555407,-19.496379601510604,-0.002589697335134242,2.711231514746782,-3.716679096148
-3.69686861381765,16.50082451100535,-18.89634912396898,-0.0025924761744823173,2.40555496626827,-3.6973070641603507
-3.6777414555837495,16.205997111768625,-18.29606357516194,-0.0025952823086163894,2.100095951769494,-3.678193613502305
-3.658882616411078,15.910927057440084,-17.695973332226096,-0.0025981144450334484,1.7950749092782154,-3.6593484938434893
-3.6402303293466622,15.614712612144384,-17.094229526852086,-0.002600982201890955,1.4895447036050478,-3.640709980912438
-3.621816116127327,15.317909113758288,-16.49194725815358,-0.002603881211464048,1.1840650974538562,-3.6223095713754234
-3.6036688422172465,15.021060475841521,-15.890214072177256,-0.002606807019912078,0.8791797246644077,-3.6041761061362037
-3.5871846423575446,14.74758954662254,-15.336421071402624,-0.0026095263984117732,0.5988569030928904,-3.587704630648445
-3.579671899372771,14.62172362807373,-15.081710042716633,-0.0026107858982457595,0.47001145085916834,-3.580197745279367
-3.575567711416867,14.552634039286376,-14.941941534968079,-0.002611479401863922,0.3993323449393211,-3.5760967729963498
-3.890188175097282,14.530534006428534,-14.92622727756772,-0.0025563942773883727,0.40573231434279516,-3.890717330323301
-4.448254347243387,14.487169375313606,-14.89596272064528,-0.002458497336613786,0.41885682059453405,-4.448783624055125
-5.021078134296303,14.43656806295159,-14.860613234103766,-0.0023577692702034464,0.4341327317012589,-5.021607509982748
-5.592950060572414,14.379875074233079,-14.820964312259608,-0.002256973600266126,0.45119983801938146,-5.593479518691935
-6.165510210993958,14.316909408307781,-14.776874298789881,-0.0021558314842299677,0.4700975487159218,-6.166039745391187
-6.737932412082266,14.247725498451192,-14.728364392746652,-0.0020544985484158783,0.4907925939051264,-6.7384620265273085
-7.309670869617356,14.172374485817262,-14.675452029925909,-0.0019530819428463346,0.5132512483722584,-7.31020057781736
-7.881836023100039,14.090682276795091,-14.617994649811516,-0.0018513948801479726,0.5375050827142266,-7.882365848945742
-8.452560255824197,14.002897846921458,-14.556145503810681,-0.0017497798156268641,0.5634583115647775,-8.45309023270075
-9.024332249662615,13.908607533168936,-14.489589253013511,-0.00164780387647723,0.5912093365128062,-9.024862421500451
-9.596828469640151,13.80779530504115,-14.418288073838083,-0.0015455340376892158,0.6207363484917781,-9.597358890361585
-10.168534217523781,13.700686217896154,-14.342373249743313,-0.0014432509843068917,0.6519455319777743,-10.169064950211881
-10.740337994519132,13.587079144484552,-14.261672563366592,-0.0013408060900815496,0.684865820328665,-10.740869112384487
-11.307017246110718,13.468049348508313,-14.17692061119536,-0.0012391468350629888,0.7191564314999156,-11.307548827383064
-11.865055252747338,13.344519372468922,-14.088748709069742,-0.0011389184381456494,0.7545260948958665,-11.865587378901843
-12.24375752376674,13.257092237678235,-14.026213037790985,-0.001070837595156319,0.7794248670604409,-12.244290074243226
-12.270410008291538,13.248043269354497,-14.174465584056968,-0.0010660874957743385,0.9367268790919169,-12.270939696346256
-12.27041084895691,13.235712396383036,-14.659175831056718,-0.0010662778908906935,1.4337679989927132,-12.27093128595872
-12.270411769956663,13.216008787749537,-15.189043094770534,-0.0010665819482754192,1.9833388712619644,-12.270921973501185
-12.270412677057115,13.190100898105145,-15.709600237092051,-0.001066981815555341,2.529803903150036,-12.27091269826716
-12.27041357396544,13.157967067727741,-16.222898720766647,-0.0010674780893146448,3.075236217124096,-12.270903423552864
-12.270414458184174,13.119776602079593,-16.72743780471497,-0.001068068475112619,3.61796576664277,-12.270894176251682
-12.270415336446987,13.075278420521471,-17.226983156805908,-0.0010687572386433733,4.162009300213585,-12.270884886305495
-12.270416206655492,13.024572436748638,-17.720256815323335,-0.0010695432856169063,4.705988942425334,-12.270875575468985
-12.270417025817267,12.970678128371254,-18.18294713568127,-0.0010703801965190334,5.222573571085834,-12.270866711619238
-12.270417409619117,12.943331233999855,-18.399151573804918,-0.001070805435514254,5.466124903545506,-12.270862524791465
-12.27041791340618,12.905374016340605,-18.68236078098556,-0.0010713963121566116,5.787291328338656,-12.270856995673125
-12.276375505307085,12.893334831262708,-18.75727561267971,-0.0010704850959219721,5.874245455933069,-12.276813063168316
-12.600183000657735,12.813821627121838,-18.700002027487027,-0.0010119650695911402,5.896490934039283,-12.600626150992975
-13.148728450992156,12.674092275059218,-18.59913385355439,-0.0009127480031569417,5.93536128624247,-13.149181167993293
-13.703814470891208,12.526213140364478,-18.492075886370387,-0.0008122510121832625,5.976190774327784,-13.70427699389062
-14.258035044733171,12.372001010960744,-18.380096908123285,-0.0007118218351385456,6.018431265870193,-14.258507491638213
-14.81338841129101,12.2108368329271,-18.26270265808509,-0.0006111067746333644,6.0622075792527745,-14.813870943204988
-15.368329236454816,12.043093704283619,-18.14011723720236,-0.0005103943750132489,6.107370697076537,-15.368821993837773
-15.924660336868742,11.868143791616621,-18.01183112588168,-0.0004093657659136991,6.15403894766935,-15.92516350074138
-16.480709581842383,11.686424326097745,-17.878111341811252,-0.00030833292617276134,6.202042100850865,-16.4812233091325
-17.03330705152879,11.498969614604414,-17.739669096590237,-0.0002078808080546642,6.2510570510538175,-17.03383144370599
-17.592064273826782,11.302392790405163,-17.5939413457608,-0.000106270428204467,6.301907656294564,-17.592599625324876
-18.136501065130435,11.103977489305317,-17.446280616200507,-7.235198861106322e-06,6.352662772785299,-18.13704727053661
-18.659743501958506,10.906818039346668,-17.298986451747485,8.79641618789258e-05,6.402527700482594,-18.66030030687513
-18.905772490417995,10.810281314022353,-17.222403640757864,0.00013273049891853738,6.422481147939036,-18.90633432848586
-18.873217570698706,10.73383352322902,-16.932361550929894,0.00012675507801071794,6.2088869222440035,-18.873778270348872
-18.811012702093876,10.584351445804842,-16.373433106223004,0.000115355226977525,5.799440685794819,-18.81157134832035
-18.74745500645531,10.426960340532835,-15.795848627962036,0.00010373016347951268,5.379247433872139,-18.74801172021666
-18.68459541959057,10.266619801202216,-15.218029884113012,9.225368862463321e-05,4.96176933655029,-18.685150387339434
-18.622478416089365,10.103555389940524,-14.640494375317825,8.093155240908283e-05,4.54729833269691,-18.623031820489395
-18.560399682946528,9.935955300653589,-14.05669770669783,6.963337953086134e-05,4.131101834819488,-18.560951686597594
-18.49896534574077,9.765481895203411,-13.472329254334456,5.8467575019032906e-05,3.717206856542963,-18.499516123015127
-18.43825707342202,9.5924638907821,-12.888266046325914,4.744688133369898e-05,3.3061617090803614,-18.438806795826657
-18.378339162509157,9.417202374961587,-12.305252124813743,3.658091902070004e-05,2.8984093473768953,-18.3788879976975
-18.31832134733435,9.237117976276869,-11.714616103067222,2.5706477317023398e-05,2.487857757018349,-18.318869448040914
-18.264913805344946,9.073009636331546,-11.18333245232894,1.603655523521033e-05,2.120682465767095,-18.265461383075888
-18.241956914896765,9.001341626366896,-10.953290273443757,1.1881678672332678e-05,1.9623083024800387,-18.242504305825122
-18.229466763413864,8.962062949454848,-10.827704883300472,9.621509681483796e-06,1.87600159161556,-18.23001406233298
-18.271694906156863,9.107785264418098,-10.93065581356561,1.7260469775672716e-05,1.8332301972413179,-18.272242441881648
-18.419057634789795,9.610271130869517,-11.31891892127091,4.391600192453337e-05,1.7190073606304521,-18.419605934515634
-18.58784530439526,10.177122522256674,-11.752464838355545,7.444281910797069e-05,1.5857017129596984,-18.58839434539122
-18.75930295891459,10.74367389973433,-12.181078329913761,0.0001054481384623511,1.4477635588977442,-18.75985260281089
-18.87433892859066,11.118673735249603,-12.46219791621979,0.0001262481302728014,1.3538830777942894,-18.87488889036359
-18.906368583045065,11.221770363431967,-12.560495829895766,0.00013204033080437493,1.3490842912925587,-18.90691867038881
-18.906368551561542,11.210324608885806,-12.909991486022825,0.00013206246476718146,1.7100257019648897,-18.906919471069486
-18.90636850568676,11.188420255154114,-13.421801424069567,0.00013210481668455936,2.243739993742008,-18.906920656283813
-18.906368460142055,11.160261014468189,-13.932839592932302,0.00013215928001981907,2.782937403289351,-18.906921855386223
-18.906368415406522,11.12606963305315,-14.437514027100889,0.00013222545820908184,3.321803218871648,-18.906923055667228
-18.906368371390784,11.085798846407638,-14.936581428770161,0.00013230348433564232,3.8611414071850985,-18.906924259117993
-18.906368328289258,11.039687170823008,-15.427581162984172,0.0001323929445768639,4.39825281698242,-18.906925459905167
-18.906368285720504,10.987356984593804,-15.914621127186532,0.00013249462786037871,4.937622967412631,-18.90692666825958
-18.90636824358911,10.928619496949128,-16.398592201746187,0.00013260896782887194,5.480331529615611,-18.90692788684626
-18.906368202305206,10.864063550792288,-16.874563267490657,0.00013273489096443978,6.020858541515567,-18.906929103488565
-18.906368176109115,10.819369727903947,-17.17741117510639,0.00013282223041065648,6.36840027201876,-18.906929887406406
-18.911591857290716,10.828976364637791,-17.240676841596123,0.00013378654673951564,6.422059289720568,-18.912153800018878
-19.019427125299487,11.184443086433967,-17.506232965890053,0.0001533787436391672,6.332148424255741,-19.01999101949409
-19.194552775826786,11.754643447913402,-17.928368216153668,0.00018518111556254055,6.184082799687407,-19.195119700677502
-19.374521389964357,12.331676215621016,-18.35076153844184,0.00021784290624831735,6.029442725918802,-19.375091247468784
-19.557884669071488,12.910504686126327,-18.769636570975045,0.00025109998306041927,5.86948854266307,-19.558457321530692
-19.743397867317263,13.487013397725104,-19.182041011603744,0.0002847258271765426,5.705383409747143,-19.743973146030328
-19.93205573267281,14.064130425381917,-19.590110147386802,0.0003189001129826732,5.536334529994968,-19.932633471357867
-20.125036500649102,14.645144318767596,-19.996133352317532,0.00035383535366711604,5.361342714892714,-20.125616533002077
-20.32160082977636,15.227488206356146,-20.39827255217286,0.0003893968062400924,5.1811367588652315,-20.32218296439176
-20.52218283116712,15.812136409611314,-20.797176496405363,0.00042566226078154327,4.995391080041659,-20.522766865335196
-20.725577499445208,16.395326632202167,-21.190289098569643,0.00046241334123430015,4.805311890387756,-20.726163204455023
-20.93252402893674,16.978968229317584,-21.578931661870786,0.0004997832912915798,4.610311126112091,-20.933111168441396
-21.143244926504305,17.563416114359164,-21.96334685045408,0.0005378119223927825,4.4102765289432835,-21.143833250138815
-21.310358593028248,18.020021033194467,-22.26037184757644,0.0005679549860998946,4.250695000386622,-21.31094765672509
-21.372129327959197,18.18727948880062,-22.36845201099207,0.0005790934257924175,4.191516091979466,-21.37271862055778
-21.342451566618195,18.118635781107912,-22.199815604933306,0.0005736486845455867,4.091523691550636,-21.343039462594565
-21.240371386019113,17.87451149415688,-21.671881282655505,0.0005549815746244975,3.8077146596360834,-21.240955207143216
-21.12782707140719,17.601036370357345,-21.08219562547217,0.0005344269927467153,3.4915051944597653,-21.128406583577128
-21.016968961154184,17.327132704660333,-20.49333856300404,0.0005142060857918297,3.1765528108552274,-21.01754441960934
-20.907650623275536,17.052542910882718,-19.90469660974111,0.0004942899656924565,2.8625016125277885,-20.90822227209474
-20.799790454005077,16.77715303321589,-19.31597259675079,0.0004746617269283479,2.5491683886158722,-20.800358529249994
-20.692598765782773,16.498985125471048,-18.722905675753953,0.00045517592882549324,2.2342702447868574,-20.693163474422096
-20.586180434347398,16.218306799627765,-18.12604980293635,0.0004358501159115912,1.9180935251228737,-20.58674198551216
-20.48144416322346,15.937575521672692,-17.530592522158813,0.00041684753237323147,1.6033683016637397,-20.482002789240177
-20.378407250628673,15.656959608525957,-16.93683374769725,0.00039816935225302024,1.2902261733102054,-20.378963178120035
-20.276692070184293,15.375530824699064,-16.342761124191195,0.00037974530552788247,0.977583024346314,-20.27724551064974
-20.175972471373246,15.0924436960636,-15.746556635300543,0.00036151469293962306,0.6644663158939381,-20.176523624898042
-20.1043036909525,14.888280868680512,-15.317397489454253,0.00034854968437443736,0.4394704417452789,-20.104853325143154
-20.07403215198907,14.801355116651987,-15.134880379479688,0.00034307521090534856,0.34387926660167883,-20.074581171691786
-19.93819276480079,14.770979213270072,-15.093587490456338,0.00031852580159001377,0.33296306754406896,-19.93874157875097
-19.444421507283394,14.707704083373365,-15.049632776983001,0.00022927733392199897,0.35228585330022105,-19.444969888663795
-18.870827671646285,14.628364311458933,-14.99443767224026,0.00012557951300848572,0.37643230696922925,-18.87137547859636
-18.29807876845222,14.542851661087795,-14.934847386978133,2.202113127339106e-05,0.40235542006684427,-18.298625915283534
-17.726387690439342,14.451192462107283,-14.870857618792632,-8.134906020948678e-05,0.4300245650435986,-17.72693408241108
-17.154448334240907,14.353152360033686,-14.802280047442395,-0.00018475705487103346,0.4594857778011069,-17.15499386550252
-16.582026324798502,14.248636906042089,-14.729021455579067,-0.0002882350578488076,0.4907402873750462,-16.5825708794517
-16.01081607880931,14.13792314039301,-14.651247508080731,-0.00039146669379271987,0.5236767275537699,-16.01135953474356
-15.438291616646156,14.02047221968735,-14.568548736334874,-0.0004948983531323021,0.5584244582584552,-15.438833837662385
-14.86886652462824,13.8971697513981,-14.481516856909924,-0.0005977228620341482,0.5946896279119741,-14.869407375718428
-14.295874677609959,13.766510196892467,-14.389053828399485,-0.0007011338541435741,0.6328796695033032,-14.296413998698677
-13.733279055961443,13.631740140528017,-14.293424973538169,-0.0008026026616299357,0.6720134984695723,-13.733816718569946
-13.174080226153748,13.491362963168074,-14.193539783099146,-0.0009033846395948523,0.7124971704471429,-13.174616078884064
-12.62377720781417,13.346911986426752,-14.090459846533538,-0.0010024820961708834,0.7538590681229533,-12.624311114878495
-12.280766102684648,13.253682996105583,-14.02377229907226,-0.001064206129834034,0.7803943310967608,-12.281298711237122
-12.270409131569373,13.24723331258057,-14.214174682071718,-0.001066124944760732,0.9772462052511512,-12.270938051719835
-12.270410099177884,13.233966476833446,-14.71437864674333,-0.001066329757507165,1.4907170055989811,-12.270929461914031
-12.27041112968286,13.213513674593388,-15.245574696115158,-0.001066645360993772,2.0423658571344716,-12.270920219400482
-12.27041213794415,13.187028530757237,-15.763666259744724,-0.0010670541481363973,2.586942564524539,-12.270911079458964
-12.270413137456265,13.154292524596418,-16.27554335670056,-0.001067559758642147,3.1315556675652947,-12.270901921398803
-12.270414124449989,13.115477730321691,-16.779213541420788,-0.001068159861743104,3.6740406464844035,-12.270892780034417
-12.270415105773504,13.07033958413107,-17.27810567846093,-0.0010688586300313617,4.218070929638824,-12.27088359180045
-12.270416077921944,13.019035417642888,-17.77036661115966,-0.0010696540856468047,4.761636028749164,-12.270874388882287
-12.270416958724287,12.966763069011833,-18.214587337984437,-0.0010704659389558094,5.258129104134812,-12.27086596177433
-12.27041734758321,12.941904139545704,-18.410139795291038,-0.0010708525266163072,5.478540490876288,-12.270862213844035
-12.270417898500497,12.904790371498107,-18.686578823903062,-0.0010714302957257114,5.792093287491368,-12.270856874563831
-12.270418039983698,12.894897613423302,-18.757454437747903,-0.001071584423909884,5.872861659399523,-12.27085549774176
-12.319806574323918,13.146665672096313,-18.939146717324288,-0.0010625215149447592,5.802786795536192,-12.320246251916101
-12.429295416282686,13.699263238198489,-19.33266899409036,-0.0010424341978681811,5.643713507873519,-12.429740004001943
-12.548122336393009,14.29010653676818,-19.74859404505417,-0.0010206470298792154,5.468797390069698,-12.548572167420799
-12.668649614989915,14.880184455013291,-20.159016292364747,-0.0009985627238677868,5.289143834119098,-12.669104667476184
-12.792322272511935,15.476245703801327,-20.56858558319062,-0.0009759177466296564,5.102653998906391,-12.79278257539869
-12.91715181573333,16.06844905320675,-20.9705355300548,-0.0009530772663670981,4.912402690248487,-12.917617302249887
-13.04466035625419,16.663817071023388,-21.36966397660295,-0.000929763678931522,4.716165207251867,-13.045131011968204
-13.174500883863228,17.260405039126717,-21.764635489394262,-0.0009060414827528255,4.514550825898377,-13.174976667518735
-13.305983107792626,17.85483860325044,-22.15325109152605,-0.0008820375425567237,4.308734910086175,-13.306463939568719
-13.440214819013702,18.451883731555565,-22.538644608392506,-0.0008575503468545746,4.097085331546708,-13.440700649504228
-13.577277379780105,19.051537047444867,-22.920773686480413,-0.0008325659227510401,3.8795631110558753,-13.577768148259242
