RAMEL-ESPOL/ARCHIE/matlab/data/joint_goals_espol_t5_h20_p21.txt
Joint0,Joint1,Joint2,Joint3,Joint4,Joint5 
0.0022758869384696366,0.0025972021769608937,0.0012975685573110326,-0.0031150969005232588,-0.0005372643716522398,-0.00044892878006039634
0.0022758869384696366,0.0025972021769608937,0.0012975685573110326,-0.0031150969005232588,-0.0005372643716522398,-0.00044892878006039634
0.0022758869384696366,0.0025972021769608937,0.0012975685573110326,-0.0031150969005232588,-0.0005372643716522398,-0.00044892878006039634
0.0022758869384696366,0.0025972021769608937,0.0012975685573110326,-0.0031150969005232588,-0.0005372643716522398,-0.00044892878006039634
0.0022758869384696366,0.0025972021769608937,0.0012975685573110326,-0.0031150969005232588,-0.0005372643716522398,-0.00044892878006039634
0.0022758869384696366,0.0025972021769608937,0.0012975685573110326,-0.0031150969005232588,-0.0005372643716522398,-0.00044892878006039634
0.0022758869384696366,0.0025972021769608937,0.0012975685573110326,-0.0031150969005232588,-0.0005372643716522398,-0.00044892878006039634
0.0022758869384696366,0.0025972021769608937,0.0012975685573110326,-0.0031150969005232588,-0.0005372643716522398,-0.00044892878006039634
0.0022758869384696366,0.0025972021769608937,0.0012975685573110326,-0.0031150969005232588,-0.0005372643716522398,-0.00044892878006039634
0.0022758869384696366,0.0025972021769608937,0.0012975685573110326,-0.0031150969005232588,-0.0005372643716522398,-0.00044892878006039634
0.0022758869384696366,0.0025972021769608937,0.0012975685573110326,-0.0031150969005232588,-0.0005372643716522398,-0.00044892878006039634
0.0022758869384696366,0.0025972021769608937,0.0012975685573110326,-0.0031150969005232588,-0.0005372643716522398,-0.00044892878006039634
0.0022758869384696366,0.0025972021769608937,0.0012975685573110326,-0.0031150969005232588,-0.0005372643716522398,-0.00044892878006039634
0.0022758869384696366,0.0025972021769608937,0.0012975685573110326,-0.0031150969005232588,-0.0005372643716522398,-0.00044892878006039634
0.0022758869384696366,0.0025972021769608937,0.0012975685573110326,-0.0031150969005232588,-0.0005372643716522398,-0.00044892878006039634
0.0022758869384696366,0.0025972021769608937,0.0012975685573110326,-0.0031150969005232588,-0.0005372643716522398,-0.00044892878006039634
0.0022758869384696366,0.0025972021769608937,0.0012975685573110326,-0.0031150969005232588,-0.0005372643716522398,-0.00044892878006039634
0.0022758869384696366,0.0025972021769608937,0.0012975685573110326,-0.0031150969005232588,-0.0005372643716522398,-0.00044892878006039634
0.0022758869384696366,0.0025972021769608937,0.0012975685573110326,-0.0031150969005232588,-0.0005372643716522398,-0.00044892878006039634
0.0022758869384696366,0.0025972021769608937,0.0012975685573110326,-0.0031150969005232588,-0.0005372643716522398,-0.00044892878006039634
0.0022758869384696366,0.0025972021769608937,0.0012975685573110326,-0.0031150969005232588,-0.0005372643716522398,-0.00044892878006039634
0.0022758869384696366,0.0025972021769608937,0.0012975685573110326,-0.0031150969005232588,-0.0005372643716522398,-0.00044892878006039634
0.0022758869384696366,0.0025972021769608937,0.0012975685573110326,-0.0031150969005232588,-0.0005372643716522398,-0.00044892878006039634
0.0022758869384696366,0.0025972021769608937,0.0012975685573110326,-0.0031150969005232588,-0.0005372643716522398,-0.00044892878006039634
0.0022758869384696366,0.0025972021769608937,0.0012975685573110326,-0.0031150969005232588,-0.0005372643716522398,-0.00044892878006039634
0.002279496667836899,0.002604134268398798,0.0012894858899190197,-0.0031150956583911493,-0.0005345146011264205,-0.00044530902974391633
0.11659630103915263,0.22135921710133585,-0.25344868511274943,-0.0031766395943046023,0.08593986988575178,0.11418792765302423
0.36174308939477695,0.6852827775923701,-0.7915247384494581,-0.0039837130234591156,0.2673372984261271,0.360009339996567
0.6257079872953513,1.1770913435914663,-1.3587411031528824,-0.005865093672218395,0.4566745132708307,0.6247003148422344
0.8946219374704599,1.67011102967399,-1.9240484321814089,-0.008839335652264064,0.643408474380426,0.8943605012602677
1.1713040683047524,2.169173166441524,-2.492914724310489,-0.012990589168599114,0.8292922620621092,1.1718240882959448
1.4523523975860693,2.667837981262656,-3.057944746648229,-0.01831661348127506,1.0118658844262367,1.4536867660452724
1.7401183390014254,3.1700291131546035,-3.6235559490695146,-0.024903717501624272,1.1925286777181898,1.7423139945577544
2.0356873745722543,3.6772492386265787,-4.191357349666146,-0.032838152050964624,1.3717319113209925,2.0388022718882897
2.33637319976195,4.184574416358717,-4.755789062267825,-0.04209897976785537,1.54767955159181,2.3404644551269898
2.646222801234397,4.698470443282953,-5.323982094780348,-0.052869018882856895,1.7225430494716945,2.651368486041205
2.9621197510310533,5.213372929530127,-5.889712321593272,-0.06510300792322218,1.8943486949869262,2.9683953152894094
3.2863891041003144,5.732721529034378,-6.456710773624695,-0.07894807925358088,2.064185582485386,3.293886033223502
3.617092281380719,6.2530518945935425,-7.021147762327059,-0.0943800716647414,2.230862226219245,3.6259024278331746
3.958187364555964,6.780158359217131,-7.589238389586219,-0.11165300837095445,2.396153277209646,3.9684264394216493
4.305188353515871,7.306706183020467,-8.153024418756655,-0.13060485868189514,2.5576929919799487,4.3169610128865585
4.6635028449500915,7.840471017711018,-8.720774699157607,-0.1516003333386972,2.7177966652881365,4.676945470096078
5.030604716852541,8.37715118978379,-9.287822001615801,-0.17457657003316177,2.87506878702222,5.045850469030785
5.406684999411477,8.916594948866399,-9.853962751855562,-0.19961542162834423,3.0294055198516645,5.423875317366545
5.792407038632616,9.459299438556087,-10.419673859315441,-0.22683442890658279,3.18088694705483,5.8116940088002895
6.18894057529279,10.006392151918384,-10.986070249902474,-0.25639892193250446,3.329748908759922,6.2104900990211025
6.595823844595259,10.556701312439259,-11.55188116162228,-0.28835972487459144,3.475594749864866,6.619806373807183
7.01360733889457,11.110446310161251,-12.117287158853832,-0.32284394659722426,3.6184155534859275,7.040203208186184
7.443912128003886,11.669174751226874,-12.68380682941451,-0.3600804152268781,3.758524760763475,7.47331861004193
7.886877631429311,12.23241091923314,-13.250888225019182,-0.4001844018241502,3.895706908869314,7.919299640377265
8.343593379940874,12.800847510279066,-13.81915973704936,-0.44336296921526164,4.030032264845353,8.379249622109285
8.80768912737885,13.366089922524516,-14.380245618176296,-0.4890881973452409,4.159503380914337,8.846756488838205
9.275997570087899,13.924204645108963,-14.930389900734598,-0.5370634692550654,4.283340055723684,9.318628276679823
9.747765971977499,14.474371875414446,-15.468981038503102,-0.5872033599633759,4.401530981206093,9.794102997786323
10.22459150299465,15.018496419114474,-15.99806710622121,-0.639673722511055,4.5146426862854,10.274786634668082
10.706143024158381,15.556194045243569,-16.51744112207975,-0.6944407049712065,4.622735382105402,10.760341584307335
11.190707015935532,16.08561723346735,-17.02550432598046,-0.7513003808067693,4.725598563262961,11.249035201628164
11.680645831079463,16.609388477871953,-17.524950029412864,-0.810523792551448,4.823893244265538,11.743244917833845
12.180800461848074,17.132472349648644,-18.02061889230813,-0.8727271024637158,4.918626100945511,12.24785051148357
12.692457553036018,17.65579805885098,-18.513447345578,-0.9381314090975844,5.0099825663103585,12.764147675153579
13.208673550251168,18.172050749692126,-18.996661006691937,-1.0058787828217435,5.096765730748207,13.285125427677173
13.728033515355172,18.679888516908907,-19.46919137674298,-1.0757694507856825,5.178912394677599,13.809349038696666
14.245415350684965,19.1745853657455,-19.926873626915704,-1.1470680578176258,5.255874187181825,14.331640418000282
14.762813602323899,19.658418299476423,-20.37205895680899,-1.2199898184505111,5.328238592139487,14.854004728510473
15.282823964087822,20.134024160216626,-20.807373206627812,-1.294864355552739,5.396583031599368,15.37905535899422
15.676243770099068,20.486913788175613,-21.128927704110854,-1.3525382005574647,5.445513660895161,15.77631669269822
15.713137891673487,20.50729557118838,-21.278984215375367,-1.358557147056694,5.583519917092546,15.816762833518911
15.69824245871176,20.4456041522111,-21.70124988683876,-1.3584711790920785,6.0676940486797815,15.81333176505924
15.681502727952278,20.369664859370758,-22.17303653761137,-1.3585007544604608,6.6156627430156165,15.809567010519698
15.664785085092737,20.286709245854546,-22.641229624868167,-1.3586667865769688,7.167052594753588,15.805908050355011
15.648554745739728,20.199233245471717,-23.092881089106942,-1.3589617773718976,7.706412906999808,15.802456758727116
15.639812539455317,20.149235778328304,-23.334955041990533,-1.3591764832510325,7.998609208513878,15.800640649878897
15.63630890406023,20.128625613576887,-23.431732958232512,-1.3592736684903517,8.116047230333617,15.7999214556302
15.442381279755283,20.18576215924058,-23.469695323612026,-1.3427719174053776,8.101446343407705,15.603956151818746
14.91083085765356,20.33994420676157,-23.56394756987159,-1.2974452961030871,8.053767468265798,15.066691125234177
14.323113069976989,20.50358090330378,-23.663639449039138,-1.2472191803578128,8.00287795852265,14.472787723303256
13.734683200880434,20.66029175981287,-23.758784195540507,-1.1968207796004566,7.9538662237691575,13.878300100731998
13.143531548221468,20.810617585335454,-23.849751486008376,-1.1460814322017898,7.906598332060674,13.281194350063645
12.550587631669984,20.95430617384192,-23.93642736126133,-1.095084194361029,7.861186454591975,12.682405978095977
11.949377510369345,21.09280694781255,-24.01971667270712,-1.0432715410068334,7.817170208604433,12.075399882109059
11.347994355256567,21.224170547730566,-24.098486793553562,-0.99134926222704,7.775258763082587,11.46833557638899
10.749064251374717,21.347919687052702,-24.172486357681723,-0.9395463643861859,7.735605579138684,10.86386233030443
10.147553126692632,21.465147211535463,-24.242403211550695,-0.8874321957018471,7.697889424334174,10.256893955106602
9.54533253906296,21.57548255799158,-24.308047051020417,-0.8351730102595134,7.662255368550877,9.649314204793143
8.943766750950752,21.67872037498983,-24.369322623953078,-0.7828904767196728,7.628763805999304,9.042497462871044
8.341998784737493,21.775067122280177,-24.42638694639623,-0.7305184702125407,7.597433795360977,8.435565868415758
7.92749475370793,21.837423377291334,-24.463255554461423,-0.694403725235486,7.577103891244181,8.01755596381862
7.937598607940569,21.8555479149754,-24.365241149399164,-0.6950974646735586,7.460851588957017,8.026316280582005
8.1423533143631,21.902337217192688,-23.94735799095147,-0.7121828407481516,6.993700855079912,8.226781505038064
8.37833145448179,21.94902780716671,-23.462163536046052,-0.7318840678381481,6.458884871879299,8.457514300843998
8.615778837349893,21.988322808745878,-22.970096794434255,-0.7517229420828044,5.924493346008723,8.689360207189413
8.853799972566488,22.02011004203769,-22.472988449963825,-0.7716286087374488,5.392479729588929,8.921443257057993
9.093577317068165,22.044569866754916,-21.968334912160273,-0.7917039693366844,4.860143607124694,9.154914074156851
9.338093305966305,22.061831745453258,-21.449720531842058,-0.812203470598315,4.320896649923708,9.39266560105215
9.58194560068171,22.07145538480557,-20.928521763086035,-0.832678652567029,3.7866281987188772,9.629438690432575
9.824467367904424,22.07363542319711,-20.406227561633976,-0.8530768133398262,3.2586432558297607,9.864591772286477
10.062446158963562,22.068726313024285,-19.889906437299764,-0.8731302421369856,2.743684750893967,10.09499506790258
10.205202013035205,22.062480564190793,-19.57837779879799,-0.8851784701031865,2.4362486822273244,10.233073692807276
10.430580400947635,22.16493607673329,-19.640202551143226,-0.9044946545936964,2.39210675762533,10.457774690218427
10.97420583165232,22.41106191676318,-19.804402383161076,-0.9510363550459507,2.3013987539786505,10.99991311350041
11.557823287952116,22.667754605955324,-19.9752178284615,-1.0009044042731376,2.2056046136635583,11.581810374205222
12.142665874202686,22.91727943370501,-20.14087504484037,-1.0507712794121935,2.1112925923871995,12.164806552313552
12.730928670529687,23.16060616847555,-20.302087550210203,-1.100818141979028,2.0181624237164466,12.751094640291988
13.318904837197017,23.396257080695477,-20.457941740193586,-1.15071755703352,1.926817396682979,13.336975878492336
13.914032409865328,23.627203201851533,-20.61047238400521,-1.2011063398035697,1.8362225918524089,13.929886220538604
14.507530215086945,23.850043034681995,-20.757492815016505,-1.2512282185823902,1.747739300911803,14.521072639132974
15.104926251539547,24.06691936501325,-20.900479076957804,-1.3015442449537122,1.6605812470901273,15.116047898140168
15.704699671282574,24.277269056546725,-21.039118940849843,-1.3519190489416943,1.5750263131430424,15.71330282282598
16.30670575489116,24.481058359781205,-21.17344508099979,-1.4023258645916872,1.4911126222209066,16.312690629104306
16.817349819104546,24.64823020528772,-21.283689193825932,-1.4449692470658988,1.4215380471730914,16.82106251138408
16.946665032667976,24.689032804416772,-21.34503784842734,-1.455772149465546,1.438810301304541,16.950675565992906
16.932312897733823,24.674643264471676,-21.718515652849153,-1.4548549146112564,1.8269164828705322,16.9462002758262
16.912381307621985,24.648811634346302,-22.23497671530679,-1.453694869350198,2.3695397833500484,16.94005795285368
16.892621231455614,24.616350719949473,-22.744412728125557,-1.4526780375969024,2.9117631833071274,16.93405640038866
16.872910420183686,24.577019340730125,-23.249965925012315,-1.4517989400665465,3.4569720795486525,16.928161963608865
16.85347538881317,24.53128547089094,-23.745837343744196,-1.4510674939434374,3.9988957825758678,16.922445081494793
16.833900993871623,24.47808593107586,-24.24259076261323,-1.4504699850220972,4.549168005046207,16.91678778275174
16.814527599277778,24.418219530540487,-24.73154444224833,-1.4500195990112332,5.098302592055401,16.911293183633337
16.795373827403143,24.35181717672213,-25.212258185950414,-1.4497157712349067,5.645728122964309,16.905968447831345
16.776405217100255,24.278826711257384,-25.685623568239993,-1.449557171604721,6.1923888725281895,16.900805911155615
16.76439691228446,24.228827069148434,-25.98387671899116,-1.4495316882729077,6.5408338660376035,16.897597115255568
16.760956872307638,24.213954794284422,-26.069112844866844,-1.449535262178409,6.640997206696756,16.89668661599072
16.548706131957868,24.27918779358725,-26.106573345951322,-1.4316224359967196,6.6185703117215775,16.682481292686766
15.991700265408122,24.446407445029582,-26.199896729449364,-1.3845269953714778,6.558386561178242,16.12038585630371
15.3862775943888,24.62099907824446,-26.296959465228614,-1.3332111416270762,6.49524073874887,15.509605618594412
14.776201208968436,24.789467048523584,-26.390255424776274,-1.2813719216533648,6.434011758125033,14.894308364740215
14.16816744067852,24.949994137738436,-26.47882322174473,-1.2295822624948127,6.375397605861675,14.28124271467519
13.55452188181753,25.104610774771206,-26.563822406653525,-1.1771917868324548,6.31866118743468,13.662690055107559
12.940868555859192,25.251882213504764,-26.644509202925526,-1.1246868762859958,6.264422892023849,13.0442870357322
12.326140399245306,25.39211388259252,-26.721087910795635,-1.0719784505812868,6.212572400009845,12.424956025753241
11.711582753963437,25.525072170033233,-26.79346876192482,-1.0191780819571208,6.16322728221394,11.805945243746242
11.09289641957736,25.65167856300012,-26.862184417511326,-0.9659192218336448,6.11604244495005,11.182922124128536
10.47070407264275,25.77173773372103,-26.927165826385437,-0.9122617185517873,6.07117830352897,10.55650256657758
9.850897254322131,25.884148900595058,-26.9878458865347,-0.8587170894231523,6.029041063756379,9.932614531959677
9.2266414509485,25.990169815382583,-27.044933141494408,-0.8046998206755338,5.989183455107084,9.304371740648444
8.673228255926272,26.078157888373134,-27.092201883437117,-0.75674254458986,5.95598885049103,8.747524172646834
8.48390817776905,26.108288959744144,-27.099479502619456,-0.7403097101562705,5.935613663268226,8.556925024005768
8.637838918772436,26.129705301789222,-26.799843032160545,-0.7532190863419148,5.612581559628581,8.707406758911848
8.887881612141058,26.158295549546352,-26.310286972719304,-0.774202359031946,5.091147670898378,8.95158067810086
9.14316503207255,26.179704763627804,-25.80687655283519,-0.7956459084161921,4.5628792135422875,9.200534812845918
9.400972533757008,26.193505652796645,-25.29482836358775,-0.8173262453802614,4.033452785492667,9.451607246358545
9.66047824186947,26.199616472326646,-24.77571383374305,-0.8391782977154822,3.5045309373449633,9.70398784279803
9.921675965146028,26.198038064789483,-24.249491818347625,-0.8612058607709239,2.976070154034598,9.957666245911426
10.182196076245566,26.18888848607245,-23.720930520393786,-0.8832129628197892,2.452754913681084,10.210341223598633
10.440155629094354,26.172514719385262,-23.193931262160223,-0.9050434003933162,1.9381698078227285,10.460194834921523
10.69791828193074,26.14901766709488,-22.663732258299635,-0.9269014876193822,1.4274068158205184,10.709495451241102
10.923026433372781,26.122764989487493,-22.197762571724038,-0.9460268111726337,0.9840763403743819,10.926965991718333
11.014549535670847,26.07774650255983,-22.065568619732485,-0.9538358037831374,0.8953989688804912,11.016824043339657
11.408023270376713,25.685073958216876,-21.836256004112965,-0.9875300957846125,1.0520852847375348,11.41213852741312
11.934852755057895,25.147717998529775,-21.519347901574374,-1.0325888894393198,1.2632315244507335,11.941756739954384
12.445684529072443,24.613651060022363,-21.200803125099988,-1.0762177229285972,1.4693344377398208,12.455647782935346
12.942570940255973,24.08149291889076,-20.879826673697227,-1.1185957974157623,1.6709764505467222,12.955845742383675
13.431520724713911,23.54527853238263,-20.552774981611414,-1.1602381211799357,1.8703886943013106,13.448377072691025
13.905229283435492,23.013555335548308,-20.224842707156146,-1.2005254347208651,2.0643898904479254,13.925860021947075
14.370428804806318,22.479339857759673,-19.8917209436405,-1.2400332956414355,2.2555413771818467,14.395056194141743
14.823214604573238,21.94759325732279,-19.55648107175584,-1.2784326260133612,2.442059074368496,14.852005944852321
15.254310103602567,21.430209213922563,-19.226770111836498,-1.3149366718227045,2.6199080085392294,15.287330385180994
15.469387745874455,21.167940102808434,-19.058303309380378,-1.333132361190738,2.7087187719305708,15.504599808929497
15.716363178202053,20.863307330842936,-18.861493829562693,-1.354010870685758,2.810724803409297,15.75416514678242
15.799069168824296,20.75990305186752,-18.799694402155644,-1.3610052381481859,2.8503596702362395,15.83788600729774
15.790046697430942,20.741359163940338,-19.06337567524996,-1.3605973012887824,3.132719386965901,15.835570925894652
15.773149632446236,20.701711015197287,-19.555112144362788,-1.359925896175557,3.6643552345935713,15.831292702082681
15.755925360344449,20.654583617745345,-20.053541056677496,-1.3593679329727335,4.210166575422161,15.827012246099843
15.738869627021986,20.601105918077614,-20.544228053292414,-1.3589439915989667,4.7545827004131045,15.82285824152145
15.721883726445352,20.54097393366471,-21.030021590235403,-1.358651841942493,5.300757476667646,15.818809350193725
15.704856588484803,20.47367239446418,-21.51405262044979,-1.3584923091331178,5.852338708935574,15.814843474269761
15.688023814707474,20.400086510511553,-21.98960909557691,-1.3584689933317662,6.401725662596907,15.811018906321863
15.671366648603808,20.320226718009668,-22.457263336498514,-1.3585807156231868,6.949480483591148,15.807332913230535
15.654634582154262,20.232814164647852,-22.92401884204551,-1.3588313607718578,7.503889102564446,15.803733987801959
15.642997198795166,20.167689757280055,-23.246849109821788,-1.3590893966899835,7.892010287286135,15.801294770130497
15.639375581936177,20.146688851312252,-23.347009735319343,-1.359183949799942,8.013223499417252,15.80054668993572
15.63646418376628,20.129552101843185,-23.427422352782525,-1.3592649095865836,8.110814363983009,15.79994916585615
15.686469373620689,20.32043474206554,-23.56353880815452,-1.3633158415267799,8.054877370138284,15.84904562625311
15.829124928045767,20.861249488264527,-23.92401376999144,-1.3747876684890887,7.871185199516743,15.988480662394528
15.991703550652229,21.46832711161464,-24.32388231998556,-1.3878505592268426,7.6601216517778505,16.147256797311346
16.15698261746238,22.075611063454343,-24.718863119026175,-1.4011196834837782,7.443863023426942,16.308529397161777
16.32652649375585,22.68847262265356,-25.112406357822536,-1.4147213763831774,7.2204484580701065,16.473819676689722
16.499055707069907,23.3018947203471,-25.501244661187886,-1.4285538037298349,6.991656100633615,16.641874868961633
16.675669213685314,23.91941650693859,-25.887594431956394,-1.4427059997818976,6.756133945238575,16.813760437346218
16.853575386743522,24.53106419394372,-26.265267830321317,-1.456955366067342,6.517734817190405,16.986756750158598
17.03468258368335,25.143270626592077,-26.638332943000783,-1.4714559471379802,6.274044908593909,17.162718017198127
17.22111769116234,25.76275440117696,-27.01082001816241,-1.4863791241927278,6.022319348971761,17.34370442366912
17.41107380183609,26.383021112359994,-27.37875777325712,-1.5015814422446376,5.765123800973482,17.52795540131892
17.60328274981739,26.99971351119042,-27.739627505923494,-1.516962728558029,5.504327137336306,17.71423832771483
17.799937928166578,27.619581122341184,-28.09741565679286,-1.5326998689257836,5.237106949232866,17.90467548752123
17.97140270332067,28.151116724929558,-28.400299344226458,-1.546422283731353,5.0039302079172385,18.070594448281042
18.044130788595908,28.374105886096554,-28.52629226637222,-1.5522432869376113,4.90500275196474,18.140936022733158
18.048702762563394,28.387188477711614,-28.435807838001374,-1.5523849327810426,4.801349927380737,18.142706670641523
18.02010177527579,28.293661995718423,-27.960445020657257,-1.549173419025787,4.420427814007605,18.103654384295005
17.98662485175934,28.179368127450086,-27.399735771718145,-1.545506017797026,3.9750795473580083,18.058012130015207
17.953402852124853,28.060834337600266,-26.83866003183595,-1.541963036525035,3.5335934767005095,18.0127859921473
17.92014397914095,27.937101056691844,-26.272286216508782,-1.5385112549272404,3.0920069467330116,17.967574298397402
17.88712933010238,27.80928883749947,-25.7053935206395,-1.5351779369737781,2.6539697725171356,17.922754921256026
17.85420748003297,27.676913625250872,-25.135401520528756,-1.5319454316590786,2.2173904675324843,17.878117799679593
17.821788913929414,27.541780265133134,-24.569490309227877,-1.5288507788318844,1.78763147039059,17.83421457305416
17.789564185440007,27.402771558738426,-24.00235294859372,-1.5258608977547683,1.360512902557214,17.7906212309052
17.75718765118453,27.25842226051108,-23.42785907943575,-1.522942936941389,0.9313805359389564,17.746866850982965
17.73144403606348,27.140303208976142,-22.967670501263147,-1.5206839399825491,0.5901139866960169,17.712105909421428
17.72276587223849,27.099819392800892,-22.81185844796599,-1.5199345960074482,0.4750560664172349,17.700393593996168
17.73414962118285,27.127092678755115,-22.768059892374403,-1.5208653638049547,0.4037080446192971,17.7098552806513
17.876430852320812,27.54831824111978,-23.011940809990424,-1.5326499528283821,0.22264629799795005,17.846934943288396
18.08170112672434,28.145892958634125,-23.35396260599576,-1.5496616561134071,-0.03831743888708086,18.044579145387473
18.22040473029178,28.543055977963288,-23.578718131317647,-1.5611636657256207,-0.2144132410681863,18.17805032828987
18.27177333484579,28.689013163552314,-23.66234044932229,-1.565424699069503,-0.27812117864216074,18.227504802584125
18.260591933114295,28.68988983452105,-23.919698994619463,-1.5644799824529725,-0.021430716615635764,18.223374057148565
18.237875773027305,28.686851689069567,-24.44094755011133,-1.5626579559851301,0.5032786936551891,18.215044455550508
18.214414190725257,28.67679315964345,-24.977004837586897,-1.5609155062211069,1.0498295456273905,18.206533796763786
18.190880174091433,28.65945636995718,-25.512317049701537,-1.559313252009102,1.6029132748333303,18.198096790614155
18.167532921747043,28.634897398727425,-26.040946996940473,-1.5578712945019069,2.1565317615013178,18.18983155998488
18.144565787603558,28.603398831173035,-26.55854532530014,-1.5565998550988938,2.706049495218567,18.18180869928432
18.121793047053664,28.564793422238196,-27.069328041818352,-1.555486887555013,3.2558531204240695,18.1739652697299
18.09923751041618,28.51913164024801,-27.572788125559736,-1.5545333765300053,3.8053847034764368,18.166312134825407
18.07926460428107,28.472359632150862,-28.01666224839298,-1.553842123739692,4.29637946050934,18.159627766685425
18.07035934576629,28.449561674611783,-28.21386058296258,-1.5535614958834407,4.516536322636655,18.156683051500693
18.05770912386467,28.41507486936236,-28.49329341991806,-1.5532051822846933,4.830683524851366,18.15253474334782
18.043530406973844,28.412134786469334,-28.54750324212276,-1.5521580065312766,4.888196822890509,18.139864447232902
17.698063257833333,28.52202530668958,-28.603209897472638,-1.5232857526763344,4.843309137212614,17.791812870579857
17.088940783109717,28.70993404729273,-28.69812921488476,-1.472261297436039,4.766283561102928,17.1783101934297
16.46284109670364,28.89538665811473,-28.791391618903774,-1.419662820554769,4.689932938280421,16.54793682355038
15.8335903805854,29.07401164785168,-28.88083027184471,-1.3666495429173362,4.616083021178324,15.914616736999392
15.199570891602384,29.246212807078162,-28.966687546703277,-1.3130828481575965,4.5445715965711475,15.276723705021752
14.5568624033642,29.412907326811894,-29.049464571063528,-1.2586421474618854,4.47510941465709,14.630300831748656
13.916294673341003,29.571252752739927,-29.127788469982672,-1.2042431243071745,4.408884155541365,13.986240897232367
13.275863852393238,29.72187098042097,-29.202012930300988,-1.1497220159696013,4.345672636120269,13.342519359269902
12.633294780638517,29.86533968613657,-29.2724600200699,-1.0948865140708952,4.285233976657053,12.69684635520549
11.98414849328537,30.002579423976925,-29.339622707781444,-1.0393690066997212,4.227269848095443,12.044746624127002
11.333504176836332,30.132444087648953,-29.402970449641508,-0.9836035525618883,4.172260139040514,11.391321520043832
10.687412261020981,30.253850785187417,-29.462011751477572,-0.9281156653115902,4.120692587747723,10.742636787630406
10.038148591837137,30.368338066821785,-29.517525203972063,-0.8722458063826758,4.071909136585463,10.090931297728915
9.44187576307854,30.46690411617299,-29.565197304331313,-0.820849613069363,4.029840406041179,9.492545349742516
9.16977557190641,30.509802736663964,-29.585909685535622,-0.7973687766282119,4.0115032981541034,9.219521102609741
9.148678838910715,30.391175446502768,-29.326839835288048,-0.7954146718615568,3.8713677306219325,9.196422196838519
9.10940498304523,30.136759087316758,-28.77385446915608,-0.7917587229523781,3.573371556254637,9.152932414887378
9.068298240340914,29.86655672818912,-28.18829474716859,-0.7879549996535856,3.2586110016856726,9.107414354317417
9.027928311712087,29.597237088667548,-27.606357712375853,-0.7842424710940964,2.946576976380824,9.06271286453963
8.987389534207434,29.32277226576703,-27.014989213268873,-0.7805376615068194,2.630256381169833,9.017824400887058
8.947461290224132,29.048434976444355,-26.425529260144632,-0.7769117229302951,2.3157053481652468,8.973611281129516
8.907980222602305,28.77319140032244,-25.835699446227473,-0.7733492203782526,2.001681739505618,8.929891958124584
8.869188124146339,28.498828028641334,-25.249268399353355,-0.7698713122188068,1.6901643613350372,8.88693356466819
8.830551198669417,28.221627024958813,-24.65824803770978,-0.766429738391131,1.3768906264005096,8.844144362428592
8.792466253537226,27.944473025661527,-24.068755970764787,-0.7630595634119195,1.0650879758660348,8.801963202549603
8.754688097091133,27.66564265020587,-23.47708663664307,-0.7597386848266497,0.752777760420725,8.760117956357298
8.726424861703,27.454450306784448,-23.0298390943614,-0.757268850459202,0.5171165987093448,8.728809047529081
8.714920068421135,27.367839837722773,-22.846639653885,-0.7562671120132491,0.4206876476017836,8.716063690516961
8.714158800604459,27.357361392799174,-22.791542207902648,-0.7561973946420557,0.37608256847690813,8.71471576900829
8.775126459504342,27.732058473268165,-23.006795546101102,-0.7614388021722323,0.21584770903547287,8.773366881272997
8.875520715418224,28.33947117115474,-23.351845334585274,-0.7700806473252628,-0.04782921910322894,8.86988531860129
8.97996994650256,28.959057765968907,-23.698872475140558,-0.7790864047030606,-0.32177068574038314,8.97022337283669
9.086520231362702,29.57848855253332,-24.040852637671875,-0.7882894350987001,-0.6006467917592814,9.072499375087967
9.193770576001869,30.189486546694354,-24.373343886851554,-0.7975698429764403,-0.8806043587312448,9.17536775677947
9.267346498564915,30.601573891071094,-24.594893958326875,-0.8039464316744473,-1.072146191092226,9.245892592077713
9.271059181753499,30.66270414801108,-24.627518411092318,-0.8042734466330368,-1.1007009496396603,9.24918512545512
9.094656265728714,30.278062815718858,-24.420244628758947,-0.7890479231944411,-0.9209090645841824,9.076189963427526
8.827489139479802,29.685237253113097,-24.0971186312332,-0.7659917787020855,-0.6476239836708865,8.814017796143682
8.562810095049795,29.085403620552576,-23.765624252515657,-0.7431536017027706,-0.3758351625852421,8.55408685727312
8.302644737903124,28.483281301060877,-23.428238448312243,-0.7207072223362034,-0.10780756323940821,8.298391144536005
8.04874888595474,27.88334793513166,-23.087444494572896,-0.698803157658559,0.15444821475926027,8.048665556753457
7.799165063959354,27.28139092615616,-22.74082677405661,-0.6772716175473292,0.41275894056687396,7.802993958604172
7.555408502840939,26.681458284182277,-22.390691379210026,-0.6562424709124457,0.6653700612586629,7.562876656610497
7.315541597963858,26.07915638078277,-22.03444542825942,-0.6355477646445797,0.9141097855325282,7.326413486666943
7.080921326799034,25.47823636222872,-21.674271123460233,-0.6153038386882342,1.157398677159606,7.094950157527446
6.850785631268926,24.8771468819273,-21.309228265798943,-0.5954442739498931,1.3958610672308778,6.867743631029204
6.624911127036242,24.27564354691579,-20.939137505242325,-0.5759491772039131,1.6295686891931738,6.6445811846637834
6.4041699761071404,23.6764468376983,-20.565670520614237,-0.5568932884304947,1.8574684556615029,6.426333084008206
6.194004730024113,23.09522915167816,-20.198814096183852,-0.5387461767066214,2.073828782604843,6.218395680067877
6.078095680633558,22.770096817682564,-19.991613094090464,-0.5287357990093289,2.19283462809978,6.103654091807835
6.037217721969888,22.65451062277368,-19.927308194690045,-0.5252085345211956,2.2444897158643986,6.063266896754653
6.033013400669226,22.636932345517568,-20.23786290116204,-0.5249700801980847,2.572647409036402,6.062074295206175
6.0261640580855795,22.602955491317555,-20.741678884658548,-0.5246198393860945,3.1104803750589514,6.060155427583936
6.01928603594184,22.56205177969439,-21.244923000757943,-0.5243167233399537,3.65466833521666,6.058259968978528
6.012436341974472,22.514414461521636,-21.743372244443048,-0.5240643392103163,4.200794693511378,6.056405371831775
6.005673156825654,22.46047417077687,-22.232807885987658,-0.5238647299307392,4.7442097449519975,6.0546083210852375
5.998853181618273,22.398983737136213,-22.72356309543712,-0.5237145392644513,5.296494652154513,6.0528323350467526
5.9921188197001305,22.331120751808275,-23.20535208907289,-0.5236178299281987,5.846185213634374,6.05111611609407
5.985443903570265,22.256699847240444,-23.680079994093646,-0.5235738581164544,6.395372072192022,6.0494536585024665
5.978793834199967,22.175319669660286,-24.150202873558264,-0.5235827446940882,6.94691283751736,6.047837506413817
5.974002900588738,22.11212720033673,-24.48710592558159,-0.5236225321834976,7.34703539739987,6.046699089522413
5.972562884189529,22.092376132766006,-24.58807236382121,-0.523640050994355,7.467761008745849,6.046361286719283
5.9780591513543735,22.1464593948684,-24.648567163802362,-0.5241281837389,7.474122035945845,6.051958298272339
6.022657696584821,22.59239687661896,-24.934271688442642,-0.5278350461118873,7.313486512009493,6.095405196316218
6.085190902322614,23.209106974559045,-25.32496079901197,-0.5330329762791036,7.086896358099087,6.156275643357181
6.149678998631973,23.83487052703094,-25.71616195129235,-0.5383944466965872,6.851741237250121,6.21899161257822
6.215154100765168,24.459851929055464,-26.101654549343568,-0.5438396719778867,6.61164465893282,6.2826093188638374
6.281560297391514,25.0833234893849,-26.48105025573071,-0.5493646898881119,6.366946233563683,6.347073354245803
6.349561027509809,25.711185556347797,-26.857936565106055,-0.5550254540629364,6.115326535995976,6.413025930727752
6.406873498184941,26.23224133622555,-27.166785206514927,-0.559799333378379,5.90257162765905,6.46856664329347
6.422747641159451,26.375397471639282,-27.23554198442151,-0.5611147344629757,5.827993962369283,6.48376233650748
6.41536254673394,26.310847881171227,-26.884399509316324,-0.5601924969964006,5.541487144313723,6.473522278694644
6.403767221861068,26.20525639594571,-26.329239304295726,-0.558774868261155,5.092053217249809,6.457466888906459
6.392135905592002,26.094156476952353,-25.767609396425428,-0.5573896870498336,4.641658028460767,6.441388051654623
6.380549333926644,25.978353895366688,-25.203363794305844,-0.5560460609017039,4.193348887598196,6.425395955347602
6.369043433681504,25.85831545354819,-24.638276978573032,-0.554747156032282,3.748433071416847,6.4095384415984915
6.357609772598958,25.734076656445588,-24.07197725619086,-0.5534909369681046,3.306503493771486,6.393802120668206
6.346248109247818,25.605747822506608,-23.504487888981046,-0.5522763931137737,2.8674731145554464,6.378184990784902
6.334935126943124,25.473159829196014,-22.93466367136408,-0.5511002008002085,2.4303661300591153,6.362653454097194
6.323697514013063,25.33671921474531,-22.36387018234561,-0.549964328738044,1.9961412882580545,6.347242647052962
6.312936844667431,25.201656647294797,-21.812795838070294,-0.5489067990108287,1.5802517926624593,6.332500931582101
6.30731584294003,25.129391126743634,-21.523162431540708,-0.5483660440684909,1.3629476604147572,6.3248058669908165
6.308246523582617,25.131470428059107,-21.46017624383232,-0.5484321765350453,1.297876264597156,6.325111709412958
6.350777575877211,25.50406770374144,-21.68509260312116,-0.5520869714502008,1.1497943260509345,6.366140818392254
6.420353276929603,26.10458480236472,-22.043705991292136,-0.5580722411124905,0.9072291180269833,6.433215736670026
6.480640158703232,26.616088683640818,-22.34539628167091,-0.5632651778137744,0.6968368517839807,6.491292728512184
6.49837357498721,26.766337699676757,-22.445125015791756,-0.5647951371978449,0.6461448363163692,6.508479275783951
6.493282213176666,26.75996650843369,-22.777244721721342,-0.5644013807347342,0.9846693378099121,6.506738127076385
6.485141542822794,26.744161917255656,-23.306323439898254,-0.5638135192099522,1.5296062180351016,6.503980920949482
6.476936197581118,26.72108453549661,-23.837124017590366,-0.5632739837356361,2.0835379669145278,6.501236892453793
6.468843269787317,26.691119811562935,-24.358154992022673,-0.5627951918117281,2.6345865047026553,6.498567012035509
6.460860898586784,26.654383001724597,-24.869581280381762,-0.5623761088170235,3.18280150378929,6.49597121788933
6.452920954034858,26.61059119123132,-25.375780456548494,-0.5620129528779926,3.7328438924700125,6.493428355475314
6.445036378239137,26.559773303527134,-25.87591381751864,-0.5617066940853639,4.283845954994274,6.490943955773439
6.437239606057762,26.50216161237648,-26.36793227906854,-0.5614585252546127,4.833526120900544,6.488529256976324
6.430812168528224,26.449038316968032,-26.77159091119868,-0.5612958732287631,5.290349095342881,6.486571620701489
6.427755314310234,26.421955982127965,-26.962939979326894,-0.5612320835939617,5.508799960320875,6.485651428324653
6.423641129097577,26.38363034401808,-27.219825203659234,-0.5611602650842135,5.804036954252959,6.484424318247926
6.325837992222949,26.389465197206945,-27.2586830142373,-0.5526783005677453,5.838010614173109,6.386452446103776
5.836981018365159,26.44181717913636,-27.28656309900519,-0.5100711512565578,5.818081709901876,5.894902854371086
5.208907926442486,26.50282203601299,-27.31900879761366,-0.4552829880682345,5.794825351853823,5.263436846391698
4.578534107039924,26.557001802769744,-27.347786245513003,-0.40024584370310756,5.7741408567500745,4.629725428593637
3.9499948662963873,26.604020802530147,-27.37273112706388,-0.34532647891154805,5.7561676325345665,3.9979177836658786
3.3231078901510376,26.64397016656383,-27.393901014634157,-0.29051623303442425,5.740849808670891,3.3678240042213368
2.694377382032885,26.67709421395952,-27.41144191800931,-0.23551314666388706,5.728164076209125,2.7359185442229115
2.0651705101841222,26.703295947489018,-27.425307728850072,-0.1804433197370667,5.7181233476345845,2.103569436796084
1.4371111089804876,26.722531635022445,-27.43548200475786,-0.12545470736707698,5.710749750164956,1.4724004186085982
0.8088392814880463,26.734864691466132,-27.442000076324714,-0.07043636375134796,5.705991968813813,0.8410375870025869
0.17726513943596092,26.7403095530632,-27.444878973032264,-0.015119189965882473,5.703908917721622,0.206365905678598
-0.4484588658099392,26.73882869919642,-27.44409709997109,0.03968738649415317,5.704485031316622,-0.4224245826436679
-1.0795537604300665,26.730403332482297,-27.439644156679147,0.0949603610753777,5.7077273531123405,-1.0566181222449942
-1.7056034781315283,26.715159560675286,-27.431581536770217,0.1497782715356948,5.713554698160516,-1.6857556914510814
-2.1848981664246883,26.69885403742797,-27.4229572803541,0.19173828534795156,5.719816232205418,-2.1674287574302147
-2.2640338325906306,26.662830971353504,-27.3429081987825,0.19864946572702175,5.6755223590727635,-2.2468002965783174
-2.2564801486539268,26.470562020933063,-26.88580526305735,0.1978996300328123,5.410716033642506,-2.2382916284705927
-2.2469796409204736,26.225063479346428,-26.30487627690068,0.19696273760614647,5.075320236020633,-2.227591785459541
-2.2375090039512826,25.976203473227283,-25.71897719523337,0.19603570808888007,4.738315541637282,-2.216927366728069
-2.228059539517254,25.72372452093983,-25.12748884846721,0.19511768225339388,4.399340295789186,-2.2062883571262226
-2.2187575503824517,25.47104909275042,-24.53836387317038,0.19422079842989393,4.062924212861087,-2.195816714033968
-2.2095962217077396,25.218119133898664,-23.951350835452324,0.19334414124763433,3.7288739455678988,-2.185504505715703
-2.2004348540906693,24.961079677060198,-23.357453600489453,0.19247415227673187,3.392048834068812,-2.1751931328796053
-2.1914821714035058,24.705861736298434,-22.770299872558166,0.1916304881688732,3.060144829577734,-2.165117295580644
-2.1825862394289897,24.44824803946829,-22.18008943088512,0.19079860747144065,2.727579529365324,-2.155105776549066
-2.173752829987638,24.188420808509402,-21.587204052647586,0.1899789884168426,2.3945524713301527,-2.145164869537382
-2.165362957581082,23.937865550937904,-21.01766480156828,0.18920650798389102,2.0755978823331347,-2.135723159475235
-2.1611725476715073,23.811327324424266,-20.730819886694515,0.18882288837380587,1.9153058353291594,-2.131007362169819
-2.159466636067667,23.758373359943608,-20.59878403646389,0.1886656955022596,1.836229974983666,-2.129042694640584
-2.17053312481336,24.047666029352015,-20.778828874415655,0.18961876657249935,1.7269463452611045,-2.1397367177090705
-2.193151358034813,24.631299200735775,-21.138630774056946,0.1915684425623711,1.5030413696748344,-2.161580550701341
-2.217386453697961,25.24552337629533,-21.512359937116585,0.1936602083049483,1.2624665835518152,-2.1849667267990323
-2.2419108968245425,25.85567262313985,-21.87862661748016,0.19577995757447925,1.0185024476419178,-2.208612460909795
-2.267223023481117,26.473711655307145,-22.244591079116837,0.19797111658267486,0.7663427983007521,-2.232997475420422
-2.28774060021467,26.966181241461427,-22.53258840417631,0.19974981318940446,0.5618009109632176,-2.252748888742789
-2.23349259781332,27.044886367377373,-22.578198949145474,0.19502415489635327,0.5288929928491145,-2.1985486861640373
-1.7867971853360765,26.850173742521253,-22.46409563813014,0.15611659553000734,0.6108677092655553,-1.7534143767269632
-1.1864656212718234,26.581457802151057,-22.306118772425055,0.10381135726179021,0.7229657384921221,-1.1550113298351643
-0.5850715923511978,26.304040944361763,-22.142382908800734,0.05139997909594039,0.8374603158507244,-0.5553478011491132
0.015073102938023027,26.018838610266418,-21.97334145683287,-0.0009110417654592967,0.9538862184155984,0.043277951728033254
0.6161728782498007,25.72464319793346,-21.798183876146553,-0.05330857449954748,1.0726133891234924,0.6430811583304819
1.2103751186251495,25.425265455012553,-21.6191008444679,-0.10510350895690372,1.1920895450958517,1.236210390274955
1.7965489571383642,25.121426511147956,-21.43645424400694,-0.15619269542103692,1.3119488641016794,1.8215445323844102
2.3799609002869264,24.810461543619333,-21.248565989220307,-0.20703083147586693,1.43318038766432,2.4043424602913714
2.962610668434421,24.49120867674025,-21.054638119758994,-0.2577878754070295,1.5561462871191718,2.9866054709125227
3.5425682611620077,24.16462051292244,-20.855146306786036,-0.3082899396719546,1.6803537921119642,3.5664187100125186
4.116119201545348,23.832820816718613,-20.65130709671,-0.35821273043621976,1.8049822938907238,4.1400475415896345
4.686112383220856,23.494203382331886,-20.442044872450868,-0.4077994744715975,1.9305307453675966,4.71035047118846
5.251514103445827,23.149385508384764,-20.227648119160534,-0.456956900395108,2.0566878881372745,5.276292711629481
5.78612159817344,22.814994645556965,-20.018460024149153,-0.5034061493409043,2.177412011151124,5.811628766614545
6.037282957486008,22.654749714202055,-19.92276142236403,-0.5252187849581128,2.2397041190187785,6.063253209566011
6.033630902638168,22.63965422988398,-20.19258160036415,-0.5250104140015494,2.524641249637033,6.062216433838386
6.026874355753115,22.6067724631554,-20.689804520654302,-0.5246603755133644,3.054785537454636,6.060320565045397
6.0200048083337245,22.566629960410072,-21.192690415151407,-0.524352543110116,3.5978540360477385,6.058423987350099
6.013160031945376,22.519756745569694,-21.69105070240661,-0.5240951071103941,4.1431273252466365,6.056567065551519
6.006354098502786,22.46619827259295,-22.183845662702264,-0.5238890444148688,4.689520144383165,6.054754926213048
5.9995656228669425,22.40572286204075,-22.672602854387964,-0.523734282424081,5.238791849447509,6.052983260733999
5.992852757074122,22.338843541849457,-23.153136684987174,-0.5236323386364998,5.786243481009107,6.051268338170575
5.986142033660822,22.2647998147498,-23.630697429274743,-0.5235824978075726,6.337886227552225,6.0495926163443805
5.979497219275418,22.18425225657316,-24.10073188201873,-0.5235857767945904,6.888505939213986,6.047973326421609
5.974171020062191,22.114390354949943,-24.475413933404653,-0.5236271514884608,7.333079963389817,6.046705398357452
5.972574444023789,22.092516386092235,-24.587362730407825,-0.5236463970221927,7.466911716945068,6.046330702454013
5.863563477185405,22.0996932458885,-24.617775653872947,-0.5141434567486334,7.491134955616364,5.936706263793838
5.360261134346868,22.15156742396802,-24.648233535763502,-0.47009247861310693,7.474046846353387,5.429399727261668
4.753254592609392,22.207875411033683,-24.68125565901776,-0.41692375155969486,7.45546636491219,4.817616271858931
4.146898761735823,22.257318173813868,-24.71021814551613,-0.36377188181642434,7.4391242290702415,4.206539739382256
3.5395352631810892,22.300044139158583,-24.735217785895372,-0.3104962325540389,7.424951324798485,3.5944964145495586
2.9319911754853045,22.33599934239167,-24.756240339606208,-0.2571753213129922,7.413036361670435,2.982305460183018
2.322311277120651,22.365273879914145,-24.77334468930175,-0.20364190536540547,7.403326403727659,2.3679942913597776
1.7103581775783026,22.387813582125837,-24.786506741950323,-0.14988886546816665,7.395845692714428,1.7514181608958737
1.099141698077524,22.403489336749942,-24.795653842670845,-0.09618653715020593,7.39061086467207,1.1356065894841405
0.48381121172888386,22.412381097033332,-24.800843079717513,-0.04211261629204465,7.387661009753001,0.515658751211747
-0.12937963665916838,22.41436624766923,-24.802002080332553,0.011777593610727938,7.387007654609754,-0.10212799748161441
-0.7479472735033067,22.40941341643393,-24.799109930621132,0.06613768579312146,7.388630674996249,-0.7253302217364491
-1.3589715256238564,22.397665003334488,-24.792254695001738,0.11982987944835384,7.392543660972558,-1.3409437235031187
-1.9076590548994312,22.381302397903184,-24.78270373042859,0.16803473577584963,7.397987629332756,-1.8937647978068348
-2.10510317342042,22.369683756009646,-24.766836357498732,0.1853751112649791,7.393133962210767,-2.0926765736832746
-2.100170264029513,22.239794686510248,-24.42238529686413,0.18485339143267512,7.178588972347292,-2.087009372377409
-2.0920350799637575,22.022234887895806,-23.849164958136516,0.18399900624852208,6.822956373002557,-2.0776659298648603
-2.0838466577682,21.7989916321103,-23.265593445298887,0.183146605301531,6.462656117792854,-2.068264556407001
-2.0756675234192756,21.571679134264112,-22.675944512809203,0.18230277587686222,6.100347531665882,-2.0588768402857633
-2.0676216712829665,21.343799620001814,-22.089203875384392,0.18148013338845762,5.741513685084747,-2.0496447974465672
-2.0596333523877193,21.11330157272438,-21.49995515925518,0.18067069555658577,5.382789982251619,-2.040481196508382
-2.0517437793522006,20.881440462601162,-20.91130473062583,0.17987845461051308,5.026027183832105,-2.03143302743592
-2.0439286949397557,20.647582810128803,-20.32153170238845,0.17910077368097158,4.670137967811322,-2.02247218792842
-2.036172163906415,20.411298724883938,-19.7294724252485,0.17833592565637882,4.314388631809495,-2.0135801477232067
-2.028459979683009,20.172177871112588,-19.134043276478543,0.17758241316381013,3.958105938705231,-2.004740377313164
-2.0208629532373714,19.932484100068137,-18.540787561314183,0.17684698608098792,3.6045691110306177,-1.9960337896828013
-2.0155649191733915,19.76285863742315,-18.123043707021488,0.1763381533295541,3.356468174733487,-1.989962554082977
-2.0135066871364153,19.696408643595486,-17.959852373939466,0.17614137720984097,3.2597336033438427,-1.9876040531773904
-2.0187771640992014,19.851122297962625,-18.055339463010345,0.17659089523782806,3.200491141368958,-1.992698031591899
-2.0369013984331947,20.37967389732466,-18.411685794430465,0.17814289559198027,3.0282307559474444,-2.0103060653652465
-2.0580460001502074,20.986489365366165,-18.816025546610625,0.1799546779115296,2.8256901504878176,-2.030831691520027
-2.0795919852170788,21.594222150500027,-19.215886471394118,0.18180226165067315,2.61775151878064,-2.0517288320283638
-2.101474080903817,22.20077180227282,-19.609913303521168,0.18368027049337687,2.4051602148679367,-2.072933706972551
-2.1238184634837562,22.809338763110798,-20.000197578603824,0.18559977145570952,2.1868069000567507,-2.0945680523016814
-2.1468163685914643,23.42461912295962,-20.389667674846045,0.18757748329363147,1.960923205424326,-2.1168161202678735
-2.1701163539980217,24.036814990010207,-20.772098219308226,0.18958346685927172,1.7310827258472732,-2.139337233568072
-2.193828153877002,24.648605818643933,-21.14923233628749,0.19162742825094922,1.4963487422419586,-2.1622370856159794
-2.218055019004485,25.262305904912964,-21.522502545176224,0.19371856961596198,1.255839095067883,-2.185614773754682
-2.2427166819316677,25.875526615749546,-21.890463234917227,0.19585027936024968,1.0104970222039746,-2.2093922184331265
-2.267872689145252,26.489418782138998,-22.25382769375774,0.19802802851056023,0.7598847345318196,-2.233626251618224
-2.288187419221496,26.97682095960934,-22.53877702724155,0.19978920717231013,0.5573629367687165,-2.253182048225667
-2.291808096315875,27.06939670391638,-22.648760988349462,0.20010511292730057,0.5747584788263401,-2.2568527892774513
-2.28953487866898,27.06163746897409,-23.06690937647297,0.1999274156503535,1.000671420641788,-2.2560709200839
-2.2866277811574887,27.045457630886425,-23.59951063301759,0.19971656545393834,1.5494592948153403,-2.255081636625394
-2.2837220896555257,27.02210453295912,-24.129394296615544,0.1995246029905714,2.1027028064729807,-2.2541054008906554
-2.280855286517808,26.991850983078056,-24.649718334876532,0.19935405698731087,2.6532870276225076,-2.2531552768919583
-2.278017473405334,26.954670477477855,-25.162308104452975,0.19920412799951845,3.2030638413446595,-2.252228258142106
-2.2752103727223996,26.91063643956492,-25.666871166930797,0.19907478210991505,3.7516673815243746,-2.2513252208156707
-2.272413165009993,26.859400379567195,-26.167142724886066,0.19896514006039215,4.30318138767014,-2.2504399177540626
-2.269657751612927,26.80157302114592,-26.65742604058883,0.19887642059817107,4.851298325129823,-2.249582795910544
-2.267793072278228,26.758205901634618,-26.987770103227167,0.198827504244773,5.225013728704316,-2.249011562816163
-2.2664933595373937,26.72592211903215,-27.21732239444235,0.19879882356596232,5.486852736480785,-2.2486177617895415
-2.265486057912906,26.699725132223765,-27.39482728102156,0.19877969939539797,5.690556878868949,-2.24831508407328
-2.269064662649932,26.79070679824656,-27.4766268918775,0.19908970635275017,5.681362482291,-2.2518791282193895
-2.2882786921867253,27.27624144512847,-27.757602074243067,0.20070129723730767,5.476737373253741,-2.2704673445695285
-2.3138390605422194,27.912299282958582,-28.12108364394322,0.20284727216656562,5.204072971448801,-2.295175663812855
-2.339917678016502,28.549937899972992,-28.480263369466588,0.20503941631476863,4.925523210058644,-2.3203625341327783
-2.366464169665464,29.187576764472155,-28.83426594822754,0.20727387555305443,4.641793439625673,-2.345978638881876
-2.3934650884668933,29.82459520812237,-29.182789077647897,0.2095499006288842,4.353202021838213,-2.3720104441645544
-2.421085529068248,30.46450235883036,-29.527759810180875,0.2118818330340415,4.058166232495263,-2.3986163915518683
-2.4450544580005578,31.010436720836115,-29.818029863528558,0.21390866391516802,3.80241481922192,-2.4216864742043493
-2.451765100212162,31.161024717722512,-29.88104348753494,0.2144727597653673,3.7148160265007797,-2.4280822721430253
-2.4486553428915228,31.076013395387776,-29.520735342817403,0.21413705596921867,3.4395327238835227,-2.4239366765833985
-2.4438340575319644,30.940194615899685,-28.958338442558713,0.21362677076492628,3.012975511712929,-2.4175166543392104
-2.4390201763267605,30.799733484708003,-28.392168812448837,0.21312950154203714,2.5872878269919157,-2.411114791002053
-2.4342653044679015,30.656260705742135,-27.8283389313918,0.21265020841914398,2.166951223813474,-2.4047990708528224
-2.42949874897513,30.50773558376625,-27.258479883654463,0.21218148380204438,1.7456377882780847,-2.3984750176871583
-2.4247683795640156,30.35570518127028,-26.688294582122403,0.21172785254432858,1.3275031663619323,-2.392205637104219
-2.420056992711358,30.199713898476244,-26.11573307035778,0.21128738423505264,0.9109530770310406,-2.385967572567494
-2.415393670601582,30.040835555903364,-25.544370518467588,0.21086248983516148,0.49848874759203504,-2.3797987742831483
-2.4107609100840475,29.87859790539148,-24.972120209133337,0.21045124013010647,0.08849578568451624,-2.3736755344341223
-2.40627569754073,29.717356568027192,-24.41363880012321,0.2100633597823437,-0.3087252656486722,-2.3677518023993147
-2.4037997317617785,29.626591340896347,-24.103441874228903,0.20985355544696888,-0.5281464851595705,-2.3644834898499827
-2.4051188083131887,29.64545995948161,-24.043877384335264,0.20997124964777986,-0.6065838697830994,-2.3655093412586043
-2.4245214312111476,30.066918296311517,-24.273147255511244,0.21166957422914384,-0.7988419313639815,-2.384111087201709
-2.453498633653145,30.685666792668805,-24.605617075151937,0.21421061510377282,-1.0852255342178299,-2.411873765721658
-2.4778812309552283,31.196630269406008,-24.876488434852565,0.21635314380499107,-1.3254068559254215,-2.4352177178101684
-2.4830996353168726,31.311775558890147,-24.979390970975203,0.21680870970118082,-1.3376690874012551,-2.4403595174910864
-2.480607988433796,31.32253297759571,-25.379229231472795,0.21656224364101231,-0.9485816609970401,-2.439352036357854
-2.4779570440620344,31.329995350553517,-25.803468349896296,0.21631093253101036,-0.5317979273685556,-2.438287186222839
-2.476806977304639,31.331933475561982,-25.987138227103095,0.21620545366046232,-0.35006314922017356,-2.437827567238868
-2.4758078008495885,31.33297099704082,-26.146521842400084,0.21611557467739034,-0.19171442934121585,-2.4374294379234254
-2.474978468966058,31.33337183652245,-26.278678423463866,0.21604222622122435,-0.059956510149679156,-2.43709983825748
-2.4723109192315924,31.331794714102074,-26.702924363078367,0.21581408535600932,0.36587354324355287,-2.436045074684291
-2.4689376997104024,31.32342055181159,-27.237537652121144,0.2155428755150778,0.9088698063193403,-2.434723558688092
-2.4655509159811233,31.307656016816274,-27.77215186882032,0.21529044775835926,1.4592573711412145,-2.4334112950256013
-2.462233527237233,31.28486626619659,-28.293663064232764,0.21506299735605866,2.00356691519353,-2.4321409053151957
-2.4589631703074226,31.255081458881758,-28.805637477446783,0.21485846813909715,2.5453345769567495,-2.4309038760003037
-2.4558521894151157,31.219819154884764,-29.290628917565776,0.21468254517236865,3.0655963174444385,-2.4297420527586664
-2.4543532214577892,31.200363209802266,-29.52358856613606,0.21460441272544445,3.318015751951313,-2.4291876703555086
-2.4523347746565647,31.171583390544193,-29.83652260640362,0.21450615073366508,3.6597347706794072,-2.4284469349924294
-2.3790311008013516,31.168329304349864,-29.901137910363452,0.20812584569133763,3.727874261096646,-2.3552606769474234
-1.8992101693158026,31.185419209861212,-29.90925126625211,0.16624569856047583,3.7204669225341465,-1.8745159352110492
-1.2481728334897046,31.202470850979225,-29.917343237043802,0.10940471125975562,3.7130756803406326,-1.222249622528336
-0.5918433351076439,31.212516622498995,-29.922109233645205,0.05208853946696316,3.708723357183753,-0.5647004911653369
0.06378998020135844,31.215392487164255,-29.9234707951388,-0.005171980792688971,3.707452034548552,0.09214249384201818
0.7208840096423893,31.2111030056703,-29.921437075353584,-0.06256044318775061,3.7093222237411534,0.7504492126919464
1.3781501515048176,31.199624479404108,-29.915992615985893,-0.11995654879415667,3.7143123989993945,1.4089395043359974
2.032574665055943,31.181043774456302,-29.907172615887667,-0.17708821686144277,3.7223516945616497,2.0646053359239276
2.69109121081877,31.15513983225994,-29.894873706961892,-0.23455778085530482,3.7335943416269712,2.724401270764464
3.3445093219291486,31.1222731296434,-29.8792574290757,-0.2915546314664782,3.7478479705918644,3.3791302875563587
4.000953312730072,31.08204884498427,-29.8601247289052,-0.3487777057912721,3.7652463689313636,4.036944880352103
4.656731332240571,31.034637595171063,-29.837552747523844,-0.405903984144723,3.785769824621536,4.694151975357528
5.314892797525611,30.979762287713505,-29.811394154849935,-0.46318939329767134,3.8094977433510664,5.353820013325717
5.968184754590402,30.91803577934858,-29.78192417878846,-0.5199922362447374,3.8361237699698716,6.00869169989224
6.59737826967059,30.851725566444884,-29.750219189348943,-0.5746454545907244,3.8647206899196695,6.639490343168153
6.940032323711932,30.812769160967534,-29.73156877169641,-0.6043831897394462,3.8815020813721466,6.9830573298646925
6.9364049986776495,30.714945959731214,-29.522550444072948,-0.6039901724194772,3.7703515550397193,6.978247125786787
6.907388477681136,30.465829273473393,-28.987355314646585,-0.6012836498913529,3.4845943059673345,6.946165553638313
6.876082320198698,30.19324506201732,-28.40326476285819,-0.5983803488340496,3.1734329254924063,6.911552868995339
6.844947868925336,29.918166328160527,-27.81537874845424,-0.5955104695045901,2.8609670900002317,6.877129922223989
6.813987828142695,29.640612220363725,-27.223718893887863,-0.5926742047013794,2.547199273296817,6.842899190430147
6.783721234449829,29.365333082529435,-26.638355359442166,-0.5899186091428812,2.2374436956853327,6.809434063672879
6.7535259414388,29.08674841738456,-26.047374101658,-0.5871866363378989,1.9253736307348854,6.776046183071775
6.723829881004013,28.80884666479574,-25.459203582818578,-0.5845167714025485,1.615424518201881,6.743208269587913
6.694470983769773,28.53020539180169,-24.870783499399945,-0.5818939839000578,1.305960296419488,6.7107406942560734
6.665430138110842,28.250702035571486,-24.281818688722023,-0.5793162663693378,0.9968086203722458,6.678621907997309
6.6364194094161215,27.96756268080574,-23.686448521456537,-0.5767580303147958,0.6848858748496321,6.646533006154517
6.613085727297457,27.73693263538181,-23.202395601828727,-0.5747127897160325,0.43170977605124927,6.620720676179976
6.603058830008331,27.637022223300452,-22.992946230647718,-0.5738373460513887,0.32227658533610143,6.609627807276551
6.600945354037114,27.61305442657555,-22.923517795568827,-0.5736519482821285,0.2768393436578121,6.60706599621321
6.643752775230865,27.96037833146695,-23.121865183042043,-0.577352827996114,0.12744161264186868,6.648227059224117
6.718831963481993,28.560411110651103,-23.460824055368185,-0.5838523776182661,-0.13437725514643942,6.7203743369568505
6.797851424416222,29.179672074588623,-23.805746919562083,-0.5907052503457885,-0.40950794168655114,6.796248423334763
6.878522990359878,29.79927238691035,-24.145904592475873,-0.597714708420065,-0.6897687594564735,6.873647604446549
6.96092031824644,30.419355084814494,-24.48139137681697,-0.6048883718171493,-0.9752097588646168,6.952640525922457
7.023209591078976,30.879773609305982,-24.72731489349385,-0.6103211666543803,-1.1903499257887258,7.012315718351825
7.001320075608002,30.955277288898337,-24.767194406140533,-0.6084350503727018,-1.2257401316734775,6.990170628791444
6.595755664893692,30.724140924379686,-24.64213274931563,-0.573304206870842,-1.1155058344945825,6.587963332800667
5.99902311088036,30.376176062470318,-24.452863987600875,-0.5215707129811276,-0.951136789585788,5.9959540926596695
5.396495966356192,30.015109636033134,-24.255181902221178,-0.46928680909077664,-0.7825656711413899,5.397926999157848
4.795830758196346,29.64519798206424,-24.05127119850359,-0.4171210719701983,-0.6119362136255584,4.801469982163159
4.200298454935633,29.26838304883973,-23.84208376914698,-0.36536166826021177,-0.44028316997477834,4.2098142142215424
3.6163767723412406,28.888949055196797,-23.62992278896887,-0.3145800394357848,-0.26955387305696704,3.6294252394321815
3.0365785160890115,28.502184621853957,-23.41206609855931,-0.26412893399870635,-0.09772274479002316,3.0528516291941905
2.4602781118644392,28.107621259182004,-23.188131041312047,-0.21395832799380354,0.0753085241990163,2.4794695221913083
1.8897405848303996,27.70680331964289,-22.958879862865643,-0.16426967311446747,0.24875991723551832,1.911532435343739
1.3200933827954784,27.296223920721605,-22.722172961990342,-0.11464258626473536,0.42399458306543264,1.3441743936352641
0.7588705936971832,26.881314348886367,-22.481027502457216,-0.06573738862534363,0.598648045127044,0.7849278660085618
0.19815837495950106,26.456201195131506,-22.231900183392742,-0.01686781900159953,0.7750456316030957,0.22589390726945652
-0.35704534668612153,26.024573475298105,-21.976807715146364,0.03152722416081248,0.9515186261315822,-0.3279453083252075
-0.9069436309134921,25.586310453023337,-21.715557001075037,0.07946225689820699,1.128007964192554,-0.8767888320285159
-1.4507204381865784,25.142115894358046,-21.44844484998254,0.12686201591575572,1.304093145670273,-1.4198321881171387
-1.9934551546389443,24.6877773175528,-21.172793986244777,0.17416856422329607,1.4813655325348543,-1.9621172789164407
-2.530159343093383,24.227393481787768,-20.890933517681642,0.22094356650660663,1.658048646125927,-2.4986724031172693
-3.06476222955721,23.75755112065726,-20.60062105713499,0.26752698688839266,1.835309671393103,-3.0334224371824807
-3.592837808303233,23.28211451677963,-20.304092520064344,0.31353085109022416,2.01154937974493,-3.561935971556561
-4.01988866349293,22.889187345452672,-20.05691390484472,0.3507243074589646,2.154829466929927,-3.9895554003407847
-4.087034952890654,22.82194700076516,-20.095663020419735,0.35659141490664104,2.260403938555807,-4.057325189526288
-4.083120618923209,22.797019060881578,-20.521162738602865,0.35637213302631066,2.7108472112617648,-4.056214438448994
-4.0784374910500265,22.761002184006546,-21.027796994060246,0.35613982244103676,3.2535169572600817,-4.054904626884322
-4.0737753139968875,22.718307190349428,-21.529480594724294,0.35594174174572524,3.797914005436101,-4.053622446111617
-4.069137246490751,22.668914486508932,-22.025859799574594,0.3557783011864954,4.343704193324053,-4.052369641951495
-4.0645335024120985,22.61291428388536,-22.515838557544708,0.3556500156917544,4.88970121620017,-4.051149755021883
-4.059924844699649,22.54974487528859,-23.003563401829545,0.3555562934890276,5.44061346559586,-4.049953404179467
-4.055383724735548,22.48039330912819,-23.481367252303613,0.3554987520417893,5.987786528199269,-4.0488001406891385
-4.0508377153811175,22.403747084919345,-23.956870027259185,0.3554766463155554,6.539953102344581,-4.0476723247251
-4.04647513009365,22.323256617843356,-24.41048290410661,0.3554896952329926,7.074073223968275,-4.046616346918331
-4.044287226881069,22.280286450111703,-24.636962081284427,0.3555091514107821,7.343530949543649,-4.046096852774791
-4.043579121445374,22.265758308873078,-24.715196274725876,0.3555216274812954,7.436295889508476,-4.045963511946601
-4.061709644505685,22.534606291218264,-24.887295221516094,0.3570330329700079,7.339436223840199,-4.063623261818685
-4.101431499577462,23.117170209918424,-25.25686087125281,0.3603446885005035,7.126193955885215,-4.102289156996485
-4.14482922452927,23.743725505222265,-25.649239319491787,0.36396366121250817,6.891747985779421,-4.1444954147698265
-4.188791929400202,24.36813267086165,-26.03505096593129,0.3676310665531331,6.6528771319004925,-4.187211871366239
-4.233750115485227,24.99621837012842,-26.41790896195646,0.3713833100566618,6.407365041494106,-4.230855724871346
-4.2795310464839815,25.625199121008222,-26.796092141708066,0.37520651023901064,6.156274951780264,-4.275257884208931
-4.3262830201306635,26.256759752201624,-27.170603706136628,0.3791136173108025,5.898924114922886,-4.320560852940092
-4.373860996459354,26.88859425843299,-27.540074030465036,0.38309310553273523,5.636249671229819,-4.366622790605816
-4.422390560472165,27.52203945652219,-27.905295293188548,0.3871561016940418,5.367705985726467,-4.413564054473665
-4.472045984230804,28.158946286357466,-28.267306569850938,0.39131788677974766,5.0924798339301445,-4.4615516438821965
-4.522586420227132,28.795833164373658,-28.624121086051556,0.3955589885376796,4.812067419224657,-4.510351361727074
-4.574030869673306,29.432632580776477,-28.975737239106863,0.3998817094911076,4.526534331569124,-4.559980449719964
-4.626663156283972,30.0724569218666,-29.32387203791216,0.4043106865935604,4.234483036950751,-4.61071126510241
-4.677816663440934,30.683275706970093,-29.651439394400516,0.4086218651017834,3.9508762897017693,-4.659975061068432
-4.705970358933689,31.01491630902996,-29.827342878467455,0.41099756263021825,3.7949420438967785,-4.687071579231175
-4.699546193150544,30.934392324817946,-29.66470590947583,0.410399718904496,3.7128771575555684,-4.680045648323314
-4.675927045264532,30.63955527963388,-29.140753612103616,0.4082410472087538,3.483936255349643,-4.65474798558691
-4.649692863272078,30.308281051035443,-28.551124083745744,0.40585060817691926,3.225773572459663,-4.6266422080087874
-4.623944867135081,29.97916647835899,-27.96439503577925,0.4035120958443391,2.9683470837948014,-4.599049715809379
-4.59830455060979,29.647408218930963,-27.372027320893867,0.40119110528235935,2.7079237847987385,-4.5715649578914395
-4.572969694738288,29.315560264566038,-26.778595315896958,0.39890558806285936,2.4465226499156993,-4.5443999300705045
-4.547852254675847,28.982491074311383,-26.182095108665894,0.39664759772632985,2.1832719753984025,-4.517460259167341
-4.523115917528216,28.650413400411523,-25.58651276238131,0.3944318050805941,1.9199439328044277,-4.490921572514927
-4.498799479510496,28.319942690473074,-24.992985258871258,0.3922615375947901,1.6570598266296648,-4.464825652926374
-4.474688796629453,27.988222415377727,-24.396406080675266,0.3901176141076014,1.3923712258589336,-4.438942761782489
-4.451029356484721,27.6586944441304,-23.802990201147885,0.3880217728592005,1.1286495386504183,-4.41353652313595
-4.427502815228553,27.326972535703636,-23.204859883967433,0.3859457560855549,0.8624055395074943,-4.38826514481952
-4.407195013639655,27.037312593463756,-22.681961371785903,0.3841604071374107,0.6293081822563594,-4.366444742934091
-4.3973519891989925,26.904041470436226,-22.50298802474799,0.3833017276278346,0.5836726427837865,-4.356324171352774
-4.362691105060026,26.471837063482848,-22.25000861884144,0.38030335452326686,0.7631237647492143,-4.3229537894377525
-4.3142388533317355,25.857822804675713,-21.886367862372108,0.37611750981860737,1.0138105254208805,-4.276272995617931
-4.266111974080477,25.236287611848827,-21.51317695368479,0.3719659475039309,1.2624626915725123,-4.229867191486146
-4.219302849270031,24.62032384816085,-21.138247728117133,0.36793368369385976,1.5037935518402743,-4.18469420111611
-4.172924895727249,23.998585992397487,-20.75464546750128,0.3639437504172325,1.7422196945148218,-4.139899514285078
-4.127577247830295,23.379334395005365,-20.36740083497607,0.3600471636065485,1.974507820981487,-4.096062594489031
-4.093727290680986,22.90960337046132,-20.070196569461586,0.3571413976351164,2.147242564536409,-4.063315644304502
-4.087147025999108,22.822607912364827,-20.08313515267443,0.3565927486637883,2.247215566463095,-4.05736104827821
-4.083347286653104,22.798608323361087,-20.496273157370446,0.3563789218928808,2.684368319393598,-4.056282276411671
-4.078648850653555,22.762795943949428,-21.004710971670402,0.3561442866221751,3.2286371906485396,-4.054967254698197
-4.07398757581064,22.720424245248882,-21.50644171849195,0.3559447120883369,3.772758089498624,-4.053684381669231
-4.069371556254889,22.671601782227203,-22.000613089771843,0.3557804141927677,4.3157701194744345,-4.052436490441125
-4.064749714276596,22.615727231716154,-22.492673705423265,0.3556499355209941,4.863723422504675,-4.051210695632563
-4.060166065573164,22.553256168393094,-22.97791107428716,0.35555497977798295,5.411449757341877,-4.050019652952857
-4.05559276808666,22.48376904964789,-23.459259694240245,0.3554952802480094,5.962303270935685,-4.048856996735145
-4.051058315071809,22.40766163477489,-23.933707963038827,0.3554715307548578,6.512876488750007,-4.04773083375818
-4.046661941819274,22.326869483273338,-24.390978989990547,0.35548308237929416,7.050956578500484,-4.046665512737473
-4.044253991106995,22.27964441397609,-24.640272966937243,0.35550416013428326,7.347484848903433,-4.046093548619746
-4.043553480038872,22.265505957512847,-24.71264064269864,0.3555122817533715,7.433993659366846,-4.045928727331651
-4.330898443456808,22.243053493169302,-24.70186549159892,0.3807102817733954,7.443831236296838,-4.335516793404073
-4.9122978116965585,22.193807352347424,-24.6730107217485,0.4316649747198049,7.460114209164921,-4.921455233286818
-5.520409296089446,22.135602212272147,-24.638866333635328,0.4849201578175147,7.479325168537095,-5.534366256158553
-6.129553496555414,22.070407480648683,-24.600569894380207,0.5382191046346911,7.500799302179321,-6.148377743946493
-6.73784684129903,21.99839113442681,-24.558199553797454,0.591390850133687,7.524435753025964,-6.76160085276454
-7.344814250432006,21.91961896701648,-24.511781383962695,0.6443908214880943,7.550259248000078,-7.3735558991240975
-7.9544777624746414,21.833508012896722,-24.460947159912347,0.697564212328178,7.578411839632156,-7.988307918688653
-8.561145848265502,21.740826175334007,-24.406123877064008,0.7504077559863379,7.608591935638773,-8.600127870505647
-9.170479915674973,21.640678165494403,-24.34676295128341,0.8034130215456557,7.6411325335628,-9.214723605065604
-9.778235974463055,21.533694659818774,-24.28320723550474,0.8562040455966494,7.675774204934018,-9.827824700946346
-10.373000932767113,21.42209145217087,-24.216749321690727,0.9077873918994321,7.711779526024094,-10.427920008056715
-10.947481335890577,21.30776021573787,-24.148496528497255,0.9575296909861343,7.748493536203287,-11.007651995274356
-11.262882495525362,21.242245700077095,-24.10931152988102,0.984806185355424,7.769485382008495,-11.32597706957751
-11.61415981799406,21.166975304541115,-24.06422270371325,1.0151554762511654,7.793545468371318,-11.680548076531531
-11.962062706451388,21.090024283525523,-24.01805112717925,1.0451813234309006,7.818078918892313,-12.031752671925437
-11.965383506979,21.062672672881813,-23.826288072116906,1.045059432496902,7.653634437294355,-12.032073344754464
-11.946841432396269,20.99233251103622,-23.313724885542097,1.042414163460505,7.211821990976312,-12.005273234446681
-11.926893203085683,20.91134534241518,-22.75753187333262,1.039644248681829,6.737056537204209,-11.976496136899897
-11.907067076795514,20.825425823572758,-22.199809488735877,1.0369681794185928,6.265690031843681,-11.947949353016408
-11.887313519018662,20.734464873848843,-21.639187415163285,1.0343770878973444,5.79646237564484,-11.919558026927554
-11.867709052127621,20.638927753724168,-21.077869435252634,1.0318787940873824,5.331110459148699,-11.891428640388789
-11.848224215918714,20.538799653980163,-20.515061179439932,1.0294671691220432,4.868855417291367,-11.863515377851062
-11.828793652793628,20.43383190814712,-19.948886558167217,1.027132381525788,4.408071293323183,-11.835721514377827
-11.809577324649604,20.325009389200442,-19.384052998499982,1.024891507681016,3.952477208515983,-11.80827259078386
-11.79052994654619,20.21223815816225,-18.819319630240784,1.0227366111433311,3.5009272703982743,-11.781100442212262
-11.777524502345994,20.13243824141515,-18.430909916533892,1.021302882430758,3.192598307884656,-11.762566548024848
-11.773429337580133,20.10684105642395,-18.30813113231857,1.0208577158467724,3.0955050364342434,-11.75673364935762
-11.810148632772412,20.28811115974099,-18.422101774115383,1.0239306059982056,3.027561756805469,-11.792278669418604
-11.919496841264701,20.823595791923623,-18.7804154236878,1.0331061212143577,2.848458622575177,-11.898506335861159
-12.03700213173401,21.389894225906176,-19.15504827402183,1.0429689181274735,2.6546982730712623,-12.01257114220063
-12.093933381654587,21.660932702272756,-19.332794679213055,1.047748670598987,2.560384408536588,-12.067803656708392
-12.09603706775486,21.68006687357604,-19.492929232326254,1.0480463560959608,2.70132282164755,-12.072488501615634
-12.083739462538734,21.647986733714763,-19.953449437880767,1.0474598812771663,3.194065554456776,-12.069201483574618
-12.070258976669725,21.60636799331319,-20.45562618530318,1.046909871427341,3.738016519059459,-12.065657290661639
-12.056909728720383,21.558368458550138,-20.95014445058332,1.0464630017883276,4.280687628949327,-12.062211695480878
-12.04355311162317,21.503442450221954,-21.44212558553273,1.0461155018758725,4.827747486440727,-12.058831500058995
-12.030279358694273,21.441876508574026,-21.928216630464597,1.0458711994501086,5.375555535594146,-12.055542501661856
-12.017014748536896,21.373255603911517,-22.411091898256046,1.045730131851831,5.927201934459943,-12.052329332177884
-12.00395510306745,21.298619475315892,-22.883637066948154,1.0456943988496812,6.4745303910793846,-12.04924128879356
-11.990838520670193,21.216444215717186,-23.355320256234695,1.0457641653399032,7.02853586437772,-12.04621890609765
-11.979169060188587,21.13713697661088,-23.772454388975728,1.045917476951332,7.5251073592727105,-12.043599755956995
-11.974744334270625,21.105516263486734,-23.92999250701084,1.0459985194608978,7.714315356661222,-12.042624442362722
-11.972655843973758,21.09029232700307,-24.00423026324605,1.0460412025002497,7.803800222446004,-12.042167562777385
-12.00178331463186,21.23537133452293,-24.113810087168424,1.0484579554640574,7.767775549343684,-12.070869075142296
-12.10655300989716,21.75559774440462,-24.453701548480673,1.0570189671495225,7.585549347905992,-12.17310148257504
-12.231870741873154,22.368697066127016,-24.849546038430525,1.0672551517180024,7.36601235710367,-12.295282814583592
-12.35993913427315,22.985189792907757,-25.242454206407142,1.077712752826768,7.140073072550543,-12.420034448945902
-12.491093315310849,23.606254038973308,-25.633107677761977,1.0884200773819197,6.907227304901618,-12.547678066239808
-12.623623892185023,24.223530504112134,-26.016270176422,1.099238622067187,6.670628625499164,-12.67654718231892
-12.755637317324702,24.82835389054444,-26.386792771519612,1.1100149243745878,6.4338286841205115,-12.804802381938318
-12.836195171103311,25.19261191545731,-26.607609514477847,1.1165913346003726,6.288850533440013,-12.883013639050203
-12.851931117941522,25.26427958397896,-26.607859600452848,1.1177834959802369,6.217139946017219,-12.897435752748946
-12.83498306766353,25.194534876131808,-26.19691810810428,1.1156308487174147,5.876338006376197,-12.873713827992283
-12.812033033825283,25.095394217658846,-25.63626073897614,1.1127836802237159,5.415354531975571,-12.841641538950899
-12.789208231527796,24.99146566380912,-25.073843861877485,1.1100284331552752,4.957394921851154,-12.809799217833122
-12.766639270945108,24.88350630324939,-24.5129569997069,1.107377982772581,4.504988654799922,-12.778364882585388
-12.744154301650772,24.770838184938523,-23.949386980247997,1.104809582413209,4.054604542350026,-12.74709529253191
-12.72172356392183,24.653382251422386,-23.382378939190264,1.1023183704295196,3.6055675043885618,-12.715945966961435
-12.699531733354991,24.532226105440586,-22.816642358135113,1.0999227383540022,3.161495234771601,-12.685169911009602
-12.677549259626945,24.407375364793396,-22.251513108466256,1.0976167850447465,2.72171873192246,-12.65472242405656
-12.65552727542233,24.277488596656895,-21.68059231263333,1.0953730574905967,2.281186275245939,-12.624255932518198
-12.635692605419388,24.1563912919807,-21.162237611015332,1.0934086353358428,1.8843795056298618,-12.596844114942625
-12.627257935198788,24.10371639097574,-20.94060776909415,1.092589391704513,1.7156158747899413,-12.585195041705115
-12.631998730204698,24.1203175264492,-20.899934060045315,1.0929605441384493,1.6582612109026267,-12.588837109589276
-12.722004508665288,24.514483970166882,-21.143505389359216,1.1005376306851957,1.5059745749096036,-12.675829393837942
-12.861166009857183,25.114689677059598,-21.510403363408127,1.1122606103099808,1.2700294954225715,-12.810243538242
-12.969266660245866,25.573363389255586,-21.787548556368026,1.1213739143009125,1.0864338457616047,-12.914584295939704
-13.000627271265653,25.706107933090465,-21.876187727542053,1.124021952783409,1.0417241208929584,-12.945011124210932
-12.99127840053648,25.69729543441731,-22.187536137537496,1.1233589024535366,1.3620064220788972,-12.941960111394756
-12.97586571854354,25.677508797869216,-22.698919871782024,1.1223441144848427,1.8933763405127266,-12.936980199233567
-12.960307538719901,25.650761930258962,-23.212675861098475,1.1214205430772024,2.4340798648218045,-12.932019651447355
-12.944766218732939,25.617090116411354,-23.72335918948375,1.120601399706033,2.9786346555928382,-12.927134883248623
-12.929369949442584,25.576717945166205,-24.226742278798817,1.1198942535613075,3.5225868759869363,-12.922368984287498
-12.914104784111448,25.52963414409095,-24.723293385639717,1.1192981877658894,4.066416219642283,-12.91771961679214
-12.898760150951611,25.475058523933527,-25.21981727254984,1.1188071089537102,4.61771028772783,-12.913126336093928
-12.883597544214503,25.413825383872922,-25.70781949954464,1.1184310783053497,5.167136996774589,-12.90867076044634
-12.868607513261123,25.34595362444429,-26.187820814349653,1.118193501253094,5.715179011037568,-12.904355127128527
-12.858187605209393,25.294424753450343,-26.519777396001636,1.118077053668374,6.098794748253462,-12.90140513005208
-12.855766338947824,25.281930563644472,-26.59672642882727,1.1180578489563295,6.188268177102762,-12.900725973931488
-12.838071715999376,25.275903711601007,-26.657647042510927,1.116688000639729,6.255547893095544,-12.884247795139554
-12.458688769909466,25.362553836236426,-26.704968419385278,1.0841602644122246,6.223511317025402,-12.502021881395288
-11.854659344039865,25.494819793709887,-26.77702137220541,1.0322875138667258,6.174462812169649,-11.893583290220306
-11.238029191576095,25.62268602744768,-26.84647083012996,0.979230387183997,6.126877829495685,-11.272594592653425
-10.618227692491214,25.74398266319858,-26.912164500935063,0.925801454189809,6.081585517629938,-10.6485502639369
-9.993531981610918,25.85896160777829,-26.974265012971077,0.8718533504709635,6.038484838350282,-10.019715093281839
-9.366318854977838,25.967118067626135,-27.032534235611656,0.8175998969126804,5.997850066824469,-9.38846841631825
-8.739280237141417,26.067996672368256,-27.086752125005717,0.7632763872575054,5.959844463544641,-8.757516584126783
-8.10973425279508,26.16203788124623,-27.13718198560018,0.7086555919687304,5.924323727800908,-8.124153897647172
-7.4797480215902015,26.24892566411543,-27.18367565294134,0.6539207394710304,5.891395932139504,-7.490456153220474
-6.855870225712602,26.327901327712237,-27.225857668924945,0.5996500938603305,5.861430309244891,-6.862995066269209
-6.225566670996538,26.400582527191947,-27.264609855048903,0.544757415875984,5.833798882726464,-6.229159777640769
-5.598526355719367,26.46583348769559,-27.299345023623506,0.4900917052319244,5.808948306959146,-5.59868631220832
-4.970027819203986,26.524207472114394,-27.33037501708219,0.4352472956613544,5.786681848036043,-4.9668190163415415
-4.464613414746288,26.56606149922322,-27.35259454547849,0.3911100825095014,5.770665388869415,-4.4587450535062105
-4.3484766572829745,26.553051560239023,-27.314362985532835,0.3809500717881166,5.746227114191353,-4.341861758030678
-4.3324853802300085,26.341624925891047,-26.899290041945505,0.37942003496511495,5.542691263862649,-4.32443670960186
-4.310155432830846,26.042920570560508,-26.313123725622862,0.37729134946555465,5.255382845786415,-4.300102449478724
-4.287935313037281,25.741587218218672,-25.72208766281583,0.37518235475666234,4.965832113777323,-4.275885091435543
-4.265840195123821,25.437803585209725,-25.126531336697283,0.37309452717619357,4.674209744320403,-4.251800971715939
-4.244106721243943,25.134867551649815,-24.532914333808524,0.37105010556886836,4.383675860742147,-4.228107885348951
-4.222598362030499,24.83095021088159,-23.937645288967055,0.3690360603360687,4.092468960421406,-4.204656869348003
-4.201384025919935,24.527082001502865,-23.342736335480552,0.3670586988191799,3.801570302060519,-4.181522924003529
-4.180431536495252,24.222871264485658,-22.74741398768951,0.36511485112815256,3.5105983040170003,-4.158670844289152
-4.159719792708357,23.918066516473754,-22.151180529120804,0.36320242303869765,3.219306900058492,-4.136077490544541
-4.139218635275324,23.612265812945648,-21.553245116021685,0.3613185241454282,2.9273074143927844,-4.113709828923853
-4.118887719071824,23.30488895858591,-20.9524700598708,0.3594593883979454,2.6340426396147847,-4.091523688145769
-4.1004143674887175,23.021962476312464,-20.39969323134395,0.35777815915168254,2.364312948080742,-4.071360742594545
-4.092118477120201,22.893762024740912,-20.14928223099004,0.35702569856068617,2.242156402112147,-4.062304841326951
-4.090165548624316,22.825861954828998,-20.016904997438193,0.3568402816717313,2.1776926286498184,-4.059951019008125
-4.42377308453252,22.80130308901288,-20.002701367089742,0.38585980101909456,2.185893781453238,-4.393460697956479
-5.011016347453206,22.753350659936416,-19.974945364360693,0.43691156369061984,2.2018883665048965,-4.980568130472593
-5.620952036830518,22.697151169833273,-19.942377559733075,0.48988984456934104,2.220602426084988,-5.59041742735259
-6.226898273781592,22.63484095441358,-19.906220381160463,0.5424693916447894,2.241312054077243,-6.196339528832061
-6.832346347461693,22.566099934810232,-19.86626965310769,0.5949454220418199,2.264080577264532,-6.801833918316737
-7.440307337372331,22.490526333767068,-19.822280233321813,0.6475782292144594,2.2890884375552973,-7.409913714548615
-8.04675737420004,22.40856395287265,-19.774487764782375,0.70001129236491,2.3161422383839447,-8.016563424814818
-8.653768424466895,22.31990798189855,-19.722693433145704,0.7524183628386366,2.3453255995658795,-8.623861920773153
-9.262544961127919,22.224301271873145,-19.666723222638684,0.8048974502206948,2.3767039613957257,-9.233021133474661
-9.865616753033482,22.122931605531274,-19.607245533234334,0.8567957159106341,2.409837459804755,-9.836574803208977
-10.475367823038823,22.01365716617489,-19.542982507024934,0.9091813393800557,2.4454660859623116,-10.446916599534234
-11.081754166397427,21.898165519254533,-19.474893172227773,0.9611813081849961,2.48298422102434,-11.054003172869928
-11.687533867621603,21.7759411404611,-19.40264400153397,1.013027668176642,2.5225352333257325,-11.660600755664944
-12.291735209596727,21.647153167008614,-19.326299709946174,1.0646271401830179,2.5640075453920548,-12.265745794330583
-12.899124614078865,21.510700010523077,-19.245177135258512,1.1163913480699665,2.607787643666324,-12.874210165700903
-13.360997270959109,21.4022055438936,-19.180501506335858,1.1556751808299406,2.6424553103654724,-13.336991419203526
-13.602191025702822,21.343911952289055,-19.145687598663766,1.1761615688269176,2.6610300161540117,-13.57869190852381
-13.950923897929826,21.257630309108507,-19.094076643200122,1.2057472944646892,2.688455955126323,-13.928197486143217
-13.95949485229663,21.243338084173832,-19.25865909845658,1.2066554562803946,2.8671109329562214,-13.940540214428776
-13.945211622026946,21.208903802579123,-19.725574390974106,1.2060194851750734,3.3686499651125525,-13.936814333528444
-13.929818620423676,21.16529038817695,-20.226068275476933,1.2054422591517306,3.912960634387621,-13.93286761454071
-13.914545313786714,21.115213978962135,-20.71985385629227,1.2049828041681063,4.457023547374135,-13.929025777281218
-13.899420636588518,21.058810056621358,-21.206018701000122,1.2046415555915215,4.999790393394466,-13.925298082336392
-13.884207749547151,20.99509569165377,-21.692139959664416,1.204415161069043,5.549824319352622,-13.921629746926227
-13.86908806324827,20.924691029436264,-22.172367728064902,1.2043090712191404,6.100652870757389,-13.91806862602108
-13.854101657083874,20.847797542162702,-22.645438815154915,1.2043238163079604,6.65081084500675,-13.914626472168779
-13.839302957361177,20.764780426105148,-23.109673281097667,1.2044584695273304,7.198252394382895,-13.911317189855973
-13.826382249701854,20.686427610577923,-23.512584949748966,1.2046760406115455,7.679681885032707,-13.908504165057028
-13.821820333211189,20.6574369993791,-23.65429658462652,1.2047755534940514,7.850442194238702,-13.907528543532989
-13.819137222247836,20.64005997654923,-23.73751108635316,1.2048396768791474,7.951067820325376,-13.906959098269633
-13.981984254313428,20.595371230421453,-23.71941237924432,1.2188231524041329,7.974215621960638,-14.071680081027427
-14.509277730846478,20.452601362239655,-23.632624990894836,1.2639513734348036,8.01878726499328,-14.60444483042301
-15.09840434605238,20.28629529784486,-23.53119451547732,1.3142643744903175,8.070423072520564,-15.199814465155002
-15.68742298643166,20.11278118244049,-23.424982026033803,1.3644508093538803,8.123970599441293,-15.79521665281547
-16.275972009136332,19.932100022188024,-23.31396298182641,1.4144756459272032,8.179374713915813,-16.390289980314595
-16.863386405304748,19.744403568289673,-23.19817633965456,1.4642741418857967,8.236514019961266,-16.98437006805361
-17.447358957442184,19.55043813988521,-23.07803886510381,1.5136562711116919,8.295180295935802,-17.575116881386275
-18.023429709412518,19.351813234072203,-22.954501690408534,1.5622404118020932,8.354818843034215,-18.15802244789653
-18.583997043925436,19.151507134655755,-22.82939144919728,1.6093893958645438,8.414512816169635,-18.725389071081587
-18.90600355550796,19.033276230733915,-22.755292841387224,1.636409607041544,8.44950379365124,-19.051373571095233
-19.23627803252279,18.90959197380777,-22.67758171896147,1.6640835378164691,8.485972066958032,-19.385774907137098
-19.798034247910667,18.6935390550897,-22.541348530305452,1.7110462099400463,8.54925913057361,-19.95467242446724
-20.36647391396598,18.46755232230447,-22.398188133643167,1.7584267683685209,8.614887992171466,-20.530497074007194
-20.91192269422334,18.24365308539557,-22.255679895597037,1.8037542038878414,8.67933575856453,-21.083184533115126
-21.170314606476893,18.134681603139004,-22.182490534292384,1.8251624185927118,8.706942721506985,-21.344948071989155
-21.153808839088793,18.108059065398802,-21.913190576270352,1.8226407162261307,8.46491216554759,-21.32049190811234
-21.121343467803666,18.051612618891486,-21.379932875460458,1.8177865499362273,7.989370329970611,-21.27246735762631
-21.087825035142792,17.98768372493483,-20.824379313802627,1.8129201521099658,7.499052287832535,-21.22299001243401
-21.054585917790348,17.91864649537524,-20.268394742812387,1.8082377747453637,7.013396788939526,-21.17402515604569
-21.02177389673462,17.84501223992036,-19.71456407519333,1.8037536652586843,6.534471899268592,-21.125782391116175
-20.988995033560652,17.766035701669733,-19.156294297837483,1.7994092192933029,6.056445287200503,-21.077675782740737
-20.95644259292486,17.68226781364014,-18.59688609916581,1.7952267474219026,5.582059360705743,-21.029983294446776
-20.924119442802,17.593845732356,-18.036441189601778,1.79120232482549,5.111278711051609,-20.982702926981144
-20.89191661790864,17.500572787551434,-17.47309775763244,1.7873188971444918,4.642442512099577,-20.93566967317116
-20.86210569921543,17.409631244421035,-16.94711399533724,1.7838349261491067,4.208540058757455,-20.89218938937512
-20.84864036995119,17.36710759435231,-16.708105939624982,1.782295980099944,4.012569594319466,-20.872567547717477
-20.84050899577513,17.34099318851686,-16.56334249910821,1.7813770696665088,3.8942306534156192,-20.86072358978498
-20.88700777285694,17.470936737941788,-16.643111331323606,1.785065870668862,3.8426338853402164,-20.905736893118856
-21.06711933465292,17.971014842964664,-16.998826758580577,1.799453505463799,3.6927112006987226,-21.081604583084864
-21.264018961096447,18.50938751478519,-17.37786930811896,1.815167480617193,3.527253477556842,-21.273730869426316
-21.355685740826527,18.75712129758334,-17.5509284002925,1.8224781220639346,3.449708513960013,-21.36312867486224
-21.379267289175818,18.822691287934415,-17.65438536452652,1.8244680781173377,3.48682635876473,-21.38794425418548
-21.36190257080737,18.788897076987098,-18.04185668545604,1.82392150093815,3.9084311050932343,-21.38399112877544
-21.33955431065098,18.739448525316142,-18.537856464725948,1.8233705669588263,4.454314366052778,-21.37899763633075
-21.317460948188575,18.683858646366527,-19.02519808914792,1.8229979800723335,4.997673949171425,-21.37417054617205
-21.29531549246203,18.621319835168617,-19.510645763798053,1.8227999718666719,5.546087551456423,-21.369447120298
-21.273288213703214,18.552214926479635,-19.99043062501342,1.8227812174685298,6.095400110679443,-21.364869108978134
-21.251443239052723,18.476756814132067,-20.46316751526705,1.8229422212285504,6.644012296818483,-21.360453411377637
-21.22975790122224,18.394899745478703,-20.92936688458746,1.823283178898039,7.192480704303781,-21.35619862589527
-21.208117902316484,18.306181183248704,-21.39147672845858,1.823807701083447,7.743717976254689,-21.352086696883333
-21.187433794424866,18.214670837608264,-21.830303195102733,1.8245063245721829,8.274418979474182,-21.348300192015405
-21.17763169420013,18.168997281878593,-22.037194353209163,1.8248889066751053,8.527167092203115,-21.34654617893909
-21.174119788767385,18.152266784292618,-22.11115753698833,1.8250357283446412,8.617926358838258,-21.345925189707266
-21.174294903849194,18.14563792883212,-22.19374949334392,1.8254827241191534,8.707096380395107,-21.34897605788121
-21.295317562351457,18.48594413014043,-22.431922946261192,1.8349176868809056,8.601161175531512,-21.467734097316324
-21.504462931124248,19.0668200712518,-22.834735603822462,1.8511982383292036,8.416480837242322,-21.67283040225074
-21.722280069206814,19.662256613355545,-23.24278396403505,1.8681222775355177,8.222139586134332,-21.886252203803895
-21.94359477836299,20.25754616479806,-23.64583807444332,1.885286796448159,8.022775105744651,-22.102919473482853
-22.168500463784852,20.852718375883907,-24.043948240023578,1.9026992382373709,7.81840203977268,-22.32291989558285
-22.396568895313585,21.446444020566602,-24.436270886551473,1.9203267635014467,7.6095170581996605,-22.545831381109387
-22.63143995577931,22.047805532713266,-24.82876061290647,1.9384504717980147,7.39286853059879,-22.775204739433846
-22.869233529026076,22.646495635013768,-25.214657837215228,1.9567708395317893,7.172128266515813,-23.007244391305107
-23.112504603432804,23.248667703513128,-25.59794766439132,1.9754849166210542,6.945038786164736,-23.24443905688897
-23.359341339839172,23.84927749997289,-25.97542586368561,1.9944457784714944,6.713500433077443,-23.484919710368057
-23.611092069597476,24.45133529965556,-26.34901473591265,2.013757289896437,6.476375337934456,-23.729995896637202
-23.86685445318134,25.052393723434847,-26.71722033087317,2.0333504978862464,6.2346437240345045,-23.97878489819727
-24.10806331006865,25.60970899790167,-27.054403141013637,2.0518062209804273,6.006059651548309,-24.213244743645998
-24.223007898200333,25.87209500702724,-27.211748700476097,2.060593697685037,5.896965089561789,-24.324915726033126
-24.273695747632104,25.987361323482308,-27.27065050540064,2.064430362233995,5.838813881792255,-24.37378557458839
-24.200249564449518,25.825270103713525,-26.924417833865363,2.0579026040083157,5.657432128317259,-24.293375503849397
-24.07965843200844,25.555763638386132,-26.350176753578385,2.047222848981258,5.357210800997577,-24.161354250962148
-23.958858534375697,25.28152555957889,-25.76762336573839,2.036572776947167,5.053394350134309,-24.0291078086023
-23.839206967054853,25.00560848836362,-25.183227085822445,2.0260722173938293,4.749349296256596,-23.898120132680177
-23.720693101197664,24.728031818558982,-24.59698573922768,2.0157196263239094,4.445055102060086,-23.76837784267689
-23.603222052588837,24.448610742921293,-24.008469619132864,2.0055061960007152,4.14027096442275,-23.639775366758325
-23.48671178072042,24.167179399159995,-23.4172942364243,1.9954243836626566,3.834781818293351,-23.512221229077525
-23.37244084549887,23.88692144145555,-22.830089741017733,1.9855836950543038,3.531988323780795,-23.387113642119296
-23.25863783537677,23.603561575496926,-22.23785185672096,1.975830760080835,3.227226600162826,-23.26251169420681
-23.14740993157386,23.32243545859195,-21.651681105349663,1.966345140181699,2.9261860881976074,-23.14072112625825
-23.03566410790009,23.03575986689674,-21.055316802639457,1.9568626597671428,2.6205012133831773,-23.018353716812737
-22.93355448605795,22.770016615912624,-20.503692683657604,1.9482401500344488,2.3382623337114774,-22.906528426293825
-22.8862549549343,22.645672974199613,-20.24596554876183,1.9442598990471653,2.2065605294045905,-22.85472473581168
-22.850314815004992,22.58210745059492,-20.115254456403807,1.941285062373703,2.1406707359085977,-22.81653388504206
-22.504250838390107,22.556766868310387,-20.09136200712549,1.9134377395402447,2.1537468679462664,-22.47079230155172
-21.915946649127196,22.508874007585927,-20.047903882145338,1.8659400421982493,2.1775619999064597,-21.88307838773745
-21.30733066268775,22.452931493417793,-19.999156308672813,1.8165979817502305,2.2042917418824226,-21.275123445202127
-20.70152418225305,22.39076715078861,-19.946776899581327,1.7672824935438523,2.2329995204227253,-20.67001926590423
-20.093359657384518,22.321830733613332,-19.890283890648824,1.7175719446295472,2.2638862218704703,-20.062594403722226
-19.48770006381798,22.246654120586996,-19.830101855316155,1.6678826101189632,2.2967503231749595,-19.457705513576954
-18.87976971755898,22.16461487394552,-19.765711991270194,1.6178213374344619,2.3318072622184034,-18.850573104178704
-18.2736942005856,22.07622864816345,-19.697501358619842,1.5677330362904651,2.3688079292544315,-18.24531067497025
-17.664418016135265,21.980696469263364,-19.624833337872456,1.517199369870422,2.408023516614374,-17.636858905281
-17.058835978858962,21.879072246336392,-19.548491079672957,1.46680881983445,2.449052807541934,-17.032104350230362
-16.45168391467288,21.770460670013225,-19.467770151508113,1.416123974852234,2.492196732152149,-16.42577937946645
-15.84456648824518,21.655075810849926,-19.382806243465332,1.3652836003667719,2.5373329547643784,-15.819479761621349
-15.239141991282308,21.533211124151663,-19.293783832712332,1.3144326523389285,2.584313048498651,-15.214854935375763
-14.629270016872592,21.40352610136558,-19.199694671743732,1.263055964403397,2.6335791687949484,-14.605761106979605
-14.110094677332098,21.2876107785983,-19.11605908331066,1.2192100561286063,2.6770895768949865,-14.087229166557938
-13.963712265460465,21.252414674921575,-19.120279144617378,1.2068590937815764,2.7195939054655063,-13.94165593112704
-13.952814112306742,21.227951504063856,-19.477293111588768,1.20634375723571,3.101215820827783,-13.938794435913904
-13.937381789122874,21.18757448786073,-19.980458882050204,1.205709366202679,3.6449629145710265,-13.934802093748193
-13.922052449661173,21.140687422863916,-20.477456393139125,1.2051920240868332,4.189049581667988,-13.930909139887264
-13.906840884705115,21.08734267509359,-20.967815736316158,1.204792314845936,4.732953332188508,-13.927121695526816
-13.891674977190819,21.02725807794459,-21.453855380444576,1.2045091160284884,5.279275723143527,-13.923424575971215
-13.876538905171417,20.9602810501779,-21.93605026013869,1.2043440043312905,5.82864444384779,-13.919817421941689
-13.861505060937851,20.88668107526147,-22.412077305496084,1.2042990767354744,6.378465971318566,-13.916320564627592
-13.84662428257842,20.80674394274552,-22.88034519394057,1.2043744003453636,6.926862519483822,-13.912947849059604
-13.832043577508825,20.721442065619694,-23.336305286487413,1.2045667458299616,7.46831114932643,-13.909732716084516
-13.823884119781617,20.670641326272097,-23.590205310948004,1.2047267164608195,7.773115920194943,-13.907973754919867
-13.820797349194576,20.65084298177774,-23.686019093838798,1.2047971741567043,7.888767308044629,-13.907316063430311
-13.820669421030326,20.646157263111434,-23.750679599495598,1.2049890149968145,7.958100903156044,-13.908659110490877
-13.894907403399484,20.96732676011439,-23.96366182372564,1.2110115062882907,7.848375486446357,-13.981184406467271
-14.032631853260755,21.55609395203874,-24.350432760221103,1.2221785647315015,7.643505599571615,-14.115641841487461
-14.178725844859512,22.170823984974184,-24.74921955415083,1.2340171777958795,7.424485561108046,-14.25814556060689
-14.326316376561202,22.781841353015608,-25.140525913316104,1.2459709431188628,7.201636432826773,-14.401981933478721
-14.47722622249318,23.39645441803577,-25.529063060089623,1.2581884894202673,6.972320869723976,-14.548924454943297
-14.631332366932831,24.0137620343948,-25.914214443935553,1.270660842831216,6.736824113749018,-14.698848412794513
-14.788763810040951,24.633887894794274,-26.296020333834125,1.2833995234829387,6.495057906199071,-14.851874513971643
-14.948311619027194,25.251791421707527,-26.671400975364328,1.2963078923710367,6.249007805245455,-15.00682435872359
-15.111255856083554,25.87215380543512,-27.04322936071283,1.3094907643531308,5.996835535957111,-15.164937900500403
-15.276612859607505,26.490930982610422,-27.40910274566848,1.322869861792934,5.740202475560889,-15.325257180658593
-15.446525330332468,27.115738763279133,-27.77350294543892,1.336619948845294,5.475923970276628,-15.489854918535894
-15.619428048938252,27.74037149499144,-28.132772654791793,1.3506158499534195,5.206581446116482,-15.657209610760752
-15.796103292772768,28.36729039459927,-28.488334795571106,1.364922438561029,4.931116243883365,-15.828074318010394
-15.934047191809112,28.84899352557787,-28.758139394435744,1.376097239734627,4.715980371587994,-15.961384758650834
-15.98557221397933,29.0272007752464,-28.857209503876025,1.380272423592372,4.63562736900866,-16.0111577635732
-15.973982491821765,28.983418809570793,-28.623135585839826,1.378934381650802,4.445669491527857,-15.994939599455206
-15.945356125389363,28.87276751597434,-28.090768434111617,1.375778167234919,4.024763235349276,-15.956081084950615
-15.915492608940456,28.75237384452448,-27.530891707870925,1.3725684407629706,3.586122320142557,-15.915603143716632
-15.885430956579935,28.626096727270895,-26.962608009163354,1.3694218951933692,3.144960980857109,-15.874915136229406
-15.855801029674327,28.496670027921766,-26.39782840987692,1.366402547789398,2.710438786998483,-15.83486564504077
-15.826349383083711,28.36316433418087,-25.831812927201135,1.363481237846672,2.2787523875412967,-15.795107308230433
-15.797136548617159,28.225979627134897,-25.26577054856876,1.3606615532510964,1.8507091844322023,-15.75571776148838
-15.767890215995717,28.08390694831148,-24.6944186545392,1.357915754177068,1.4222431701556133,-15.716326385451318
-15.738866672796895,27.938254309453654,-24.122753152003536,1.3552666013678676,0.9970351716241256,-15.67727506660049
-15.710363067062909,27.790704953633753,-23.556748645093002,1.3527378675208328,0.5793684258282266,-15.638959346794602
-15.69178316856125,27.69212715782909,-23.18533101110317,1.3511282729247467,0.30704143156278807,-15.614001426017728
-15.685267130543435,27.657107887765914,-23.054607936338787,1.350571002404922,0.21151728459287455,-15.605251778823321
-15.729265684384082,27.803341475731195,-23.12458909841537,1.3542580277899225,0.13425147366099371,-15.647294956223043
-15.886513852979554,28.326081161630803,-23.422000843468336,1.3674465756799459,-0.09473285054705544,-15.798600063944027
-16.063369197813508,28.903409169295152,-23.74635777522314,1.3822936381575424,-0.3518564500845401,-15.968657292483721
-16.155419949198926,29.199559300953126,-23.91107324260303,1.390027398864558,-0.48546928844534526,-16.05712308803419
-16.178817851491278,29.28315711030957,-24.021739616231628,1.3919812080783163,-0.45897403217867466,-16.081073088766153
-16.162023393119647,29.28560188984946,-24.452665400990746,1.3905295771896962,-0.03021316979069941,-16.074750645577986
-16.140913048051026,29.282445381830488,-24.99231821416303,1.3888160937596294,0.5129468305720002,-16.06687576973517
-16.119811625052648,29.27218550339315,-25.529449954686743,1.3872297469809851,1.0606877066446863,-16.05908942765361
-16.098790406311718,29.25471419408906,-26.062202914596206,1.3857780993637874,1.611258580446072,-16.051422566063806
-16.077808076565745,29.229866227916556,-26.591583985411262,1.3844603871339785,2.1658322016564884,-16.043864693534672
-16.057306472818485,29.198248034208625,-27.1064736156561,1.3833027618622475,2.712675324520715,-16.03657676444367
-16.036826180292127,29.159227785042425,-27.618434843358877,1.3822779092325743,3.263990318993536,-16.029397309510447
-16.01764194982593,29.115762165062186,-28.09577129882022,1.381440357059256,3.78510345179068,-16.022768593362947
-16.008526703190086,29.0926981654128,-28.321958132252178,1.3811091485231723,4.034483737115268,-16.01963911311484
-15.996300996074844,29.059324946974833,-28.624326451867542,1.3806760359275465,4.370422376983829,-16.015496296081434
-15.991115669970458,29.04430827422026,-28.752292999519298,1.3805076550189916,4.513489020829494,-16.013751817276724
-15.99204336152219,29.029833554358188,-28.858748303045175,1.3808184099468659,4.634361642999685,-16.01760486157184
-16.28965182451647,28.945399642829795,-28.81647551495528,1.4058938961934742,4.669278850965988,-16.317135306659214
-16.88545150281792,28.77114182302515,-28.72896079345297,1.4559934004094146,4.74112691941266,-16.916934271492647
