RAMEL-ESPOL/ARCHIE/matlab/data/joint_goals_square_t35_h35_p12.txt
Joint0,Joint1,Joint2,Joint3,Joint4,Joint5 
-0.00019620174915213715,9.572594967506644,14.247705238974842,0.0028938553297712987,-23.824027757952912,-0.0034515984168891657
-0.00019620174915213715,9.572594967506644,14.247705238974842,0.0028938553297712987,-23.824027757952912,-0.0034515984168891657
-0.00019620174915213715,9.572594967506644,14.247705238974842,0.0028938553297712987,-23.824027757952912,-0.0034515984168891657
-0.00019620174915213715,9.572594967506644,14.247705238974842,0.0028938553297712987,-23.824027757952912,-0.0034515984168891657
-0.00019620174915213715,9.572594967506644,14.247705238974842,0.0028938553297712987,-23.824027757952912,-0.0034515984168891657
-0.00019620174915213715,9.572594967506644,14.247705238974842,0.0028938553297712987,-23.824027757952912,-0.0034515984168891657
-0.00019620174915213715,9.572594967506644,14.247705238974842,0.0028938553297712987,-23.824027757952912,-0.0034515984168891657
-0.00019620174915213715,9.572594967506644,14.247705238974842,0.0028938553297712987,-23.824027757952912,-0.0034515984168891657
-0.00019620174915213715,9.572594967506644,14.247705238974842,0.0028938553297712987,-23.824027757952912,-0.0034515984168891657
-0.00019620174915213715,9.572594967506644,14.247705238974842,0.0028938553297712987,-23.824027757952912,-0.0034515984168891657
-0.00019620174915213715,9.572594967506644,14.247705238974842,0.0028938553297712987,-23.824027757952912,-0.0034515984168891657
-0.00019620174915213715,9.572594967506644,14.247705238974842,0.0028938553297712987,-23.824027757952912,-0.0034515984168891657
-0.00019620174915213715,9.572594967506644,14.247705238974842,0.0028938553297712987,-23.824027757952912,-0.0034515984168891657
-0.00019620174915213715,9.572594967506644,14.247705238974842,0.0028938553297712987,-23.824027757952912,-0.0034515984168891657
-0.00019620174915213715,9.572594967506644,14.247705238974842,0.0028938553297712987,-23.824027757952912,-0.0034515984168891657
-0.00019620174915213715,9.572594967506644,14.247705238974842,0.0028938553297712987,-23.824027757952912,-0.0034515984168891657
-0.00019620174915213715,9.572594967506644,14.247705238974842,0.0028938553297712987,-23.824027757952912,-0.0034515984168891657
-0.00019493907806543016,9.572597593675582,14.24769881117857,0.0028938580702959063,-23.824011604427138,-0.003450323987127523
0.017842154249755566,9.610029957655232,14.155984463061623,0.002872205749252721,-23.59341640552959,0.014730115307291979
0.05890489474386206,9.694636769873048,13.947974806304819,0.002371927484253208,-23.06959888647031,0.055939907283816766
0.10219219043323852,9.782917858855908,13.729857492115913,0.0011757468660705882,-22.519088664750168,0.09912506190870628
0.14542435766856457,9.87016606405502,13.513184431252217,-0.0006927015058017944,-21.970952464506418,0.14200717485078718
0.18895642597675827,9.957100850130686,13.296163414269975,-0.0032434974572760084,-21.42065044340603,0.18495160372194358
0.2325771256244494,10.043298285963283,13.079841211867159,-0.00646285756939065,-20.870824129610412,0.22776170115791158
0.27623712676820766,10.128666925791777,12.864446026317783,-0.010340111087231625,-20.322052363123067,0.2704026535322455
0.32007848860627997,10.213487283563822,12.64926478538233,-0.014883448045620008,-19.772512717376088,0.313025867838248
0.36425665564855714,10.298053373420274,12.433533962027482,-0.020111565550025252,-19.220235795405095,0.3557930656317615
0.40816856511801886,10.38121756107046,12.220181547685824,-0.02594623143767098,-18.672717919945754,0.39813362851592715
0.4523557558145067,10.464013777391134,12.006557751678248,-0.03245163568088686,-18.123162192407413,0.4405830307980177
0.49663537540153213,10.546096568369226,11.793541458959986,-0.03960126598668195,-17.573816100976753,0.48297676035494885
0.5410669608705991,10.62757693354584,11.580837038484017,-0.04740287178997765,-17.02390911905929,0.5253835216344553
0.58558097722671,10.708328017454942,11.368768203836693,-0.05584256395261543,-16.47427018665193,0.5677485712571666
0.630161548432114,10.788323949789014,11.157398858770307,-0.06491424853721636,-15.925060663837112,0.6100686388099378
0.674870141427299,10.86767641628827,10.946427724841577,-0.07462864179642256,-15.375491171100922,0.6524136254565956
0.7197655055877962,10.946487302736154,10.73557212792446,-0.08499958141603194,-14.824812836899321,0.6948502766916621
0.7646073491948246,11.02433747015674,10.525949473316153,-0.09596925701273326,-14.275939714663533,0.7371629887764725
0.80978165282475,11.101895262694562,10.315749320162135,-0.1076331133180949,-13.72411997486946,0.779727130966798
0.8548364423848956,11.17838460144351,10.107066886702865,-0.11987450596913611,-13.174845467882164,0.8221280452286529
0.8999133884908148,11.254054589149836,9.899228551679593,-0.13272604977314265,-12.626349306488523,0.8645106816065926
0.9450806014855562,11.32902190050019,9.691909906695399,-0.14620588497050946,-12.077771207111681,0.9069502490065816
0.9905991878484421,11.403712726500972,9.483912539277064,-0.1603975776646828,-11.525919714383916,0.9497030052485315
1.0358311546348955,11.477083406949847,9.27814060859256,-0.1751007075592239,-10.978497666564238,0.9921808145074675
1.081301834572149,11.54999234811326,9.07218987996027,-0.19048256823974644,-10.429112074446916,1.0348880975837573
1.1269355375592727,11.622311579822643,8.866402662929485,-0.20652339157833982,-9.878656658093085,1.0777648722442004
1.172504403062104,11.693681707614545,8.661797199065038,-0.22314321790162034,-9.329850465468862,1.1206080447942206
1.2182740002706685,11.76451913714431,8.457173129519111,-0.2404401256944571,-8.779467056790512,1.1636783580067052
1.2640116902031446,11.834463194000065,8.253563799936655,-0.25832838890735405,-8.2302772380918,1.2067679734936563
1.3097812435608367,11.90361523801849,8.05067406616822,-0.27683214844210635,-7.681484554106247,1.2499477872290552
1.3557772995808768,11.97226587490151,7.847637409180465,-0.29603473794254137,-7.130731439798476,1.2934127926773735
1.4017258117806184,12.040004647298645,7.6456577933881595,-0.3158251347673967,-6.581273839998481,1.3369152708571501
1.447823124302499,12.107121563519968,7.443864425776118,-0.3362900734158102,-6.0307367498237,1.3806522465121398
1.4939406792412782,12.173427933636834,7.242814499600819,-0.3573763483871076,-5.480630375940001,1.4245131288871897
1.5399755784269318,12.238780473636917,7.042944998773161,-0.37903647718812256,-4.93215232601802,1.468410670853013
1.5862292270665863,12.303606080674683,6.84294132971423,-0.40141618257184986,-4.381686321234351,1.5126437092022025
1.632340789059028,12.367399536194378,6.644356426830086,-0.4243438825009197,-3.833500672752863,1.5568783756605977
1.6786732854734023,12.430663421102002,6.445619728026182,-0.44800342186979836,-3.2832538845314247,1.6014742472723154
1.7248834657709375,12.492928613144366,6.248197244814426,-0.47222365047711473,-2.7349974699383273,1.6461124178594329
1.7713240477443264,12.554669526874722,6.050576166952383,-0.497194121479963,-2.1845219964252145,1.6911453083536676
1.8176834024356436,12.615469845864652,5.854077853814607,-0.5227530548558791,-1.6354976180879683,1.7362827369243092
1.8642670314677559,12.675728165994073,5.657402726878735,-0.5490749630034115,-1.084282657138064,1.7818343533453198
1.9106560941160629,12.73490345652324,5.462311907429251,-0.5759273103146852,-0.5358082074716113,1.827402177776344
1.9571341781584373,12.793361920418,5.267602228371631,-0.6034757632595649,0.01330536555292441,1.8732755200873268
2.0036821773996705,12.851076490026305,5.073350102253027,-0.631716534290602,0.5628549786711512,1.9194482832807245
2.0503793252040046,12.908140799157355,4.879222664552201,-0.6607067508322841,1.1137980094845457,1.966012481979485
2.096889964318979,12.964146714773308,4.686607199448514,-0.6902420834017986,1.6621989608733352,2.012645007402273
2.143642154366477,13.019609089298488,4.493725260977495,-0.7206007802565507,2.2131284817492056,2.059787607117152
2.190209865460385,13.074021821929412,4.302328957436166,-0.7515129231843145,2.761589314781021,2.1070233612237765
2.2369326320021683,13.127782998224038,4.111015497289706,-0.7832092473441516,3.3116041162351877,2.154708844697339
2.2835738644081554,13.180618991090421,3.9207488160493154,-0.815537083634485,3.8604102968510405,2.202615816611404
2.330539227169594,13.232983157060863,3.729873334312008,-0.8487897535599607,4.41280230423299,2.251176253152952
2.377052551013656,13.284013805149797,3.5415345043963824,-0.882421838248997,4.959674604057349,2.2995992336158566
2.423958420977864,13.334639216578088,3.3523051977632345,-0.9170501825664198,5.510980185754067,2.3487766664577685
2.4707535921532213,13.384308687408234,3.1642161292678286,-0.9523175480139946,6.0608248302709455,2.398197538221472
2.517385186679511,13.43297330633161,2.977468142803665,-0.988185958731397,6.608610547284232,2.4478164880839786
2.56423587516878,13.481030591669787,2.7905245719932803,-1.0249597929171324,7.1588541458720805,2.4980553684766305
2.6112132571243367,13.528376203580633,2.6037562571884822,-1.062583758626954,7.710490886762062,2.548833679420582
2.6585083778367946,13.575190077525768,2.416408176018324,-1.1012313871379389,8.265784654647526,2.6003785845332223
2.705860247831803,13.621203135071811,2.2295171302461116,-1.140708809581807,8.82169213898582,2.6524259613042975
2.7529620913697466,13.666121730688936,2.0442848119586308,-1.1807661782624799,9.374633641746595,2.704651457554421
2.800329487120276,13.71043622449331,1.8586791707534063,-1.2218535977578353,9.930683109959963,2.7576429353076413
2.847610504419543,13.753811484791372,1.6740783607845897,-1.2636820971829053,10.485730388181775,2.811025684392401
2.894996495286686,13.796421338769896,1.489731188438387,-1.3064338142805363,11.04204297785002,2.8650328664891265
2.942146302505346,13.83796136204164,1.306957742580651,-1.3498102250897195,11.595636351182282,2.9192905981391575
2.989556092094153,13.878866689773249,1.1238309014714778,-1.3942817608455775,12.152356876770689,2.974387810410584
3.0366471068446925,13.91863808465756,0.9425809297858107,-1.4393177509600892,12.70542862778871,3.029668767317033
3.0839877211411992,13.957755786814394,0.7610148909496949,-1.4854744054653388,13.261547179574274,3.0858179590873016
3.1313616382321716,13.996031643227482,0.5799642800901706,-1.5325638106903106,13.818192959537363,3.1426029564856233
3.178465967727759,14.033225619031754,0.40057820238193775,-1.5802937642979002,14.37182593166241,3.1996755745177574
3.2256782576336116,14.069638257648792,0.22141213792947717,-1.6290584872840241,14.926902570195844,3.2575100446272205
3.2727658764372616,14.105088625155974,0.04334515859911809,-1.6786339683058955,15.480707282545431,3.315841345634727
3.320003641887345,14.139780767869208,-0.13466473251883462,-1.7293278835014223,16.036491913146264,3.3750314396694066
3.367157898631261,14.17353889795493,-0.31173876722386085,-1.7809098728499704,16.591527175745505,3.434810621468441
3.4143405385041823,14.206442383218478,-0.48830127679492336,-1.833519515903225,17.14714890348027,3.495341675958744
3.461406937642397,14.238390276748873,-0.6638155943794759,-1.8870125330977416,17.701672340503464,3.5564599206549317
3.5084544429039988,14.269449881978135,-0.8386501165554275,-1.941515590839059,18.256262070121313,3.6183120109313203
3.5555366874708723,14.299653490340686,-1.0130064446612732,-1.997112584891556,18.811569181119527,3.68099301312084
3.602639606661824,14.328987720774412,-1.186833889823616,-2.0538109187317044,19.367446969282124,3.744510578848561
3.649683059446865,14.357400955867485,-1.3598398674997303,-2.111535658527756,19.922967699632274,3.80878128920226
3.6965828796112565,14.384844982482695,-1.5317208848758157,-2.17020032161951,20.477153542638522,3.8737112859648626
3.743441367614829,14.41138196692046,-1.7028575849707692,-2.2299506614985067,21.0312291634711,3.9394641436880953
3.7906245431446273,14.437207897413128,-1.8745833134018457,-2.29128967804418,21.589544135555368,4.006589909533372
3.836842293363084,14.461631620216274,-2.042216595762482,-2.3525423502395295,22.136841953464604,4.073262936045069
3.8655849646015716,14.476383139260456,-2.146179116614744,-2.3912302053821337,22.477415205973223,4.115198924425378
3.8768062937332037,14.482050916316767,-2.186706894202167,-2.4064598650628772,22.610422187955773,4.131671258010959
3.870524914282332,14.413292433121999,-2.2740689242454692,-2.406397342442449,22.78061934487635,4.13256217979763
3.8455064862971144,14.187128850478588,-2.5327558949320013,-2.3994833899293937,23.26606991007238,4.12807663188823
3.818285732218612,13.9321695785541,-2.812637140488229,-2.3922339561618773,23.80155834903828,4.123386253255852
3.7916593009744015,13.673520016675822,-3.084653899712455,-2.385428601381555,24.332853393393187,4.118999284828023
3.771215624595416,13.468522490767587,-3.292221581846656,-2.3804022217274783,24.745897874011625,4.115772155565143
3.763386159176366,13.388505619655,-3.3714003275852056,-2.3785241651385807,24.905276233986374,4.114569811798404
3.754390874092439,13.295527185606185,-3.46214427161302,-2.376399144906713,25.089208008070337,4.113211927004394
3.7305915180190397,13.044039107649946,-3.7010191097651557,-2.370948749494674,25.58012202663158,4.109743469749868
3.7051101877825494,12.765727695007271,-3.9546981631433424,-2.365397862643668,26.112697784744775,4.106237031748436
3.6798640811362553,12.480466925841537,-4.203742476192831,-2.360199566585574,26.64757779877079,4.102984165339305
3.65554244552235,12.196407669953624,-4.44133494268816,-2.35548630253901,27.1697786294072,4.100068589076634
3.642611243127671,12.041590023398586,-4.566664616302983,-2.353101940511465,27.450215954796768,4.0986090789923155
3.63643932480071,11.96675255267956,-4.626229522281047,-2.3519943427287933,27.58475626611918,4.097935265682186
3.6471503693612086,12.156176176551444,-4.869031879756436,-2.360057559658628,27.637653079373244,4.1123905873033015
3.6729522092745466,12.606797573499277,-5.438266616597336,-2.3793032326938053,27.755106493464478,4.146813343277114
3.701228591487647,13.09378804686341,-6.049837080844851,-2.400333573259528,27.878407962648964,4.184383771673653
3.7301693171328503,13.58502496080683,-6.662923189893318,-2.4217915143880178,27.99894066784992,4.222672413708484
3.7597375484715077,14.079627560484358,-7.276315668832659,-2.4436449496717794,28.11637726562781,4.26162145641367
3.789989730887459,14.578283903110606,-7.890757884294484,-2.465930628776893,28.230769965533373,4.301295907431177
3.82074365356315,15.077788908823024,-8.502220593393378,-2.4885097538126115,28.341302528000856,4.341448533473109
3.852277823391284,15.582437637333996,-9.115867659605641,-2.511581804222403,28.44883033512108,4.382433797543312
3.8844922450300814,16.090345430190446,-9.729283217387541,-2.535067870395601,28.552826241752523,4.424110945379676
3.9173765475917723,16.60111266331331,-10.341888012704883,-2.558955001040439,28.65311054552805,4.466456714780253
3.9510384722609335,17.11615050692026,-10.955264216994426,-2.583315607349567,28.74984854690562,4.509599061742955
3.9853164433081925,17.632752253935593,-11.566094331849914,-2.6080270806856714,28.842436543231756,4.553320596192582
4.019791153768158,18.144568546771993,-12.1668931491534,-2.6327838656859517,28.929758425788584,4.597081527785285
4.046113264809413,18.530266622859315,-12.616759939702272,-2.651621088096068,28.992651914281588,4.630352561202072
4.042339248390741,18.62109211350664,-12.722028938653187,-2.6495243005145364,29.007254192973818,4.626828648324725
3.71721739068361,18.64020301386914,-12.734696680278532,-2.436762029636246,29.015193812107892,4.257068383404984
3.161853827814933,18.669118658817204,-12.753847521830334,-2.0731168831218496,29.02715987748468,3.6253865195421504
2.590309145376986,18.6939810249868,-12.77030895306539,-1.6986404790736276,29.03749039753222,2.975226076738244
2.0166082763934647,18.713953020722126,-12.783523273798856,-1.322551929134787,29.045767735202592,2.322549221926976
1.4453438352742727,18.728889922384695,-12.793406187187031,-0.9479068585852488,29.051990192688194,1.6725960849206727
0.8744762477609539,18.738887539293884,-12.800016343328318,-0.5734120171872371,29.056130376403406,1.0230592774126583
0.3011889464436702,18.743975229562317,-12.803382815077525,-0.1972624697681637,29.058262330056934,0.3707483074654562
-0.2692514095280614,18.74411295944453,-12.80347231995655,0.17704129848863925,29.0583034677818,-0.27833047343953377
-0.8427311582004464,18.73930101525677,-12.800292885623564,0.5533199154633657,29.056318765400675,-0.9308613712780437
-1.4142964753923188,18.729563168472076,-12.793853803456463,0.9282775839553431,29.05227359255438,-1.5811934621010666
-1.9850357651301225,18.714911767662212,-12.784162211468006,1.3025852762425285,29.04618243850978,-2.2305514550433325
-2.557607185406706,18.69525897860196,-12.77116022905793,1.6779443087517902,29.03803777978039,-2.881946590131341
-3.1309767721925996,18.670595402449,-12.75483165021262,2.0536275574437886,29.027789587516487,-3.534186483198043
-3.6843148941995367,18.642054783538104,-12.735930239609605,2.4159613413372507,29.015975409064055,-4.163568893337495
-4.010996813732028,18.623014087184895,-12.723312663460197,2.6297549250212517,29.00808702803438,-4.535107232445746
-4.053821704944244,18.62467242896416,-12.645706888480056,2.6557177597932617,28.926946754755484,-4.579564219618369
-4.061454214171912,18.6457406284892,-12.215597257295531,2.6492591826531546,28.475900992225196,-4.564401841511161
-4.070832983713745,18.665606874667244,-11.685308315728662,2.641725611987044,27.925901995025136,-4.546147380867596
-4.080302384431241,18.679082450150325,-11.14797529335657,2.634553454181159,27.37524458647739,-4.528120465127214
-4.089818047221681,18.6861235737222,-10.606141177675552,2.6277690872491424,26.826515001590025,-4.510396060647633
-4.09940996937589,18.686788164667163,-10.058127454145867,2.6213432062610673,26.277977451829024,-4.492908103984254
-4.108999291640994,18.681155479286335,-9.508482360417714,2.615318023395855,25.734099987027435,-4.4757877039185665
-4.118546221340105,18.669445815835576,-8.959560101233562,2.609701333465169,25.197016273526554,-4.459087304708083
-4.128085947444503,18.65181245384324,-8.409409183289,2.6044558210179245,24.664622322049905,-4.4427274035028095
-4.137580242608079,18.628517097960227,-7.860302954978403,2.5995867692967884,24.138929573900896,-4.426756530220108
-4.146747752526461,18.60071325286076,-7.32865480763929,2.5952067758855963,23.635194922971454,-4.4116171173939085
-4.151296365968069,18.585019446616037,-7.064357371938568,2.5931475588129085,23.386644156329154,-4.404204503633326
-4.1662041057800225,18.79402219340422,-7.303183945602689,2.603021537171202,23.415775352425854,-4.421578172256376
-4.201185700343592,19.280775854366606,-7.861655896953123,2.6262449481933237,23.485855462964572,-4.462476031971688
-4.239758063157047,19.80906274000513,-8.463469508648387,2.6517723698716056,23.557563690076574,-4.507363801787456
-4.279125995468635,20.33941280594973,-9.063106088514267,2.6777406201479153,23.624981087620316,-4.552956084285259
-4.319684876427254,20.8767758973875,-9.666032311567685,2.7044046892180407,23.68860475910369,-4.599697893473079
-4.349979790531234,21.27234831044363,-10.106876359373747,2.7242621108402245,23.732418633025354,-4.634461393598635
-4.341169804170039,21.343022309671113,-10.184957420239991,2.71891478785812,23.740228421782696,-4.625413976823693
-4.014535814455067,21.112832596028788,-9.920359427760296,2.5141960566274277,23.72050047917388,-4.27402466977263
-3.4992785674909666,20.743487100589004,-9.495540097040525,2.1912260696099817,23.685817187827183,-3.720031112342017
-2.9765950753436687,20.36085346062573,-9.055030068154636,1.86360286725851,23.646107299427506,-3.158488270229646
-2.4530816283558785,19.969356200889404,-8.603810429783334,1.5355101457061997,23.601630713248323,-2.5965503724380965
-1.9380486018145817,19.57591646111998,-8.14976239989308,1.2128306524327128,23.55314220454362,-2.044259299321953
-1.4296991389872986,19.179302305275716,-7.691381440545727,0.8944822784146667,23.500541581866905,-1.4997237861044856
-0.9232788319067868,18.775786970369847,-7.224265494802202,0.5775318339715162,23.44331419239444,-0.9578972194694545
-0.41954339098240984,18.365851810960347,-6.748866058519521,0.26249777908841687,23.381462161441966,-0.419642804733624
0.08078881275052975,17.94999538002139,-6.26565643944519,-0.05012676162649061,23.315009599789274,0.1142191582426396
0.5058712204263909,17.589691182117967,-5.846179127768954,-0.31547537264554043,23.25449770051106,0.5671442580269724
0.7024337864545405,17.420864214797053,-5.649354411310934,-0.4380892790189334,23.225243086374117,0.7763734472157551
1.1402217465812619,17.039698128767306,-5.204308675137334,-0.7109506472818852,23.157059051387648,1.2418513274088
1.6368847961868755,16.59847054995824,-4.68794028141508,-1.0201026396230348,23.07457573701606,1.7690200158744247
2.125752150107124,16.154765919984804,-4.1673202467038735,-1.3239339668449628,22.98788402366372,2.286897078506712
2.6049849867840913,15.710475284932556,-3.644595423377567,-1.6212787104224442,22.89742001911466,2.7935122791762717
3.07404138111168,15.266403173731138,-3.1206595471395597,-1.9117934461674044,22.80347348285918,3.288294898431831
3.5299122083706598,14.825808185871646,-2.599318849517365,-2.193593618577709,22.70680689719974,3.768052197605856
3.824360355874556,14.53638186763159,-2.25601173788664,-2.3753025982729152,22.641481380380256,4.0773098635908624
3.877184214374697,14.472193622904175,-2.2050114350033887,-2.408279584777921,22.652505754274085,4.133787532050459
3.8582701760228737,14.30346172141982,-2.4009605869705655,-2.402983676074605,23.017641672330463,4.130348791490142
3.831125534087909,14.053594185608429,-2.680847818324618,-2.3956197853800907,23.548044962291836,4.125577490221471
3.804213316101988,13.796620439905142,-2.9566403423479195,-2.3886037605415713,24.081449127097176,4.121046310554321
3.7785899152515614,13.543111158479066,-3.2174946283590433,-2.38219741723891,24.5964152451533,4.116925686910694
3.7658316626481643,13.413580798341265,-3.34669831724034,-2.379110332869032,24.85544753704559,4.1149472435995
3.759349172679298,13.34690878696667,-3.412164869723071,-2.3775685172013445,24.987737180807052,4.113961174376992
3.7425386288791604,13.171281231946724,-3.5813391989922616,-2.3736556700999367,25.332929397440406,4.111465639368495
3.7170162105426274,12.896943525205502,-3.8364535854664914,-2.3679564913405375,25.86297004780659,4.107851885685765
3.6916472600371164,12.614799893404003,-4.0878072465059905,-2.362590015627644,26.397047411955395,4.104478007717425
3.6666699964158203,12.327508524445685,-4.332932602228357,-2.3576083726573613,26.930030326693668,4.101378916361639
3.6462522502644044,12.085447891757576,-4.531451876397659,-2.3537668451602847,27.371069360762476,4.099017071231742
3.6381429371015033,11.987468071790884,-4.6098083691584115,-2.3523002962229063,27.547587084900474,4.098123274806859
3.557712962396895,11.970135055926997,-4.630690903568648,-2.30119754286431,27.589015158852984,4.009963835854336
3.1356347227513495,11.993226103370235,-4.648032145804138,-2.028502136223429,27.599085412210684,3.537709490513328
2.592940522799403,12.018617402210065,-4.667093568194521,-1.6776845011917365,27.610175350078272,2.930418789146628
2.0507329248434143,12.039166941507252,-4.682514048524267,-1.3269974551117447,27.61915801410474,2.3235950481188206
1.5082793203318838,12.054915308379709,-4.694328129231071,-0.9760057355386347,27.626047583220938,1.7164346375203976
0.9661646419959079,12.065852113206317,-4.702527300480703,-0.6251262688736957,27.630805010519058,1.1096072446945755
0.4225465687026864,12.072006492687757,-4.707143257605395,-0.27320521427303157,27.633504794641926,0.5010694308452736
-0.1192512270167427,12.073346484021414,-4.708149338554206,0.0775676278326996,27.63409949633454,-0.1054434676909304
-0.6614010952436001,12.069897686470853,-4.705565070442049,0.42856014749202287,27.63260062022061,-0.7123470332747289
-1.2037845468515826,12.061650711575696,-4.699378892986987,0.7796556587078887,27.62897285373722,-1.3194927224712127
-1.7474360190447746,12.048567670508312,-4.689568411785435,1.1314876534302047,27.623264487846402,-1.9280213608342138
-2.288776965676481,12.030742367296552,-4.676197561165034,1.4817009293492256,27.615486960457776,-2.53391178696458
-2.830445343013295,12.008105475207783,-4.659210859796764,1.8319644306198368,27.605613377492688,-3.1401006206840583
-3.3477755469228776,11.981992878300085,-4.639602987877885,2.1663007007268646,27.594196793952918,-3.7189731645443347
-3.611525332185036,11.966988051360572,-4.628335731111515,2.3366769801461325,27.587674042455014,-4.014065489028866
-3.6404805005528416,12.003094890091612,-4.526039439201925,2.352406973464425,27.448214027626705,-4.0400311452516755
-3.654464787896669,12.131135556728388,-4.170370453727747,2.3511983692181584,26.96434302745099,-4.033282956267788
-3.6701649955843605,12.268060865507652,-3.7695268122369026,2.350160507306089,26.426389143017094,-4.025974299629329
-3.6861122393309085,12.399937524788893,-3.36081271004085,2.3494394320015646,25.88560660494331,-4.018827601425509
-3.7020970924803445,12.525034098925136,-2.949651219195091,2.3490411917551977,25.349152504622655,-4.011931333684127
-3.718318575874814,12.644921048075968,-2.5309817339128116,2.3489570420945314,24.810393406321335,-4.005193892232575
-3.73477035054877,12.759441769674064,-2.105002270582082,2.3491889835749733,24.269684013802927,-3.998616789712828
-3.7512983662946455,12.867522801674403,-1.6757577121085971,2.349732113486489,23.73214469270729,-3.9922566189831223
-3.7680889894929916,12.970365376404551,-1.2384616235632118,2.3505907375197266,23.19178541887994,-3.9860373210179443
-3.784525933611261,13.064439570477509,-0.8092619365176568,2.3517202695857575,22.6682923253716,-3.980174047250624
-3.793293707526627,13.112011870931022,-0.5798963308609628,2.3524362678703725,22.391236222851198,-3.9771338656194737
-3.7967830565813587,13.14475400149489,-0.5470625800369329,2.353487541498992,22.325575804111235,-3.9779025484538337
-3.8157481833367877,13.460358306189827,-0.9376311751878088,2.366490757335045,22.39971452831646,-4.00123912032349
-3.8459699914787664,13.956939672924609,-1.549061655204412,2.38716885649548,22.513241465013966,-4.0382946331602305
-3.869568538955481,14.339405374462084,-2.0173888547425394,2.4032783613770174,22.598064922453077,-4.067117693724655
-3.8777142506026645,14.470370570343713,-2.1772343927416093,2.408831501620269,22.626585811830186,-4.077044343433538
-3.869311241632037,14.401606646900724,-2.2876967440015243,2.4067712901005636,22.805998919366132,-4.076310957696898
-3.8437442566817905,14.169933796860741,-2.552025662586405,2.3997241910772065,23.302613629108382,-4.071745570190953
-3.81662984457121,13.915289709941671,-2.8307577198746454,2.3925257887185825,23.83663487559807,-4.0670955530873005
-3.7899977736315567,13.655909196047395,-3.102768346095749,2.385741710103391,24.368654591637284,-4.062729825868505
-3.7693403381114132,13.448196128385415,-3.312441918837416,2.3806820103033055,24.786525277076272,-4.05948746263201
-3.761396420867231,13.366767204700748,-3.3927472799211946,2.378784628863181,24.948444873585235,-4.058275224310274
-3.752551873504727,13.275076606259134,-3.481935241204713,2.3767043061209416,25.129529206494976,-4.056948700353748
-3.7288026714584026,13.023409097699734,-3.7202104225552266,2.371289423951091,25.620021543979565,-4.053510532195676
-3.703448955247816,12.74574267438469,-3.9725105140897146,2.365791943095209,26.150570116574663,-4.050046376929912
-3.6783004770090564,12.46085828468209,-4.22048026411312,2.360638882494816,26.683996678156618,-4.046830639113685
-3.6542813849019513,12.179690335208349,-4.455017147526474,2.356006828054021,27.200243546760166,-4.043973920477951
-3.642334091159094,12.036390811984523,-4.570830195399834,2.353843096398585,27.45960089426602,-4.042631989262462
-3.6365441644169354,11.966437543555251,-4.628401927328308,2.3528357781707174,27.58725411754668,-4.042067402152672
-3.648812303197954,12.182669015689234,-4.902594772404251,2.3620039624161913,27.64466609737234,-4.0584786791019205
-3.675107433325672,12.641484555012246,-5.481959576396333,2.381614337019752,27.764032921974717,-4.0935511412566985
-3.703412530356132,13.128463692657748,-6.093248114091913,2.4026619067132016,27.88706206678105,-4.13114926255951
-3.7323672832626844,13.619432422583555,-6.705729591328259,2.4241259440541127,28.007257236792814,-4.169445754340404
-3.7620888373530272,14.116074902774319,-7.321369952499191,2.4460880358424597,28.124894334606022,-4.2085853729873115
-3.7922432589326314,14.612597062653732,-7.932899565914497,2.4682968673918055,28.238512619406052,-4.2481200062606455
-3.823105649108063,15.113344159491577,-8.545599625835667,2.4909506385072655,28.349034905541135,-4.288402446642846
-3.854628042745708,15.617278857007449,-9.158090060508357,2.514008827103032,28.456120128343027,-4.329360180684523
-3.886995498218868,16.127059414633052,-9.773469081437934,2.537600857945142,28.560198983715892,-4.371222438738859
-3.9198551159770627,16.63689696184258,-10.384655033435225,2.5614641713363473,28.659994701941265,-4.413523078661312
-3.9535906641172334,17.152512814880154,-10.998412678767819,2.585871933951448,28.756532019791575,-4.456746076358378
-3.9878824059374165,17.668772121580247,-11.60852819750728,2.610586974012403,28.848746564660342,-4.500471103945829
-4.022390124825408,18.18053676224736,-12.208959560962779,2.6353609831142313,28.935750409288133,-4.544259756904991
-4.047764879000015,18.55203823127905,-12.64208878019051,2.65351641539952,28.99614846221809,-4.576325038239514
-4.0529428164832195,18.62196460321707,-12.695017083888725,2.656464329802875,28.978930127474488,-4.58130638934315
-4.059337690472111,18.640347500622784,-12.334868096761047,2.651003870911454,28.60050964092342,-4.568556548136438
-4.068206580636511,18.660707217944434,-11.833871140213196,2.643775266232028,28.07930224090865,-4.55119689347356
-4.072697371248738,18.668779867433233,-11.579534548135078,2.640263488777149,27.81696634906244,-4.54254528615852
-4.078333154541714,18.676817815706027,-11.25974229087808,2.635993916665737,27.489226136915875,-4.531815609820527
-4.081451891467042,18.680276357630557,-11.08248879702167,2.6336958388199343,27.30856293991041,-4.525937830517802
-4.086648421488788,18.684491905943894,-10.786698278483383,2.6299670801048682,27.008636763694657,-4.516236681662044
-4.089646762346573,18.68605281624272,-10.615780451575064,2.627871854032412,26.836203293729014,-4.510690934971298
-4.091453315105907,18.68668813080557,-10.512712266619108,2.6266290420896707,26.732526780792504,-4.507367501166616
-4.09405064195657,18.68720222688695,-10.364414708516366,2.6248677778392095,26.583753551820774,-4.5026127101068285
-4.101544970785541,18.686071158161646,-9.935774880916364,2.619952271396611,26.156353240903485,-4.489045082948252
-4.110917129030024,18.67928332989631,-9.398217916359526,2.6141442947927844,25.625714827122597,-4.4723855805338735
-4.120292224621192,18.666652749831847,-8.85886190521377,2.6086991189452604,25.099114955452517,-4.456049043733921
-4.12970287454921,18.648240302367174,-8.315875531648597,2.6035872047378645,24.574662081325712,-4.439966264470055
-4.139135699175546,18.62417235277644,-7.770394471390607,2.598843819089539,24.053361999698595,-4.424184365453384
-4.147956917981866,18.596674123178573,-7.258630499012503,2.5946741038964163,23.569201158761683,-4.409655854690156
-4.151782917110304,18.591134248903106,-7.069277128571273,2.5934455306288484,23.38540622904823,-4.404670544046698
-4.170823957446549,18.858679489848914,-7.377584268552416,2.606110529535415,23.4252800996466,-4.426995333844219
-4.20714832275226,19.3629602990217,-7.955571191127937,2.630214525991038,23.49728348828295,-4.4694346954780055
-4.2458427703471076,19.891559096267002,-8.55703905395925,2.6558096806424207,23.56832629093231,-4.514430701359352
-4.285412474379807,20.42324516311061,-9.15747197451054,2.6818974186880014,23.635192347971568,-4.560221745986098
-4.325566323236567,20.953906534057815,-9.752187103232547,2.708281750075851,23.69732392456855,-4.606462539900665
-4.352402069475485,21.3037178399084,-10.141724725652308,2.7258656918529875,23.735757978732682,-4.637241240429265
-4.309849207632206,21.334674016617893,-10.17480081463987,2.6993342967479292,23.739853907901402,-4.591795234516709
-3.909663925197251,21.17001586743558,-9.981121392851186,2.448758832835947,23.72850916538463,-4.161932368986288
-3.3432457546644088,20.931827118286524,-9.702226144767698,2.094007039529667,23.709838991720382,-3.5537724331810474
-2.7703891381969417,20.6847161449677,-9.414343221847282,1.7351586336136313,23.687865206924165,-2.939034601907425
-2.1981940628184264,20.43153502763312,-9.120773809455745,1.3767064750427631,23.662731910496053,-2.3253757947172993
-1.6283532006948596,20.172962536089194,-8.822247805322634,1.019759072275869,23.634446095195784,-1.7146444628841486
-1.0633157413186183,19.910110433772218,-8.519986844378279,0.6658951492937644,23.60319258512568,-1.1094840725085784
-0.5066796865382052,19.64475233291583,-8.215940696017045,0.31741142572391207,23.569189621858573,-0.5137701809692591
0.04945636698081264,19.373147871083898,-7.905750714995602,-0.030596553654241382,23.531970146401935,0.08092986029425905
0.6018055871850926,19.096845334596946,-7.591120949643635,-0.3760264067506869,23.4916942668065,0.6710662679922953
1.153936358704689,18.81399797065267,-7.26989363001994,-0.7210719735705264,23.44813719842302,1.2604306340122362
1.702661612363118,18.526163834759323,-6.94377245931122,-1.0636969224827202,23.401482251542507,1.8455836894990296
2.2499920125748925,18.23223186893,-6.611432109615578,-1.405115657425706,23.351531876004177,2.428638021307602
2.792519444555477,17.934000877958375,-6.274836251509611,-1.7431635089834887,23.298583158436315,3.0059334798558743
3.3345513573348646,17.629051648849927,-5.9311842901896075,-2.0804855637403095,23.2421921522992,3.582021732082281
3.839372850940847,17.338613056030454,-5.604289704433907,-2.3942358085509174,23.186463141677308,4.117911867119911
4.055907084691028,17.211135523958045,-5.462969633520417,-2.52871518459986,23.163510689167644,4.347659998194573
4.041160067330179,17.087551050595668,-5.6042029950870695,-2.5245584267705232,23.42870783642001,4.344660409736746
4.012501521345637,16.840652023565557,-5.877758019718359,-2.5167006909526903,23.949894529622785,4.338991841886711
3.983289315530348,16.579569238519902,-6.155226366833694,-2.5090006213278535,24.48918624801938,4.3334412447787445
3.9545623258596043,16.31322947217232,-6.426568683128916,-2.5017456397523934,25.027590373368767,4.328218223389374
3.926126806795413,16.039895344839014,-6.693504017851527,-2.4948868794179804,25.56856832464661,4.323289798695221
3.898331944934404,15.763074371253172,-6.952662602442268,-2.488505698536108,26.10523429142034,4.3187164565594935
3.8708533584052907,15.479711572086066,-7.206984716257712,-2.482524067735376,26.64359172592701,4.31444418883815
3.8437200624311796,15.1901374988122,-7.4560923963861025,-2.476949751470508,27.182931490168443,4.310480610409983
3.8170873986805183,14.896150907315935,-7.6984747811046566,-2.471812538302114,27.719940348695904,4.306848715221133
3.799587681616157,14.69756544655291,-7.8565018868433985,-2.4686238644617244,28.076970072981577,4.304607752896412
3.7923991310591543,14.614720529883925,-7.92111695538359,-2.467358096283599,28.22460065052214,4.303721675123147
3.627680748820334,14.61719340747802,-7.933591666848223,-2.3606344639037156,28.241496612190662,4.1186769148516165
3.139915264428015,14.643348996030525,-7.9523027281877265,-2.043595078390609,28.252681379050085,3.5688217459840343
2.5855924002879815,14.668476101645666,-7.970270079166476,-1.6830798130374476,28.263440609406086,2.9438556123048425
2.031993553166821,14.688699501285338,-7.984721348542066,-1.3228454331162127,28.272076974543012,2.31963236087639
1.4762883980844381,14.704115179031513,-7.995736776821782,-0.9610919387089335,28.278691144715918,1.692979169372249
0.9209221592811551,14.714637895129922,-8.003254639122101,-0.5994501649454492,28.28321169003031,1.066666845360012
0.3656462810389172,14.720282640382571,-8.007283833174242,-0.23779972869231775,28.285610640552836,0.44042972273587855
-0.18843195365316748,14.721059474400775,-8.007840379510412,0.1230978809019207,28.285955298853747,-0.18446590753683215
-0.743375615846654,14.716974362371305,-8.004924855105084,0.48454559347563636,28.284216209480984,-0.810332467670117
-1.2976387643657237,14.708034348148601,-7.998537608830164,0.8454941903225542,28.280365031891474,-1.4354112181259173
-1.8519872879210169,14.694232325781972,-7.9886795360393945,1.2064048140292805,28.274464597234942,-2.060549947368343
-2.40570579099423,14.675585464582335,-7.975356330366961,1.5667700220901517,28.26649293700003,-2.684926986889966
-2.961538797393823,14.651972956605922,-7.958474177023436,1.92833191540807,28.25637074859074,-3.3116209056905213
-3.4924047794350943,14.624834050033416,-7.9390653854172735,2.273452429894387,28.24477915353783,-3.910088231077032
-3.773539142671843,14.608642041230684,-7.927478811410828,2.4561260345016804,28.237852531989944,-4.2269871640945
-3.7940809052293534,14.612517265544206,-7.787331326596676,2.466142240057414,28.093088253511233,-4.243090013356872
-3.8014010544063908,14.62619550900841,-7.31077078816962,2.45974613484434,27.602989981256417,-4.2274727132528005
-3.809481100553567,14.635457497993706,-6.782691684879328,2.453043052868541,27.065799161725423,-4.2105568566629215
-3.8176440694216116,14.638725005327991,-6.247067333200365,2.446638599236601,26.527054211551942,-4.193796893784041
-3.8258250361988915,14.635992098314595,-5.7081750315584285,2.4405775766547233,25.99103733631709,-4.177317893740786
-3.833966026684351,14.627430299742274,-5.169895873518691,2.4348893308604396,25.461457337563314,-4.161221787783052
-3.8421241323570956,14.613129878874473,-4.628515637384573,2.4295209235844113,24.93451091927837,-4.145381421164655
-3.850287100184133,14.593211634103266,-4.0848896085366055,2.4244707446924485,24.410932554705152,-4.129809334574456
-3.8584768599275785,14.56770908860628,-3.5375945048255724,2.419716589821512,23.889265958851784,-4.114453376892775
-3.866633001526611,14.536933937060644,-2.9907161493766212,2.4152831647087085,23.373284523571158,-4.099415094655853
-3.874547303127298,14.502048149067443,-2.458349714140479,2.411259634065557,22.875918696482398,-4.085055375134284
-3.8784619178794646,14.482995359226477,-2.1944196429721043,2.409368298483345,22.631097042080683,-4.078034426310982
-3.8910337993329613,14.683389205262367,-2.4366569311594177,2.417896962760456,22.672386184366303,-4.093243133819377
-3.9205662356568185,15.150670288964193,-3.003262545221014,2.4379747526157827,22.770399135271475,-4.129069811706686
-3.9532914655660774,15.660632772242355,-3.6177325268585463,2.4601639903231907,22.873444293050078,-4.1685982667043096
-3.9866998056893026,16.17300358999674,-4.230999315873547,2.482752297467736,22.972837704597023,-4.208768949797627
-4.0208118670471364,16.687853025819926,-4.843071058986064,2.5057497118795684,23.068515726429492,-4.2495983814329055
-4.047134815382835,17.07956815264054,-5.3059517269342455,2.5234499741184755,23.138482663999497,-4.280977451345877
-4.055557731406515,17.20390674310588,-5.452371575913722,2.5291053349305326,23.160179114732628,-4.290995064889929
-4.056109508492666,17.21203561722647,-5.461935706599048,2.5294756727871057,23.161589141858606,-4.291650927847101
-4.056109508492666,17.21203561722647,-5.461935706599048,2.5294756727871057,23.161589141858606,-4.291650927847101
-4.056109508492666,17.21203561722647,-5.461935706599048,2.5294756727871057,23.161589141858606,-4.291650927847101
-4.056109508492666,17.21203561722647,-5.461935706599048,2.5294756727871057,23.161589141858606,-4.291650927847101
-4.056109508492666,17.21203561722647,-5.461935706599048,2.5294756727871057,23.161589141858606,-4.291650927847101
-4.056109508492666,17.21203561722647,-5.461935706599048,2.5294756727871057,23.161589141858606,-4.291650927847101
-4.05609766289639,17.212013344765957,-5.461878185795188,2.5294682989066057,23.16145204455712,-4.291638391269849
-3.969194656998952,17.0486155957646,-5.039887545543306,2.4753712010853524,22.155663283822975,-4.19966613243827
-3.8825953546461642,16.885788879664197,-4.619371653511351,2.421463158639042,21.153389494851304,-4.108015292880145
-3.7956908240594354,16.72238826389436,-4.197373609549971,2.3673651116991143,20.14758308783051,-4.0160414204206285
-3.684059708842306,16.512495950543105,-3.6553062173345174,2.297874772470529,18.855598767217753,-3.8978986045722936
-3.535878251953249,16.233880541911677,-2.935754721729533,2.205631855371852,17.14059199214578,-3.74107338125234
-3.3870968455262025,15.954137089399492,-2.2132899426651305,2.1130154698469767,15.418641584962515,-3.58361321195297
-3.2386467856910865,15.675016645110118,-1.4924341431639776,2.0206053474865486,13.700526081700348,-3.4265037174570914
-3.090313151783637,15.396115108490388,-0.7721436940928903,1.9282677002348112,11.983758056448824,-3.2695174402819895
-2.941498115708596,15.1163084244625,-0.049515613465528054,1.835630380263095,10.261418430024733,-3.112021679639628
-2.7932551406460475,14.837577347437701,0.6703346070587013,1.743349168117948,8.545699662463662,-2.955131349649119
-2.6448614216674406,14.55856283698842,1.3909168220748842,1.6509741179255595,6.828236231010315,-2.7980814825019635
-2.496233033278853,14.279107093776766,2.112638563779966,1.5584529860885101,5.108056807715139,-2.6407832571364493
-2.3473220917999194,13.999120085409677,2.8357323496194122,1.4657559650286396,3.3846072015345094,-2.483185996706606
-2.19946596860302,13.721116379358891,3.5537040635858728,1.373715568065917,1.6733657389241878,-2.3267050845440487
-2.0510120608110287,13.441988700020676,4.274578548307045,1.2813030503533682,-0.04479429941173613,-2.1695915176310883
-1.9024206186341495,13.162602424231524,4.996120883611015,1.1888049175231805,-1.7645461185739495,-2.0123323936350954
-1.7540345482060236,12.883602294826012,5.716665958177557,1.0964346285514104,-3.481921028047768,-1.855290621196025
-1.6052078559233882,12.603773694432137,6.439350639959904,1.0037900525935988,-5.204395559846761,-1.6977825244125744
-1.455504411528837,12.322296597302852,7.166292725513606,0.9105996986816932,-6.93701735192759,-1.539346532542693
-1.3082097557962113,12.045348579934547,7.881538020384632,0.8189088150646209,-8.641760562155815,-1.3834598395376487
-1.1594145134625855,11.76557911271819,8.604069984962534,0.7262838166916173,-10.363871101882118,-1.22598502725133
-1.0110779343541116,11.4866720384394,9.324374735578813,0.6339443360530331,-12.080673213987817,-1.0689956330748287
-0.8627037083766498,11.207694179340383,10.044862294904453,0.5415814202486191,-13.797911039419123,-0.9119663960005702
-0.714307759400345,10.928675475979698,10.765455338523708,0.4492049818832621,-15.515400280182499,-0.7549141687748029
-0.5654835952955655,10.648851629144879,11.488127743775678,0.3565619797154862,-17.23784555162569,-0.5974087476436581
-0.41713441909870813,10.36992086942662,12.20849366435193,0.26421465739276784,-18.954793458572237,-0.4404060215615299
-0.2854243905732229,10.122275555438652,12.848061866752879,0.1822252000247189,-20.47916496907269,-0.3010130430429601
-0.1986104253844869,9.959045223561949,13.269620135934444,0.12818353002070787,-21.4839231999289,-0.20913501887015543
-0.1116948442921286,9.795623830285892,13.691671839834253,0.07407860414399503,-22.489857502115672,-0.11714945130350782
-0.02534121651733799,9.633259039208877,14.110994765392931,0.020323494056477306,-23.489287928803193,-0.02575861708861104
0.0034517024750763416,9.579121692612473,14.25080974871663,0.0023999097200464877,-23.822528350261994,0.004713859331967169
0.0034517024750763416,9.579121692612473,14.25080974871663,0.0023999097200464877,-23.822528350261994,0.004713859331967169
0.0034517024750763416,9.579121692612473,14.25080974871663,0.0023999097200464877,-23.822528350261994,0.004713859331967169
0.0034517024750763416,9.579121692612473,14.25080974871663,0.0023999097200464877,-23.822528350261994,0.004713859331967169
0.0034517024750763416,9.579121692612473,14.25080974871663,0.0023999097200464877,-23.822528350261994,0.004713859331967169
0.0034517024750763416,9.579121692612473,14.25080974871663,0.0023999097200464877,-23.822528350261994,0.004713859331967169
0.0034517024750763416,9.579121692612473,14.25080974871663,0.0023999097200464877,-23.822528350261994,0.004713859331967169
0.0034517024750763416,9.579121692612473,14.25080974871663,0.0023999097200464877,-23.822528350261994,0.004713859331967169
0.0034517024750763416,9.579121692612473,14.25080974871663,0.0023999097200464877,-23.822528350261994,0.004713859331967169
0.0034517024750763416,9.579121692612473,14.25080974871663,0.0023999097200464877,-23.822528350261994,0.004713859331967169
0.0034517024750763416,9.579121692612473,14.25080974871663,0.0023999097200464877,-23.822528350261994,0.004713859331967169
0.0034517024750763416,9.579121692612473,14.25080974871663,0.0023999097200464877,-23.822528350261994,0.004713859331967169
0.0034517024750763416,9.579121692612473,14.25080974871663,0.0023999097200464877,-23.822528350261994,0.004713859331967169
