RAMEL-ESPOL/ARCHIE/matlab/data/joint_goals_square_t35_h35_p12.txt
Joint0,Joint1,Joint2,Joint3,Joint4,Joint5 
-0.00239294647195583,9.574927925848963,14.24588921354539,8.608785222966094e-05,-23.826095488305043,-0.0026524807314485944
-0.00239294647195583,9.574927925848963,14.24588921354539,8.608785222966094e-05,-23.826095488305043,-0.0026524807314485944
-0.00239294647195583,9.574927925848963,14.24588921354539,8.608785222966094e-05,-23.826095488305043,-0.0026524807314485944
-0.00239294647195583,9.574927925848963,14.24588921354539,8.608785222966094e-05,-23.826095488305043,-0.0026524807314485944
-0.00239294647195583,9.574927925848963,14.24588921354539,8.608785222966094e-05,-23.826095488305043,-0.0026524807314485944
-0.00239294647195583,9.574927925848963,14.24588921354539,8.608785222966094e-05,-23.826095488305043,-0.0026524807314485944
-0.00239294647195583,9.574927925848963,14.24588921354539,8.608785222966094e-05,-23.826095488305043,-0.0026524807314485944
-0.00239294647195583,9.574927925848963,14.24588921354539,8.608785222966094e-05,-23.826095488305043,-0.0026524807314485944
-0.00239294647195583,9.574927925848963,14.24588921354539,8.608785222966094e-05,-23.826095488305043,-0.0026524807314485944
-0.00239294647195583,9.574927925848963,14.24588921354539,8.608785222966094e-05,-23.826095488305043,-0.0026524807314485944
-0.00239294647195583,9.574927925848963,14.24588921354539,8.608785222966094e-05,-23.826095488305043,-0.0026524807314485944
-0.00239294647195583,9.574927925848963,14.24588921354539,8.608785222966094e-05,-23.826095488305043,-0.0026524807314485944
-0.00239294647195583,9.574927925848963,14.24588921354539,8.608785222966094e-05,-23.826095488305043,-0.0026524807314485944
-0.00239294647195583,9.574927925848963,14.24588921354539,8.608785222966094e-05,-23.826095488305043,-0.0026524807314485944
-0.00239294647195583,9.574927925848963,14.24588921354539,8.608785222966094e-05,-23.826095488305043,-0.0026524807314485944
-0.00239294647195583,9.574927925848963,14.24588921354539,8.608785222966094e-05,-23.826095488305043,-0.0026524807314485944
-0.002391778324326738,9.574930327385387,14.245883186845326,8.609166041371548e-05,-23.826080441752435,-0.002651302088206438
0.015462644998484994,9.611555133709786,14.153873361680148,8.470158593124088e-05,-23.59625231019362,0.015339372487799551
0.0562934189996244,9.694702960772243,13.944239482402711,-0.0003637726462017623,-23.07177307412006,0.05630449541725646
0.09911874601904377,9.781011931968589,13.725513449170407,-0.0014905283474755796,-22.523287482624763,0.09901805062797218
0.14229652372939489,9.867108414287332,13.506154533958895,-0.0032957856253108746,-21.971908282222966,0.1418365179870055
0.18536437019095386,9.952073051898433,13.288499035955494,-0.005755128118737673,-21.423501926793808,0.18431435956394676
0.22859835742466814,10.036458650768978,13.071132157444454,-0.008875466558980076,-20.87450579629788,0.2267380997101601
0.2719750484978897,10.120219308450242,12.854162671208748,-0.012652474235744992,-20.325184849802273,0.2690967516304031
0.31544890287777466,10.20326881813202,12.63780706132387,-0.017078406190818827,-19.77608033103243,0.31135817782084074
0.35912654692445733,10.285810469152736,12.421526055229121,-0.022162062293715742,-19.225813661334524,0.3536378254155825
0.4027723453029825,10.3674021833264,12.206473553010603,-0.02787160038325813,-18.677316343177925,0.39571997896456
0.44668165198000304,10.448597257856017,11.99118392882694,-0.034242902051320884,-18.126842959364804,0.4379013211465165
0.49072142688734705,10.529145633265735,11.776305416618202,-0.04125778147301395,-17.576035719913207,0.48006498271090653
0.5345695795462625,10.608467626191173,11.563389687069622,-0.04885678956989081,-17.02887807486181,0.5219155487618988
0.5787949349303099,10.687593951909589,11.349663968578504,-0.057135980072977044,-16.47823844954889,0.5640076165064796
0.6231914424640917,10.766146674451427,11.136126151229416,-0.06606213593742996,-15.926664267931276,0.6061552554690187
0.6673437429018836,10.843399762373469,10.924755270175925,-0.07554460634542559,-15.379273368273958,0.6479764786121524
0.7119263191643571,10.920534335365815,10.712312742526036,-0.08572682026907742,-14.827671925458562,0.6901215478676266
0.7563536278268621,10.99653540632034,10.501582559905568,-0.09647583063156562,-14.279077085570504,0.7320479096306881
0.8010712072155323,11.07216720042992,10.29044076245429,-0.10789765217375177,-13.727954759395853,0.7741873731207733
0.8456941278331731,11.146778694196954,10.08069661130736,-0.11989379582320109,-13.179019453755581,0.8161882797975343
0.8903225706907152,11.220545322024337,9.871862337096042,-0.13248571174727056,-12.63100020770755,0.8581563657924842
0.9351426216105567,11.293774238257983,9.663059575948985,-0.1457264274638891,-12.081583469614266,0.9002775796517748
0.9802601257207122,11.366629347232529,9.453796960925333,-0.15965391904786239,-11.529452797160468,0.9426621701045991
1.025044152032251,11.43809753399768,9.246986802191092,-0.17407005770347092,-10.98229459851041,0.9847284450712452
1.0702536080023457,11.509391893445512,9.039114464446797,-0.18921855174884078,-10.430806151631927,1.0272002582983815
1.115345595194116,11.579651827047309,8.83267309829859,-0.2049216009800672,-9.881586378841403,1.0695785510162894
1.1603654614414984,11.648957448953983,8.627437484362012,-0.22118956718147498,-9.334045869196531,1.1119166114877324
1.2057990986506653,11.718051015617403,8.421190828778743,-0.23820344580343017,-8.782252742199667,1.1546825439771433
1.2510992754031396,11.786096185675229,8.216413949584506,-0.2557627973839018,-8.232829393402916,1.1973723829769563
1.2963649908538741,11.85324985475388,8.012643453699818,-0.27390199748798505,-7.6845406620728705,1.2400898455808547
1.3419145084590174,11.919980543032306,7.808442833116839,-0.29275313026692223,-7.133507489850966,1.283146521923281
1.3872611416886511,11.985576082032924,7.605985725910679,-0.312116345670416,-6.585590117359955,1.3260932188903294
1.432791844937949,12.050599721971713,7.4035337121129645,-0.33215674561344133,-6.0360836714470185,1.3693070473681868
1.4783490076131516,12.114823197564519,7.201783497884383,-0.35280979214467206,-5.486866380294455,1.4126497758271153
1.5239877447050318,12.178323895327507,7.000484121069696,-0.37410346687328755,-4.937247825417258,1.456184942799082
1.569769051050438,12.241182883036021,6.799363080101553,-0.39607195609271156,-4.38646999248547,1.4999824073591022
1.615651735112325,12.303339119697759,6.598598523206212,-0.41870195322771836,-3.8350054112034613,1.5440146902626213
1.6620796603201113,12.365378171611919,6.396256049517696,-0.4422273251038367,-3.277502872490756,1.5887218860566987
1.7081618993043506,12.426105942626876,6.196214805556365,-0.46620296589634574,-2.724636728137194,1.6332582789751962
1.7547505543092068,12.48664273178488,5.9947711559482375,-0.49107811163324594,-2.166159301137555,1.6784596867088466
1.8009270286518202,12.545793949035977,5.795890923187036,-0.5163671768529886,-1.6130570733920404,1.7234467999107903
1.847224562306789,12.604252121256572,5.597261866837261,-0.5423595266199401,-1.058912660427058,1.7687488634743893
1.8939924763814897,12.662443366963204,5.397391982159841,-0.5692671988530269,-0.4995265791032213,1.8147232430862081
1.9400872497784696,12.71895149730222,5.201155537161532,-0.5964320843783347,0.05145151766383922,1.860256132689608
1.98669987659167,12.7752419429556,5.003470628958037,-0.6245570947869911,0.608284951477901,1.9065347785470368
2.033030093867018,12.830342614293471,4.8077295970292875,-0.6531690551590029,1.1614360634858847,1.9527783900874955
2.0795774462239494,12.884850109669534,4.6118131303687635,-0.6825801466136139,1.716894398285962,1.9994972266715856
2.1261805760294092,12.93856856081378,4.41639986520683,-0.7126996938821327,2.27275639275599,2.046543962252995
2.1727714609227857,12.99141873612024,4.221769262138961,-0.7434905251847169,2.8282345218435068,2.093862859782916
2.2194076279778887,13.043465215243204,4.027675168636911,-0.774997610378455,3.38403833554929,2.1415253951600013
2.2657684985548188,13.094356741851728,3.835439991220557,-0.8070057515287848,3.9363722404342627,2.189214496809167
2.312484522242856,13.144783056096163,3.642445263382133,-0.8399590451388272,4.49277014300446,2.2375926193136233
2.359143988186486,13.194291471603979,3.4503925585849338,-0.8735810851618869,5.048350049292587,2.2862498215587377
2.4056720709651938,13.242807430556125,3.2595797567297415,-0.9078214497831718,5.602244690804578,2.335119572563818
2.45236467672757,13.290638155029406,3.068788368219476,-0.9429068247665041,6.157999229568909,2.3845268477033694
2.4990802019650955,13.337632881891189,2.878595634733939,-0.9787437725784005,6.71395014863125,2.4343381035401976
2.545711664105317,13.383684925156079,2.6894304357082084,-1.015257862988796,7.268846656280624,2.484452897269664
2.592361683838402,13.428896705314083,2.5008697712503536,-1.0525372748765784,7.82393202790092,2.5349952690233066
2.6388813861471108,13.473126013886024,2.3135080035988786,-1.0904702540601225,8.377456609066405,2.5858173311415995
2.685705744233118,13.516780544459632,2.1255921093201846,-1.1294261356805706,8.934617664752016,2.6374119439389485
2.7322033245580424,13.559271033633468,1.939650988210424,-1.1688898390882423,9.487923115504243,2.6890985427594183
2.778966334512182,13.601138994001005,1.7533105809087317,-1.2093738352815169,10.044441259169792,2.7415505175091823
2.8256234375260867,13.642046178423872,1.5680494925647064,-1.2505724729827026,10.599774232464167,2.7943700237055142
2.8721587496119354,13.681983332545954,1.3839218237836943,-1.2924782225707978,11.153753246226985,2.8475522011277685
2.918919153549895,13.721243697314323,1.1995530205701044,-1.3354189728660069,11.710528834056715,2.9015122125282504
2.965467301801769,13.75945786362113,1.016663828877073,-1.379006875829104,12.264914060950467,2.955763084665297
3.0119838818316227,13.796779080502528,0.8345354730506993,-1.423418408324264,12.819080107092985,3.010529048157735
3.058536944239001,13.83325983611116,0.6528979188704773,-1.4687330931897882,13.37385781530268,3.065908585453785
3.105189754295355,13.868943749586538,0.471503562977839,-1.5150314467832537,13.930021965264503,3.1219983366624082
3.1516835312313565,13.903632237580352,0.2913540431854826,-1.562070714592451,14.484507026930968,3.1785054062442155
3.198211030574104,13.937470358199304,0.1116966504924766,-1.6100585155914027,15.039630605364719,3.2356813884889433
3.2447670211978488,13.97045009558003,-0.06745030449725542,-1.6590082515434186,15.595350334263895,3.2935415117175557
3.2911579067676984,14.002435574418708,-0.2453475513841555,-1.7087298710388552,16.149373556595645,3.351863221786329
3.337819423384794,14.033721486772393,-0.4236667760447305,-1.7597120927837142,16.706924377110372,3.4112182965631384
3.3840248418785253,14.063823171721527,-0.5996371912945251,-1.8111739012950325,17.259336416295444,3.4707001082029874
3.4304137970401993,14.093162190907572,-0.7757027314701215,-1.8638387507766068,17.81427301592144,3.5311485451385902
3.476829516349517,14.121630418316121,-0.951266755563376,-1.9175559079041122,18.369879787501336,3.5923876917077373
3.5233215756299483,14.149252166651682,-1.1265171179894693,-1.972407578081916,18.926770112680966,3.6545097661029904
3.569560001337013,14.175833307978193,-1.3002156623002745,-2.028020544242467,19.481007902109404,3.7170942261174744
3.615840904710723,14.201546884220308,-1.473480944323755,-2.084766575577422,20.036158210926068,3.780561946392622
3.6619590607910872,14.226278996416376,-1.6455489391342604,-2.142413443108874,20.589775853285314,3.8446544792663735
3.7082407015551384,14.250201076557293,-1.8176386671258729,-2.201393653899116,21.145795124630208,3.90985243721473
3.754307962016742,14.273115743769036,-1.9883478232376837,-2.2612492869374923,21.699693550704353,3.9756499817097093
3.800405887757985,14.295146588461229,-2.1585895711440886,-2.322318352052552,22.25443249523435,4.042420561445033
3.839665757041172,14.313197501076738,-2.3031209198498477,-2.3752748063496862,22.72726811116933,4.100041769804268
3.854374975905249,14.319791291126778,-2.357163330059029,-2.395343684120822,22.904515781481454,4.1218133975625
3.8586866371224016,14.307233330066142,-2.3966409690683235,-2.403097321053756,23.00953494756752,4.130418549158054
3.8391102574352387,14.128061388023484,-2.5986766272966006,-2.3977549323649754,23.391210821477998,4.1269555631764145
3.812109397941387,13.872997792237905,-2.875897194553418,-2.390630749911341,23.924136485590264,4.122349783655365
3.7854247132035557,13.611599232615314,-3.1480790433753487,-2.3838781191682687,24.45834581022015,4.118001093766754
3.7591208844108452,13.344556851446168,-3.414460061057082,-2.377513135587111,24.99238410621338,4.113922023213341
3.733282945163569,13.072882287194323,-3.6740977989956276,-2.371553403094546,25.52429543375393,4.110125746674056
3.707630930283957,12.793683148207425,-3.929705020747604,-2.3659345363829525,26.05969151851644,4.106573333037053
3.6824031150229817,12.509591246798468,-4.178805645842741,-2.3607094562807047,26.593459059343488,4.10330031523525
3.6575493659428475,12.220195534849383,-4.421822080033443,-2.355864996853166,27.12643277878284,4.100300093570153
3.6348150712290104,11.946953610062712,-4.641878713459945,-2.3517071563070115,27.62024065528367,4.0977596986372715
3.6247007689334274,11.822709210027583,-4.739053288874913,-2.3499438969127784,27.841884858004125,4.096694434610985
3.621128705996295,11.781524751129856,-4.791865882324533,-2.34967115255256,27.935948208008696,4.0970476487990535
3.6366688255518294,12.05680810878718,-5.141883142145346,-2.361369247939107,28.009984870411415,4.117976902416955
3.6636446402426586,12.529377659204254,-5.739963178619581,-2.3816292757292716,28.134279459708598,4.154190295170862
3.691824762366173,13.01606089525838,-6.352210714409882,-2.4027304649012438,28.258566057020364,4.191862952175386
3.7206246207854607,13.506297987558042,-6.9651173761046286,-2.424228499707289,28.379921917175068,4.230199789310013
3.750186263887609,14.002216196288485,-7.581212106274515,-2.446224180011455,28.49874170409256,4.26937989153782
3.7800599505441905,14.496101211185286,-8.190846324765461,-2.468378679350142,28.613111374190684,4.308799811399095
3.81085897193772,14.997871834598829,-8.806171673529033,-2.491141952854684,28.725234956413676,4.349259984619665
3.8422290783429025,15.501449115499906,-9.419594011104266,-2.51424624937068,28.833613112011648,4.390283841092473
3.874230006265817,16.007599808104462,-10.031972458864702,-2.537730702900811,28.938334929087947,4.431940893640509
3.9071850219599553,16.521117245091066,-10.64896116284284,-2.5618260782671887,29.04024534266635,4.474639823490618
3.9405107692994656,17.03269055507629,-11.259283915806662,-2.5861003640843956,29.13740609176797,4.517614969447371
3.974613320771665,17.548403686738734,-11.870151200694652,-2.6108445593358054,29.23092387573819,4.56138179831635
4.008211299645524,18.0490241107637,-12.458901532663177,-2.6351278407746364,29.31743115347644,4.604295635892923
4.029393970305091,18.36094874361619,-12.823618468250734,-2.6503895343978985,29.369195113203954,4.631247972612882
3.9804454823712603,18.411941007060694,-12.881491074752647,-2.6184528818443913,29.378311724440263,4.575762179953717
3.5771929519825143,18.435175564458646,-12.896961855676743,-2.3535746504131,29.38796942886237,4.115180691732395
3.009866719848497,18.46364257916177,-12.915908736602328,-1.9806946847226146,29.39982707905167,3.4671248282052636
2.4414078884701773,18.48722767429383,-12.931594931823124,-1.6068392606678958,29.40963209258588,2.817698749006602
1.8708473089009061,18.505941756616938,-12.944039852881609,-1.231414451666735,29.417447218186155,2.1658107237512123
1.3018803527547493,18.51966459123394,-12.953160389751616,-0.8568942611191017,29.423161644224557,1.5156958633510236
0.7318535464922937,18.52847475725371,-12.959016309869485,-0.48157627805902675,29.426845433027967,0.8643373084794322
0.16251582823046098,18.53234433318236,-12.961589712376615,-0.10665534002835923,29.42847619146378,0.21374755986819155
-0.4070212880045249,18.531286721547307,-12.960885477819142,0.2684084373516468,29.428018884784763,-0.43707396174136487
-0.9760025314146658,18.5253088374598,-12.956915700707253,0.6430762420130207,29.42554073808012,-1.0872503885670284
-1.5466291878647742,18.514368922597004,-12.949643783588451,1.0187505549007025,29.420961759757954,-1.7392816834066325
-2.114943870011104,18.498548090979007,-12.939129174169853,1.3927863372734772,29.414381909408007,-2.388633094057979
-2.6855329690599863,18.477709772793773,-12.925270423791423,1.7681536762437964,29.40568489895579,-3.040528679532166
-3.256707687820246,18.4518700507141,-12.908081789681663,2.1437018172794575,29.394945894053464,-3.6930265856695734
-3.7766515540789882,18.424003724992485,-12.889530762251388,2.4853444014021493,29.383339444691497,-4.286926343464729
-4.016381049970859,18.409758463029817,-12.88004718971417,2.6427888604886243,29.377441152657813,-4.5607301137680025
-4.035568759511923,18.418514861820945,-12.72408720516021,2.651099485023714,29.212020112021815,-4.573880606953844
-4.043932799382208,18.44457010926311,-12.250480157234687,2.643789916065947,28.712506667952404,-4.557000898283707
-4.0531859167387925,18.46709765025818,-11.724649283594756,2.636126042150247,28.16430653217289,-4.5387233265145674
-4.062528754697029,18.483288410765862,-11.191781332401531,2.628821629525321,27.61540113187956,-4.520672799970156
-4.071990387915618,18.493135068356356,-10.650220459065316,2.6218516460899983,27.06414252187007,-4.502788259005055
-4.081512155857621,18.496551895400973,-10.10333618250397,2.6152551372883077,26.51398515513197,-4.485173876683684
-4.091003004602289,18.49363511854019,-9.556413956236518,2.6090815574002453,25.970117152940254,-4.467982677887579
-4.100516232098744,18.484531338437925,-9.006446838240745,2.603280969398981,25.42938603590172,-4.451101261589403
-4.109990792869976,18.46946425387591,-8.457027624582974,2.597875743254908,24.895160335854282,-4.4346215728864875
-4.119465008636223,18.44855452351992,-7.906001113200497,2.592828656067618,24.36516499134202,-4.418460214784434
-4.127953904100889,18.424971888762013,-7.410943936017894,2.5886003221826033,23.89379521970187,-4.404238020270835
-4.131550380606775,18.428954749974444,-7.266584916914917,2.587890772442222,23.745445246540545,-4.400769807845983
-4.153316480986547,18.73706057386857,-7.622471262916136,2.6024439273474638,23.792210094266952,-4.426444553032219
-4.189844542155117,19.247596965810903,-8.208821225593017,2.6268052424876154,23.86630996027523,-4.469371625816808
-4.228034036687271,19.77284450472205,-8.80768218462769,2.6521921056496622,23.938119453273323,-4.514039218323403
-4.2674284753057385,20.30583728424267,-9.410813614828152,2.6782922317809126,24.006384156740893,-4.559892902626161
-4.306695405833734,20.828469075176493,-9.997747510947834,2.7042199300454124,24.068805188728824,-4.605376407888063
-4.330760748090049,21.144628696667763,-10.350650772784586,2.7200670493665746,24.104389496951658,-4.633143869641235
-4.272228258166192,21.13699996076125,-10.340476026066096,2.683353371742899,24.104559433633064,-4.570092856797977
-3.8671191259541873,20.849425343684157,-10.008973794759678,2.4286886346919587,24.078440124861654,-4.132501812145394
-3.3465021430552424,20.472867724139682,-9.574580590917275,2.101394627019175,24.04084342666093,-3.5705169588591987
-2.8261974445425353,20.088493104642374,-9.130733319759216,1.7743219631559135,23.998657022122135,-3.0093382184347814
-2.306596504349233,19.696398907125275,-8.677444706452356,1.4477639393604875,23.951822305991264,-2.449439022759435
-1.7966787038573035,19.30338783925434,-8.222486370137988,1.1274117332172733,23.901131044752308,-1.9005424229804668
-1.2892875097198575,18.90401510870239,-7.759467472385759,0.8088135710851584,23.845899895190996,-1.354985307852347
-0.787745408947337,18.500875969246078,-7.291305346428189,0.4940952261483352,23.786497083614957,-0.8163785058470958
-0.28894813079163445,18.091454600597366,-6.814976230977231,0.18135942624683324,23.722467107402654,-0.28145056335223817
0.2072406204521596,17.67553815781897,-6.330129942752992,-0.12943912952579179,23.653749919932643,0.24989804107822305
0.5410133757895527,17.390792564285647,-5.997602163686748,-0.33830939978921065,23.604617799851656,0.6068457976357754
0.7862875902803665,17.17894615061569,-5.749884558654588,-0.49169316428206217,23.56701611224366,0.8689001310704751
1.2633757934221042,16.76043271047739,-5.259657663410116,-0.7897467712552442,23.49006906915656,1.3779569812833803
1.7554254367601785,16.319659234471057,-4.742093869032941,-1.0967048810390188,23.40534354677882,1.902002696242801
2.240256620621397,15.87600845417411,-4.2197842570295405,-1.3986715188732908,23.316352970903182,2.4173162237310164
2.7162766816247363,15.43112232579486,-3.6945857756061584,-1.6946306404413838,23.22347812236382,2.9221792100431676
3.179254399700074,14.989320290505514,-3.171553770402742,-1.9819411115149637,23.12773959734465,3.412102460493535
3.6192703244888578,14.56086100570833,-2.6628710247292533,-2.254476552184375,23.031670216932902,3.8766594547928697
3.8392540524097996,14.343443069864694,-2.40418133480217,-2.390512596945621,22.98168947239058,4.108481502109654
3.8527901129994704,14.253755370349607,-2.457597373880045,-2.401474960249215,23.124115131400107,4.129368485414245
3.828092149630445,14.02509404401111,-2.712022943823167,-2.394815254566242,23.607791369740237,4.125055394568181
3.8011858128938636,13.767120443826698,-2.987554043308081,-2.387833381835768,24.14193324943335,4.120548171487377
3.7748377064760033,13.505245265007686,-3.2555436534189397,-2.3812829788171808,24.672416986618863,4.1163374283961325
3.748653509278205,13.235624076944658,-3.5199045485985203,-2.3750652568921016,25.207009147329803,4.112361761941007
3.7228812373639286,12.960817393930869,-3.7780224129545394,-2.3692406037980134,25.740529180471516,4.1086619893310115
3.697421673069043,12.67986280076199,-4.030800907711164,-2.363785454590879,26.274845556701337,4.105225083393767
3.67237997880827,12.394030416972559,-4.277111680761877,-2.3587208728297155,26.807557500291733,4.102066143871827
3.647611622428939,12.10176707865115,-4.518290710698004,-2.3540166994376546,27.34155753153367,4.099168181442986
3.6289960642923855,11.875673710161271,-4.697845196193353,-2.350688002533134,27.747621232996927,4.097144848601969
3.6219360217622065,11.78845268164697,-4.765538405099261,-2.3494732392732356,27.902692434142477,4.096413327492853
3.5080722149820276,11.777849959505524,-4.783759931977669,-2.2763582568063385,27.93606213875423,3.969935091042011
3.055305721179234,11.802276949932345,-4.802179361442888,-1.9828851772772365,27.946763789050927,3.4613389416329103
2.5155550586623865,11.826974544160297,-4.820795341758151,-1.632832966620721,27.95759755319388,2.854947426081349
1.9763464476441637,11.846855554975233,-4.835775009816705,-1.282953298943745,27.966325648720847,2.2490874437164203
1.4352033217724542,11.862000039180417,-4.847178811402071,-0.9316767453605488,27.972948401221846,1.6409913175999118
0.893914436095395,11.872338947656413,-4.854965246808242,-0.5802032745931609,27.977495458936527,1.0326884732949655
0.356995383359608,11.877845961388582,-4.859112742393244,-0.23150372076957187,27.97992194735611,0.4292689829866245
-0.1844338846601016,11.878612557442908,-4.859691342448957,0.12015053484820495,27.980267713536453,-0.17923039546831274
-0.7236669509049174,11.874598332975328,-4.85666689446342,0.47036425857627945,27.978482711141393,-0.78525640153945
-1.2641000596892464,11.865790620800977,-4.850036718268333,0.8213067799330461,27.97462549667184,-1.3926082345727535
-1.8056124258474358,11.852156910948455,-4.8397707572626905,1.1728597921136834,27.968651516189833,-2.0011339467818803
-2.3452813639006176,11.833774517083587,-4.825924496714928,1.5230874801449774,27.960596567995317,-2.6075325663927718
-2.88717105186127,11.810491061859205,-4.808375805534499,1.8745858189422988,27.950366475442117,-3.216353451178001
-3.385756405487062,11.784789769759966,-4.788999799018997,2.1978146851584524,27.939112263318957,-3.7764428212034926
-3.610449937548426,11.7718644617053,-4.779253779783536,2.3434178098651515,27.933469600361054,-4.028825980654465
-3.625963076689367,11.822388486771686,-4.645484118102742,2.349469913419015,27.748700928367516,-4.037688974630355
-3.64042382310737,11.958804787093497,-4.277476681017811,2.348036346404753,27.244113176191696,-4.03053784025987
-3.6559926627466077,12.098690957122887,-3.879661396038188,2.3468206950928368,26.706231248021727,-4.023114637789955
-3.671808460760822,12.233572732135444,-3.4739267678109123,2.345921097617681,26.165427551061793,-4.015853567122684
-3.687675145760485,12.361767234997517,-3.06535570010557,2.3453456894713787,25.628470247925474,-4.008839625341363
-3.7037306457438377,12.48442018687606,-2.650458675968742,2.3450847371546826,25.090722515075832,-4.0020053517822625
-3.7200586656976316,12.602061987772117,-2.227106236597132,2.345138726079702,24.549523469017373,-3.995313944311917
-3.7364123386649988,12.712914167375192,-1.8017549569898046,2.345503959041747,24.01311131416654,-3.988861499826869
-3.7530513868419333,12.818734524235325,-1.3677054370204575,2.346183667141877,23.473025598258342,-3.9825406426138588
-3.769139855381088,12.91455479593777,-0.9468806648712965,2.3471259932966175,22.95616864781112,-3.976652193860035
-3.7770119636635737,12.959164868117746,-0.7405874571149828,2.347686258226734,22.705160574548046,-3.9738478290577803
-3.781726802652444,13.024168523935488,-0.7791123387766045,2.3501563883752925,22.67851523652779,-3.9776617559262957
-3.803886026452129,13.394830731331945,-1.238590820774184,2.3654316163929443,22.766365605877464,-4.005083219821074
-3.8339795957168414,13.891457146199702,-1.8508992844929395,2.386129534567315,22.880728881384744,-4.042181774563076
-3.8549895545589608,14.233683622934103,-2.270623170838621,2.400547901508777,22.957300803518013,-4.067987023706613
-3.8601609696884043,14.319614866677735,-2.3824577129350137,2.4042214042598795,22.982969340751904,-4.074656271644776
-3.845032491095188,14.181799571876253,-2.5387414243531383,2.4000739032220424,23.277430630505812,-4.071970328725023
-3.818417435757708,13.932366748608288,-2.8124361922811207,2.3929919994948574,23.801191729423984,-4.067394698580964
-3.7916947484489514,13.672715521275226,-3.08549218966163,2.3861658952089297,24.334530000504568,-4.063000715667273
-3.7654142582254546,13.408059671933929,-3.352154736349674,2.379741467535434,24.866463986243488,-4.058884769619727
-3.7393961635328807,13.136658113670501,-3.6141500317053015,2.3736742139754896,25.40046527825618,-4.05502043612885
-3.713697758226271,12.859120219915418,-3.8707918275728077,2.3679788914925437,25.93523698337779,-4.051419305534055
-3.6883903153745177,12.57630733612831,-4.1212781416105075,2.362670324482991,26.4691142301739,-4.048092680088961
-3.6635797180981577,12.289605073879294,-4.364500284615537,2.35776635343445,26.99960045133416,-4.045053218332821
-3.6395110889359916,12.00226518215238,-4.5980555183119485,2.3533041802470915,27.521035867555963,-4.042324459608821
-3.6268654178119624,11.847510110915463,-4.719802750249705,2.351111870592444,27.797799228363534,-4.040979688687256
-3.62078490560568,11.772194465333795,-4.778066792271065,2.350072591338515,27.93151402611175,-4.040356449604407
-3.6316214130878333,11.964850667764793,-5.025101650141043,2.358276868090983,27.985405114262086,-4.05505210586132
-3.6571999531600077,12.414321403224795,-5.594681947192629,2.377500179788794,28.104363328963696,-4.089421460097424
-3.685360432534903,12.902316326163213,-6.209465179042719,2.3986023282008926,28.229876738950345,-4.127106384686978
-3.714016877436698,13.391761001288788,-6.822272562742203,2.4200095094438425,28.351934239812493,-4.165291512777949
-3.7433206688938965,13.88503626002767,-7.436000660675252,2.4418304312076256,28.471044228172016,-4.204170604933391
-3.7731542526060404,14.379955053279215,-8.047842416873008,2.4639730143088436,28.586591628091277,-4.243579454339704
-3.8037616273080688,14.880317963315212,-8.662389678152575,2.486613258933924,28.699355936863572,-4.2838309568094655
-3.8348807788669133,15.381608564255242,-9.273996821517486,2.50955225541501,28.808219598619104,-4.324571236416858
-3.866808588829464,15.88837158300982,-9.888108395541385,2.53300352232912,28.91406803596521,-4.366179273330751
-3.8994706778236146,16.39912007740221,-10.502784460976576,2.5569061665450543,29.016451103711674,-4.408546437052178
-3.932668581759496,16.910547384441188,-11.113965984607809,2.5811097024589005,29.114625288504257,-4.4514059838606865
-3.9666354007487508,17.426037746645818,-11.725616706609154,2.6057786408196577,29.20915844435937,-4.495049208376563
-4.0008260747693845,17.937224603031805,-12.327792945323345,2.630512993266786,29.29849915525343,-4.538769009609313
-4.027121824725834,18.325268581763005,-12.781991397399281,2.6494697294698644,29.363378354167452,-4.572250996184836
-4.033122918305361,18.409862630513377,-12.862132691601746,2.6532903392710807,29.358654140972337,-4.5788604691848
-4.038985238019838,18.429824253327272,-12.530694940880087,2.648051980891128,29.007360846169526,-4.5669212420554315
-4.04806512213864,18.4554429140554,-12.015756253914104,2.6402966164916526,28.466962359036195,-4.548765876761403
-4.056339058874474,18.47329268053796,-11.544889946943973,2.633596347781496,27.97838551727372,-4.532565094733175
-4.060004402054835,18.47955598863693,-11.33581144756282,2.6307366560578416,27.763103765372186,-4.525489190417205
-4.0656493143589945,18.487257535562932,-11.013244010210705,2.6264597079203233,27.432925380121016,-4.514709648707376
-4.069332179768997,18.49102551898469,-10.80242698849462,2.6237510130532233,27.218398275290983,-4.50775229686492
-4.073221104978548,18.493939774389816,-10.579505212066746,2.620959514256891,26.99262237136871,-4.50046896934168
-4.076239983883533,18.495454559338423,-10.406240021567818,2.6188405715372176,26.81788836775967,-4.494859191794504
-4.078069849184543,18.49605737517209,-10.301125932490933,2.6175763749320864,26.71219903350117,-4.491477360078166
-4.0815267242038225,18.496550882069364,-10.102364833250073,2.6152292650103903,26.512995913479195,-4.485126188883572
-4.089843287544078,18.494322494973858,-9.623206462616237,2.609798990479154,26.036186663626513,-4.470043500240459
-4.099203363259529,18.486146342036882,-9.082314934192338,2.6040431708556975,25.50360206924528,-4.453390193763223
-4.108512067543138,18.472199276568663,-8.542754227475733,2.598679876117064,24.97811338069147,-4.43715208231673
-4.117875428984718,18.452471669513283,-7.998755448833439,2.59367269430389,24.453959554166808,-4.421165651960699
-4.126759733051633,18.428571547205248,-7.480856352643768,2.589200257842142,23.960070876713722,-4.406239664312244
-4.130837632998771,18.41876431241299,-7.254784844948091,2.5874313185603843,23.743846418857814,-4.399933320182058
-4.147823180422298,18.659529178044856,-7.533057495402194,2.598791214492088,23.780562053868277,-4.419977115240308
-4.18330995059577,19.156808832505924,-8.104855568467713,2.622470458371113,23.85341744789625,-4.461712533547829
-4.221319834003972,19.681068586378764,-8.70336257434863,2.6477524377001243,23.925871407172504,-4.506207230574433
-4.260559356037575,20.21348495187425,-9.306635465823817,2.673765178071101,23.994863623847365,-4.551919297495983
-4.3002121464921945,20.74271334219247,-9.901742586622708,2.6999626748457546,24.058845040642858,-4.597887524224617
-4.328676847325994,21.117325990554946,-10.320236598467625,2.7187136550833175,24.101356162747958,-4.630748297224941
-4.302239436232835,21.16730068491321,-10.375013168241386,2.702257413534315,24.107382438000215,-4.6025783334775205
-3.9292119354113235,21.013438926525748,-10.193504766582787,2.4680067451046668,24.096312470063893,-4.200212619985329
-3.3667646197246457,20.776486305641264,-9.915210757936581,2.1147224425051383,24.077066231765112,-3.5937929670133384
-2.7982970913427954,20.53084552874167,-9.628167615962191,1.7575972639287973,24.054552335273854,-2.9812217962417833
-2.2277522454576446,20.277974132402292,-9.33406500112623,1.3991531358429086,24.028771603751697,-2.3667890465647394
-1.6585038638756906,20.01923376632143,-9.034443007026322,1.0415580337176464,23.9997768654256,-1.7541655624800279
-1.0968852030412806,19.757535495237512,-8.732604564822177,0.6888346948958949,23.96796838459466,-1.1501838421054231
-0.5443775574056704,19.493731998273546,-8.429432524537063,0.34195584290975684,23.933480705868956,-0.556454805787029
0.012223548620822958,19.221479169044777,-8.117574027978058,-0.007324886284705811,23.89547206782282,0.041182699502914935
0.5612504117006637,18.946416012492254,-7.803429811937179,-0.3516423124717274,23.85470436125393,0.6301695123211627
1.1097787328611388,18.66500684573811,-7.482887161953232,-0.6953905931105542,23.810627415135098,1.218065509315682
1.656082032550171,18.37805155681881,-7.156804026219257,-1.037450664554249,23.763400512027925,1.80299719807333
2.2009511821854812,18.085059293118178,-6.82455534608577,-1.378273081611865,23.712886887766174,2.385772700851687
2.740520977009396,17.788088817094945,-6.488404950654655,-1.7154019301352155,23.659436025903222,2.962229158073913
3.281270074330393,17.483501622732973,-6.144166253471808,-2.052844809139911,23.60237101963451,3.5392538515991934
3.7929331155390584,17.188733995795356,-5.81144710973083,-2.371706481451711,23.545080460121298,4.084564112823874
4.034750737718213,17.04716128010606,-5.651767732814709,-2.52224422530921,23.516852905673876,4.342039479293036
4.023280772748087,16.934571498750632,-5.775016525369884,-2.519622529098413,23.752958119089197,4.341097625572477
3.995177831371746,16.686988041892736,-6.042484819491205,-2.51209679227232,24.268724689170735,4.335670765418097
3.9662569161964547,16.422821862685794,-6.31630155945818,-2.5046612962067147,24.80743709944205,4.33031461110007
3.937773562175602,16.1530343728041,-6.584383759524969,-2.4976574526630304,25.346019033982937,4.325277628270758
3.9096913036101197,15.877377882339221,-6.846972174665034,-2.4910751492376706,25.88495999105188,4.320554660245293
3.882003947336679,15.595878343856791,-7.104022677842804,-2.484912305687101,26.424190173508993,4.316146280016382
3.854727791692767,15.308803757465204,-7.355287165139343,-2.479171548922187,26.963193210289138,4.312056350652402
3.8278054086598843,15.01564184795974,-7.601197944770191,-2.473840288315807,27.50291520453345,4.308277849906041
3.801360418849865,14.7178783894883,-7.840542119681631,-2.4689410114748616,28.04065464920298,4.3048284986965815
3.7828531145897313,14.503545898381127,-8.006645397243657,-2.465718612943387,28.421528987996947,4.302575791236986
3.775629409987046,14.418531980527684,-8.071148711074438,-2.4645082095566013,28.57121658471581,4.301733704983248
3.63584473256056,14.414540151753686,-8.086234802635715,-2.373886771180965,28.59615220318265,4.144578978337574
3.162528649507164,14.440192605822226,-8.104667205245178,-2.065216093822934,28.60716496927064,3.6088474651234828
2.6101144362726094,14.46559444601274,-8.122911601611843,-1.7047471825266447,28.618085043026365,2.9835035881619096
2.05916012057909,14.48607154598084,-8.137609097519418,-1.3450380904930441,28.626864866713987,2.3597356660856703
1.504255452820231,14.50180277843194,-8.148899781474082,-0.982597992334093,28.63364100930911,1.7314373563968686
0.9541523329037578,14.512557431526433,-8.156617279554625,-0.6231830950161364,28.63827895458402,1.1085322822008783
0.40153866328100746,14.518513306531865,-8.160887516286428,-0.26205786018255095,28.64082166848437,0.4827559655824979
-0.15180990521394125,14.519612742771072,-8.16167791684962,0.09957767572879278,28.641306579526844,-0.14386319350889173
-0.7022456024662269,14.515876304369133,-8.158999589511886,0.4592987006100433,28.639710276619617,-0.767179598075059
-1.2544682518848944,14.507285190478907,-8.152834545878667,0.8201344080980325,28.635994068160688,-1.392499645290273
-1.8084162278531546,14.49379143242193,-8.143154324420122,1.1820059994553775,28.630202517523976,-2.0197368453959097
-2.360961646919379,14.475459657598833,-8.129998795210637,1.542827937668123,28.62233410603254,-2.645333866295736
-2.912363199659174,14.452306105556467,-8.113372246831364,1.9027266497041986,28.61236795412058,-3.2695675219003455
-3.4466567388732883,14.425231473717549,-8.093924798001048,2.2512576409567764,28.600756811821018,-3.87435423950766
-3.7521238763786107,14.407695547072754,-8.081321914762789,2.450414499055422,28.59322758298428,-4.220082678552045
-3.776540452456798,14.41143692993216,-7.96420006567627,2.4634940970952663,28.471437019200703,-4.241779465022498
-3.783621716171922,14.428624104503234,-7.501668843435261,2.457033560990778,27.991858726258993,-4.226382521400058
-3.7916893913121066,14.442316257966294,-6.9726173472738555,2.450035931808097,27.44926977635256,-4.2091701747057835
-3.799850691950893,14.449916610495821,-6.43521837250215,2.443336842870427,26.904421852020818,-4.1921002074297276
-3.8080705769538192,14.451354780401763,-5.891776606608764,2.4369620215861145,26.359689475060495,-4.1752403937038105
-3.8162650848983666,14.446713458692575,-5.347887141836603,2.4309657915233487,25.820583745259196,-4.158750480487176
-3.8244153623971124,14.43621017492288,-4.804882749375821,2.4253451788632123,25.288219858605736,-4.142650729527186
-3.8325650273422327,14.419963420248777,-4.259926546854588,2.4200557273792755,24.759643424287283,-4.1268395281269115
-3.840701897511264,14.398133415425761,-3.713887802947158,2.41509365403537,24.23556350316404,-4.11132750354594
-3.848824058809411,14.370872628210062,-3.1669526493671487,2.4104481843459995,23.716013941725063,-4.096105173619941
-3.8566156494703194,14.339691628265712,-2.640551510531581,2.406271592604781,23.220910149318016,-4.081737705677652
-3.8604546481240383,14.32254822965467,-2.380578701950937,2.4043119293060893,22.978136896533346,-4.074740479226313
-3.873107220089277,14.525917135939487,-2.627592804716664,2.4129539008970453,23.021223439035552,-4.090169471422724
-3.9023431489889178,14.991929282116136,-3.1940893311554865,2.4329420580378263,23.120408760989406,-4.125858114654513
-3.9348172539885455,15.5017651482286,-3.8099721737922114,2.4550843658765564,23.225003931671072,-4.165328638256592
-3.967901976312792,16.01301390682114,-4.423466144500537,2.4775784161080416,23.325760473967495,-4.205359266609285
-4.001632158205547,16.52601291222809,-5.03492062993693,2.500444294565471,23.422688333372268,-4.245984843690113
-4.027664990720995,16.91643222519151,-5.497480604386666,2.518045938514012,23.493643163481433,-4.277213073278854
-4.035876318938309,17.03860371978336,-5.641729960901596,2.5235895557378125,23.515345757895872,-4.287040537117824
-4.036391347067963,17.046251503334283,-5.6507521145248765,2.523937131149628,23.51669657144518,-4.287656582126089
-4.036391347067963,17.046251503334283,-5.6507521145248765,2.523937131149628,23.51669657144518,-4.287656582126089
-4.036391347067963,17.046251503334283,-5.6507521145248765,2.523937131149628,23.51669657144518,-4.287656582126089
-4.036391347067963,17.046251503334283,-5.6507521145248765,2.523937131149628,23.51669657144518,-4.287656582126089
-4.036391347067963,17.046251503334283,-5.6507521145248765,2.523937131149628,23.51669657144518,-4.287656582126089
-4.036391347067963,17.046251503334283,-5.6507521145248765,2.523937131149628,23.51669657144518,-4.287656582126089
-4.036373688999144,17.04621878168624,-5.650664958099533,2.5239261038044445,23.516489266279454,-4.287637813367681
-3.9504032160251916,16.886909426429195,-5.226333215670931,2.4702381217917697,22.507198650702044,-4.196259811953844
-3.864779758092663,16.728243114540422,-4.803714264763442,2.416766848337947,21.501981980662638,-4.105250652769773
-3.7786954253354863,16.56872276906746,-4.37882053496247,2.3630077616566316,20.49135465485526,-4.013751629811301
-3.670107822341495,16.367502275292555,-3.8428555089407332,2.2951955341013965,19.216539652929118,-3.8983338846638893
-3.5237636138868025,16.09631612628086,-3.120532008560215,2.203804560440531,17.49846330499305,-3.742784649857057
-3.376761950868001,15.823911667550776,-2.3949634540220828,2.1120030108273524,15.772668461406441,-3.5865366067034703
-3.230933481187062,15.553681218893935,-1.6751855291738906,2.020934112561105,14.060646870254095,-3.4315355505534146
-3.084228222549289,15.281826018405702,-0.9510799628352458,1.9293176654898418,12.338331804663806,-3.275602555567085
-2.937689795516043,15.010279968657649,-0.22779784137240658,1.8378054036332596,10.61797533679906,-3.1198468858654373
-2.7913028567101135,14.739014637288689,0.4947365668206172,1.7463877451555112,8.899397335899922,-2.9642522329753884
-2.6450147291724355,14.467932410175095,1.2167832638707514,1.6550317936500414,7.181979376144092,-2.8087626065659177
-2.4981999133908306,14.195874192565473,1.9414295806802224,1.5633469288794923,5.458378113173304,-2.6527131633096452
-2.3518813271142562,13.924735523258555,2.6636266155068173,1.4719719560964903,3.7406025687925792,-2.4971911623116703
-2.205811666236644,13.654058130288083,3.384595008165676,1.380752435550514,2.025749400670348,-2.341933744078817
-2.0594283077326057,13.382799433471268,4.107111744759514,1.2893370129472113,0.3072134324014279,-2.186342896691053
-1.9128577702894258,13.111193880866868,4.8305523562913955,1.1978046983556454,-1.4135200106536057,-2.030553096840032
-1.766456338355881,12.839901692709336,5.5531582994415,1.106377989017203,-3.1322681604095166,-1.874943039207053
-1.619919158753724,12.568357954539154,6.2764342638530914,1.014866506172944,-4.852609983472983,-1.7191886953997029
-1.473274571619602,12.296615182630116,7.000240368714213,0.9232879480475484,-6.57421276754207,-1.563320188144505
-1.327411248538484,12.026320148162364,7.720190322440649,0.8321972840673617,-8.286643536502861,-1.4082820863211998
-1.1807735559569998,11.754590152346067,8.443962397274568,0.7406230315437061,-10.00816537874349,-1.2524209072848533
-1.0345959146917036,11.483712664094654,9.165463757875429,0.6493360779720508,-11.724286233179235,-1.097048716715905
-0.8883261687197002,11.212664499319846,9.887419727475532,0.5579916056306838,-13.441488393939286,-0.941578628069529
-0.7412108201429708,10.940049373225616,10.613549409447483,0.4661190601513905,-15.168617902356432,-0.7852097485553445
-0.5955533772284743,10.670135849240129,11.33248318300401,0.3751569669502162,-16.878631644715917,-0.6303904767268719
-0.4490759000882309,10.398702743946393,12.055464468919432,0.28368276789177865,-18.59827256277734,-0.47469959065635114
-0.30724540758943186,10.135880829233662,12.755509239287933,0.19511057947970117,-20.263358029099376,-0.32394798378770956
-0.2214612131400865,9.976916661232506,13.178921551030754,0.14153892715246974,-21.270461740728653,-0.232767977786671
-0.1357195158392269,9.818031243447455,13.602124105999629,0.0879938140085714,-22.27706653718773,-0.14163314199768412
-0.050016011537936375,9.659216599986731,14.025138148546798,0.034472552135963584,-23.283222949047865,-0.05053890154158178
-0.0036762575990118857,9.573345764717311,14.253861195569861,0.005533687548135487,-23.827250184920967,-0.0012843847933624321
-0.0036762575990118857,9.573345764717311,14.253861195569861,0.005533687548135487,-23.827250184920967,-0.0012843847933624321
-0.0036762575990118857,9.573345764717311,14.253861195569861,0.005533687548135487,-23.827250184920967,-0.0012843847933624321
-0.0036762575990118857,9.573345764717311,14.253861195569861,0.005533687548135487,-23.827250184920967,-0.0012843847933624321
-0.0036762575990118857,9.573345764717311,14.253861195569861,0.005533687548135487,-23.827250184920967,-0.0012843847933624321
-0.0036762575990118857,9.573345764717311,14.253861195569861,0.005533687548135487,-23.827250184920967,-0.0012843847933624321
-0.0036762575990118857,9.573345764717311,14.253861195569861,0.005533687548135487,-23.827250184920967,-0.0012843847933624321
-0.0036762575990118857,9.573345764717311,14.253861195569861,0.005533687548135487,-23.827250184920967,-0.0012843847933624321
-0.0036762575990118857,9.573345764717311,14.253861195569861,0.005533687548135487,-23.827250184920967,-0.0012843847933624321
-0.0036762575990118857,9.573345764717311,14.253861195569861,0.005533687548135487,-23.827250184920967,-0.0012843847933624321
-0.0036762575990118857,9.573345764717311,14.253861195569861,0.005533687548135487,-23.827250184920967,-0.0012843847933624321
-0.0036762575990118857,9.573345764717311,14.253861195569861,0.005533687548135487,-23.827250184920967,-0.0012843847933624321
-0.0036762575990118857,9.573345764717311,14.253861195569861,0.005533687548135487,-23.827250184920967,-0.0012843847933624321
0.00457094148194125,9.577822205086834,14.248203894106721,-0.0013242986375095781,-23.825634786557362,-0.0022642649079469314
0.00457094148194125,9.577822205086834,14.248203894106721,-0.0013242986375095781,-23.825634786557362,-0.0022642649079469314
0.00457094148194125,9.577822205086834,14.248203894106721,-0.0013242986375095781,-23.825634786557362,-0.0022642649079469314
0.00457094148194125,9.577822205086834,14.248203894106721,-0.0013242986375095781,-23.825634786557362,-0.0022642649079469314
0.00457094148194125,9.577822205086834,14.248203894106721,-0.0013242986375095781,-23.825634786557362,-0.0022642649079469314
0.00457094148194125,9.577822205086834,14.248203894106721,-0.0013242986375095781,-23.825634786557362,-0.0022642649079469314
0.00457094148194125,9.577822205086834,14.248203894106721,-0.0013242986375095781,-23.825634786557362,-0.0022642649079469314
0.00457094148194125,9.577822205086834,14.248203894106721,-0.0013242986375095781,-23.825634786557362,-0.0022642649079469314
0.00457094148194125,9.577822205086834,14.248203894106721,-0.0013242986375095781,-23.825634786557362,-0.0022642649079469314
0.00457094148194125,9.577822205086834,14.248203894106721,-0.0013242986375095781,-23.825634786557362,-0.0022642649079469314
0.00457094148194125,9.577822205086834,14.248203894106721,-0.0013242986375095781,-23.825634786557362,-0.0022642649079469314
0.00457094148194125,9.577822205086834,14.248203894106721,-0.0013242986375095781,-23.825634786557362,-0.0022642649079469314
0.00457094148194125,9.577822205086834,14.248203894106721,-0.0013242986375095781,-23.825634786557362,-0.0022642649079469314
0.00457094148194125,9.577822205086834,14.248203894106721,-0.0013242986375095781,-23.825634786557362,-0.0022642649079469314
0.00457094148194125,9.577822205086834,14.248203894106721,-0.0013242986375095781,-23.825634786557362,-0.0022642649079469314
0.00457094148194125,9.577822205086834,14.248203894106721,-0.0013242986375095781,-23.825634786557362,-0.0022642649079469314
0.004573919324866208,9.577828383273847,14.248188654570152,-0.001324289886777171,-23.8255965635209,-0.0022612552762984878
0.022576833945245973,9.615097112285422,14.15616223982266,-0.0013321106609936858,-23.594669218906024,0.015909204012730153
0.06352147769967685,9.69924807709994,13.947647957595388,-0.0017994809833869962,-23.070601898268528,0.05705585596609966
0.10651619923399963,9.78670890381582,13.729847207711328,-0.0029528315880075896,-22.521953698394046,0.10000746874231388
0.14986818980761565,9.873970185912441,13.51141024195041,-0.0047917473576466274,-21.970413985652886,0.14306669480926087
0.1930790140573699,9.960032452763684,13.2948345088597,-0.007289196833607627,-21.42228402011303,0.18575183019184616
0.2365112946799409,10.045625614242052,13.078283757250015,-0.010457663020915208,-20.872917486689225,0.2284352775727541
0.28011611461726404,10.130650767254462,12.861995962607246,-0.014292697069758642,-20.322904776963796,0.2710804945909727
0.323722812258753,10.21477916639627,12.646803724532672,-0.018773918237062096,-19.774359437580507,0.3135334874719569
0.36752164560059775,10.298381025312231,12.431755413625517,-0.023916348123794305,-19.224850849925502,0.35599206474735795
0.41157739592555986,10.381574998613836,12.216530203176143,-0.029729094624520183,-18.6735423491322,0.39852989932902055
0.45555204583250597,10.463725976651082,12.002766830070712,-0.03616342623608286,-18.124627195849783,0.4408329603156099
0.4997750757068742,10.545452574151719,11.788851291169461,-0.043263693549249096,-17.5739564111266,0.4832304368795583
0.5440216199022396,10.626338915067722,11.575863102560005,-0.05099256287870711,-17.024299418895165,0.5255182777257424
0.5882586826953242,10.706331796176313,11.363944256527137,-0.05933799561137295,-16.476024895839352,0.5676774612002234
0.6328529450325009,10.786091246834134,11.151333252890787,-0.06837025311083697,-15.924561881188634,0.6100685008766321
0.677259094502239,10.864643889445256,10.940619401070265,-0.07797666816247877,-15.376620885138355,0.6521845844531162
0.721782298264777,10.942538348811793,10.73033631091603,-0.08821642056753322,-14.828394375347447,0.6943273450410007
0.7667062871479288,11.020262358758146,10.519145558520568,-0.09916039190767648,-14.276370308480818,0.7367758017551341
0.8113371863018567,11.096618458555383,10.310297590612276,-0.11063716135912179,-13.729041574553557,0.7788857172228717
0.8564358684359067,11.172909297581793,10.100222809103649,-0.12284167393766161,-13.17704652933844,0.8213862756487684
0.9014196853886963,11.248144788347043,9.891632208515778,-0.13561951194129115,-12.627492924640807,0.863739276779581
0.9464719978875413,11.322638402553771,9.683660127235047,-0.14901831146708722,-12.078103580794155,0.9061287636318534
0.9916254594040607,11.396444519537576,9.476147562115274,-0.16304803203802976,-11.528451162436506,0.9485965322177833
1.036776633526231,11.469396261330049,9.269559744933156,-0.17767570415929856,-10.97976392101123,0.9910563484585162
1.0820501560111488,11.541696310708765,9.063317312069774,-0.1929416947310645,-10.430497622738631,1.033636427724129
1.127533706051782,11.613479966864196,8.85701820373522,-0.20888000522242353,-9.879565435411582,1.0764303156232193
1.1728870369012707,11.684212323978452,8.652195906370567,-0.22537123433834744,-9.3310587561382,1.1191288376932098
1.2184549459255962,11.754432940443797,8.44728383595312,-0.24254096947323422,-8.780778098590162,1.1620675780720726
1.2639729088630955,11.823733545209633,8.243464746690814,-0.2602916822465115,-8.231891139053825,1.2050083001368124
1.3095980890511232,11.892355493489513,8.040025383160966,-0.27868507618804383,-7.682473577020099,1.248110166394266
1.355233298639006,11.960152986901306,7.837391419444856,-0.29768378839238385,-7.133668501948267,1.2912923495634738
1.400996805373827,12.027301291635274,7.635030906709148,-0.31733965930318736,-6.584027261735417,1.3346778553208622
1.4470275800276917,12.093996577642214,7.432329852886781,-0.3377204592911301,-6.031860462422036,1.378410379948498
1.4927244156987234,12.159372548764031,7.231923835592504,-0.3585592151817467,-5.4843497416968425,1.4219293039950411
1.5387465139150478,12.22437543748586,7.030911698926127,-0.3801571666991414,-4.933568268657188,1.4658732225504185
1.5847933084745898,12.288573796999513,6.830605976663233,-0.4023814251870076,-4.3830922477338055,1.5099673528517974
1.6308090444563175,12.351892480662338,6.631239740484194,-0.42520651711372376,-3.833560530064879,1.5541692104617437
1.676803190270535,12.414348368618226,6.43276140105113,-0.4486378314008388,-3.2848318844105955,1.5984985619442136
1.7229261994386527,12.4761449420511,6.234515677902163,-0.4727563721303277,-2.735086515799981,1.643111948183287
1.7690721780497278,12.537138211182436,6.036952966800013,-0.4975123060630704,-2.185562730694149,1.6879188071435272
1.8151439590366396,12.597202979334089,5.840479571925606,-0.5228552521218509,-1.637390842706168,1.732835616416287
1.861560063123012,12.65687922624572,5.643309296147647,-0.5490241345359158,-1.0855694711956443,1.7782833326105805
1.9077751729247328,12.715463556482037,5.447754122297002,-0.5757178963944916,-0.5365582818877508,1.8237402726654026
1.9540978225239871,12.7733508905341,5.252498517021438,-0.6031167114630935,0.013334304000833038,1.869520799896929
2.0003033638408003,12.830262085151144,5.058481543193344,-0.6310915638149209,0.5614663452371618,1.9154143399662036
2.0466508313521037,12.886516543732695,4.864608829248804,-0.659804346010588,1.1109348441593672,1.961690079405889
2.093152235506489,12.942121842661038,4.670830020475883,-0.6892735999972867,1.661903154836738,2.008374229134697
2.1393934101821412,12.996586393149764,4.478861548246934,-0.7192397742674709,2.20948898325106,2.0550620921476463
2.1860331608945263,13.050683040958681,4.285964897510639,-0.7501384207918588,2.7615162984857444,2.102432311769754
2.2323691525599547,13.10359522613516,4.095040397147507,-0.7815121398160629,3.309694790710949,2.149784713586074
2.278819609857739,13.15580591789058,3.904354075210715,-0.8136463339983093,3.8589968899016394,2.197557485206743
2.3256986158855093,13.207653855310692,3.7126226627891667,-0.8467769968819495,4.413155973710624,2.246091888927225
2.372696990090139,13.258782298934191,3.521117079292595,-0.8807052318703521,4.968536718601627,2.2950868016105366
2.4195416449420946,13.308895091023553,3.330943267731673,-0.915240749709216,5.521935213312438,2.3442706800046054
2.4667167878607255,13.358505317890337,3.140133549644795,-0.9507526845386003,6.0790936597654905,2.3941677684539653
2.5137562765395525,13.40711716837716,2.950571998027679,-0.9869032482841303,6.63452852019552,2.444301451255271
2.5606577431770297,13.454735279733676,2.762256505210327,-1.023693062911909,7.18823523857353,2.494680206372116
2.607749079439034,13.501690547151895,2.573866355051571,-1.0613900161949898,7.744106855257548,2.545671580331387
2.6547489033436973,13.54769907438819,2.3865241570828,-1.0997810580487286,8.298843628184665,2.596987106465757
2.7018208367751515,13.592920821354705,2.1995721917794917,-1.139009641980072,8.854398619994882,2.6488204396056516
2.7486680518125413,13.637073884954058,2.0141811972092847,-1.178835322410666,9.407290177789129,2.7008580917198675
2.795791068680941,13.68062751438505,1.8283668357444625,-1.2196962054734035,9.963446821617929,2.753672766170775
2.8429081526881608,13.723312824899416,1.6432411352657796,-1.2613666307545235,10.519564807763942,2.806969087701709
2.8897701493137524,13.764910005260182,1.4597730904371098,-1.3036316870826046,11.072724044016276,2.8604777851918004
2.936987984347172,13.80595710792594,1.2755687455003464,-1.3470579530216027,11.630157010465073,2.914915277922129
2.9838800108871646,13.845859297141327,1.0932837668019175,-1.3910325641363588,12.183837145338815,2.9695136208584887
3.0309932605919716,13.885083340202028,0.9107854646592743,-1.4360795948563134,12.740243781346152,3.0249259374604285
3.077999057296048,13.923350624025922,0.7293455574462614,-1.4819024973857302,13.295516021146312,3.0807861563513494
3.124770482704866,13.960565567666102,0.5494431655456495,-1.5283827819726847,13.848173100329674,3.136955838838738
3.1719376110928383,13.997222950560946,0.3686545415188686,-1.5761670371424952,14.405680927537771,3.1942142399351217
3.2188234311550827,14.032791458403674,0.18957343953338845,-1.6245888832218354,14.960057755945265,3.251761539548309
3.265855035221504,14.067596650138016,0.010562549274768079,-1.6741024227485914,15.5163724073149,3.3101397310515592
3.3126840038395207,14.101379970572337,-0.16705627073840268,-1.724356708628484,16.070522659185674,3.3689360990079735
3.359433987360665,14.13423612507667,-0.3437606451850189,-1.7754939680265411,16.623988836597874,3.4283212637248113
3.406450190104103,14.166399997807993,-0.5208545924336772,-1.8279166368492836,17.18087849479295,3.4887600837643067
3.453188478873382,14.197497056178085,-0.6962915342499174,-1.8810373253142174,17.734765458201636,3.5495755795169455
3.500152847230069,14.22786140630891,-0.8719669660854306,-1.9354476975969812,18.29164093378192,3.6114458732940165
3.5467833337810664,14.25713122237301,-1.045790880669226,-1.9905166536709002,18.844882819344893,3.673654742305295
3.593474575520689,14.285559097779887,-1.2192420827764276,-2.046722953475885,19.399188844014365,3.7367465413522862
3.640180736988854,14.313111934753403,-1.3921510757137103,-2.104036900144195,19.954034076308133,3.8006868803325404
3.6868984280415877,14.339783921992778,-1.5645069856536749,-2.1624789684049293,20.509396799957532,3.865498190994264
3.733765404176236,14.3656459111745,-1.7368170197803765,-2.222252086404763,21.066934825600384,3.931403435433691
3.7804155396812686,14.390494482224076,-1.9077382963941676,-2.282912564293325,21.622309844539345,3.9979140674045013
3.826785168797371,14.414306644302465,-2.077048791813456,-2.344385395981794,22.17477494145534,4.064953537372133
3.858958434985455,14.430307081352861,-2.1941830795318626,-2.3877418999855253,22.558360139736536,4.1120281395927805
3.869918827247015,14.435660102588551,-2.234023317403506,-2.4026457428396406,22.689085258633206,4.128171784643534
3.8675061803187223,14.386409848989734,-2.305351834363122,-2.405550901572931,22.83885746476862,4.132012102862854
3.843430171499028,14.168010820797436,-2.554164733555194,-2.39892054329781,23.306646382829886,4.127711542661937
3.816549386749309,13.915584690375159,-2.8304309078619543,-2.3917817082353716,23.835978159537433,4.123093777858414
3.7898338204686794,13.655443388218124,-3.103235591585209,-2.384972947820256,24.36955463403984,4.118705832075338
3.770457397752453,13.46080992993942,-3.2998977468904642,-2.3802194695549033,24.76130431857171,4.115654667645274
3.7630484413364593,13.385034592775092,-3.3748120049810564,-2.3784440290421665,24.912166812170096,4.11451815498631
3.7530476007954063,13.281545637679898,-3.475674594825598,-2.3760851086335704,25.116751098799124,4.113011105394017
3.7287391730176687,13.024125646992754,-3.7195349172405665,-2.3705354656463515,25.618594010733364,4.109481022316234
3.7032396268375396,12.744920034685101,-3.973231555699548,-2.3650025550720293,26.152081608321446,4.10598812083156
3.678091530149683,12.46007405721541,-4.221137934771473,-2.3598464486376503,26.685406305773054,4.102764115263471
3.653576208979827,12.173038334668496,-4.460437821066619,-2.355118512194694,27.212295028840146,4.099842325971899
3.6385341527308284,11.992221848236571,-4.606031525141594,-2.3523683330351886,27.53904219346119,4.098162087092615
3.632138861708212,11.914242557633887,-4.667634417639557,-2.351234640287323,27.678767082929582,4.09747439261363
3.640285381904582,12.06000367553041,-4.860926292349277,-2.3575239879588015,27.725925662701155,4.108800096261649
3.66502195609189,12.4934308561107,-5.4092760183746105,-2.376020108264682,27.83973643235426,4.141882958780653
3.693227305296543,12.98090753093351,-6.0224621469615816,-2.397049967933256,27.964171008923877,4.179454273829288
3.7220429645559943,13.471746372240494,-6.636065348181418,-2.418468579225508,28.08562501758292,4.217674621001325
3.751357827675682,13.963863485342173,-7.247404329286106,-2.4401891703915166,28.203505688058854,4.256389051721352
3.7814767711783785,14.462123591392379,-7.862413329365691,-2.462432700780614,28.318868079918406,4.295990939598786
3.8120588102388346,14.96065191551361,-8.473742852568902,-2.4849424602544774,28.430252667561472,4.336022924273144
3.8434471691303025,15.464818159148647,-9.087884834495165,-2.5079661096504333,28.538765277668823,4.376925215838089
3.875418443181108,15.970772323106317,-9.70003714422043,-2.5313342823562133,28.643463623704363,4.418396497712642
3.9082810863955872,16.483114772467623,-10.31564359051442,-2.555266525764873,28.7451760660654,4.460825890129127
3.941722409902468,16.99669853032141,-10.928403240800113,-2.5795291548945882,28.842762791819595,4.503798651951791
3.9758287736525846,17.512665747567663,-11.539612588658763,-2.60417972741825,28.93637351724197,4.54741677468881
4.010278993253057,18.026059145312548,-12.143382233665385,-2.628981975452789,29.025091067660156,4.591262675511203
4.03842142316535,18.439821491164714,-12.626782299600581,-2.649170848048459,29.093365750187235,4.62692410567001
4.046627603097969,18.559539365176306,-12.766114949734877,-2.6550456202114554,29.11258171463345,4.6372965235671035
3.767469272936534,18.576816481927054,-12.777941016703748,-2.4721857736762485,29.11958127477085,4.319434097721613
3.2257542671072748,18.605547047877153,-12.796996701247659,-2.1171402110219693,29.13147979612789,3.702536924786175
2.654945130906084,18.63098295777328,-12.813862167000437,-1.74278807384794,29.14205734577425,3.0524325602957476
2.0836368088998474,18.651481016037554,-12.827444862714605,-1.3679048021775366,29.15056723524797,2.4016940570394842
1.511434054763742,18.66704828199477,-12.83775860763704,-0.9922750410329234,29.157050606160173,1.749886051464823
0.939296393893661,18.677654928542474,-12.844785322190399,-0.6165716751715166,29.161480273782622,1.0981150230469705
0.3690203491287025,18.68329705969437,-12.848519728107483,-0.24201935627866666,29.163812519108834,0.4484415938416114
-0.2034409328829142,18.684014595712203,-12.848997149536642,0.13399722653270515,29.164127409947437,-0.20373037486863452
-0.7743232704109854,18.67979406266118,-12.846201046238559,0.5089599639965664,29.162354703532138,-0.8540982684092182
-1.34359743574975,18.670676423235324,-12.840165428368822,0.8828090720128555,29.158576424380442,-1.5026157239374964
-1.917106236730956,18.65652771028573,-12.830792150635984,1.2593337518499506,29.15267543931817,-2.1559234510768177
-2.4875949393115335,18.637506256952083,-12.818191003848671,1.6337313529117796,29.144784516098646,-2.805744919004882
-3.059984643206574,18.613451601102394,-12.80224434134606,2.009182952985256,29.134778167161446,-3.457669525032681
-3.6203649685413266,18.585069601554945,-12.783423236419196,2.37653282652888,29.123017540327698,-4.095844722900788
-3.9870823419835353,18.5639006433733,-12.769376986411,2.616786726614055,29.114241832376884,-4.513425901304724
-4.04768462147496,18.5630268859874,-12.719235242419726,2.655176781988268,29.062258308096453,-4.579752020009698
-4.054721818978551,18.583868942080517,-12.322334667447503,2.6491187504795315,28.64463915903098,-4.565664213447517
-4.064055322606477,18.60568415694091,-11.794195671607007,2.641474920392381,28.094842798449307,-4.547345990403943
-4.073462063164066,18.62109645079275,-11.25998399752247,2.63420629413747,27.54537138255632,-4.529289593999359
-4.08294865750249,18.630118601749448,-10.719344095440569,2.6273015719140558,26.995856849274624,-4.511473812585767
-4.092521971365468,18.632746847374705,-10.171901045105196,2.6207507051084016,26.445928290799397,-4.493878221357488
-4.1020729304585135,18.629044941346045,-9.623937748907649,2.61461700499035,25.901803465485102,-4.476689982138971
-4.111625756810419,18.61917861679276,-9.07413219621408,2.6088689173378405,25.361995278663414,-4.459847974220143
-4.121171366519172,18.603312742590244,-8.523068017385667,2.603497688329871,24.82692264214444,-4.4433523860375495
-4.130660685150338,18.581732760451136,-7.973651167647294,2.598514240644376,24.29920573050025,-4.427270098337582
-4.139937260308993,18.555173331183923,-7.4350591898921365,2.5939739616770447,23.78728589008398,-4.411839636931545
-4.145277388750378,18.537484517441396,-7.124364520093549,2.5915046449465704,23.494342956562143,-4.403082708701442
-4.157270607774452,18.70435506590004,-7.309739095416545,2.5993477360696544,23.512295794871424,-4.416802958275699
-4.190892772278195,19.174041147877517,-7.849427266239898,2.6217093780511895,23.580724334551807,-4.456200016537523
-4.229209506813686,19.701062521690545,-8.450771917566325,2.647115062845398,23.65324251453358,-4.500894415397745
-4.268417989960248,20.231538231453065,-9.051533841153551,2.6730263410758526,23.72166861258222,-4.546408257231688
-4.308639126258304,20.766751703432764,-9.653047842280689,2.699517523058875,23.786047362289203,-4.5928696288912905
-4.341687866225364,21.19993521216743,-10.13649089426355,2.721217552617407,23.834717536831665,-4.6308758515287485
-4.335415260106135,21.294256250542617,-10.240958456814086,2.7175097636302508,23.845145373390867,-4.624679092228603
-4.011251442926589,21.06557478953884,-9.977891404226664,2.51416790004278,23.82533047199666,-4.275529260755835
-3.495483992671768,20.695500372969125,-9.551905443409861,2.190607580359459,23.790235265573333,-3.7203251646066975
-2.9764261763968873,20.315169443708914,-9.113709513355875,1.8649872241089287,23.750420756081688,-3.162014791769486
-2.452720963392169,19.923191076455208,-8.661589025736296,1.5365046479989795,23.705546449369272,-2.599205671331464
-1.9372976584125736,19.52910760119266,-8.20644889584338,1.213318052707467,23.65663044988725,-2.045846528179559
-1.430622374402949,19.133461486102277,-7.748836146459267,0.8957628244784896,23.60381086415953,-1.5024704888631348
-0.925042229209346,18.730289470692824,-7.2817613854336605,0.5790861285141795,23.546285219512146,-0.9609142191751022
-0.42286908123205674,18.321314791503085,-6.807115844204122,0.26478139396681954,23.484233259884213,-0.42370864122501256
0.07826793785551144,17.904477689506543,-6.322399811557142,-0.04859004876129734,23.417273172429258,0.1116260874831516
0.4992232665649914,17.54742913568771,-5.9064010201200166,-0.3115655261338213,23.357015941168928,0.5606671600056053
0.6969912203052824,17.37746176817087,-5.708099534893398,-0.4350263437178045,23.327428571298906,0.771420208884382
1.136197391424353,16.994802128695596,-5.260975336205585,-0.7089794871173826,23.25866264158161,1.238934984837942
1.631252084140689,16.55470740332263,-4.745547675941728,-1.017361069111145,23.176028230603396,1.764987080407434
2.1224758380680053,16.10855561136773,-4.221664011244795,-1.3228812848796778,23.088485326011416,2.2859388469990534
2.599295521058812,15.666196670362755,-3.7008223296235427,-1.6189423015817426,22.998042614426172,2.790557786659312
3.0676630660383095,15.222500202614635,-3.1769429299770517,-1.9092376480051814,22.903811913548616,3.2851556763286824
3.522213094288977,14.782927782077989,-2.6564318401562175,-2.1904194757277513,22.807014879000324,3.7640448079982916
3.8182902141031314,14.491730183583588,-2.310771161072022,-2.3732605342460946,22.74105339794264,4.075349810536069
3.872050158139124,14.426820916178803,-2.2582725966263912,-2.4068293899306794,22.75126385636034,4.132845158488549
3.8533271066798807,14.258643122669055,-2.452049813187484,-2.401622180579001,23.113668496904584,4.129465433897234
3.826282267674791,14.00803548726841,-2.730611708994438,-2.394336368930269,23.643483251398948,4.12474719788753
3.799325376571734,13.748934598656405,-3.006537386865763,-2.387361232774541,24.179147845153192,4.120245495706076
3.7748927648833916,13.505803067645324,-3.2549849603821563,-2.3812961793217213,24.671300741785515,4.116347365472535
3.7639894435599706,13.394692164562064,-3.3653165923363892,-2.378670799670966,24.892997937097697,4.114665792021252
3.757774871312159,13.330628566561812,-3.4280458041267434,-2.3771973001944855,25.019935504406874,4.113723780412932
3.7379425201312575,13.122568540597426,-3.627439412998923,-2.372608103318744,25.427849179840692,4.110799182230328
3.7123272334508095,12.845512579554715,-3.8830851643725883,-2.3669423332073674,25.961140687551595,4.107211714436527
3.687121639162628,12.563452798687155,-4.132400453084752,-2.361665321882842,26.49309119178031,4.1038999123020385
3.662191290690545,12.274973044432933,-4.376626906137454,-2.356748170700519,27.026361634986905,4.100847509738896
3.6417864446295503,12.03162023866916,-4.574639091034279,-2.352955488099809,27.468184723771703,4.098521822880359
3.6336424771465983,11.932632820410523,-4.653171061885622,-2.3515016710670174,27.645885999817214,4.097638461380147
3.5547115420756787,11.914785322108482,-4.674188515954515,-2.301337692742752,27.68790269359964,4.011086867551863
3.1332264224209356,11.93786351236123,-4.691540466558682,-2.0287795069987835,27.697979560475833,3.5389661623038315
2.5921936921426894,11.963204792204694,-4.710586667054909,-1.6787199333254537,27.70906066757239,2.93285365167815
2.051035894988835,11.983746778714915,-4.726019595154799,-1.328395642897989,27.71805060864595,2.326522963164203
1.5087317468970305,11.999520006594505,-4.737866237990896,-0.9771832965741757,27.72495919777911,1.7188458949674923
0.9677200869067459,12.010461721122402,-4.746078739131937,-0.6267008178631523,27.729724402145187,1.1125703760181707
0.42371872965108087,12.01664285589229,-4.750720197608394,-0.2742126581893027,27.732438993519928,0.5029165846166976
-0.11584625228068313,12.017999535880705,-4.75173997814556,0.07543119835547014,27.73304163794195,-0.1017783034706236
-0.6577836869981938,12.01457769078582,-4.749172899309361,0.42660435048171197,27.73155275533982,-0.7091286112582201
-1.2008590997004414,12.006335276751011,-4.742982886225692,0.7784666483393105,27.7279227547826,-1.3177347383929072
-1.7424533878434978,11.993315279582708,-4.733208193595555,1.1292853273559795,27.722234966062164,-1.9246444222850925
-2.283013129671751,11.975533541944431,-4.719854375388671,1.4793107782155601,27.71446718049947,-2.5303425809710562
-2.826455229005482,11.952828529189143,-4.702796582482707,1.831040064441645,27.7045520946871,-3.139201439325552
-3.3410262425525605,11.92685766792387,-4.6832722738910615,2.1638948102694813,27.693183668373074,-3.7156345136931863
-3.6067093536160226,11.911743076137103,-4.6719093053615905,2.335675621520341,27.686605283815744,-4.013224154263012
-3.635877292321197,11.947452940144208,-4.571614486401853,2.351599939232957,27.549533214976446,-4.039571957740937
-3.6498735832434512,12.076919654159722,-4.215624210271981,2.3503298051512678,27.06391563711902,-4.032762017580285
-3.665537263394436,12.214960725091444,-3.8156735060002354,2.349228968086184,26.525740336169314,-4.025410045559573
-3.681343746596935,12.347113452864084,-3.4105115407611346,2.3484491036374004,25.98823653588092,-4.01826665381073
-3.697413993045975,12.474307966346517,-2.9970760149391142,2.3479845294245303,25.447410382038615,-4.011274866640106
-3.7135215665064387,12.594744892284057,-2.5812465076033,2.347838896752988,24.91094365047577,-4.004528212868933
-3.729908801811059,12.71022323217849,-2.1568205631317707,2.348007566858385,24.370831927311166,-3.9979204897654754
-3.746433524000629,12.819667837689654,-1.7275225451087715,2.348489544129703,23.831876548744557,-3.9915066220542634
-3.763076838503175,12.922986388156957,-1.2939057085765202,2.349280207231129,23.294723412061852,-3.985287839970021
-3.7795212902263624,13.018446759109331,-0.8643375811809305,2.3503516306367556,22.769476500785867,-3.9793698064372176
-3.788347512129928,13.067031772315884,-0.6333407285230406,2.351042136047459,22.48977611890375,-3.9762825253125236
-3.79179055035984,13.099195898444101,-0.5995150451011947,2.352054511938292,22.423703939430112,-3.976987644016296
-3.8106212176494525,13.41322227727335,-0.9884128852400536,2.3649865902967027,22.497755578313672,-4.000200158512191
-3.8405524187774596,13.906111893439892,-1.59576014167839,2.385499390152761,22.610903629027614,-4.036965813236338
-3.8643533730249087,14.292710057236789,-2.069507999978534,2.401773525816397,22.697006278533237,-4.066088682873707
-3.8725175093313178,14.424253072575322,-2.2301765913057303,2.407348195892186,22.725771544473712,-4.076055584443888
-3.8642414372733715,14.356305000192169,-2.340221378033042,2.405354547235426,22.903947224060847,-4.0753917890844225
-3.8388492388135154,14.124651952860187,-2.6024722350606773,2.398403638529649,23.398459012103725,-4.070890900882393
-3.811727300077883,13.868240290468052,-2.880967291143569,2.3912555582634094,23.93401008250309,-4.0662762696082835
-3.78515817286767,13.607764045794422,-3.151997647119963,2.3845404601969697,24.466142848640107,-4.061958380441618
-3.7675303740886763,13.429719620798004,-3.3307556813608534,2.3802475512305814,24.823357936295636,-4.059209217922975
-3.7603587085681753,13.356065465695679,-3.4032241481893473,2.3785390268665836,24.969647780019297,-4.058117991818306
-3.748926349419298,13.237174124857495,-3.518426007818774,2.375861699817731,25.20400676246375,-4.056411763047115
-3.7242329523529527,12.974057247907508,-3.7658480721425516,2.3702768872464275,25.71511644239257,-4.052869816691299
-3.6988439826555863,12.694290366868199,-4.018092674133762,2.3648259346620697,26.247709897201723,-4.049440506735055
-3.67370412867839,12.407747578960413,-4.265541009929557,2.359730508015927,26.78227233796519,-4.046267134708899
-3.649753458542228,12.125669896257968,-4.498965534080702,2.355166455345217,27.298314159149758,-4.043459368851334
-3.6377950849224585,11.981369481011745,-4.61465324934986,2.353028668103757,27.558546794752058,-4.042137377812531
-3.632014937757231,11.911078093491946,-4.67183902468588,2.3520338295633456,27.68615186810683,-4.041577527551056
-3.644094181822785,12.124368989717173,-4.942553096016224,2.361080245694442,27.743033917623052,-4.05776915648009
-3.6702213394609666,12.581122807915802,-5.519867486927793,2.3806074685450143,27.862419223622855,-4.092689670504395
-3.698635269206458,13.070905877589047,-6.135265614518757,2.401781519850423,27.98674868294032,-4.130510451846311
-3.7274339149598137,13.560154605279196,-6.746185550352905,2.4231757015968283,28.10710898001984,-4.168679218960044
-3.757003828152962,14.05523080289162,-7.360487852332154,2.4450728225149625,28.224980821366664,-4.207700338277973
-3.787177492859495,14.553050046336551,-7.974221936698404,2.4673436160509112,28.339505176838458,-4.247342833974532
-3.817929145521013,15.052986829601373,-8.58653692118212,2.489964477725883,28.45045739106071,-4.287564580847654
-3.8494492298004146,15.557885626731098,-9.200809574843133,2.5130702266387384,28.55836038448566,-4.328604910839607
-3.8815822949412686,16.064999376276155,-9.813588204810785,2.5365414229949486,28.662516212800682,-4.370251278679084
-3.9144921137205393,16.576662950436262,-10.4275895006517,2.560492109531553,28.763298425473195,-4.4127057066181425
-3.947962679892734,17.089293663254434,-11.038424349318182,2.584759647279667,28.85991024482054,-4.455679723314807
-3.9823166288511676,17.607580631673642,-11.651575631352133,2.6095720245250704,28.953129468422766,-4.499576740687327
-4.016584988080749,18.116879061376867,-12.249741815937998,2.6342261655804715,29.04034544425819,-4.5431537572899385
-4.042001322881213,18.489793038910197,-12.684979545902413,2.652449669934389,29.10143717136852,-4.5753397438998515
-4.047286895752056,18.56173973358945,-12.741499902476843,2.655510251411029,29.085783956679684,-4.58053337500442
-4.05361343408784,18.580843352732277,-12.384790382404463,2.650039334419875,28.710082202418878,-4.567845129626816
-4.0626888593701524,18.6029029348318,-11.871505779448004,2.6425504164813716,28.174892351872117,-4.549980731103822
-4.068378185435653,18.61357877390137,-11.548803393913586,2.638065192711759,27.841607723010043,-4.538977272564542
-4.073197668867063,18.620753252278508,-11.274893181248892,2.6343886816804307,27.560600478817804,-4.529770398148014
-4.076522414986338,18.62471563772029,-11.085647982878923,2.631916905534611,27.367445362640932,-4.523478701712084
-4.082168836967157,18.62962002942736,-10.763724911786506,2.627837521588744,27.040705252660292,-4.512902793760933
-4.085223602118992,18.631325941592312,-10.589288907309777,2.6256916732790025,26.864609694035284,-4.507237368047518
-4.087238341683368,18.632090338161518,-10.474137963640105,2.624299560771305,26.74872458902674,-4.503522036336008
-4.0897564189732405,18.63264521783513,-10.3301046029682,2.622585283357388,26.604173762808326,-4.498901965098308
-4.096799059757522,18.631858557533498,-9.926601429180518,2.617939579827974,26.201559724246163,-4.486116197187626
-4.106184631329102,18.62554171260903,-9.387371444062953,2.6120808972014804,25.668778349874792,-4.46937863721779
-4.115499295480937,18.61345130220763,-8.850583690196105,2.606629911621212,25.14420659121387,-4.453094765656661
-4.124896438708095,18.595518270058758,-8.307451039234408,2.6014846698698078,24.619128685529514,-4.436982628448257
-4.134307870825418,18.57193633324032,-7.762268305511212,2.596712741798612,24.097641453885718,-4.421185438831476
-4.14280022583453,18.545916418088634,-7.268747346228027,2.592659083162017,23.630242191934652,-4.407149131772568
-4.146444254911425,18.551591086585553,-7.133441764677555,2.592151469973452,23.489244584572546,-4.404086658792142
-4.168568539531162,18.8628989594186,-7.492305834918479,2.6068869421478635,23.535768493911664,-4.430065785341279
-4.205595816617025,19.377246079967417,-8.081816561279252,2.631485891669092,23.60919503646256,-4.473381396233197
-4.244270584164288,19.905822409923,-8.683198125140168,2.657096446975416,23.680173361416326,-4.518409425470938
-4.2838942690426,20.438486899103868,-9.284666478921904,2.683248193131182,23.747092233483464,-4.564318459006942
-4.323354973994289,20.960313029231422,-9.869441076878296,2.7092054115199184,23.808150174993052,-4.609817446969729
-4.347781880899659,21.279128168887606,-10.22454005155512,2.725230260979454,23.843257115615685,-4.637873195285395
-4.237936114345187,21.25862764280165,-10.198644570784596,2.6564574082368426,23.84293578943989,-4.519860188822183
-3.768941564203239,21.064573070385908,-9.9704354552257,2.362535720013932,23.828965199298906,-4.015534273926414
-3.1993482915286893,20.823320465549088,-9.688093559931424,2.0054821645827183,23.809210029171837,-3.40332006667078
-2.6268546112498696,20.574573281057482,-9.398424881137172,1.6465589412116128,23.786211704595377,-2.7883367796865395
-2.0552048290980216,20.3198078988488,-9.103111131283875,1.2881610003308768,23.760011919510433,-2.174643638657261
-1.4847466349084573,20.059094173032435,-8.802189022563907,0.9305527933657137,23.73064749105152,-1.562638039675334
-0.926192521128378,19.797426798158824,-8.501332783836135,0.5804945913786025,23.69868726047731,-0.9638350306034105
-0.37041201269076895,19.530653874957025,-8.195675103269272,0.2323077761053864,23.663642603797697,-0.3684673043901809
0.18526878153374388,19.257416736887187,-7.883609600518403,-0.11564206684986982,23.62537020523526,0.2263069489974782
0.7363213602728498,18.97989253156209,-7.567557351247736,-0.4604752470413885,23.58412797753318,0.8156070861400257
1.2863300531045334,18.696241411697724,-7.24535711367237,-0.8043931876108192,23.5396311372902,1.403237206437704
1.8339917289021213,18.407057443247407,-6.9176215508881524,-1.1465386846661572,23.49194762981746,1.9877720841399398
2.3783944181525545,18.1127813649674,-6.5847820599659475,-1.4863020400728535,23.441137924570405,2.5682080865256767
2.921257440236758,17.812424576523863,-6.245650487502426,-1.8247138082116354,23.38699582329677,3.146342232061547
3.4604069092136367,17.50713912710379,-5.901459807218692,-2.1603830201998524,23.329737067136385,3.719831880182441
3.926076915931375,17.237737603059166,-5.598072902095496,-2.449928024909718,23.277427682214466,4.214576228683828
4.049094937363101,17.15433556920224,-5.528249385690051,-2.52678641022205,23.285768329923304,4.346268014692162
4.0290853297656115,16.984618887908265,-5.719614224005448,-2.5212126200622724,23.647363162972393,4.34224631041787
3.9997480097713813,16.727855339491654,-5.999077441870829,-2.5133006192671794,24.18433726349474,4.336540135566279
3.9707803021370784,16.464780754668528,-6.273577677256981,-2.505802867051729,24.722643743254153,4.3311380379612325
3.9422215343872313,16.195807845026437,-6.542630620136183,-2.498729610599267,25.261384707856415,4.326049618372365
3.9140514864529825,15.920821283049724,-6.806320027729044,-2.492075425087777,25.800759876288176,4.3212731234656845
3.886249404679342,15.63968257645491,-7.06473328746948,-2.4858355210549647,26.340995759051292,4.3168072252081044
3.85900158500377,15.354438177481882,-7.316053490876445,-2.4800486505156702,26.878224584588317,4.312681556754139
3.831999376404368,15.061965738111162,-7.56303384371576,-2.474648169998881,27.418329563637005,4.308850531066619
3.8063862862510334,14.775231551463156,-7.79523117060891,-2.4698455640091987,27.937874023368902,4.305464922581628
3.793322181215007,14.625398813976215,-7.912831550922612,-2.4675200109962185,28.205617605247117,4.303834879915659
3.7837359284366534,14.550491087562092,-7.9709728124474655,-2.4643727672841576,28.338953130527095,4.299534011192319
3.5235698492090304,14.56558917884742,-7.981792108915419,-2.2951682426818776,28.345429583097115,4.005934389254959
3.000220953286929,14.592683806898417,-8.00119734546401,-1.9546266184879637,28.357033965645083,3.415263841063407
2.444172989949597,14.61668817673341,-8.018377940526836,-1.5925919833868092,28.367296639029885,2.7876041270631475
1.8902142857272668,14.635714336549608,-8.031993338399422,-1.2317387138080222,28.37546375408525,2.1622357235535827
1.3359840596537405,14.649875079259516,-8.042120528787292,-0.8705691194010832,28.381517505053804,1.5365062168862704
0.7818796309506361,14.659166445139604,-8.048766861853561,-0.5093835670326843,28.385514799312574,0.9108824954761484
0.22963242622393415,14.663588348000696,-8.051930481331931,-0.1493511167367802,28.38742368229628,0.2873336938783049
-0.32564144417252644,14.663166429501432,-8.051626736470492,0.21267067174636278,28.387222240427263,-0.33963973575724976
-0.8785686296330756,14.65789710906049,-8.047860658752315,0.5731394798757006,28.38497276796021,-0.9639536671563524
-1.4335611307693437,14.647738384411335,-8.040597379488624,0.9348902507739626,28.380626754219378,-1.59057495286272
-1.9855744140256555,14.632789693352793,-8.029902106785022,1.2945924420082573,28.374196333480793,-2.2137924929024675
-2.5421861925095803,14.612818854354707,-8.015613595044263,1.6571463452214106,28.365649764672032,-2.842145578841491
-3.095675320969642,14.588073355049097,-7.99790104203735,2.0174796276602738,28.355064286712828,-3.466902207436921
-3.589873575420168,14.561850862153886,-7.979118951022874,2.339020338473618,28.343829098943143,-4.0246602446712565
-3.787024061961485,14.550336163496313,-7.969999263527782,2.4672163348257037,28.338016355584347,-4.24710205516169
-3.790678762052081,14.559086455365906,-7.7323165459286445,2.463899993252141,28.091655241747738,-4.239187018404279
-3.7984806474800896,14.573487879927873,-7.223411145809154,2.4570846850250763,27.568498299352584,-4.222530540871059
-3.8066610048032827,14.582441549560876,-6.68765794984072,2.4503141394270345,27.023943524836152,-4.205405083346388
-3.8148879606104806,14.58523666286575,-6.146680884233662,2.443878951595805,26.48031932159991,-4.188517075360452
-3.823128361312491,14.581929909253725,-5.602694096703113,2.437795923894354,25.93978273604654,-4.17192357999281
-3.8313697531988997,14.572642559057275,-5.056569760199022,2.4320626594800174,25.403084670051587,-4.155636527346238
-3.8395089592108587,14.557727864907713,-4.515235743297691,2.4267328027615953,24.876798298356036,-4.13984104494857
-3.8476657625081043,14.537177834653813,-3.9708061526311513,2.421711770728711,24.353047945690065,-4.124287775000986
-3.855837110417758,14.511086867872871,-3.4235216873464243,2.4169928668100313,23.83198003478625,-4.108972284093941
-3.863997126087078,14.479650189519267,-2.875160486612987,2.4125813227860538,23.315177266484188,-4.093931904510244
-3.8712604199737246,14.447236118483007,-2.3855528622569517,2.4088997819973526,22.858089156876037,-4.080748935663984
-3.874436424894851,14.455109364156334,-2.2678243964971125,2.408651834305339,22.732467889339397,-4.078388356488129
-3.8937396634373824,14.76370365164821,-2.6435436041923825,2.421814852116169,22.798738224942277,-4.101901879862559
-3.9251379113258014,15.259397675929298,-3.24395502460145,2.4431789259512855,22.902058543561328,-4.140012595734657
-3.9579144185220234,15.768808759834632,-3.8569795097555613,2.4654192532820445,23.004204280557893,-4.179619342328108
-3.991442646878776,16.281669962536288,-4.470040617755765,2.4881046953020522,23.10289310179875,-4.219950644623429
-4.024771682097538,16.783491544819714,-5.065892353725002,2.510590389905059,23.195411396778635,-4.259861185917967
-4.045206310007814,17.087333695850916,-5.424731985352581,2.5243448163329782,23.24947713451878,-4.284243029037524
-4.0504556406623,17.164924151884804,-5.516132352258347,2.5278741966860188,23.263047108252668,-4.290495641544302
-4.0504556406623,17.164924151884804,-5.516132352258347,2.5278741966860188,23.263047108252668,-4.290495641544302
-4.0504556406623,17.164924151884804,-5.516132352258347,2.5278741966860188,23.263047108252668,-4.290495641544302
-4.0504556406623,17.164924151884804,-5.516132352258347,2.5278741966860188,23.263047108252668,-4.290495641544302
-4.0504556406623,17.164924151884804,-5.516132352258347,2.5278741966860188,23.263047108252668,-4.290495641544302
-4.0504556406623,17.164924151884804,-5.516132352258347,2.5278741966860188,23.263047108252668,-4.290495641544302
-4.05043052193409,17.16487716768874,-5.516009898327456,2.527858560246271,23.262755460679465,-4.290469035741672
-3.963748495180128,17.002739765403817,-5.093434566279425,2.4738988901036567,22.256311084502045,-4.198655275260052
-3.8773620910800624,16.841155320761377,-4.672300396209364,2.420123245433085,21.253299112579892,-4.107154638831413
-3.7908677763355323,16.67936903091264,-4.250640161185315,2.366280426251277,20.249034215855236,-4.015539703251782
-3.679763990504655,16.47155110263819,-3.709008626397394,2.297118180517842,18.959034609144435,-3.8978583711132133
-3.532035696786348,16.195227593781436,-2.9888324248407208,2.2051571327864954,17.243796560580016,-3.7413842935710555
-3.384053235038616,15.918428667521809,-2.267417152816357,2.113037865138723,15.52560742753593,-3.5846410007895955
-3.2359528696627233,15.64140920433306,-1.545427099990421,2.0208452023348573,13.806049343534688,-3.427772824270627
-3.087810293243998,15.364310786035757,-0.8232312681107504,1.928626263103998,12.086001157164338,-3.2708599377382743
-2.939875679454704,15.08760135864892,-0.1020492551330666,1.8365367808702386,10.36836757537448,-3.114167325601465
-2.7916167869643504,14.81028537292266,0.620713618201812,1.7442454347392131,8.64696887078791,-2.9571312368743716
-2.6438042887816273,14.533804360905991,1.3413003169612279,1.65223196962338,6.93075314423378,-2.800567969810268
-2.4957024718224616,14.256782182552985,2.0632974462631837,1.56003840320711,5.211178206244737,-2.6436982557716555
-2.34769841331948,13.979942859893725,2.7848180025819116,1.4679056915521649,3.4927383184170053,-2.486932087667733
-2.1996126729529566,13.702950752560817,3.5067367584109745,1.3757221328349356,1.7733500419177641,-2.3300794019853024
-2.051658451080953,13.42620464855585,4.228014360894031,1.2836204445451485,0.0554887953476677,-2.173366020931604
-1.903435097355696,13.148955137544919,4.950603982563899,1.1913512213398754,-1.6654972770980996,-2.0163675749291756
-1.754762143926721,12.870864657180151,5.675385405131856,1.0988021217563337,-3.391703544667159,-1.858892912102387
-1.6074845370649968,12.595384151180005,6.393364505914563,1.0071216271572743,-5.101708775435196,-1.70289620289888
-1.459323013078531,12.318250291747692,7.115652707285685,0.9148908930417826,-6.821976957503718,-1.545963247068296
-1.3113024760638308,12.04138014628486,7.837253596434894,0.822747923492669,-8.54060817340796,-1.389179624894774
-1.1635359144244077,11.764985057868266,8.557616354306392,0.7307630539325325,-10.256290541693993,-1.2326650139009288
-1.015447830562608,11.487988567063368,9.279546534687137,0.6385780363865606,-11.975706027958966,-1.0758098459840375
-0.867217015551065,11.210725099830817,10.002172530166526,0.5463041685212359,-13.696778731623489,-0.9188034969735958
-0.7190365849477491,10.933555875861506,10.724552901393299,0.454061665013092,-15.417266433919146,-0.7618505152200377
-0.5711153957785453,10.656871559020765,11.4456694692781,0.3619805396221406,-17.134744145641154,-0.6051721224652582
-0.4228403807514558,10.37952541633668,12.168510940063564,0.26967915719181906,-18.85633004516345,-0.44811895671791463
-0.28824127500128366,10.127759852315547,12.824682281871134,0.18589104540268078,-20.419128217906653,-0.30555133896408104
-0.20182070614453346,9.966111503019444,13.24598300530803,0.13209413312831333,-21.42253686868504,-0.21401451516298944
-0.11491216718347637,9.803550413123382,13.669662585545801,0.07799345885328805,-22.431611224173082,-0.12196083253940866
-0.028523622651242704,9.641961964835382,14.09080719023383,0.024216481761012675,-23.434648048143565,-0.030457928961122736
0.005100946032184471,9.579067724547759,14.254727137753074,0.0032851456722143937,-23.82505491009756,0.005157275378303039
0.005100946032184471,9.579067724547759,14.254727137753074,0.0032851456722143937,-23.82505491009756,0.005157275378303039
0.005100946032184471,9.579067724547759,14.254727137753074,0.0032851456722143937,-23.82505491009756,0.005157275378303039
0.005100946032184471,9.579067724547759,14.254727137753074,0.0032851456722143937,-23.82505491009756,0.005157275378303039
0.005100946032184471,9.579067724547759,14.254727137753074,0.0032851456722143937,-23.82505491009756,0.005157275378303039
0.005100946032184471,9.579067724547759,14.254727137753074,0.0032851456722143937,-23.82505491009756,0.005157275378303039
0.005100946032184471,9.579067724547759,14.254727137753074,0.0032851456722143937,-23.82505491009756,0.005157275378303039
0.005100946032184471,9.579067724547759,14.254727137753074,0.0032851456722143937,-23.82505491009756,0.005157275378303039
0.005100946032184471,9.579067724547759,14.254727137753074,0.0032851456722143937,-23.82505491009756,0.005157275378303039
0.005100946032184471,9.579067724547759,14.254727137753074,0.0032851456722143937,-23.82505491009756,0.005157275378303039
0.005100946032184471,9.579067724547759,14.254727137753074,0.0032851456722143937,-23.82505491009756,0.005157275378303039
0.005100946032184471,9.579067724547759,14.254727137753074,0.0032851456722143937,-23.82505491009756,0.005157275378303039
0.005100946032184471,9.579067724547759,14.254727137753074,0.0032851456722143937,-23.82505491009756,0.005157275378303039
-0.0008258818966516563,9.572752498456051,14.246008149558401,-0.002532935290361628,-23.833209808984943,-0.0033148120193101055
-0.0008258818966516563,9.572752498456051,14.246008149558401,-0.002532935290361628,-23.833209808984943,-0.0033148120193101055
-0.0008258818966516563,9.572752498456051,14.246008149558401,-0.002532935290361628,-23.833209808984943,-0.0033148120193101055
-0.0008258818966516563,9.572752498456051,14.246008149558401,-0.002532935290361628,-23.833209808984943,-0.0033148120193101055
-0.0008258818966516563,9.572752498456051,14.246008149558401,-0.002532935290361628,-23.833209808984943,-0.0033148120193101055
-0.0008258818966516563,9.572752498456051,14.246008149558401,-0.002532935290361628,-23.833209808984943,-0.0033148120193101055
-0.0008258818966516563,9.572752498456051,14.246008149558401,-0.002532935290361628,-23.833209808984943,-0.0033148120193101055
-0.0008258818966516563,9.572752498456051,14.246008149558401,-0.002532935290361628,-23.833209808984943,-0.0033148120193101055
-0.0008258818966516563,9.572752498456051,14.246008149558401,-0.002532935290361628,-23.833209808984943,-0.0033148120193101055
-0.0008258818966516563,9.572752498456051,14.246008149558401,-0.002532935290361628,-23.833209808984943,-0.0033148120193101055
-0.0008258818966516563,9.572752498456051,14.246008149558401,-0.002532935290361628,-23.833209808984943,-0.0033148120193101055
-0.0008258818966516563,9.572752498456051,14.246008149558401,-0.002532935290361628,-23.833209808984943,-0.0033148120193101055
-0.0008258818966516563,9.572752498456051,14.246008149558401,-0.002532935290361628,-23.833209808984943,-0.0033148120193101055
-0.0008258818966516563,9.572752498456051,14.246008149558401,-0.002532935290361628,-23.833209808984943,-0.0033148120193101055
-0.0008258818966516563,9.572752498456051,14.246008149558401,-0.002532935290361628,-23.833209808984943,-0.0033148120193101055
-0.0008242797041484775,9.572755871757757,14.24600012587624,-0.0025329285296851,-23.83318948018171,-0.003313193773012157
0.017534181427928324,9.611324000552369,14.15417083841559,-0.0025186051835559163,-23.600421093830946,0.015203559541878455
0.05865997786905737,9.697113171975733,13.949242683145966,-0.00294188989042344,-23.08017360224666,0.056502292335577
0.10176049502259803,9.786126802385635,13.735618665314947,-0.004051565676343149,-22.53666778807056,0.09952690065156114
0.14503761899326184,9.874594877758021,13.522274798521508,-0.005840250730648386,-21.992655602854207,0.14247828547815225
0.18852955255399853,9.962594017288124,13.309016190621064,-0.00830766939195343,-21.447628035549975,0.18540613293297145
0.23197271424943183,10.049596269930538,13.09712021341389,-0.01143219096021157,-20.904847117639306,0.22806366881232348
0.27575897518958414,10.136387490587435,12.88466586952406,-0.015238690832998326,-20.35938377445317,0.2708478948786231
0.31950327109011006,10.22220496051066,12.673512664407179,-0.019690993324644187,-19.816003252219012,0.3133944829332417
0.36341940273088025,10.307473623214285,12.462613672702792,-0.024804739758271514,-19.27200965428019,0.35592430168625333
0.40747216151757415,10.39212485746376,12.252130237560026,-0.03057412083719173,-18.727809315080748,0.3984148179059583
0.4516315904557719,10.47610266192332,12.042195604128729,-0.036992384119045166,-18.183739658812613,0.4408489734446427
0.4959050513985398,10.559422955115698,11.832764539598989,-0.04405771825940573,-17.639677040041796,0.48324563913803126
0.5403158227073008,10.642130310414935,11.623718148962167,-0.051771990311213475,-17.095304581311638,0.525638618509853
0.5847462106572864,10.724008823109969,11.415598762435305,-0.06011130215636734,-16.552030483081737,0.5679273499867029
0.6294146638971999,10.805461178163608,11.207375250900757,-0.0691156697207339,-16.00715431512414,0.6103310235363344
0.6741703911600975,10.886210328208648,10.999745279607176,-0.0787554833017288,-15.462489636823934,0.6527174308892557
0.7190273299893748,10.966283088075143,10.792634625293053,-0.08903203880216028,-14.917835580707271,0.6951111239318185
0.7639014134146463,11.045532816597088,10.586419953450498,-0.09992331104343091,-14.374179461523841,0.7374440756211228
0.8088341949019918,11.1240373095063,10.380897813047703,-0.111436109047888,-13.830983438566532,0.7797668764311533
0.8540834556851187,11.20224269652939,10.174886482052191,-0.12363959780516312,-13.285108846547981,0.8223330435138126
0.8991009278643171,11.279205014035666,9.970870719794986,-0.13638358523991967,-12.743137221945751,0.8646379550388232
0.9443595711946566,11.35573849398106,9.76669351415206,-0.1497983693196363,-12.199339514488607,0.9071372570202864
0.989970665377085,11.432020398604685,9.561857626432058,-0.16392540685489157,-11.652364938125668,0.9499460188268902
1.0353570152251748,11.507087244306732,9.358945970534217,-0.17858544706897575,-11.109105665176113,0.9925334595305252
1.0808410715174885,11.581481114168032,9.156500267234488,-0.1938773828203815,-10.565664354284355,1.03521311159447
1.126580148819171,11.655454599190195,8.953818319851466,-0.2098587268357765,-10.020139989679382,1.0781434989118157
1.172661209653942,11.729136782733061,8.750520038372679,-0.22656964397181442,-9.471481492831918,1.12141745775966
1.2189094337825774,11.802238836972151,8.547379429245217,-0.24395511505366493,-8.921753472968529,1.1648822326011692
1.2654373711368194,11.874930876913348,8.343903171552412,-0.26206497632338316,-8.369599174288119,1.2086552184395574
1.3118053008593196,11.946527075116638,8.142005948172649,-0.2807293141042193,-7.820208536172681,1.2523339354166478
1.3582849649390563,12.017452402181105,7.940491913166778,-0.300055876676226,-7.2703294675634895,1.2961852846855988
1.404603634379805,12.087296036389843,7.740531077208042,-0.3199298157554012,-6.723156794052294,1.3399627234191822
1.4511803593475865,12.156690967731304,7.540306369177559,-0.34053280395508523,-6.173712799442366,1.3840734733799365
1.4980137394213189,12.225624836644396,7.339827354198853,-0.3618747238087903,-5.6219971480194975,1.4285287143902852
1.544556054440748,12.293295712774373,7.141427601909018,-0.38370592895121897,-5.07443241243293,1.472819380019524
1.5913458142303067,12.360491003552578,6.942800409768827,-0.40627903692536255,-4.524653398381521,1.517468766529029
1.6381790232884819,12.426913053005254,6.744809737249625,-0.42950269451990336,-3.9750352867572825,1.56229439384776
1.6850606093156815,12.492569289833332,6.547427696509649,-0.45338277904459157,-3.425494372025446,1.6073124705135489
1.7322304412320821,12.557789421632984,6.349643820525749,-0.4780502106442089,-2.8731981753253564,1.652766156815982
1.778974005977847,12.62159168087323,6.154441635188314,-0.50313082100985,-2.326483091059633,1.6979774136460792
1.8260960772201411,12.685078292838758,5.958450322212786,-0.5290579751156798,-1.775908769944877,1.743735666969218
1.8732257571952817,12.747741538972878,5.7632137358425215,-0.5556384741065387,-1.2257894028797345,1.7896943927123106
1.9204184057457034,12.809655295661315,5.568495914028105,-0.5829082524211995,-0.6754539022531867,1.8359195331884015
1.9674296910822189,12.870504106269546,5.375293943517955,-0.6107272479641909,-0.12772402950856368,1.8821825311570228
2.014727377723179,12.930892425340787,5.181680128510066,-0.6393784362727214,0.42287386099155483,1.9289561621036135
2.061996347891703,12.990412808033293,4.988942917865504,-0.6686806427461675,0.9726926862369517,1.9759425226195015
2.10936019384772,13.049220654141566,4.796572416463795,-0.6987165684221333,1.5231939253672386,2.023277006425887
2.1565892040193497,13.107033179084036,4.605493340206577,-0.7293446942496554,2.0717326015743325,2.070741834729588
2.2038664657191025,13.164078010512936,4.4149557972325555,-0.7606872492935218,2.6204603136190996,2.1185325300225006
2.25119998503332,13.22036316190249,4.224923040711071,-0.7927575387768503,3.1694925310534576,2.1666705311330303
2.2985924660153527,13.275889787788401,4.03538013223817,-0.8255660336169014,3.718882898707895,2.215172282051189
2.3461082590950104,13.330729321402652,3.8460673050841865,-0.8591678489341291,4.269398901804967,2.2641182849791726
2.393713847755048,13.384838189297168,3.6571165037863724,-0.8935509933044198,4.820673420792165,2.3134893106105845
2.440970058484195,13.437724607834905,3.4702587580499715,-0.9283996611065024,5.367645822811113,2.3628403936221454
2.4885673800529773,13.490161993015404,3.2827575130097206,-0.9642305597200246,5.918330931882939,2.412906071525235
2.5360070138406923,13.541596327324289,3.0965758937701433,-1.0006805129689729,6.4669787473746325,2.4631774792350627
2.5836900161449265,13.592460398624574,2.9101360221656978,-1.0380682242661952,7.018249229203491,2.5140947077309783
2.6312343384587864,13.642343988166191,2.724928407751865,-1.076105580801881,7.567746775910779,2.5652653983794114
2.6787988286434063,13.691416824404628,2.5403262477576063,-1.1149262290134911,8.117329639483565,2.616873610531656
2.7262750455361373,13.739568592980062,2.3567437321045475,-1.1544498647916885,8.665766555000301,2.668815646964871
2.7738712782458355,13.787009458804583,2.1733709794937663,-1.1948609199113718,9.215484779301656,2.7213349873071553
2.82144899384539,13.83359828266625,1.9907388936461206,-1.2360550408779294,9.764905036848694,2.7742957079853197
2.8691782896735996,13.879497582325516,1.8081925176096565,-1.2781941818298552,10.31601222154072,2.8279050602699685
2.9167024191899014,13.924365034831805,1.6270904966032003,-1.3209737754327442,10.86470793963472,2.8817777895932717
2.9642356213563845,13.968407333962633,1.446607809127626,-1.3645937906946022,11.413486422838128,2.9361702630416975
3.0119468388426887,14.01177524248163,1.2661024309021414,-1.4092269687906958,11.96431838495286,2.991295863322858
3.0594524719341836,14.054119792466892,1.0870208577659333,-1.4545270500310408,12.512795219948227,3.0467283450052753
3.1071015569692144,14.095752672276504,0.9080419334803147,-1.5008390456011027,13.06296668262864,3.102891795935352
3.1547405056873665,14.136534999283185,0.7297412558942566,-1.5480317800856558,13.613079385996965,3.15962588543723
3.202289812970798,14.176399990488644,0.5524105899162499,-1.596038781894177,14.16223467992356,3.2168529356109854
3.2499506051927924,14.215514324430918,0.37529653615647146,-1.6450793566390216,14.712774967997719,3.274834733593325
3.297521428397314,14.253710624126727,0.19914454241860718,-1.6949630669572666,15.262392582835746,3.333346419937103
3.3449249897748445,14.29093194520905,0.024232387971349908,-1.7456182106142897,15.810212606299816,3.3923080685668654
3.3925921727134516,14.32751247208733,-0.15103136292215663,-1.7975255431252555,16.36123393922331,3.452278455766836
3.440213880154304,14.3632072508066,-0.32550908884325824,-1.8503735688770713,16.91190346379478,3.512895044088554
3.487705202808338,14.397955487970517,-0.498896244799495,-1.9040814773232029,17.461257039032297,3.5740679387139465
3.5351160415856286,14.431797315857992,-0.671382022114475,-1.9587186456945156,18.009889048793298,3.635879283162588
3.5825336551916522,14.46479492500923,-0.8432881364687057,-2.0144035538415093,18.558827001377086,3.6984643755832916
3.6299731148510137,14.496955774472497,-1.0146713429739933,-2.071176065260426,19.10826372614896,3.7618678753948456
3.6776030504565322,14.528386211610513,-1.186139459898188,-2.129267191923558,19.66017204512091,3.8263453650257535
3.7247893824745884,14.558672233169487,-1.3554170312304143,-2.1879176789131205,20.207220276822827,3.891057404468057
3.772304675467148,14.588310364252171,-1.5252801419702289,-2.2481074763038644,20.758381755801313,3.957086795162802
3.8197445638824035,14.61703883847744,-1.6942806625403422,-2.309358205901511,21.30898602361298,4.023905870362758
