RAMEL-ESPOL/ARCHIE/matlab/data/joint_goals_square_t35_h35_p12.txt
Joint0,Joint1,Joint2,Joint3,Joint4,Joint5 
0.002271172717669555,9.572807883096662,14.25108048461406,0.005534439119740198,-23.823045944123734,7.218359700570359e-05
0.002271172717669555,9.572807883096662,14.25108048461406,0.005534439119740198,-23.823045944123734,7.218359700570359e-05
0.002271172717669555,9.572807883096662,14.25108048461406,0.005534439119740198,-23.823045944123734,7.218359700570359e-05
0.002271172717669555,9.572807883096662,14.25108048461406,0.005534439119740198,-23.823045944123734,7.218359700570359e-05
0.002271172717669555,9.572807883096662,14.25108048461406,0.005534439119740198,-23.823045944123734,7.218359700570359e-05
0.002271172717669555,9.572807883096662,14.25108048461406,0.005534439119740198,-23.823045944123734,7.218359700570359e-05
0.002271172717669555,9.572807883096662,14.25108048461406,0.005534439119740198,-23.823045944123734,7.218359700570359e-05
0.002271172717669555,9.572807883096662,14.25108048461406,0.005534439119740198,-23.823045944123734,7.218359700570359e-05
0.002271172717669555,9.572807883096662,14.25108048461406,0.005534439119740198,-23.823045944123734,7.218359700570359e-05
0.002271172717669555,9.572807883096662,14.25108048461406,0.005534439119740198,-23.823045944123734,7.218359700570359e-05
0.002271172717669555,9.572807883096662,14.25108048461406,0.005534439119740198,-23.823045944123734,7.218359700570359e-05
0.002271172717669555,9.572807883096662,14.25108048461406,0.005534439119740198,-23.823045944123734,7.218359700570359e-05
0.002271172717669555,9.572807883096662,14.25108048461406,0.005534439119740198,-23.823045944123734,7.218359700570359e-05
0.002271172717669555,9.572807883096662,14.25108048461406,0.005534439119740198,-23.823045944123734,7.218359700570359e-05
0.002271172717669555,9.572807883096662,14.25108048461406,0.005534439119740198,-23.823045944123734,7.218359700570359e-05
0.002271172717669555,9.572807883096662,14.25108048461406,0.005534439119740198,-23.823045944123734,7.218359700570359e-05
0.002271172717669555,9.572807883096662,14.25108048461406,0.005534439119740198,-23.823045944123734,7.218359700570359e-05
0.002271609423579439,9.572808802931918,14.251078295945552,0.005534439404831658,-23.823040401953605,7.262396331583452e-05
0.020589311996545387,9.611307562167347,14.159382397972905,0.005483734798637519,-23.590737732340795,0.018518544995360393
0.06157368830082866,9.696840122521992,13.954998196535072,0.004919213028455068,-23.072157607268405,0.059610892765267716
0.10480365144745366,9.786161876244266,13.740562036141856,0.003657689455000309,-22.526885574487697,0.10269914808899536
0.14795343337857422,9.874410467245834,13.52767488882926,0.0017278836913514211,-21.984335224421322,0.1454609678148404
0.19145570059067948,9.962473081115203,13.314190757749675,-0.0008849385423441111,-21.439030496243383,0.1883378932836995
0.2349666618789348,10.04965288751801,13.101789552731557,-0.004158090232311546,-20.895251305346854,0.2310028393959063
0.27852572645758544,10.136037254834044,12.890260155685839,-0.008085904830237394,-20.35245907252415,0.27350834386501993
0.3223229100331136,10.222003955357419,12.67867047482958,-0.012682559865444342,-19.808253699785013,0.3160518036560271
0.3662369204467504,10.307313524674228,12.467600077579055,-0.017934268204092333,-19.264114313463782,0.35852677221203827
0.41034196108847365,10.392109922212692,12.256684462973565,-0.023848172898753604,-18.71909149010291,0.4010166094053587
0.45463948253738434,10.476393185477466,12.045911983304894,-0.030424783142785385,-18.173141721669932,0.4435337767848492
0.4988266030914875,10.559593105657754,11.83670854605827,-0.03761329071894477,-17.62995817922688,0.4858000788986244
0.543234688509239,10.642338502820454,11.627491592857917,-0.045462820662596104,-17.085430029545645,0.5281446485711482
0.5876320729182657,10.724199406384729,11.41934278569063,-0.05393014891481157,-16.54236608381579,0.5703580813036314
0.6322828291117478,10.805663220484597,11.211015742695361,-0.06306441082818122,-15.997506351591602,0.6127027554069558
0.6769681910465316,10.886329787471183,11.003524693418216,-0.07282091528745,-15.453493050863864,0.6549822281122819
0.7217908663934869,10.966386621927697,10.796382672485018,-0.08322010343668337,-14.909043990467897,0.6973050320706755
0.7665413737508189,11.045464479655397,10.590544624814234,-0.09420958648984196,-14.366668324304344,0.7394848553603205
0.8116037914738546,11.124241773511589,10.384236753136042,-0.10588379628125603,-13.821683175547745,0.7818947004335097
0.8567859645758342,11.202376667470277,10.178338040823652,-0.11819727662944086,-13.276392440480175,0.8243642949020314
0.9018523204521373,11.279467737446756,9.973907965212216,-0.13108186532214372,-12.733603402256424,0.8666834927105025
0.9471129634818671,11.356049085090422,9.769528484082954,-0.14462411171335773,-12.18954873911094,0.9091545663411966
0.9925517378385817,11.432088593731894,9.565270575725435,-0.15882328064531584,-11.644401228993619,0.9517730973421654
1.037822115482688,11.507011507713521,9.36267916610502,-0.1735682707165168,-11.10228480056064,0.9942249988781282
1.0835652634181594,11.581875678628627,9.158881340162356,-0.18907134178431095,-10.55549815394486,1.037122416342612
1.1294738151418837,11.656165504232447,8.9552528873209,-0.20523861793028683,-10.007702869562282,1.0801881569693765
1.175765062925007,11.730222396447742,8.750833708692243,-0.22215546860731242,-9.45629029638459,1.1236374173343322
1.2219437411233631,11.803251241030997,8.54780665017163,-0.2396446091446637,-8.907135719341108,1.167016607550604
1.2682398661885899,11.875620171480039,8.345148685887757,-0.2577918878602285,-8.357471907251885,1.2105528219272577
1.3145892037909541,11.94722846612063,8.14313426366474,-0.2765744541271254,-7.808034900242411,1.2541968780731816
1.3610131434785813,12.018109787105184,7.9416625119347435,-0.2960028340509868,-7.258543768264536,1.2979801033557548
1.407516864671716,12.088271709177164,7.740704343059538,-0.3160819533358932,-6.708910957002206,1.3419186724087513
1.4540349454175951,12.157616791672483,7.540534290477477,-0.3367853541317312,-6.1598821458362965,1.3859619263823393
1.5005798707136393,12.226166076168493,7.341089352664718,-0.3581197215166978,-5.611281635679714,1.4301327096065712
1.5473370407621172,12.294189570842878,7.141571355988363,-0.3801754336736212,-5.060900872689335,1.4746187252561338
1.5940055708697265,12.361249396979115,6.9432576369518,-0.40281401678823947,-4.512255923664649,1.519145124953686
1.6409534626653577,12.427872255643148,6.744579769182474,-0.42621914364253316,-3.9609964303449687,1.5640748742433332
1.6877594703685728,12.493459639503618,6.547314504425453,-0.45018514591938874,-3.4120437290829693,1.6090165030484118
1.7346005665265953,12.558265071167595,6.350704043901217,-0.4748024467611672,-2.863292744085596,1.6541505429062922
1.781618097188635,12.622481028297173,6.154151556899413,-0.5001519140499849,-2.313064708284214,1.6996254786380716
1.8285939183890245,12.685808379871164,5.958563662475507,-0.5261213105219923,-1.7638883866741315,1.7452423363979643
1.8757219478800422,12.748507866675,5.763127188109471,-0.5528230676984958,-1.2134723790366504,1.7912014704577548
1.9228210176862914,12.810337265927641,5.568588193094988,-0.5801604031912013,-0.6639087268074249,1.8373384607135148
1.9699384324643658,12.871360897936187,5.374742918578682,-0.6081641961452817,-0.11461968464336732,1.883711155832143
2.017121234969454,12.931639273509695,5.181391971837384,-0.6368681408054397,0.4349671544486597,1.9303781351814826
2.0643557957064225,12.991153529407608,4.988586348458473,-0.6662707582582503,0.9847162966847217,1.9773386182123265
2.111595667455206,13.049845138284011,4.796509512591749,-0.6963490429352457,1.5341110317743916,2.0245588416767237
2.1588885908487567,13.10777323844803,4.604961430372442,-0.7271396941788,2.0837301959173047,2.072099128732675
2.20618638790349,13.16487850904086,4.414131491796605,-0.7586180123466083,2.6330372444464447,2.1199238253585437
2.2536231799132747,13.221320202347755,4.223474962488049,-0.7908821789562693,3.183612057661131,2.168182324106905
2.3009107639142097,13.276756585884124,4.03414323396102,-0.8237421314428028,3.7321332180015028,2.2165939772254997
2.3485318960845,13.331749630867309,3.844201008261846,-0.8575439723940594,4.284222153134746,2.26566773331949
2.395739311351305,13.385439111377071,3.6566206991494767,-0.8917624527570276,4.831239212532941,2.314645745610768
2.443331089567492,13.438734073702358,3.46822414939532,-0.9269827084282863,5.382455314671865,2.3643690257586862
2.490688923127698,13.490938584443034,3.2814563314302734,-0.9627583094794849,5.93073039046762,2.414206697965014
2.5382449178037625,13.542530201855453,3.094606433290222,-0.9994230243706015,6.481089679587788,2.4646268849355253
2.5856493403330667,13.593128462930189,2.9090438951755333,-1.036716842582777,7.029507484903212,2.5152733241422878
2.6332702401429753,13.643124552094065,2.723323848998018,-1.07493987639718,7.580263297557906,2.5665543807510116
2.6808808581585404,13.692274927642577,2.538329686014367,-1.1139245108393938,8.130755235548962,2.6182431372500696
2.7283044172353335,13.740402101451425,2.354738773131461,-1.1535310641570369,8.67896164576557,2.670159928414961
2.776030967597821,13.788000023558329,2.170651340052656,-1.1941820643894068,9.230568322981286,2.7228581192825874
2.8234994346548317,13.834507528298023,1.9882275265175615,-1.2354115316694934,9.779111453074458,2.7757343500522422
2.8710337817552865,13.880246504508547,1.8062134930648723,-1.2775073145352305,10.328356061012705,2.8291625716105
2.918512640721576,13.925099308459808,1.6250694947049236,-1.3203738689190228,10.876920338624227,2.883022671086947
2.966103194580873,13.969221570327585,1.4441543843282725,-1.364175939191774,11.426756292287173,2.937521839169006
3.013626157593696,14.012445027232612,1.2641462575446767,-1.4087624707323527,11.975812788558356,2.9924724825447666
3.0612305733626273,14.054903937760074,1.0844765629729456,-1.4542869785702848,12.525831942406,3.0480646021331816
3.1087656564648922,14.096462335567738,0.9057105925754481,-1.5006195555660884,13.075091530321776,3.1041402346594618
3.156366649963579,14.137237356621721,0.7273356811957425,-1.5479064117536343,13.625174061662275,3.1608772186171183
3.204003134615099,14.17719897270212,0.5494639856014812,-1.5961352559386452,14.17574788107523,3.2182600227805187
3.251474024739508,14.216180463709339,0.37284009608439433,-1.6451145154869906,14.72450797021579,3.276063288755455
3.299178982343864,14.254506712935193,0.19597473267900037,-1.6952748734473209,15.276093992935696,3.334794918056246
3.3465514913521917,14.291723581665753,0.020962864950260996,-1.7460346223700298,15.823974312076007,3.393775752976807
3.3941181412891313,14.32824667932037,-0.1541469291590351,-1.7979715130040284,16.37425749563501,3.4536795175832293
3.441627026929352,14.363877200400003,-0.32842788766062975,-1.8508328531519112,16.924048793379836,3.514213351976234
3.489057639475769,14.398601350115412,-0.5018103925000973,-1.9046106977444257,17.473128752172904,3.5753703098892835
3.536537625840833,14.432511480024708,-0.6747646703776208,-1.9594683905982404,18.022993336138278,3.637336942003242
3.583898714594689,14.465487009477034,-0.8466818071418218,-2.0152298545644487,18.57171163272922,3.6999154777868064
3.6312997288455415,14.497638564506692,-1.0181426239006575,-2.0721005207470555,19.121141257300025,3.7633377910946355
3.6788217795828344,14.52901439933287,-1.1894399816497643,-2.130205384995538,19.67224175190341,3.827741457887254
3.7261498660116117,14.559406191204015,-1.3594423471543224,-2.1891795823342513,20.221377352865975,3.8927231952973624
3.7735505867871795,14.588985836837402,-1.5291119319218422,-2.2493749843173205,20.771658009085396,3.958672317044804
3.820784182009276,14.617603774991425,-1.697594580328353,-2.3105082295042307,21.320316887381196,4.0252796798864505
3.8662068734626724,14.644314715203208,-1.8590653743921641,-2.370404290918132,21.848256495712675,4.090198084772248
3.8886008494901874,14.65719054714475,-1.9384737954433435,-2.400340469354552,22.1086563433452,4.122523698696937
3.898949801822016,14.663075401404122,-1.9751266434019092,-2.414266733700287,22.229022413047797,4.137534967888865
3.8864139018721273,14.552979104347664,-2.109116981251945,-2.4109082172462766,22.47559745490969,4.135495212381449
3.8597226749645404,14.316586412949738,-2.385922116475813,-2.4033820864379547,22.989438140740457,4.130606393243111
3.8323612927557624,14.065182536180709,-2.668126917955305,-2.395945297739814,23.523700771674243,4.125787237776182
3.8053805705682615,13.80797256529472,-2.9447021817504937,-2.3888985094699424,24.05812575144358,4.1212354963119235
3.778777710772975,13.54501167042799,-3.215576998935808,-2.382239873898234,24.592587173958616,4.116952149136748
3.752670494750322,13.277618398968153,-3.479469763633766,-2.375995627844698,25.12448225718916,4.112956019634368
3.7267869977761787,13.00308848046099,-3.7390337614983298,-2.3700999021480875,25.659174999025105,4.109206996607016
3.701325324415657,12.723574866772486,-3.9921828124805327,-2.364598023028496,26.19242176323346,4.1057359622171745
3.6765258346285354,12.442023893153653,-4.2364908268874695,-2.3595341596809134,26.71884481968101,4.102571963775205
3.6617360397153735,12.269622745931223,-4.3810563788836605,-2.3566573723263247,27.036145597766698,4.100791047785784
3.655280109234578,12.1932951321196,-4.443882890988316,-2.3554359553542517,27.17544500294501,4.100039210824912
3.6615692102978246,12.307616862875522,-4.606417708484723,-2.360500755724347,27.223360822461697,4.109270281955323
3.6858564567525254,12.7297742484101,-5.138327997070988,-2.3784737140886767,27.33202455879229,4.14143493115663
3.714174897364462,13.215370349254137,-5.7466940721117,-2.3993716038337825,27.453517477819453,4.178790068977498
3.7433447788591803,13.708321208157475,-6.360450646943524,-2.4208320055592907,27.57299977173971,4.217103503946965
3.7730769358503093,14.203438233994937,-6.973004577298333,-2.4426370608266272,27.689079454827286,4.255985389830091
3.803488107858141,14.702438420733621,-7.586387843359153,-2.464867794729135,27.80206569903387,4.295579823586274
3.8345380613066125,15.204413128873037,-8.199380208397498,-2.4874898544032735,27.911648229462543,4.335825123657289
3.8663999610401496,15.711874155176304,-8.814925101345445,-2.5106238909416003,28.018250083311646,4.376935223701442
3.8988583869113707,16.221127224774225,-9.428431482065353,-2.5341080737249473,28.120983935597575,4.41862200437251
3.93190572346634,16.731875677690933,-10.039480306612186,-2.5579322596131533,28.219727270847816,4.4608674397710715
3.9658767368032506,17.24901168089255,-10.65380591538737,-2.5823318416513312,28.315305848672672,4.504088313315529
4.0003488692858,17.76585802168706,-11.263378968954326,-2.6069976593848314,28.406386971432415,4.547736576854288
4.03506412786485,18.27854168577767,-11.863669787859223,-2.631742224641701,28.49232599565845,4.59148136139099
4.065017884619608,18.714796316124463,-12.37102872112242,-2.653016241146339,28.56198219265485,4.6290577386901095
4.074767062927091,18.85559199160322,-12.534094875229133,-2.659925108573903,28.583779603286658,4.641254521418431
3.830493758823696,18.87373784805758,-12.547855088382766,-2.500744185825347,28.59034856339199,4.364816931849719
3.2962257496348393,18.90234217314193,-12.566697903106514,-2.152375556790802,28.602143254836747,3.7600787913860794
2.7222486198579188,18.928271049406245,-12.5837721437656,-1.7778757533129714,28.612871390142754,3.110322284878276
2.1459150517056553,18.94931324066203,-12.597619201988014,-1.4016303954079439,28.62156161830508,2.4578347498963082
1.5717813482477803,18.965312338450328,-12.608147139008954,-1.0266585921407865,28.628201543653844,1.807789077433383
0.9966533438509306,18.97637924367575,-12.61542459971298,-0.6509178836051507,28.632771298887068,1.1565810332976096
0.4203705352341087,18.98249627573247,-12.619449599077475,-0.2743463691299436,28.635323155991422,0.5040426338347669
-0.15360358045180675,18.98364314537852,-12.620202268909104,0.10074778350140458,28.63578320022316,-0.1458912621376231
-0.7282337381300514,18.979849162431968,-12.617709817668233,0.47626006210994826,28.634227288577524,-0.7965646754132749
-1.3016772832031929,18.971129961806604,-12.611974122779731,0.8509402611054283,28.630599170359055,-1.4458772847421162
-1.8783896983883508,18.957387965401733,-12.602937126307507,1.227658838602324,28.624925408829306,-2.098861811975388
-2.4528460434823467,18.938734421739117,-12.590665416866747,1.6027613328973862,28.61722289181728,-2.749248875553591
-3.026993334926831,18.915129217537203,-12.575125126808981,1.9774733664459856,28.607447515843493,-3.399228617064499
-3.5976056594119097,18.886744900867832,-12.556433094628003,2.3496542468977646,28.595740364547726,-4.045139083926149
-4.003518265625394,18.863556673593838,-12.541153706517198,2.614247819250347,28.586175281643893,-4.504566843519299
-4.075861463083001,18.86097454028516,-12.499703701007734,2.660365789827122,28.544017603778126,-4.584308138098526
-4.082780111268979,18.876781878285282,-12.111838180107425,2.6547628434502233,28.14046004874414,-4.570843602315735
-4.092198978662959,18.892661829106277,-11.5821761637336,2.647510077795239,27.59506938422393,-4.552863304076936
-4.101678604336103,18.90222400213629,-11.047257607702605,2.6406319437823056,27.05073462062811,-4.535157932884612
-4.111207258584281,18.905503027257982,-10.507776994711861,2.6341283325293934,26.508115625157505,-4.5177386527301575
-4.120791492261533,18.902553228657947,-9.963397018766162,2.6279861901647013,25.966821059333878,-4.50058275282222
-4.130344826480961,18.893529452319058,-9.419083662262594,2.6222479485524324,25.431661094876095,-4.483830294832297
-4.139887430304684,18.87860034446157,-8.87375710316972,2.6168852543504877,24.901387841363718,-4.467428301968123
-4.149344566204688,18.858112877767134,-8.331767709205387,2.611921800042548,24.380004051246708,-4.451485916659025
-4.158845821293527,18.831960802201145,-7.785751752986193,2.6072751785930364,23.86025413807664,-4.4357689736256045
-4.168338791313948,18.800390296728754,-7.238763007981947,2.6029614719980274,23.344945270188223,-4.420352821248904
-4.174755004539964,18.776037294132454,-6.8682626172337224,2.600226534808617,22.9988693709397,-4.41008939903403
-4.183321986586463,18.887383392083084,-6.97201954813516,2.6054020390175947,22.990907469340424,-4.418811508718767
-4.215022332760766,19.325926137094452,-7.474480118911986,2.626337374228428,23.053343347029042,-4.455650542172562
-4.253991260031663,19.856881996086145,-8.078695578641424,2.651997934956118,23.124769442957746,-4.500737329111187
-4.293566012537155,20.387183965967782,-8.677641814797019,2.6779733541511854,23.191538469636125,-4.546304127455835
-4.334348233562752,20.92457826951678,-9.279972390836237,2.7046534505096225,23.254528388284967,-4.593032486504581
-4.370583005864747,21.394550371221577,-9.802906536987432,2.728284411559145,23.30574931166661,-4.634358927130276
-4.380217386896948,21.54693467730502,-9.971630926659996,2.734617290128034,23.32162123595558,-4.6454721777911425
-4.137198596326333,21.376808389905495,-9.776683978514894,2.5828144890903726,23.307882071169686,-4.385262710972575
-3.632986715801039,21.01847334376757,-9.365852454123427,2.2678178161233795,23.27632733299773,-3.8456396637622223
-3.109065183201269,20.638309069161675,-8.929615629355908,1.9404891877178567,23.23912701158685,-3.2853242290918963
-2.585135523051367,20.249955349480498,-8.483503384048761,1.6131840486718974,23.197297673321685,-2.7254645194955307
-2.061582891203852,19.85348135797864,-8.027488416141171,1.2861920075425086,23.150736899353667,-2.166530029620112
-1.5487835415494626,19.456784993423376,-7.5705634505080734,0.9660394957071845,23.100377557790445,-1.619641110379009
-1.0402704774254625,19.054999322396956,-7.107039216164181,0.6487311957095538,23.045649680703157,-1.077936487510417
-0.5345064888249905,18.646849942616214,-6.6353457292512585,0.3333516903000734,22.98634148502372,-0.5398276821742102
-0.03172777256406186,18.23243064055182,-6.155485965144941,0.020092196044276266,22.922410860160067,-0.005618904207532473
0.4439032303764412,17.832196788461435,-5.69111263586939,-0.27597299716452023,22.85723091254393,0.49902195345621725
0.6680927310176087,17.64071995429341,-5.468608588907789,-0.41541802961837654,22.82488479890371,0.7366252252172543
1.0368887177287474,17.321712797335692,-5.097394694069846,-0.6446399887960239,22.769331929835285,1.1270936724565903
1.5343411774640707,16.88332257129676,-4.586180622502999,-0.9534819248420978,22.689755789589608,1.652984767474254
2.026384299369443,16.44029317590784,-4.068222154237209,-1.2585146710736816,22.605553139045107,2.1721643920142357
2.5132749996130928,15.992414569216322,-3.5431742806907343,-1.5598696019185612,22.516703128507583,2.684868857519658
2.986425020054822,15.547855181667467,-3.0205497408339,-1.8522126386977362,22.424908498129962,3.1820385525005683
3.4470049208388684,15.106015149128472,-2.4996250706641887,-2.1362740063391406,22.330244791706896,3.664931316913295
3.820962674171116,14.740481458458131,-2.067496604823271,-2.3664931644856555,22.24935180627272,4.056155123570703
3.897939311236659,14.652407673643628,-1.9891927499815198,-2.4142453930705585,22.255983740128382,4.137672683962516
3.8789100543568096,14.48737190923711,-2.1871023208619946,-2.4087727695023835,22.619389361618264,4.134113944836945
3.8513381731603555,14.240522496062352,-2.4725962785404847,-2.4010796986315164,23.15239532024952,4.129119831453136
3.8241422135823644,13.987807215146109,-2.7525871328229186,-2.393774946755,23.68574989485358,4.124390434614801
3.7972518205123116,13.728607828104737,-3.027690121210552,-2.386839829610496,24.220688322557333,4.119915942958091
3.7708129545152045,13.464416173741137,-3.296314007721404,-2.3803108138984275,24.75412418299599,4.115722025063225
3.7448202336056053,13.19534822073184,-3.5584352612357604,-2.374182881622912,25.28591825110612,4.111807341830465
3.7190854208087645,12.919532911229714,-3.815857112324612,-2.368410959330424,25.819749290691593,4.108145124378104
3.6936602796812195,12.637535567194442,-4.06795310771154,-2.363008198502787,26.354424388202382,4.104745886884758
3.670113841828103,12.367688001415539,-4.299285471717814,-2.3582804996236186,26.856138582850374,4.101801071901241
3.659365559821927,12.241663221544487,-4.40415642780634,-2.356213339836765,27.087276729410473,4.100524278889124
3.641075402601423,12.185450213857381,-4.451555454117753,-2.346633259103153,27.191545890763752,4.084955502329405
3.3220829968971763,12.203488952918546,-4.465043723495725,-2.1413077496098865,27.19939851575428,3.7296541396943894
2.789564936987033,12.229900256658706,-4.4847774410386725,-1.7983640877796283,27.210844957200734,3.136446179298055
2.24481941183224,12.252139352689822,-4.501389935723704,-1.447353702145498,27.22051865879955,2.5295405674884734
1.6998459959356105,12.269561384287895,-4.514399692163708,-1.0960381840072568,27.228103299879674,1.922316353205617
1.1555035158763762,12.28215205427361,-4.523799484984391,-0.7450096360495441,27.233589473453502,1.3157461967299917
0.6099299951240187,12.289951117526039,-4.529617662244231,-0.39310561899025587,27.236960555967798,0.7077694588962231
0.06518474555207915,12.292929512032758,-4.531841718984313,-0.041692977409630086,27.238265787165883,0.10069971780747541
-0.4792922421111601,12.291104619099318,-4.530481396479292,0.30955139216489086,27.237480568520173,-0.5060730494067232
-1.0243418338557764,12.284468718391476,-4.525526731560189,0.6611303811573424,27.234570082788096,-1.113470989776563
-1.5682461220306338,12.273048120792023,-4.517003731171872,1.011899655370314,27.22961053438083,-1.7195623818699235
-2.1144509189100926,12.256749978030872,-4.504837001865081,1.3640419432250945,27.22253200462114,-2.328172156562901
-2.6578651397854633,12.235724673327052,-4.4891355599492595,1.7142368715432121,27.213402424467287,-2.9336119858898755
-3.201471221015662,12.209881409418447,-4.469823669397841,2.064366719470578,27.202154757139947,-3.5391893822838005
-3.5861043164726834,12.188683659418777,-4.453978251491438,2.3119716602407756,27.19295083842304,-3.9676162284900633
-3.6558565838542583,12.195137722378162,-4.4217260479929426,2.3560228334905724,27.151467100898774,-4.043468504134471
-3.6673464882679756,12.297520126373772,-4.129905520556591,2.355157751644468,26.757129485009507,-4.03804804468768
-3.683194367126848,12.432502793155722,-3.726035010705858,2.35425499040021,26.218087086795084,-4.030814531039322
-3.6992276587006563,12.561889675171923,-3.3159177051354214,2.3536728046719304,25.678387548641094,-4.023770988152851
-3.7153916586537323,12.685223101983619,-2.901005657866533,2.3534105867977964,25.139941317561526,-4.016936715226912
-3.7317445868438583,12.802932413698365,-2.4798578203421524,2.3534649442096,24.600877337651568,-4.010282422631647
-3.7482873658959517,12.914975263948355,-2.0524975729051014,2.353835172214042,24.061261361149878,-4.00380440848487
-3.7649294684335377,13.020750527060372,-1.6213223838118558,2.3545160071456257,23.524093214965394,-3.997532703389942
-3.781821235885544,13.121192797077635,-1.1824903480841022,2.355512019398399,22.98459448423402,-3.9914064799049975
-3.798911174752649,13.215918521184552,-0.7373833884415905,2.356821256935921,22.44453135108343,-3.98544225161038
-3.8121122074936085,13.284465693514491,-0.39284342021602586,2.3580334229213107,22.031263964986312,-3.9809890572842943
-3.8156995921360077,13.305333719028663,-0.3108380022809132,2.35853817219597,21.92833376181659,-3.9801917511576477
-3.829102761233797,13.526984032327965,-0.5845884816664908,2.3676722820693445,21.979851264807145,-3.996577783724867
-3.8581105030648697,14.001468371961886,-1.1680657307083429,2.387406033529214,22.087577720704104,-4.031932781842051
-3.885532282475022,14.443604384549936,-1.7086416720691429,2.406017220890919,22.18481362160326,-4.06522038308027
-3.8970318517766867,14.627207520207246,-1.9322351827916167,2.413809356820026,22.224297108448056,-4.07914145209976
-3.894747359312581,14.624225853832055,-2.0234052614912925,2.4140207023659417,22.318459227434705,-4.081019830059546
-3.871512074413173,14.421177145619216,-2.2648735049495596,2.4073867158661315,22.763537406346174,-4.076712680158088
-3.844004584076541,14.17233581438451,-2.549335468518964,2.399792006632363,23.297500394442526,-4.071791957306817
-3.816862644047694,13.917518749833746,-2.828366314273888,2.3925836499082287,23.83199410861426,-4.0671353491622515
-3.790257208394931,13.658483679073065,-3.100121859190172,2.385803681606575,24.36341271791238,-4.062772077514608
-3.763880221286172,13.392323566266485,-3.3676528631197487,2.3793722282613707,24.8977213990437,-4.058652841847968
-3.7378477911021983,13.120209230315908,-3.629668779685389,2.3733192524789994,25.43245612413669,-4.054799083340131
-3.71234219067115,12.844217313364757,-3.8842610722626443,2.3676835385054753,25.96362762584153,-4.051237253360864
-3.6870808835638793,12.56141625692236,-4.134168373850044,2.362400607904226,26.496912717047216,-4.047928410494909
-3.665860162506585,12.316302549688611,-4.342286258162891,2.3582340248291755,26.95061551792546,-4.045322348357394
-3.657269047881439,12.215102051915766,-4.426011807229836,2.3565975336710983,27.135735115025597,-4.044315716633666
-3.6561260444768693,12.209625883736237,-4.482558719204464,2.357171168146201,27.197752327767187,-4.045910507138526
-3.6742735748768185,12.526487641030085,-4.8825488208067,2.370613177635115,27.280068418999875,-4.069976199620481
-3.7021097262626004,13.006756352090985,-5.485802754385474,2.391181671695108,27.401801624244893,-4.106762185835457
-3.7310315132525442,13.49856901313926,-6.099775750533565,2.4124880262295014,27.52265329471001,-4.144820593776185
-3.7605740663335676,13.993607004611007,-6.713890332438251,2.4341837236350723,27.64038494100654,-4.183527234374915
-3.7906802668711665,14.490702553930408,-7.326614137579415,2.4562224382791893,27.754634112836353,-4.222799171665328
-3.821461264427605,14.991468948787427,-7.9398465476660425,2.4786809102070753,27.865681324266156,-4.262772814480162
-3.8528702254176825,15.494906173939416,-8.552265601068871,2.5015200450182973,27.97320626487492,-4.30337815802181
-3.8850549291672616,16.003116198683657,-9.166316108600261,2.524841920212913,28.07754434601335,-4.344796112762832
-3.917922833015329,16.514361966831686,-9.779782803011068,2.548573836502851,28.178221071114148,-4.38689696354028
-3.951547863110162,17.02953182523611,-10.393624003896553,2.5727635150135137,28.2753023323093,-4.429764863237289
-3.9858733176796326,17.547498707181855,-11.006391821408439,2.5973643878772985,28.368469365275608,-4.473316807249088
-4.020457845649477,18.061522846692796,-11.610108602295062,2.6220563675227946,28.456504896836673,-4.516986638775606
-4.0543953487873265,18.5585055213055,-12.189638153696265,2.6461943091248696,28.53741510905136,-4.559636265311847
-4.073275516637709,18.8318864816435,-12.506672022367095,2.6595833671773397,28.580152998297944,-4.583276929356427
-4.0769959969842935,18.86381353025986,-12.436058467013094,2.6594175740692125,28.477551262358396,-4.5820654551493964
-4.085109473222171,18.88131198772882,-11.980909168416911,2.652916466917854,28.00503766684972,-4.566340682984412
-4.093434705405945,18.89427120367448,-11.51243766915502,2.6465770365202697,27.52373961199857,-4.550514446495189
-4.096641066909454,18.89793578011447,-11.33163125666329,2.6442226081813907,27.339318409680384,-4.544500012505324
-4.102146328162334,18.902532137690322,-11.020707046960723,2.6402905620667387,27.023881679884145,-4.534275408884854
-4.105193064036418,18.904163840946342,-10.848375891859753,2.638173565448209,26.84996434305031,-4.5286713108042544
-4.107081940208356,18.904852461890126,-10.741444986744094,2.6368819210425554,26.74237273136761,-4.525216083390491
-4.109317938651351,18.905349276948478,-10.614773490013949,2.635373367614316,26.615237162620616,-4.521144640066474
-4.1161418864949875,18.904755636900518,-10.227598111609797,2.6309044061030735,26.22875337371192,-4.508842514000963
-4.125593040029281,18.898765116038696,-9.689920582547584,2.6250427829001466,25.697197256949355,-4.492102247366165
-4.13503226112758,18.88692235883933,-9.151304155638428,2.6195563127019703,25.170549025692516,-4.4757149992115774
-4.144539545337098,18.869217148295082,-8.607225562240362,2.614388725898551,24.644296899964317,-4.459530226417925
-4.1540026487751165,18.845975327028746,-8.064155912411643,2.609590017273662,24.12458494042637,-4.443726291390369
-4.163479016327764,18.817236356114645,-7.519184981350566,2.6051545346685705,23.608461723114065,-4.4282272177231325
-4.172216898445115,18.785973067933796,-7.015125032703091,2.601316233608588,23.135763948713404,-4.414151860266718
-4.175895307976525,18.783709356398653,-6.852784845263842,2.6005100966937813,22.97568895936302,-4.410166042091431
-4.196860336909368,19.075356650333585,-7.18776668357865,2.6143703752897682,23.018045703613964,-4.4345687643046725
-4.233935587036365,19.58467177366211,-7.769491647484044,2.63882253877081,23.088717169361427,-4.477566680072733
-4.273244072787998,20.11591897729056,-8.371828666348058,2.66466604942927,23.157951096659726,-4.522939265124776
-4.313325055732649,20.648632080038592,-8.971264226092257,2.6909317354520703,23.222767673046526,-4.5689793445871665
-4.354022034530844,21.18055984762471,-9.565244126023634,2.7175133484518126,23.282870715158893,-4.615499554081265
-4.380105997680184,21.5168684731022,-9.93842197179181,2.734504229392697,23.318483349755393,-4.645197171713001
-4.30765999902729,21.518176623513327,-9.937785115787669,2.6893631398427824,23.31990290373173,-4.567898678020807
-3.869838891923781,21.338441488050957,-9.727088077360998,2.416110417494415,23.30807134695617,-4.099844614463078
-3.296163033349361,21.09752813498575,-9.446013027290313,2.0579712731328326,23.28987809761929,-3.486820468253359
-2.721800725300336,20.85007812876553,-9.158762649222037,1.6993357362076356,23.2685438746184,-2.873392536957829
-2.1490844397619195,20.596995022054333,-8.866338143955538,1.3417072520960613,23.244072795458283,-2.2620848264140663
-1.5746694672563037,20.336680617891304,-8.566856256797836,0.9830436986342889,23.216325384991933,-1.6493529450371684
-1.007582104354675,20.073194382057896,-8.264920661598683,0.6290272902901393,23.185691735337368,-1.0448553189672272
-0.4482154700222271,19.806850217574624,-7.960799106744317,0.27994592802852397,23.15226083335091,-0.4490274340380057
0.11167325737833037,19.53371567299397,-7.6499298218883265,-0.0692993533185784,23.115506646648225,0.14688051834225588
0.6674337226016023,19.25599236532222,-7.334765682103844,-0.41576824524680644,23.075765288140783,0.737897360091678
1.2211806444929785,18.972594324721022,-7.014003962410859,-0.7607359629376792,23.03284194002009,1.326239773380403
1.771681716904278,18.684105692233036,-6.688239884468391,-1.1033937717680822,22.986811259018065,1.9105687553175195
2.3207454389103424,18.38951935850343,-6.3562699392044255,-1.4448266102380078,22.937495402241684,2.492772738918443
2.867553736532433,18.08919288929951,-6.018430819544421,-1.784484565306199,22.884928954979934,3.071950365531255
3.4124224123866886,17.78287528307078,-5.6743678373199495,-2.122518995534237,22.82901372588607,3.648395347625474
3.903695658673634,17.50051897930391,-5.357600924456151,-2.426914831171847,22.775561782216414,4.16753391122758
4.078377335402747,17.39503981158405,-5.247215970362131,-2.5351922965616267,22.763276753611688,4.352336739780553
4.0610570147455505,17.253753066907468,-5.413578092509577,-2.530184232667006,23.07137372883506,4.348722656752048
4.031564996678964,17.005888267039822,-5.695928736941627,-2.5218945696225066,23.602347270061433,4.342740946630931
4.002060268042786,16.748443804183434,-5.977099744080982,-2.513911651146772,24.141714856878046,4.336983283583154
3.9731379435923126,16.48655728119804,-6.251291648439237,-2.506400003432427,24.678524302932797,4.331570632220209
3.9499266915307913,16.269338700749792,-6.4702013375999226,-2.500604953017677,25.115234676302034,4.327400392454245
3.9407299058839467,16.18149382329775,-6.556634677994732,-2.49836799443593,25.289742393826888,4.325792361943584
3.9321495707521827,16.098612213550247,-6.637111329045224,-2.4963118430696905,25.45331418078683,4.324315329334404
3.9072775412572422,15.85322949887505,-6.869454205292953,-2.490523481951666,25.931655469472453,4.320163626598116
3.879618534954336,15.571167317443795,-7.126074461680405,-2.484395673035279,26.471016818888586,4.3157816553902535
3.852440587952144,15.284285609983796,-7.376259300816634,-2.47870418506209,27.00874441721929,4.311728422703469
3.8273969061290787,15.011121212039503,-7.604909504754916,-2.4737607045045733,27.511162731940594,4.308225772401913
3.8163411788232304,14.887773042226376,-7.705233101936465,-2.4716731945440675,27.735099327378705,4.306753085623298
3.7931140964983716,14.835591116443146,-7.748819381557535,-2.4588267639833092,27.831771431681403,4.285383511853022
3.458146037518783,14.85471051783488,-7.762434388624974,-2.241986936594537,27.839929753543853,3.909542642862016
2.9151728192774686,14.88192796217838,-7.781800702588386,-1.8903031971472197,27.851495228279788,3.300242021961912
2.3579495257813865,14.905020425812102,-7.798227706694556,-1.529181774642133,27.86134527372239,2.6748761248376103
1.8004182563415276,14.92322946008807,-7.811176182023816,-1.1676885161153356,27.869120199929288,2.0491015001265818
1.243913912155714,14.93652800610711,-7.820626694113661,-0.8067296226596623,27.874773274548733,1.4244300968272052
0.6852392096100138,14.94498598162397,-7.826639171517465,-0.44427233659377396,27.878394633320752,0.7972905971894971
0.12739524955629267,14.948542673586488,-7.829164514791014,-0.08230422674963664,27.879893539595408,0.17106431729024346
-0.42883540657505703,14.947227857353761,-7.828232153511709,0.27862686732491754,27.879344712063112,-0.4533534005240262
-0.9842595979315596,14.941070709474491,-7.823858791622909,0.6390038649136406,27.87672959737807,-1.07685457428537
-1.5438951583722638,14.929966611568595,-7.8159651063551365,1.0020396714435544,27.87197367641681,-1.7050571904454017
-2.0986160872842823,14.914102333756114,-7.80468907097687,1.361776993130592,27.865220226573264,-2.327701851472867
-2.657647968482685,14.89321413139066,-7.78983645524108,1.7241567949907426,27.85633030464582,-2.9551293080436154
-3.214654650803991,14.867497835877202,-7.771538424345962,2.0850272957824316,27.84535899991615,-3.580212468431385
-3.6722025186967637,14.842703959469812,-7.7538910929794485,2.3812893715936037,27.83481358066612,-4.093617894294668
-3.811861687312636,14.83466160036543,-7.741704734033266,2.471536481582595,27.82481674408041,-4.249996482686464
-3.8163078146276725,14.841855535042969,-7.453954851558005,2.4677412146925413,27.529956707409706,-4.240621658177957
-3.8243734122715685,14.850260358587539,-6.930343103355553,2.4611404346395225,26.998088272918938,-4.22387166003505
-3.832575721232899,14.852779294283541,-6.3957732225183666,2.45479217535097,26.461145221283505,-4.207164637867353
-3.8408432782949196,14.849298902542738,-5.854881534142052,2.448752385915458,25.92387610000712,-4.190643988263397
-3.8490269656086507,14.840031796752582,-5.317485003574254,2.4431165635116807,25.3958829360884,-4.17459298363755
-3.857270357272399,14.82496735441711,-4.774216570335065,2.4377726859133384,24.867811916313325,-4.1587156403062115
-3.865474576679009,14.804387146095142,-4.231635145300822,2.432775118124422,24.345938974079257,-4.143191097230521
-3.8736860186238395,14.778327122376519,-3.6867316375148955,2.428083268026873,23.82722001279224,-4.127918073978596
-3.8819640650592975,14.746642675363043,-3.1355872915997147,2.423657356749558,23.30788192315254,-4.112778224275278
-3.890179646477803,14.709937886407284,-2.586838708384425,2.41955712632054,22.79595550374622,-4.097996871685452
-3.8973348889130923,14.673787534665795,-2.107516192448373,2.41621632246748,22.352882847302322,-4.085313394409306
-3.90001515542599,14.674680251596072,-1.989964037004495,2.4158260860812484,22.234432974592583,-4.082741489522073
-3.9184069701903903,14.965713251278965,-2.3431015230807035,2.4282698147526878,22.295723876504496,-4.1049502126100075
-3.9499787269368323,15.459194854629008,-2.9388791199133064,2.449586472014388,22.39661634334238,-4.142942049885554
-3.983258572537804,15.971237362519865,-3.5530475156189683,2.4719955690535507,22.497253335560526,-4.18281122701142
-4.017182014873093,16.484857762590796,-4.164981305172846,2.494773904036221,22.594039097541692,-4.223266578699268
-4.051601535390275,16.997672300845384,-4.771814726802255,2.5178193420555743,22.686497789443564,-4.2641261045025995
-4.074708643535153,17.337376556860292,-5.171514385790113,2.5332534241579605,22.745440015234188,-4.291452348260165
-4.078888344602149,17.398439534074452,-5.243168406491871,2.536042020515306,22.755840063128506,-4.296386377915458
-4.078888344602149,17.398439534074452,-5.243168406491871,2.536042020515306,22.755840063128506,-4.296386377915458
-4.078888344602149,17.398439534074452,-5.243168406491871,2.536042020515306,22.755840063128506,-4.296386377915458
-4.078888344602149,17.398439534074452,-5.243168406491871,2.536042020515306,22.755840063128506,-4.296386377915458
-4.078888344602149,17.398439534074452,-5.243168406491871,2.536042020515306,22.755840063128506,-4.296386377915458
-4.078888344602149,17.398439534074452,-5.243168406491871,2.536042020515306,22.755840063128506,-4.296386377915458
-4.078881463175769,17.398426341262322,-5.243135549638672,2.536037743753846,22.755761541475717,-4.29637914189558
-3.991010480639081,17.22996339470837,-4.82357660727739,2.4814265031715834,21.753095175396684,-4.203980249389018
-3.9035802309035357,17.062345404523178,-4.406122038653302,2.427089175140892,20.75545786377201,-4.112044800234759
-3.815741952444273,16.893945156997827,-3.986719248957429,2.3724982599287205,19.75316467297247,-4.019680297016302
-3.7019500482924634,16.675787593328902,-3.443395280373425,2.3017773361999625,18.45472334761834,-3.9000248019221173
-3.5512734036174285,16.386915990826665,-2.72395716948159,2.208132787625115,16.73540259567136,-3.7415839299452385
-3.4001301953873395,16.09714991020469,-2.0022913503514777,2.1141982728541877,15.010758043184259,-3.5826524528274324
-3.2500411534988345,15.809404837689536,-1.2856588755926175,2.0209189155656517,13.29814222992875,-3.4248294622619335
-3.0992385768883275,15.520291803211665,-0.5656194755364792,1.9271961011170604,11.57738451082302,-3.2662561691941225
-2.9487405354919756,15.231762612205493,0.15296585551218744,1.8336625533110609,9.860101741099955,-3.1080031037566953
-2.7980845671936776,14.942930649675958,0.8723052425875206,1.7400308549690413,8.141016920366313,-2.9495839735910088
-2.6475942377123194,14.654416243663489,1.590853751436129,1.6465021000677404,6.423822148723601,-2.791339017456379
-2.496989613636406,14.365682716348195,2.3099479844569846,1.5529023118239145,4.705323199723616,-2.632973877233082
-2.345750457133012,14.075732687301253,3.032071929294892,1.4589081658290541,2.979583813609426,-2.4739415077167233
-2.1953157753495707,13.78732496696464,3.7503547362176906,1.3654139956078266,1.2630240192190467,-2.3157550667541056
-2.0449831165726837,13.49911284130336,4.468150412309688,1.2719832320174917,-0.452371624796714,-2.1576759059486426
-1.8936436242648633,13.20897045222162,5.190753432068246,1.1779267279768195,-2.1792559091868546,-1.9985380304172131
-1.7432886055214567,12.920715458872555,5.908655870638972,1.084482067813626,-3.8949066952953517,-1.840435357456961
-1.59171915986454,12.630132211868887,6.63235685221785,0.9902826492714008,-5.624414900372959,-1.6810556792943179
-1.4419484752605736,12.342997481979504,7.347469261515529,0.8972011489517432,-7.33339804522772,-1.5235674506680126
-1.291711126294258,12.054968080706422,8.064809860377641,0.8038296197849314,-9.047706140900916,-1.3655885108989776
-1.140512683352437,11.765096106170187,8.786739409542026,0.7098607770021422,-10.772980958193253,-1.2065989528761374
-0.9901586988298589,11.47684309559044,9.504636910002533,0.6164167596004246,-12.488619943154099,-1.04849736742915
-0.8395824025424383,11.188163877247016,10.223595885892577,0.5228345768917585,-14.206795653242581,-0.8901620146989299
-0.6892517524802401,10.899955602618073,10.94138197094341,0.4294050617044568,-15.92216837648746,-0.7320849661153541
-0.5388388027498417,10.611589546157116,11.659561013495688,0.33592439781197203,-17.638480193695578,-0.5739213770382523
-0.38738109771177237,10.321220524069997,12.382728465409718,0.2417944253330834,-19.36671336397775,-0.41465919738457613
-0.2674568741752817,10.091306308057712,12.955332514413724,0.16726230523919616,-20.73512853297825,-0.2885553901936809
-0.18006018291636647,9.92375265492318,13.372626850859277,0.11294583358211002,-21.73238292006013,-0.19665522875312805
-0.09252638526011286,9.755936146554525,13.790575831345414,0.05854415119635944,-22.73120178234436,-0.10461089595015374
-0.005106827165951711,9.588338653982529,14.20797935042366,0.00421346795081805,-23.728717095228337,-0.012686689367611465
0.003745255732003249,9.571367773208472,14.250245527848156,-0.0012880436385454782,-23.829725249857958,-0.0033784668744145387
0.003745255732003249,9.571367773208472,14.250245527848156,-0.0012880436385454782,-23.829725249857958,-0.0033784668744145387
0.003745255732003249,9.571367773208472,14.250245527848156,-0.0012880436385454782,-23.829725249857958,-0.0033784668744145387
0.003745255732003249,9.571367773208472,14.250245527848156,-0.0012880436385454782,-23.829725249857958,-0.0033784668744145387
0.003745255732003249,9.571367773208472,14.250245527848156,-0.0012880436385454782,-23.829725249857958,-0.0033784668744145387
0.003745255732003249,9.571367773208472,14.250245527848156,-0.0012880436385454782,-23.829725249857958,-0.0033784668744145387
0.003745255732003249,9.571367773208472,14.250245527848156,-0.0012880436385454782,-23.829725249857958,-0.0033784668744145387
0.003745255732003249,9.571367773208472,14.250245527848156,-0.0012880436385454782,-23.829725249857958,-0.0033784668744145387
0.003745255732003249,9.571367773208472,14.250245527848156,-0.0012880436385454782,-23.829725249857958,-0.0033784668744145387
0.003745255732003249,9.571367773208472,14.250245527848156,-0.0012880436385454782,-23.829725249857958,-0.0033784668744145387
0.003745255732003249,9.571367773208472,14.250245527848156,-0.0012880436385454782,-23.829725249857958,-0.0033784668744145387
0.003745255732003249,9.571367773208472,14.250245527848156,-0.0012880436385454782,-23.829725249857958,-0.0033784668744145387
0.003745255732003249,9.571367773208472,14.250245527848156,-0.0012880436385454782,-23.829725249857958,-0.0033784668744145387
