RAMEL-ESPOL/ARCHIE/matlab/data/joint_goals_square_t35_h35_p12.txt
Joint0,Joint1,Joint2,Joint3,Joint4,Joint5 
0.0032323106731096205,9.581432915377198,14.255425011120227,-0.002321554345132065,-23.830632681611736,0.0024202909040342614
0.0032323106731096205,9.581432915377198,14.255425011120227,-0.002321554345132065,-23.830632681611736,0.0024202909040342614
0.0032323106731096205,9.581432915377198,14.255425011120227,-0.002321554345132065,-23.830632681611736,0.0024202909040342614
0.0032323106731096205,9.581432915377198,14.255425011120227,-0.002321554345132065,-23.830632681611736,0.0024202909040342614
0.0032323106731096205,9.581432915377198,14.255425011120227,-0.002321554345132065,-23.830632681611736,0.0024202909040342614
0.0032323106731096205,9.581432915377198,14.255425011120227,-0.002321554345132065,-23.830632681611736,0.0024202909040342614
0.0032323106731096205,9.581432915377198,14.255425011120227,-0.002321554345132065,-23.830632681611736,0.0024202909040342614
0.0032323106731096205,9.581432915377198,14.255425011120227,-0.002321554345132065,-23.830632681611736,0.0024202909040342614
0.0032323106731096205,9.581432915377198,14.255425011120227,-0.002321554345132065,-23.830632681611736,0.0024202909040342614
0.0032323106731096205,9.581432915377198,14.255425011120227,-0.002321554345132065,-23.830632681611736,0.0024202909040342614
0.0032323106731096205,9.581432915377198,14.255425011120227,-0.002321554345132065,-23.830632681611736,0.0024202909040342614
0.0032323106731096205,9.581432915377198,14.255425011120227,-0.002321554345132065,-23.830632681611736,0.0024202909040342614
0.0032323106731096205,9.581432915377198,14.255425011120227,-0.002321554345132065,-23.830632681611736,0.0024202909040342614
0.0032323106731096205,9.581432915377198,14.255425011120227,-0.002321554345132065,-23.830632681611736,0.0024202909040342614
0.0032323106731096205,9.581432915377198,14.255425011120227,-0.002321554345132065,-23.830632681611736,0.0024202909040342614
0.0032323106731096205,9.581432915377198,14.255425011120227,-0.002321554345132065,-23.830632681611736,0.0024202909040342614
0.003233735292171345,9.581435895910175,14.255417808948758,-0.002321550295778231,-23.830614519591155,0.0024217283633889983
0.021362854368506434,9.619282300171728,14.163872524229845,-0.0023315006264891507,-23.599651453395037,0.020689320282045547
0.06220843068470118,9.7039480578667,13.958393564610013,-0.00280188349360162,-23.080437614987893,0.06166857240913872
0.10505105685292168,9.7918642864873,13.744004353436146,-0.003952500134248006,-22.5375136012361,0.1043982652347565
0.14811610968429756,9.879330442905786,13.52965198227295,-0.0057760937089692535,-21.99344780185199,0.14710367056846801
0.19160770638512192,9.96675133180674,13.314324117043679,-0.008285484777937871,-21.445647356997753,0.18999676360600254
0.23469918434018272,10.05247466618768,13.10209327353575,-0.01142337233804049,-20.904476136218356,0.23227657953131492
0.2782346145508238,10.138188226643997,12.888783000701476,-0.015242361111915105,-20.35928702918722,0.27478526869320336
0.3218261572951268,10.223122550250622,12.676292457920718,-0.019710349026287,-19.814916101607473,0.3171545282649343
0.3654850582569209,10.307304996585033,12.46455178416806,-0.02482240149818749,-19.271182829761017,0.35940811852666327
0.4094574859902786,10.391207617620285,12.252361949482989,-0.03060726926931559,-18.72499503209622,0.40179537452851777
0.4531224927375014,10.473653886385573,12.042701174606762,-0.03697557369449147,-18.18402194154841,0.4437306986131656
0.49715023191638685,10.555915783714173,11.83233560193198,-0.04401876181843782,-17.639920331417667,0.48587022161310206
0.5417604647496714,10.63838383666557,11.62023095413875,-0.051784985550213145,-17.089975550295488,0.5284324532691089
0.5864840490945656,10.720178001349977,11.408624716310506,-0.06020050773248083,-16.539960254088953,0.5709793940223903
0.6312660181000885,10.80120020511152,11.197765909162067,-0.06925225367004154,-15.990516477572362,0.6134706045714293
0.6761294407970664,10.881495468903028,10.987534001769568,-0.07894177094535632,-15.441326383686924,0.6559398155295899
0.7212224566209577,10.961326879166624,10.77722912215937,-0.08930192903855522,-14.890549594042984,0.6985384476166848
0.766305390710356,11.040270473108366,10.567960694604759,-0.10027703290470445,-14.341083461985871,0.7410514641850768
0.8113506843904094,11.11828592797118,10.359839766382857,-0.11185456339389786,-13.793223851468932,0.7834647971727733
0.8568280889746087,11.196181784488523,10.150693779445184,-0.12415884633658454,-13.241234881791106,0.8262316778140066
0.9020134840822035,11.272719660528795,9.94384300969872,-0.1369928132463173,-12.693874408586543,0.8686824168635404
0.9476355781536405,11.349135572042504,9.73594195327456,-0.15056265885683306,-12.142284144638403,0.9115129347624173
0.9934339042954031,11.424981535237384,9.528182730497065,-0.16479984178553334,-11.589598825387846,0.9544895750906904
1.038728320629155,11.499145639576145,9.323627418932048,-0.1794834514377838,-11.043980889285843,0.996985476279409
1.084409155109272,11.573094127453635,9.118238571327142,-0.19489711142709656,-10.494667669479824,1.0398471001762741
1.1302529490912363,11.646454797489007,8.91302469587467,-0.21097408741526388,-9.944330243034516,1.0828759265280965
1.176123050160095,11.719008329268073,8.708590788588126,-0.2276683233971933,-9.394582071282745,1.1259548323371946
1.2221017933434173,11.790885721668205,8.504561740806105,-0.2450108427525778,-8.844408020121419,1.1691722628129
1.2679667988996624,11.86174375045799,8.301912491161136,-0.26291639263089484,-8.296437339763193,1.2123300757117639
1.3141957962876218,11.932317618289808,8.098527977860991,-0.28157554606748175,-7.744938042245931,1.2558891466698436
1.3601823809009732,12.001682147027827,7.89706837502006,-0.3007453322581377,-7.197117049575449,1.2992891653581589
1.4064449933407555,12.070622080044625,7.695252577525391,-0.32064228989871063,-6.646769090044193,1.3430303777890442
1.4526675268363018,12.138663439982118,7.494455511152146,-0.3411352043074802,-6.097630813163417,1.386825382323324
1.4990045945999129,12.206035116731115,7.293997241140977,-0.36229450442362005,-5.547837923932077,1.4308317855390693
1.5454388790120306,12.272709337053062,7.0939483464558695,-0.3841172285521515,-4.997571912632267,1.4750447778141833
1.5917526772357224,12.338377114772767,6.895236337661058,-0.40650163252745863,-4.44938389417779,1.5192678800915327
1.6381878048167424,12.403384080394067,6.69681421018687,-0.429565986515587,-3.900383853901609,1.563742932189684
1.6856994164061037,12.46903763600815,6.494622470636754,-0.45381073608225947,-3.3392748644559656,1.6094015180321812
1.7314060177349022,12.531378079503986,6.300895828100747,-0.47775274505985105,-2.800046413556626,1.6534819381629644
1.7780075878686452,12.594114684636622,6.104158358993175,-0.5027902280981106,-2.250801916763282,1.6985944932490484
1.824811037963722,12.656287350055155,5.90735518218811,-0.5285756968811889,-1.6997029493961886,1.744085440366624
1.87165187275641,12.717673139433714,5.711175594115513,-0.5550265102775966,-1.1486642131219211,1.7898077116442894
1.9182141395023629,12.777866268074753,5.516928727728209,-0.5819626482222646,-0.6013731470512639,1.8354627740300091
1.9650274875639666,12.837553899377363,5.3223963519140645,-0.6096936232194251,-0.05157849739062507,1.8815812825526073
2.0117854209371115,12.896341568805445,5.128849174897849,-0.6380460044890368,0.49714228019539275,1.9278742689288226
2.0585623665508175,12.954325155074274,4.935970772660308,-0.6670685945077626,1.0456877282134807,1.9744269064228916
2.1054841417785326,13.011657598774175,4.743238867964484,-0.6968476139449175,1.5955556691709474,2.021377572171083
2.1525381329122557,13.068317220648629,4.550704691596481,-0.7273861290506678,2.146619236523071,2.068728046254903
2.1993862886386735,13.123899887664999,4.359742778992433,-0.7584686305296958,2.6949440968057248,2.1161497499748583
2.246606517036673,13.179087662717212,4.167994533758782,-0.7904880698506178,3.2473163330526127,2.1642416871950707
2.2935824894912495,13.233157539500871,3.977959036168707,-0.8230355556042428,3.7965484416529893,2.212389984751521
2.3403604084688077,13.286175036587784,3.789432814621276,-0.8561398329194507,4.3432075287502165,2.2606503843189674
2.3876629582406497,13.33895095966006,3.59950448243054,-0.8903267011170163,4.895759341007768,2.3097848968712746
2.4346006810275376,13.390489038580284,3.41174288960804,-0.9249642625006311,5.443835300141371,2.358884505066459
2.481793184029304,13.441472731593857,3.223661050030993,-0.9605150354736754,5.9946935882306995,2.4086096668511088
2.5288395633781735,13.491466019059189,3.036853478568763,-0.9966877740355085,6.54367608822722,2.4585529559214296
2.5759350296985697,13.54067896883537,2.8505372310658634,-1.0336387978483441,7.093083188130005,2.5089343749618678
2.623203686085917,13.589235054685492,2.6642208485687093,-1.0714799097559153,7.6443834264789965,2.5599038127155067
2.6702252012705303,13.63670421367515,2.479554214627561,-1.1098822380027575,8.192696222837299,2.6110215800954526
2.7173009523460796,13.683395350704696,2.295344516133476,-1.1490971606932738,8.7415577954452,2.662627578767025
2.7643789634816107,13.729254908795802,2.1117913736589813,-1.1890930503592472,9.29038303267685,2.7146806849322322
2.811674950796779,13.774486414144071,1.9280536366824494,-1.2300696037974268,9.84170727790688,2.7674381447321634
2.8588421226574607,13.81875510550631,1.7454757014289923,-1.271739914654692,10.391508699442623,2.8205302963306766
2.9059551115440967,13.862134982636995,1.563760350008205,-1.3141770753830746,10.940677920126728,2.8740545960073955
2.9531517904690467,13.904751221345006,1.382372018281536,-1.3575183490268297,11.490842445699634,2.9281847428651235
3.0004500845306246,13.946613868474422,1.2012414275272316,-1.4017980563913146,12.042231670034388,2.98296144265383
3.0473321025338214,13.987271783182932,1.0223413116590023,-1.446536181517782,12.588827651245458,3.0377969024057467
3.094569060337221,14.027394033692179,0.8427235760296568,-1.4924809975381694,13.139641717690065,3.093610000922986
3.1415820920931132,14.066484039162024,0.6645881555422242,-1.539087455563406,13.687943833166461,3.1497372953548353
3.1887523309420445,14.1048589365511,0.48648587827581896,-1.586746599958181,14.238198383773293,3.206651354764855
3.2362054599055012,14.142607346987013,0.30794747146551543,-1.6356139660786322,14.791892799550824,3.264531808412937
3.283890965122192,14.179673331754703,0.12916974266188092,-1.6856693206364302,15.348459713748904,3.3233475798150676
3.3313006782663663,14.215661124117206,-0.04794636048942123,-1.7363953584289429,15.90198729728463,3.3824918708285496
3.3789865906132737,14.250987695527328,-0.2254662848482464,-1.7884008881947124,16.458939800774438,3.4426749013175555
3.426451263653051,14.285280887940715,-0.4015402657122258,-1.841163956509202,17.013526969620184,3.503292189766746
3.4738952111940167,14.318689965311288,-0.57691987098171,-1.894919385389544,17.568109073804642,3.564617089050004
3.5212029098366653,14.351135499434559,-0.7511839354657468,-1.9495515025804036,18.12135340476302,3.626519931516883
3.568811620358942,14.382910469763871,-0.9259427811937222,-2.0055917444936604,18.678393723572732,3.6896009311336777
3.616086171968486,14.41358932563783,-1.0988681190198752,-2.0623131846680236,19.231816575017582,3.753042399359694
3.6634406568870816,14.443445117007137,-1.27148198959635,-2.120226790353679,19.786485667012194,3.8174191287334938
3.7110031545313342,14.47254790110008,-1.444248179332859,-2.179522912183703,20.343922471132906,3.882939253182127
3.7583623487936753,14.500643005343441,-1.6156747925945651,-2.2397135767676715,20.899324630776988,3.9490635755154893
3.8056447915751654,14.52781042732346,-1.7862274015538784,-2.3009748961665686,21.45419121643814,4.015988962022581
3.851733930730794,14.553440889486989,-1.9519041803932597,-2.3618388837078186,21.995421846501937,4.082126389032562
3.876832996028425,14.567044206718494,-2.0418912918495296,-2.395469980624328,22.290321903690717,4.1185272635355386
3.8880681066767244,14.573052276959748,-2.0821182961758353,-2.410636878921738,22.422365383792485,4.134910803689694
3.878449811085115,14.483342046579224,-2.1918577734153684,-2.4086356388538963,22.62816762802471,4.13401713766983
3.852532102146185,14.251419169913621,-2.460245248327986,-2.4014005167984416,23.12910087830637,4.129320182877452
3.825280648238521,13.99858803912259,-2.7408811641758977,-2.394068545267881,23.663217905590102,4.124572575808714
3.798451152512195,13.740383695015332,-3.0154413961489266,-2.38713650583557,24.196617313422806,4.120099339613373
3.7749357846933544,13.506248887694417,-3.2545367639720224,-2.3813032043389026,24.67039966738344,4.116350480585267
3.764907744857304,13.404123093573004,-3.3560258364064346,-2.378886537712421,24.874248785281306,4.114802450541153
3.7584971563728926,13.338111814339948,-3.42074969872876,-2.3773642826091965,25.005133288652004,4.113829099082038
3.7371814690599745,13.114482421599435,-3.6350558867133076,-2.3724320894539277,25.44356331281293,4.110685983556279
3.7114948320207164,12.836357033687516,-3.891346163824697,-2.366759912767914,25.97857025814143,4.107095405595528
3.6863122306007474,12.554244457533999,-4.140360019833558,-2.361497544569258,26.510271437283944,4.103793901720801
3.6623821030832806,12.277224168599654,-4.374760563540301,-2.3567813190686073,27.022233807706566,4.100866708080862
3.6509093609421863,12.141245812574226,-4.486319700012932,-2.354621597659207,27.270029301182205,4.099538723265113
3.6456094081920543,12.078775739141804,-4.543689790101224,-2.3537522685087704,27.389984096007133,4.099172033423301
3.6587637852184516,12.309733650484365,-4.835994995185581,-2.363540372617584,27.450742616836003,4.116695920132243
3.6854123537844767,12.772786684273278,-5.41951617798609,-2.383327614264444,27.570012918380534,4.152089442560974
3.7140066326725867,13.26263877558978,-6.033120240841986,-2.4044971008379683,27.692472022448797,4.189909601421192
3.7432099821770737,13.755661590175754,-6.646846615267097,-2.426050433546667,27.811847132269044,4.228369007168807
3.77294565024498,14.250359842736628,-7.25875497448017,-2.447926706133382,27.927696256597578,4.267358783998842
3.8034869560374407,14.751019315622818,-7.874034964497859,-2.4703219905180576,28.040910222078026,4.307227834507894
3.834574738487649,15.253131617239937,-8.487035555434078,-2.4930411038582374,28.15035778401228,4.347628164612937
3.8663341836217224,15.758515143098927,-9.099897798316755,-2.5161708074951865,28.256355305254953,4.388713901534372
3.8988317129520302,16.267964835022713,-9.713475320987953,-2.539753984515905,28.358957794572905,4.430560732136827
3.931980297342455,16.779868067227305,-10.325723833047945,-2.5637219805987983,28.457737092069852,4.473046441497797
3.965821847777067,17.294648899830964,-10.93706337120847,-2.5880997345835794,28.552686628916742,4.5162149960251226
4.000310952298649,17.811402598625754,-11.546338380947851,-2.6128491463050816,28.643557174282883,4.559998736226448
4.034877862789971,18.321592076909663,-12.143523060237115,-2.637558511294733,28.728886998128605,4.6036702626519
4.059030135107003,18.67360311316991,-12.553028166909277,-2.654766366951305,28.785211014831027,4.634060047090116
4.03640056104315,18.741942058610334,-12.631458976199792,-2.6402596337612465,28.79633356816337,4.608944838825441
3.6684208256023623,18.76333543054163,-12.645598247848175,-2.3999283668067077,28.8051910820081,4.191449974997613
3.105988412719147,18.792061393178486,-12.664571711507087,-2.0323784075815383,28.817073757750443,3.553268383263991
2.530886928598525,18.816481364817616,-12.680694754510045,-1.6563146241244293,28.827203092492844,2.9006392344480303
1.9574341788085805,18.835855069226966,-12.693477124165462,-1.2811350866957776,28.835217357912963,2.2498204955005985
1.3829081280633044,18.85029329762867,-12.703003480918131,-0.9051041415264195,28.841222193641336,1.5977379983002589
0.8118849520120311,18.859718178918246,-12.709217468312106,-0.5312610138072228,28.84511705883523,0.949598397797909
0.23821313275112618,18.864248180131185,-12.712206829145892,-0.15562168603631246,28.847013418883652,0.29843352391141
-0.33516321638729835,18.86383044247741,-12.711929848549932,0.21984146339315605,28.84682405348732,-0.3524014887811046
-0.9107202894270536,18.85844002780548,-12.7083777468271,0.5967081103951117,28.84460303822473,-1.0057041364184929
-1.4835184586737808,18.848126616911312,-12.70157444130294,0.9716972256990418,28.840307548583873,-1.655853170208869
-2.0581578864520265,18.832815712770053,-12.691476594401477,1.3477803789979261,28.833973906297967,-2.308057743189276
-2.6315531407323487,18.812572730665348,-12.678116650153077,1.7228898591513828,28.82556878494867,-2.9588006132290516
-3.203190506097666,18.787446395768292,-12.661530557023717,2.096652642231295,28.81518090020629,-3.607487920968029
-3.7481755296278805,18.758881220246586,-12.642661345107063,2.4527615923650523,28.803358625147034,-4.225859855127342
-4.042808038137361,18.741560225533075,-12.631216664893303,2.645180058155964,28.796214687311924,-4.560135643756328
-4.066065569256799,18.746620450708996,-12.502632323928129,2.656955073777084,28.661645551818165,-4.579426754963356
-4.0743531765883265,18.76642209200545,-12.03648867178905,2.650166871617192,28.17583989940414,-4.563199934644507
-4.083726769501966,18.782691329544903,-11.50747788842935,2.642896469618911,27.630711668664198,-4.545227025770792
-4.093155415877146,18.792648321253335,-10.973512168776752,2.6360036074754505,27.08693535592784,-4.527538302780177
-4.102672628518517,18.796339974962667,-10.432716093476262,2.6294574169763782,26.54258931548658,-4.510062232720008
-4.112183548589659,18.793802391170885,-9.890519162333682,2.6233132200840066,26.00306574849748,-4.492961049555019
-4.1216959042826025,18.785190120323044,-9.346542848601642,2.61755122126173,25.467831972783983,-4.476204477299516
-4.131212101757978,18.770643422424435,-8.800706424727268,2.6121565656610035,24.93666729626852,-4.459773247475569
-4.140643047494371,18.75051527283203,-8.258196202772654,2.6071622596132498,24.414404203023878,-4.443802599324941
-4.150083831211434,18.72480826673114,-7.713613737481088,2.60250164032106,23.895643150431265,-4.428114104109963
-4.159150500618384,18.695008117734297,-7.189239778608513,2.5983343143543065,23.40117500111559,-4.413316710138217
-4.1633266125309225,18.681193654740124,-6.95377081012986,2.596609534973491,23.179562766103246,-4.406829840896104
-4.180019763469982,18.914800321018838,-7.222637282852154,2.607680941690067,23.214044345508977,-4.426335980702358
-4.215815236136761,19.41004362277421,-7.7897369255508,2.6313692987697275,23.284223864588988,-4.468024980279134
-4.25459608734304,19.938069105542063,-8.390034705368988,2.656953317432002,23.354667123596226,-4.5129809297480215
-4.294468703658592,20.47201093194497,-8.99249041929195,2.6831715357846675,23.421287117812764,-4.558978752496029
-4.3350450218084084,21.006361296966062,-9.590795011766971,2.7097636784014623,23.483300166063508,-4.605559606040916
-4.364222669024339,21.385145993915945,-10.012113873654535,2.728830684447274,23.524429853172695,-4.638914663741425
-4.345460815310984,21.43481501426836,-10.06653311755501,2.71723060739818,23.530049663346933,-4.619121937040518
-3.9945120333111306,21.187828509545824,-9.783054946639332,2.497638671748885,23.509264148248477,-4.242485100167311
-3.4756164918710977,20.816177366238758,-9.356216799641608,2.17292604095797,23.474842980526738,-3.685929853685377
-2.951177442265596,20.432532141578207,-8.915190827099224,1.8447437137083316,23.435508667309104,-3.123861304203247
-2.4283848788372397,20.041845256678574,-8.46556233559162,1.5176396896077289,23.391615399362127,-2.5640470343279023
-1.9114009446230011,19.647180729394037,-8.010761263811462,1.1942658548442078,23.343474270632964,-2.0109921721538786
-1.4013099451059126,19.249446348375542,-7.551746040950117,0.8753449644505741,23.291219251932255,-1.4658965875487915
-0.8944395820933532,18.84579602352461,-7.085139712436295,0.5586244323838025,23.234472068748957,-0.9248795348440261
-0.3887924442682112,18.434512726050414,-6.608850608073433,0.24290171280818315,23.172922918547957,-0.3858640741379087
0.11228752432609568,18.018221165055497,-6.125812158626597,-0.06969132027342104,23.10690973529533,0.14753186826368195
0.5328548655407734,17.66193054277888,-5.71158812149523,-0.3318076512859834,23.04752379027913,0.5945946292403749
0.7317964312082224,17.491157380011394,-5.512773119378535,-0.4557113560956616,23.018153267723704,0.8058616531603844
1.171572301117661,17.108441197257836,-5.0665361389210135,-0.7293841368114634,22.950176699565972,1.2723620657609849
1.6680421786127806,16.667574279903782,-4.551297943499238,-1.037937839150438,22.868318257373943,1.798101280526058
2.159255796886003,16.221907902056117,-4.029086463145899,-1.342759390376792,22.78180458996056,2.3172599138825136
2.639627476954712,15.776691284799412,-3.505974046473394,-1.6403572935110327,22.691704664505675,2.8239073022576684
3.1091274471833903,15.332310074974611,-2.9823690251309225,-1.9307088255223595,22.59824417198676,3.3180201682715325
3.565740760073898,14.8910917100904,-2.4609767636367748,-2.212547776087169,22.50198927970052,3.7974606013591843
3.859421457985429,14.602479460513933,-2.119082740313729,-2.393516412232108,22.437209070219307,4.105211018688103
3.884135616782361,14.533122805215564,-2.132816748233279,-2.4102593700287747,22.519216444583236,4.135075845493631
3.860821578888093,14.32647731670954,-2.374570986410356,-2.403690491200653,22.968177600532233,4.130808968413384
3.8335262231650784,14.07606595946132,-2.656161418450516,-2.396259795897924,23.50083197955991,4.125993155881512
3.806517120682166,13.818986834376169,-2.9331018964879174,-2.3891932084470593,24.035492221673945,4.121427872013527
3.780531400667101,13.562628173909578,-3.197792533862578,-2.3826734680614132,24.557152987095698,4.117232775875914
3.7664321673890933,13.419728099727768,-3.340627729599062,-2.379254285666017,24.843217978344867,4.115040928379407
3.759733404786932,13.35087726009834,-3.408288180695939,-2.377659610171424,24.979885413653957,4.11402094045202
3.7445614058463677,13.192625094412517,-3.5610295114962214,-2.374120114597024,25.291231332377997,4.111762842645667
3.719142134927494,12.920155044245405,-3.815286854683257,-2.3684200985717534,25.818545303441844,4.1081463321383715
3.6938260233894287,12.63940918045517,-4.066312050926552,-2.3630391556405947,26.350895648559934,4.104760659935127
3.668901690904487,12.353569495781544,-4.311130546877436,-2.358041203907442,26.882119254370405,4.101648247041036
3.652599206914223,12.161400287243506,-4.4699275400054965,-2.3549385425329374,27.233452609500908,4.099736025083922
3.645887583162088,12.081065031848647,-4.534981755739692,-2.3537003793075177,27.378992610771032,4.098978020843964
3.4734153651773263,12.085441743478174,-4.546970738221022,-2.242714955288156,27.39346758669229,3.906916368968598
2.9884889602715248,12.110963820160912,-4.566091145351718,-1.9299306601409776,27.404578357508115,3.3655401107102816
2.441604552360198,12.135132394000474,-4.584189953855231,-1.5769824651878093,27.4151120803591,2.75491048605725
1.8998567198535106,12.154260694935427,-4.598505872810146,-1.2271763601864873,27.423430592028655,2.1499432212706506
1.3579995887115195,12.168610522265098,-4.609244040173565,-0.8771668887867801,27.42968834501074,1.5447996776802282
0.8139972718919507,12.1782121371315,-4.616428501977002,-0.5256758472888002,27.433884307125908,0.9372209007343508
0.27103896672033745,12.182998715780595,-4.620010346706464,-0.1748017144700288,27.43598099336819,0.3307842211182922
-0.27341722014612463,12.18298818795727,-4.620000064273388,0.17705887421827704,27.435953307915064,-0.2773342608649496
-0.8151275857626419,12.178198436040764,-4.616418724230151,0.5271264325675317,27.43387281274995,-0.8823770365833128
-1.360715971347109,12.16855345483824,-4.60920473296852,0.8796423692871443,27.42967580574202,-1.491727307447097
-1.9035692797584203,12.154149833645647,-4.598428350294876,1.2302952170137655,27.423405345326724,-2.097983119463578
-2.4486848392204523,12.134854700229793,-4.583983518764223,1.5822721839685177,27.414974916580434,-2.7067093131882953
-2.9907044970275956,12.110861450960302,-4.566018844443463,1.9320799029581786,27.404535434419188,-3.3119068450273716
-3.4687307926068884,12.085713260458043,-4.547180260175052,2.2404144428352954,27.393595866309067,-3.845580098730672
-3.645626395661848,12.07594272755658,-4.538186811203543,2.354431280805039,27.38735546611841,-4.042965949892118
-3.652843981053259,12.142265482399967,-4.354999880024772,2.3537949287894953,27.13776247026742,-4.039477628736747
-3.6680525907592822,12.277011103372454,-3.9678685633977393,2.352688693914857,26.61570719016825,-4.032324420741446
-3.6839067045825082,12.410404327717174,-3.5627592326773097,2.3518640754458535,26.077014828557267,-4.025141768584699
-3.6999398416473155,12.538155591942596,-3.1515671769394173,2.351358814948791,25.537875687007194,-4.018149755995513
-3.7161379371929852,12.660118676608983,-2.7347020748394555,2.351171640646562,24.998845881542408,-4.011350493490683
-3.732488588924271,12.776187020837282,-2.3125366841150172,2.351300230484702,24.460404941624176,-4.0047444881526495
-3.7489867864768636,12.886326759481994,-1.8852569433699566,2.3517416218226983,23.922772797759052,-3.9983286432085365
-3.765750115076798,12.99125750153833,-1.4498622537067816,2.352499214426798,23.382227754874567,-3.9920545751402248
-3.7826441219452933,13.090088328903247,-1.0098929946562547,2.353566651328047,22.843202908572326,-3.9859694404401
-3.7981540030618643,13.174874411370999,-0.605003657000083,2.35480602700886,22.35331823975309,-3.9805832986796608
-3.804519495954209,13.20805997385453,-0.43857916570364197,2.3553846082189716,22.153621531118944,-3.9784262155983217
-3.8101068014458157,13.290173169851153,-0.5094815118483073,2.3586483691211577,22.14219612840401,-3.983806432415262
-3.833895591397829,13.683243338955036,-0.9946601576027967,2.3748986911984162,22.23326814847889,-4.012950997769726
-3.8641767581421114,14.17668725897946,-1.6003671640338137,2.3955371717189,22.344204670343565,-4.049905412561359
-3.8831336130216765,14.48176065517299,-1.9729662890182655,2.4084307109304643,22.410895813000213,-4.072958826451109
-3.8885426558116207,14.570630654346756,-2.087991606161791,2.412232164946858,22.43680597973623,-4.079856327515409
-3.8732212638681736,14.436332258133065,-2.247151825554558,2.4078701694323037,22.73063444022023,-4.077024694897466
-3.846103992424512,14.191655976200861,-2.527687218250432,2.4003637240851323,23.256496802773906,-4.072160313815712
-3.8190863893224063,13.938748444007416,-2.805576044580419,2.3931655265588705,23.787936414186373,-4.0675090500895426
-3.792366623967792,13.679361066296385,-3.0786482180889263,2.3863328746906234,24.321027070360568,-4.063110381636962
-3.7705239202802674,13.460254989289206,-3.3004605266168667,2.380966531619926,24.762457555911933,-4.059670318181816
-3.761708704946315,13.369985835840604,-3.389593259134756,2.3788582032737082,24.942065127341408,-4.0583230797773675
-3.7541226251800626,13.29144076352199,-3.4661124633995186,2.377070784164383,25.097305950809332,-4.057183067986328
-3.7312165162441797,13.049356987137473,-3.6960748791474094,2.3718277392283857,25.569882620913145,-4.053852168150332
-3.7056985694048743,12.77076348323648,-3.950214384611943,2.366267132703215,26.103201914088515,-4.0503454519229996
-3.680440626931893,12.485477377063468,-4.1994704602441235,2.3610649972356312,26.63831944355422,-4.047096058262486
-3.6582048717164066,12.226181123006695,-4.416907376337229,2.356774652372263,27.11553159648805,-4.04442378275428
-3.6486828159808535,12.112794050272077,-4.509384908475454,2.3550000060175815,27.321610100447487,-4.043337310652323
-3.646849508468507,12.097931525992504,-4.567974449110588,2.3553805029330053,27.395074826356296,-4.04469117984211
-3.664583289822635,12.408739180480657,-4.961049873229566,2.368571667796066,27.476548351061265,-4.068304065945056
-3.6923095417225693,12.888971360498683,-5.565404910969849,2.3891459688726986,27.5994233807747,-4.105095379131412
-3.7210676367216755,13.379917371330587,-6.179470649359413,2.4104215953641153,27.721241072804762,-4.143094260485206
-3.750374818695912,13.872968431752849,-6.792310224112283,2.432035735202542,27.839694588478782,-4.181651405938531
-3.7803597063170917,14.370059616120582,-7.406234424517446,2.4540786676026256,27.955153305624666,-4.220927491833394
-3.810880346346364,14.8686225780403,-8.017984644492124,2.4764414594093918,28.06693299418154,-4.260728155331789
-3.842147600477795,15.371869650024848,-8.63140728924145,2.499273710800078,28.175657489544395,-4.301319304079044
-3.8740810457400805,15.878234900921896,-9.244477422679982,2.5225112347329826,28.280870942282945,-4.3425862640495545
-3.9067898142884676,16.389176849220824,-9.858845296414081,2.5462278006073196,28.382759391483294,-4.3846595024694865
-3.9400638732804127,16.90118607094232,-10.470200254084023,2.57026580273162,28.480530918268027,-4.42725915059414
-3.974298794774575,17.4200652667017,-11.085350125591072,2.5949048838348494,28.575171284320906,-4.470880212177476
-4.008747886104947,17.934341689630752,-11.690645466700017,2.6196029281503237,28.66453885679935,-4.514563051549883
-4.0425281949320855,18.43122555230371,-12.271293960131299,2.643728945510257,28.746673699834,-4.557194671932366
-4.061809714920529,18.711640101439592,-12.597162970333729,2.6574588764851237,28.7911932513637,-4.581439173728542
-4.065453502024444,18.74495724147308,-12.536867355445766,2.657453895337802,28.69751319452255,-4.580616341993871
-4.073257583173568,18.764101369933776,-12.098066597207177,2.6510285095769817,28.239700302908407,-4.565305219534568
-4.082427541058831,18.780820473430975,-11.580782152415896,2.6438630720180774,27.705846040518725,-4.547673544397133
-4.087518362793961,18.78745978056345,-11.292840613939966,2.6400590658363994,27.411345464141114,-4.538046762973775
-4.092308761269365,18.792012852341436,-11.021404657400735,2.6365900665731457,27.135430322555294,-4.529090301230668
-4.095516977004512,18.79415397329551,-10.839359578083332,2.634325682960934,26.95129273344742,-4.523146258736752
-4.0984759686723535,18.795488764813566,-10.671274146616097,2.63227847706418,26.78191673653665,-4.517701901183564
-4.100160080011055,18.795976112456593,-10.575530954610269,2.63113080929092,26.685711110842192,-4.514619292953154
-4.104578775970496,18.796323483923434,-10.324060805641055,2.6281792079264545,26.43395808539976,-4.506585807399844
-4.113553467298881,18.792930216533357,-9.812153639181686,2.6224448497268456,25.92557138709625,-4.490506587278578
-4.122949601569026,18.783605687031482,-9.274597432924766,2.6168045591726736,25.397467646934984,-4.474001128249233
-4.132375085127943,18.768460318343745,-8.733762433996507,2.611507085938535,24.871901223480016,-4.457767541409251
-4.141863796017837,18.747495008083916,-8.187735956560848,2.6065260066711904,24.34695914982895,-4.441737979942735
-4.151268720717195,18.721205566194346,-7.645360890713792,2.601962301335429,23.83098338626298,-4.426181247758741
-4.160072281993287,18.69171448931342,-7.136058429588815,2.597949285179155,23.3512741464004,-4.411842200298568
-4.163803275359611,18.6878372465353,-6.961427103736724,2.59694402895144,23.180529834355738,-4.407392948595752
-4.183905324051775,18.96887994583964,-7.284752228270191,2.6102738598601705,23.22187472930621,-4.430875915503048
-4.220781362127437,19.478098575273183,-7.867355807372332,2.6346682440184646,23.293530827404187,-4.473799549557918
-4.259600513730904,20.00552587140976,-8.466398587599834,2.6602668714146063,23.36331380205597,-4.518772112069064
-4.299472004869622,20.538334945667735,-9.067000916141069,2.68647344741179,23.429211505409196,-4.5647404818180926
-4.339806942060804,21.068438577454486,-9.65999961328874,2.712896731527546,23.490175255836256,-4.611016929632071
-4.365942842151291,21.40728815728956,-10.03666782295899,2.729971467732432,23.5267350993553,-4.640883187910992
-4.3153517639630925,21.429554413089928,-10.059844336321214,2.6984450997795077,23.529996035707203,-4.586895158813304
-3.9050523386312275,21.261006899614575,-9.861905780184353,2.441957032534008,23.518666999786976,-4.147214746083292
-3.3330661593468207,21.020791139989942,-9.581108293847228,2.0843015249530334,23.500261699659635,-3.5345304958383283
-2.7612849018785997,20.77445143466173,-9.294603644354781,1.7267068985327256,23.47875638272788,-2.9223972918520276
-2.1868669700398464,20.520608382351387,-9.000755649529662,1.3674423603662123,23.45396737041285,-2.3078057923937165
-1.6156595672484368,20.261732825604756,-8.702376295399725,1.0102128990338948,23.42605833744446,-1.697047428493801
-1.0485638126308865,19.998236060960483,-8.399876953840936,0.6556268209277898,23.39513858679212,-1.0911040732307322
-0.49052620116635826,19.732514717290027,-8.095919428760867,0.3068204376477004,23.3614969605209,-0.49528305062384503
0.06820980798699493,19.45993851820481,-7.785135397409404,-0.042261955001597906,23.324554226774996,0.10080837513016135
0.6226455332335062,19.182875639375354,-7.470162501434574,-0.3884513890438252,23.284576145048497,0.6918016951514967
1.175204298511613,18.90009184923212,-7.149537210665277,-0.7332243144555213,23.24144171908919,1.2802619333137228
1.7235451655172709,18.612753345989905,-6.824510951033012,-1.0750774308226723,23.195287501861657,1.8636627134015729
2.272966220634477,18.317997432219187,-6.491782309655075,-1.4172715491869163,23.145627058973044,2.4476071050789647
2.8175893671048997,18.01889791096979,-6.15475524529572,-1.7561045785975216,23.092954308691578,3.0258139551991294
3.361028632228939,17.713429424805824,-5.811075917496527,-2.0937864781871207,23.03690047738531,3.602089146168174
3.863419314413763,17.424659754326605,-5.486582674504976,-2.405554149158826,22.98190525752853,4.134198262577504
4.06717755298188,17.304035150861843,-5.3548333849951,-2.5319423655216426,22.962185647405306,4.349990072415295
4.051736236981556,17.176419232117738,-5.502944039989097,-2.5275315862682857,23.238310594813417,4.346807011966443
4.022703575572839,16.929577637562804,-5.780519886728172,-2.5194638216229968,23.76347242641243,4.340985987622692
3.993409849442766,16.67111822830789,-6.059264301164592,-2.5116318768387362,24.30142110415722,4.335338506429101
3.964731267495131,16.408619250300603,-6.3306995732744324,-2.504276751480859,24.836078377766338,4.330040645251081
3.94676547056771,16.239257874881922,-6.499931340905449,-2.4998322294588973,25.175121283473796,4.326843418130845
3.939123899446196,16.16604816133784,-6.571710023794016,-2.4979808780373136,25.32030022972311,4.325512817333677
3.925798461139742,16.03668254807104,-6.696575371874517,-2.494809322842236,25.5748623888487,4.32323530555284
3.8988051680692664,15.767870066556693,-6.948265201787937,-2.4886113092061004,26.096031329493574,4.3187931955108985
3.8713429934152437,15.48484805565992,-7.202469838584429,-2.4826274413119895,26.633930203977567,4.314519034823379
3.84427484599823,15.196158657263323,-7.451019637271244,-2.4770600448983977,27.171825948785777,4.310559989433888
3.818958627226295,14.917129764227425,-7.681516891419624,-2.4721620956762003,27.68196060909933,4.3070962242915165
3.807197406364767,14.784456360931971,-7.787908508652104,-2.469991612159584,27.921306473435287,4.305568696039122
3.79151137030338,14.722022236678724,-7.838197446203482,-2.4624086765904925,28.034595800888646,4.293446369796272
3.486865071128061,14.739538183840892,-7.850702069666714,-2.2648321471464867,28.04208546709986,3.950838822941537
2.9504436478164724,14.766794855993487,-7.8701453323970245,-1.9167540007001587,28.05368991368607,3.347502977417915
2.393402808811838,14.79027334726993,-7.8868892093896035,-1.5550856495263137,28.063724654857594,2.7208988608106717
1.838517144468793,14.808782129719113,-7.900084041673495,-1.1946415985642573,28.07164316714819,2.096653821110513
1.2816973177675601,14.822468878356398,-7.9098349057994675,-0.832806154803805,28.077472745817115,1.470181288336921
0.7246626922376291,14.831270967275147,-7.916107594395291,-0.47073733596168676,28.081248073842723,0.843433431137686
0.1673238476217365,14.8351856727958,-7.918898024931798,-0.10841726728636526,28.082934018701707,0.2163233087534625
-0.38503438641589255,14.834238967124167,-7.918221542255621,0.2506764586273478,28.08250833367315,-0.4051880037747801
-0.9449590970836399,14.828376213208864,-7.914046920381068,0.6146615721241969,28.080013166578087,-1.0352017533795732
-1.497435260876146,14.817749363154942,-7.906477222807381,0.9737363705219194,28.07548119047007,-1.6568091988822737
-2.0547906630418296,14.80214985137666,-7.89535805645289,1.3358707934118994,28.06879476101388,-2.28386559880591
-2.609043792751276,14.781771799847336,-7.880832301045666,1.6958418733163052,28.06010297502301,-2.907376028673946
-3.1666677360281104,14.756363281939,-7.862712530306579,2.0578110596622485,28.0492710831166,-3.534607303009751
-3.644389089934085,14.730672704930104,-7.844381969727494,2.3677293724258046,28.038321842571715,-4.0718934448766815
-3.801903840221466,14.721583427927884,-7.8325180525595695,2.4697473916900523,28.02893367444433,-4.248767000149723
-3.806188531260315,14.72979594589809,-7.554655161337007,2.4660009637379625,27.742940380802327,-4.239637628077498
-3.8141788943535175,14.740526499941641,-7.034876457468746,2.4592958305079495,27.212580438950145,-4.222867413362282
-3.8223687343102815,14.745445132632689,-6.500006517432646,2.4527921829589427,26.672939955283617,-4.206010291510186
-3.8305738957417503,14.744333243261183,-5.962045256888601,2.4466378142443195,26.136234155960146,-4.189444000121633
-3.83875655264486,14.737334655321288,-5.423530498351678,2.440848138940843,25.604856611451783,-4.173230606255304
-3.8468941382827397,14.72466677141881,-4.886024602600999,2.4354231605340337,25.080152167871763,-4.157397969309861
-3.8551446501934117,14.706136462691806,-4.339118010499798,2.430250438792996,24.55190714315456,-4.141629634336935
-3.863318606279796,14.682252486272503,-3.795407095173759,2.425440275559869,24.032206309989032,-4.126277542105306
-3.8715415252787677,14.652794341920432,-3.2465994291156326,2.420907025380873,23.512979889186692,-4.111092961246277
-3.8797114538782296,14.618244898548522,-2.6995456341710033,2.416697109053664,23.000594291858512,-4.096252984211324
-3.886952048664338,14.583315337909077,-2.2132690445437615,2.41320376555622,22.549349688902538,-4.083298153925611
-3.8902270683683775,14.595188242358025,-2.1111307909596473,2.413243612004326,22.43530495164745,-4.0815611080931085
-3.910189803167098,14.912209060529902,-2.496235266406522,2.426790924080889,22.502505071822604,-4.105747017799291
-3.941992873884186,15.41085478891931,-3.0988057302238814,2.4483263009881466,22.60501499111904,-4.144139292889167
-3.9752252440284788,15.92373206693618,-3.714522023776535,2.4707676899369604,22.7063661322579,-4.18407749080129
-4.009034573504693,16.43720686677314,-4.326822634457745,2.4935339542777353,22.803668330499818,-4.22452403515721
-4.042872375118826,16.942990778435508,-4.92589316140044,2.5162541806048915,22.895420075676068,-4.264820985250284
-4.064090758664318,17.25611594823691,-5.294745048349087,2.5304679683443987,22.950179257125207,-4.289997300791906
-4.067466111379378,17.30564605090863,-5.352948057160567,2.5327267033454226,22.958697891301867,-4.293995782478287
-4.067466111379378,17.30564605090863,-5.352948057160567,2.5327267033454226,22.958697891301867,-4.293995782478287
-4.067466111379378,17.30564605090863,-5.352948057160567,2.5327267033454226,22.958697891301867,-4.293995782478287
-4.067466111379378,17.30564605090863,-5.352948057160567,2.5327267033454226,22.958697891301867,-4.293995782478287
-4.067466111379378,17.30564605090863,-5.352948057160567,2.5327267033454226,22.958697891301867,-4.293995782478287
-4.067466111379378,17.30564605090863,-5.352948057160567,2.5327267033454226,22.958697891301867,-4.293995782478287
-4.067304418703343,17.30533844904404,-5.352167921735856,2.5326257276150015,22.956836634420046,-4.293824995247688
-3.9799590440788073,17.13917384124102,-4.930743633388234,2.478079268134689,21.95139728119012,-4.201566798998042
-3.893125503712439,16.973982939706183,-4.511788844873058,2.4238524448886225,20.951849691636358,-4.109849225599238
-3.806217920899174,16.808651180865482,-4.092476816084711,2.369579382750722,19.951449793757856,-4.018053445167422
-3.693580843692094,16.594371995062602,-3.5490250270507,2.299238465509628,18.654875698751535,-3.89908099106064
-3.5436903856196507,16.309222503334095,-2.825832987462897,2.205633121976791,16.929475059421506,-3.740759805122166
-3.395067631322282,16.026484673373613,-2.1087573697639828,2.112819448900431,15.218667056154668,-3.5837776261336307
-3.2454051908229413,15.741768959057701,-1.3866654702109429,2.0193565004442147,13.495891144719065,-3.425697282828188
-3.0957954120515745,15.457153427669763,-0.6648276531588913,1.9259264387988158,11.773721426501382,-3.267672563258463
-2.947175021318741,15.17442009412109,0.052236560805062546,1.8331142417488366,10.062940630408454,-3.110692880775343
-2.797717634099561,14.890094470271023,0.7733391185293419,1.7397793473594279,8.34252510311761,-2.952829124162029
-2.648411455380516,14.6060565033373,1.4937121249197884,1.6465388814198503,6.623850148550075,-2.7951250809112147
-2.4990151390489217,14.321847059881755,2.2145200275985037,1.5532421252914486,4.904137612962912,-2.637325830174214
-2.3498268056576883,14.038033280236272,2.934324453413027,1.4600752527782666,3.186819185065346,-2.4797462605709977
-2.200434990738897,13.75383240020491,3.6551106376585087,1.3667813077446949,1.467158465588614,-2.321951764432939
-2.050846366735567,13.469257113349085,4.376846387107055,1.2733644570758644,-0.25476773846035716,-2.163949389500804
-1.9015586652960936,13.185254297331209,5.0971302442503,1.1801355300435938,-1.9732299996356872,-2.006264862801292
-1.7521818261302728,12.901081906960915,5.8178441734271535,1.0868509372431094,-3.692718332063357,-1.8484861847413223
-1.6028987171660618,12.617087827603157,6.538105872778674,0.9936248781734167,-5.411127728901252,-1.6908065088251045
-1.4534896828102504,12.332854189557862,7.258975137427934,0.9003201797447429,-7.130986662647429,-1.5329938247268158
-1.3042089980781237,12.048864722025002,7.979225140335478,0.8070956345878102,-8.84936815396257,-1.3753167093958651
-1.1546673209252156,11.764378746194765,8.700734380445502,0.7137081018363313,-10.570753949190502,-1.2173639218833057
-1.0057011553939843,11.480987615550243,9.419466889942788,0.620679971302625,-12.285514985692938,-1.0600190161774807
-0.8562710573429982,11.19671390622856,10.140437782786869,0.5273621187716269,-14.00561638526108,-0.9021840836369418
-0.7068519393510309,10.91246108521617,10.861355699001356,0.43405112319609923,-15.725591392521833,-0.7443607487390275
-0.5578381101590019,10.628979279896118,11.580318176306536,0.3409932271029274,-17.440901089104916,-0.5869654984855854
-0.4081549936244539,10.34422423178267,12.302509833671145,0.24751736663480955,-19.163915003978662,-0.4288633162021543
-0.28257873904804487,10.105329737589276,12.908390613800714,0.16909604081892196,-20.609432969012083,-0.2962239086913709
-0.19553756386396032,9.939743834507986,13.328347199556653,0.11473955135732944,-21.611370658988804,-0.20428702186190706
-0.10895523940846683,9.775030842576076,13.746089920610707,0.06066961035674231,-22.608026482790386,-0.11283479424593473
-0.021857811416857435,9.609337924947761,14.16631791512161,0.006277991485040796,-23.610611703179085,-0.020838490617601735
-0.0032893426944274,9.574013532144729,14.255907132074341,-0.005317862687355895,-23.8243547807376,-0.0012256211461123942
-0.0032893426944274,9.574013532144729,14.255907132074341,-0.005317862687355895,-23.8243547807376,-0.0012256211461123942
-0.0032893426944274,9.574013532144729,14.255907132074341,-0.005317862687355895,-23.8243547807376,-0.0012256211461123942
-0.0032893426944274,9.574013532144729,14.255907132074341,-0.005317862687355895,-23.8243547807376,-0.0012256211461123942
-0.0032893426944274,9.574013532144729,14.255907132074341,-0.005317862687355895,-23.8243547807376,-0.0012256211461123942
-0.0032893426944274,9.574013532144729,14.255907132074341,-0.005317862687355895,-23.8243547807376,-0.0012256211461123942
-0.0032893426944274,9.574013532144729,14.255907132074341,-0.005317862687355895,-23.8243547807376,-0.0012256211461123942
-0.0032893426944274,9.574013532144729,14.255907132074341,-0.005317862687355895,-23.8243547807376,-0.0012256211461123942
-0.0032893426944274,9.574013532144729,14.255907132074341,-0.005317862687355895,-23.8243547807376,-0.0012256211461123942
-0.0032893426944274,9.574013532144729,14.255907132074341,-0.005317862687355895,-23.8243547807376,-0.0012256211461123942
-0.0032893426944274,9.574013532144729,14.255907132074341,-0.005317862687355895,-23.8243547807376,-0.0012256211461123942
-0.0032893426944274,9.574013532144729,14.255907132074341,-0.005317862687355895,-23.8243547807376,-0.0012256211461123942
-0.0032893426944274,9.574013532144729,14.255907132074341,-0.005317862687355895,-23.8243547807376,-0.0012256211461123942
