RAMEL-ESPOL/ARCHIE/matlab/data/joint_goals_espol_t35_h35_p12.txt
Joint0,Joint1,Joint2,Joint3,Joint4,Joint5 
0.003257668609513024,9.579965808173801,14.254285509148566,0.0009551951344297156,-23.830276207827755,-0.0034651364761461097
0.003257668609513024,9.579965808173801,14.254285509148566,0.0009551951344297156,-23.830276207827755,-0.0034651364761461097
0.003257668609513024,9.579965808173801,14.254285509148566,0.0009551951344297156,-23.830276207827755,-0.0034651364761461097
0.003257668609513024,9.579965808173801,14.254285509148566,0.0009551951344297156,-23.830276207827755,-0.0034651364761461097
0.003257668609513024,9.579965808173801,14.254285509148566,0.0009551951344297156,-23.830276207827755,-0.0034651364761461097
0.003257668609513024,9.579965808173801,14.254285509148566,0.0009551951344297156,-23.830276207827755,-0.0034651364761461097
0.003257668609513024,9.579965808173801,14.254285509148566,0.0009551951344297156,-23.830276207827755,-0.0034651364761461097
0.003257668609513024,9.579965808173801,14.254285509148566,0.0009551951344297156,-23.830276207827755,-0.0034651364761461097
0.003257668609513024,9.579965808173801,14.254285509148566,0.0009551951344297156,-23.830276207827755,-0.0034651364761461097
0.003257668609513024,9.579965808173801,14.254285509148566,0.0009551951344297156,-23.830276207827755,-0.0034651364761461097
0.003257668609513024,9.579965808173801,14.254285509148566,0.0009551951344297156,-23.830276207827755,-0.0034651364761461097
0.003257668609513024,9.579965808173801,14.254285509148566,0.0009551951344297156,-23.830276207827755,-0.0034651364761461097
0.003257668609513024,9.579965808173801,14.254285509148566,0.0009551951344297156,-23.830276207827755,-0.0034651364761461097
0.003257668609513024,9.579965808173801,14.254285509148566,0.0009551951344297156,-23.830276207827755,-0.0034651364761461097
0.003257668609513024,9.579965808173801,14.254285509148566,0.0009551951344297156,-23.830276207827755,-0.0034651364761461097
0.003257668609513024,9.579965808173801,14.254285509148566,0.0009551951344297156,-23.830276207827755,-0.0034651364761461097
0.003257668609513024,9.579965808173801,14.254285509148566,0.0009551951344297156,-23.830276207827755,-0.0034651364761461097
0.003257668609513024,9.579965808173801,14.254285509148566,0.0009551951344297156,-23.830276207827755,-0.0034651364761461097
0.003257668609513024,9.579965808173801,14.254285509148566,0.0009551951344297156,-23.830276207827755,-0.0034651364761461097
0.003257668609513024,9.579965808173801,14.254285509148566,0.0009551951344297156,-23.830276207827755,-0.0034651364761461097
0.003257668609513024,9.579965808173801,14.254285509148566,0.0009551951344297156,-23.830276207827755,-0.0034651364761461097
0.003257668609513024,9.579965808173801,14.254285509148566,0.0009551951344297156,-23.830276207827755,-0.0034651364761461097
0.003257668609513024,9.579965808173801,14.254285509148566,0.0009551951344297156,-23.830276207827755,-0.0034651364761461097
0.0032598991722406624,9.579967163211466,14.254281659478083,0.0009551966306989418,-23.830266898555536,-0.0034628987587908616
0.05928888246959741,9.613897927231143,14.157704530938751,0.0008101667110209622,-23.596548663791673,0.05267225356920445
0.18718977152250946,9.690560532443293,13.938148543180242,-0.0008816589144411219,-23.063905109305917,0.18027806983876132
0.3221245096847093,9.770252927556262,13.70786307345316,-0.004690306723178341,-22.50325427675829,0.31412975282742767
0.45714509366187905,9.848788137527064,13.478786713349676,-0.010548695491480787,-21.943517079280628,0.4473209545151811
0.5929561338661736,9.926575163076494,13.249710954122902,-0.018475854294898016,-21.381734612774327,0.5805868450074236
0.7282640592837921,10.002879696109279,13.022796606317218,-0.02837303925950233,-20.823212971920075,0.7127017754785993
0.8642149872238202,10.078356021038207,12.796099216846821,-0.0402993436795451,-20.26317570535198,0.8448286397786684
1.0009011306335218,10.153046620302081,12.56946088756375,-0.05426656423300826,-19.701213766354922,0.9770918415815006
1.1372403484995017,10.226364084231237,12.344658276851357,-0.07014759560093387,-19.141735637358373,1.1084848698529646
1.2745916088404028,10.299039006601408,12.119437475534195,-0.08809163395550952,-18.579128054784668,1.2403559385415255
1.4115067627055815,10.370305811677657,11.89615919183408,-0.10789970483192977,-18.019286042484925,1.3713530086342594
1.5489594979062191,10.440677607499678,11.673215925139182,-0.12969438326877314,-17.45818712692495,1.5024478951615696
1.6867385695882486,10.510042394895288,11.450941305896054,-0.1534410451930151,-16.89666119245519,1.633475284741793
1.8241819040372897,10.57807377943948,11.230383606361846,-0.1790076889171339,-16.337366295576285,1.7638447843644578
1.9624822411257032,10.645361906896516,11.009616346457765,-0.20661049496861264,-15.775414296422381,1.8947246084703662
2.100770901375627,10.711479458562124,10.790018282314392,-0.23607818526170588,-15.21430387128119,2.0253281370354177
2.238785812429879,10.776310378363537,10.571984073278369,-0.2673353506049968,-14.65505834132356,2.155446173541487
2.3770064117987353,10.840086030524855,10.354738090102192,-0.30047663176109746,-14.09569772137688,2.2855678056109094
2.515979414390156,10.903051570383457,10.13741574406516,-0.33564094577074793,-13.533980859845547,2.416242449932195
2.654758695972322,10.964775955379817,9.92148681157793,-0.3725898095878483,-12.97370064860694,2.546615836730546
2.7940636760000284,11.025579188746262,9.705819968710237,-0.41151246410010023,-12.41192020179239,2.6773994711619675
2.9327310179962063,11.084958825326526,9.492199568272113,-0.45207380219316834,-11.853296328376999,2.8075367497061214
3.0722463516472085,11.143552065505734,9.278324371432674,-0.49470574947426055,-11.291812074797285,2.9384571967710245
3.211395079433981,11.200846105241427,9.066047350862254,-0.5390410620857473,-10.732325909707221,3.0690559832745894
3.3516246790524966,11.257430994574376,8.853154237335092,-0.585550594954745,-10.16898956338449,3.20072703561485
3.49073089849774,11.312420448067426,8.642977439960433,-0.6334991046657217,-9.610626439754213,3.331435253035181
3.6311060904665697,11.36676083579776,8.43189056771933,-0.6837116492279552,-9.04760336107298,3.463463565809222
3.770812399146611,11.419696669078483,8.222801322395773,-0.735505608161691,-8.487665180451062,3.595024731085542
3.91086968921831,11.471619952780214,8.014167647394446,-0.7892529509327746,-7.926693102780277,3.7271131898284735
4.051063144116926,11.522446638789262,7.806302573085834,-0.8448816087062722,-7.365520092684469,3.859561925914654
4.191035275186485,11.572049411978146,7.599723629948309,-0.9022500416494985,-6.805548039828566,3.9920674511329777
4.330915530877918,11.620478811061579,7.394225453390076,-0.9614084272659285,-6.2462298869338655,4.12478583388177
4.471438291203693,11.667983097192092,7.188723794207347,-1.0226821959176753,-5.684603014178799,4.258450281917398
4.611238356063983,11.71410216149043,6.985203849206782,-1.085479646092012,-5.126096316671901,4.391796471433983
4.752212700394041,11.759456331155961,6.780898331853354,-1.1506682588179786,-4.563105426149862,4.526670711461254
4.8922409493726216,11.803360617361097,6.578872530377344,-1.2172792547944338,-4.004072341962163,4.661080324489209
5.032682661985455,11.846247455324338,6.377150263816897,-1.285957184159341,-3.4435423328366834,4.796363067709651
5.173849910113488,11.88819752600487,6.175285014276579,-1.3568870426659636,-2.8802459776876543,4.932861190569485
5.31436958715427,11.928801025426374,5.975232080145927,-1.4293909979362456,-2.3196372157576923,5.069283380679207
5.454305251822331,11.968090379322934,5.776880831917812,-1.503488488152534,-1.7614365474961053,5.205720043080591
5.594846548544662,12.006398012998202,5.578536981758024,-1.5798225685852798,-1.2008742943979387,5.343367571083958
5.735844196810361,12.043668649441777,5.380412995993232,-1.6583477102175455,-0.6385224699539574,5.482123803514663
5.876522224338717,12.079693609504384,5.183592844779686,-1.7386497175848337,-0.0774523673142895,5.621263560939012
6.0164607440722655,12.11437657446069,4.988646919978039,-1.8204826414622308,0.48068443476197226,5.7604011145532095
6.1570548328435315,12.14806203763635,4.793623973218821,-1.9046778205442925,1.0414747980108372,5.90096107661082
6.297767496643737,12.180609365186857,4.599268903760088,-1.9909482855251774,1.602799522498345,6.042451706330915
6.4382756465151285,12.211942287591121,4.406020585503475,-2.0791135434972663,2.16339171511368,6.184586691921949
6.579138109432263,12.242180513640175,4.213105517506404,-2.1695485431145993,2.7255028386733664,6.327972920790929
6.719229949745998,12.271084834184352,4.022054557443231,-2.2615435725185216,3.284664556889559,6.471501665508155
6.859454469679637,12.298846265481236,3.831624570597167,-2.3557009119320487,3.844502250305891,6.616133154338307
6.999976196207848,12.325488516337222,3.641590263847072,-2.4521649232895038,4.405693960026567,6.7620834323382075
7.1407396472006335,12.350990614024312,3.4520259147813115,-2.5509353574706566,4.968039325777049,6.909343582775723
7.280663888816959,12.375160313070218,3.2643771412535783,-2.6512671425726793,5.527238598552274,7.056819490970139
7.421366769753185,12.398273784480963,3.0764689066323783,-2.7543472442021337,6.08977676789883,7.206260074220009
7.5614942879634715,12.420101777747636,2.890106570232899,-2.859218021454554,6.6502599858683,7.356274912438162
7.701190297763046,12.440674949360458,2.7050862003357605,-2.9659943894866294,7.209279587909763,7.507051253013032
7.841635265322362,12.460158540258043,2.5198427507254504,-3.075618503359068,7.771578612864927,7.659914429814054
7.981374210937628,12.478345332328184,2.3362917680166673,-3.1869894795314795,8.33134974078718,7.813329367609364
8.121530370014867,12.495380054853614,2.1529519006491724,-3.301031089502465,8.89310912210979,7.9685745629225675
8.260920892703728,12.511118377429874,1.9713641148842018,-3.416808600731196,9.452131589358029,8.124384577736377
8.400691151278137,12.525689257989956,1.7900299560967878,-3.5353018718531333,10.013025925517358,8.282085137698429
8.540447459607925,12.539041201535309,1.6094601917947085,-3.6562268744689623,10.574229994442943,8.441290629142404
8.680210288562286,12.551170628597056,1.4296254305443679,-3.779642675870739,11.13584187068276,8.60207817169879
8.819185329371154,12.562012985670519,1.251538910835167,-3.9048701570374416,11.694681948752857,8.763575699914298
8.958330316988246,12.571644998380258,1.0739661448472069,-4.032800599801879,12.254613777615386,8.926941785992259
9.09752465065725,12.580049230939021,0.8970605863308743,-4.163375819450414,12.815167544928022,9.092096603365517
9.236970977046271,12.587227545374349,0.7205650520891925,-4.296843116711102,13.377174870529718,9.259345868756265
9.37605200132553,12.593143096733936,0.5452581820560696,-4.432659158543307,13.938161049911237,9.428008271990354
9.515007983192886,12.597805962735611,0.3708317159750479,-4.571096917215716,14.499105994455483,9.598428204980088
9.653478285285832,12.601205424502377,0.19773221055694892,-4.711833363205259,15.058563454521371,9.770214963847517
9.79226819769608,12.60335643715778,0.02495053478194486,-4.855738685204063,15.619798368122094,9.944430320946621
9.930543116054011,12.60424161769625,-0.14647682587116276,-5.002000001786757,16.17944636428513,10.120090097816549
10.069255370083283,12.60386085104035,-0.31773196745162446,-5.151683240130686,16.741372574270166,10.29847240119422
10.207118295634421,12.602215863036449,-0.48723013723290276,-5.303449894166396,17.300372967001497,10.47798467524544
10.345542007857274,12.59928625598813,-0.6567077114190908,-5.458908522968423,17.86217358182654,10.660530175658783
10.483405644677536,12.595088027484783,-0.8247926125849888,-5.616868371386908,18.422234719495112,10.844706941417078
10.621256089919175,12.58960468879006,-0.9921560950468942,-5.778007050239023,18.98278348359874,11.031309216290074
10.759067981639081,12.582830017009423,-1.1587676627847487,-5.9423663430925275,19.543724560115912,11.220382164915248
10.896546307211521,12.574775672177648,-1.3242732213615578,-6.109657035522732,20.103862370629056,11.411594048638
11.034562080352874,12.565379482752926,-1.4897193289533217,-6.281025726791972,20.666753789878214,11.606248580031586
11.171810107516286,12.554725243092456,-1.653542516099072,-6.454925121201093,21.22708028415919,11.80258698547834
11.308804817972668,12.542779253915306,-1.8163638708770464,-6.632052659583399,21.786941001103322,12.001405483303733
11.44564172304292,12.529530604644346,-1.9782990953577126,-6.812603334557899,22.346728191198466,12.202923785074715
11.582982138026427,12.514901607295728,-2.140127007076723,-6.997554992780577,22.909153102534397,12.40822466072387
11.714720148621563,12.499607638373405,-2.294690435213105,-7.178568159973332,23.44918221403784,12.608107774685596
11.7835460004669,12.491123390892385,-2.375182627119891,-7.274571450134283,23.7315311834845,12.713718547614818
11.825767721904104,12.485750223772865,-2.4244731725009285,-7.333959832991315,23.90481284727095,12.778915871676018
11.883963953876858,12.478133601546162,-2.492302941940753,-7.4164406191254315,24.14374589183828,12.869298015450362
11.90935060780868,12.474734484492203,-2.5218521239068297,-7.452648666491036,24.248007352253115,12.908914684461264
11.910295177613028,12.441335958926205,-2.56654324720093,-7.465793177434477,24.357083538135846,12.924369904235437
11.844934267041562,12.225493134169565,-2.7794793618254343,-7.451057667483039,24.79059840959787,12.915324146347041
11.765988602950667,11.956524116118912,-3.034670256419873,-7.434067180006204,25.32043695251402,12.904973333549075
11.68859184959003,11.683795915571737,-3.282570353564151,-7.418298172267117,25.846587324837376,12.895463736273744
11.615366890977377,11.417282222760868,-3.5148711944873328,-7.4042184719464705,26.350584237560803,12.88707535179058
11.58041005399536,11.287070443406616,-3.6249571780268255,-7.3977934119136695,26.593341336766787,12.88328733246068
11.561862025986812,11.217185087768913,-3.683147167779646,-7.394463679776131,26.72271770159006,12.881335679012855
11.63397888668143,11.17801707341077,-3.691326357204641,-7.442695085999424,26.76044106848214,12.967573187565648
12.0563947037228,11.094032593820568,-3.6273195205620077,-7.7081914811427525,26.725024078225506,13.435416629696475
12.595853582640924,10.982087001702721,-3.541852683534223,-8.046513262669123,26.6779432516034,14.0325801561077
13.131854143244633,10.865598665357926,-3.4527340712354673,-8.381810239186905,26.629094018930832,14.625553660521804
13.67181576433242,10.742893210563796,-3.358656509250236,-8.718685842047858,26.577791704319104,15.222527632267525
14.210062487877297,10.615168988041372,-3.2605102518369287,-9.053556890692018,26.52455710518564,15.81720737216392
14.748730701531557,10.48187822615952,-3.157846204905384,-9.387719457601406,26.469180080916942,16.411937269256885
15.287076565919874,10.343138773885224,-3.0507206784434655,-9.720666827153943,26.41169772532129,17.00587065820878
15.828942351360217,10.197845654804233,-2.9382533646180677,-10.054745984062192,26.351735660263333,17.603239183195328
16.35752585860372,10.050586914299823,-2.8239662729446944,-10.379582417796827,26.291170566233223,18.185506607301974
16.823367252938045,9.916227387159143,-2.7194277666804125,-10.664969947087314,26.236087407073594,18.698269427337745
17.017794760962463,9.858868728805245,-2.6747252034257682,-10.783832885617926,26.212636313762793,18.912172770133093
17.06576804675765,9.862280615209551,-2.621573157060839,-10.807632014471293,26.148160938183533,18.952462685534382
17.120731147850343,9.96984849584632,-2.3075738561881165,-10.80235177797017,25.723851432420663,18.924107281100852
17.19105831415862,10.10118871547006,-1.9040794323685546,-10.796910525208727,25.185438503993726,18.888892568276866
17.26210872143186,10.226865904820944,-1.4945607410166202,-10.792863870371043,24.646551632094212,18.85448141591931
17.333982229461846,10.346996888636061,-1.078502302497941,-10.79023539716337,24.10654672896847,18.820818056870404
17.40624929404687,10.460879734906424,-0.6583814891259628,-10.788961298129388,23.56864234933863,18.78806353120478
17.479358434148057,10.569213057444447,-0.23166395861973735,-10.789054220233186,23.029575243400288,18.7559998678969
17.55321049041322,10.671804112039137,0.20103727368999547,-10.790511433684546,22.4901575870005,18.72465490295366
17.62760940089775,10.768372614642082,0.6384993379758751,-10.793350798590696,21.951897372686954,18.694094334163285
17.702610237438197,10.859023774814569,1.0810545090463586,-10.797495326476783,21.414370667860325,18.664260955740055
17.754669729738108,10.91808008006844,1.3890962862764584,-10.801125489024907,21.044237505092077,18.64410651981158
17.767828889156267,10.938665555294904,1.441381684515181,-10.803541662237816,20.970248701286312,18.643002548370323
17.840323995684,11.200872563154663,1.1034030245482445,-10.851203913724671,21.031368726167475,18.73275496046813
17.970558663398325,11.666449455525495,0.5057551637004546,-10.936621190600752,21.137007202742915,18.89345130137085
18.07792327824941,12.045112793491768,0.0220143039293086,-11.00683891454323,21.220186567591885,19.025413052986185
18.111902515032376,12.16400319824976,-0.1294334189171856,-11.029024029992723,21.245793276962743,19.06708093869675
18.12763092332017,12.226076018644601,-0.2297374762226563,-11.041021574603338,21.280373248073822,19.09113538231822
18.045984589809823,12.070400341233787,-0.42202357200115115,-11.019626149243779,21.63719626556483,19.078394051017128
17.925390990513527,11.833204836551554,-0.7044620640534701,-10.989028889677089,22.16984098181519,19.060233994690236
17.80627128790019,11.590168893337266,-0.9814677495178635,-10.960019113536436,22.70264169489594,19.043101981267693
17.68857424860112,11.341223985298969,-1.2530845622290943,-10.93261623462821,23.235713701993223,19.026989966415876
17.57229753661957,11.086434889932248,-1.5192078651848915,-10.906753181698958,23.768897032955294,19.011928580362635
17.457319904304057,10.825566656520518,-1.7800403772627331,-10.882436564368428,24.30263934748722,18.99790183823793
17.343460918206603,10.558222624219036,-2.0358973402753833,-10.859633599406068,24.837672268866676,18.984901190703006
17.231365099349798,10.285979143968158,-2.285265020560828,-10.838504143153138,25.370836090048776,18.973001070136984
17.1353351814033,10.045438049818731,-2.4967487216429904,-10.821424950934036,25.83268709674939,18.963559161292117
17.09536415337267,9.943279785645464,-2.5841664450411037,-10.81460949346665,26.026332575355976,18.959839199214258
17.070003912218226,9.877834876849423,-2.639438608788283,-10.81037627276083,26.149625279630826,18.957544411606662
17.067207670450145,9.881632480853199,-2.7112446888879473,-10.8149581853316,26.216946773440515,18.968725397071342
17.152159571964948,10.20313236348132,-3.134792387609173,-10.875803903367212,26.301311506533978,19.0824515899851
17.27642738305336,10.66774156824733,-3.744154541466564,-10.964543975861808,26.420078440489142,19.248215939853292
17.40415387517243,11.138438798839807,-4.358204985912033,-11.055423754718342,26.53657547393259,19.417865719026278
17.534063277089842,11.610279234167162,-4.970396123763873,-11.147511403210155,26.649458981253435,19.58966656280344
17.666613923245425,12.084756754319132,-5.582605193829815,-11.241110502825569,26.75900765484663,19.764191575016348
17.802461863822167,12.563967987797424,-6.197436836486542,-11.336657982011987,26.865580173234015,19.942261553452663
17.940773868237333,13.044727586914512,-6.810713330937556,-11.433567336252404,26.96833304043924,20.122766258099265
18.08146887214982,13.52663321023511,-7.421873907212635,-11.531708015524726,27.067156496859862,20.30551890989891
18.225911097131686,14.014098951956685,-8.036419754744912,-11.632028714855236,27.162812481584236,20.49226976188807
18.367789601439796,14.485955239913311,-8.627755645831822,-11.730139866947157,27.251247120481384,20.674858262713048
18.448994683732156,14.753002294107878,-8.960875645104545,-11.786102784037736,27.29947202212063,20.778989467004518
18.483447626070546,14.865649731058092,-9.101058206317099,-11.809804031855899,27.31941737574616,20.82308747487701
18.450365058132157,14.92686845074499,-9.169438474194063,-11.790592129483022,27.333162174157387,20.78846928290585
18.06333626224417,15.043808282424964,-9.252500110414518,-11.553005172311886,27.377895342034694,20.356172135032775
17.522474802126595,15.202393822678795,-9.364848182586453,-11.219949544774881,27.43880100163918,19.751703609765638
16.97702302961239,15.356688567422333,-9.473834934524968,-10.882887480260369,27.498356816748135,19.141714037892083
16.42886187037668,15.506121985044567,-9.579084645987011,-10.54299033540652,27.55631236953638,18.52831073851239
15.882646417146145,15.649486052922256,-9.679775559954514,-10.203169535080912,27.612142964146894,17.916710543442772
15.332193687802821,15.788440401129376,-9.777111307727727,-9.859626838989385,27.666532148369402,17.300011198201787
14.782078479687662,15.921838863729862,-9.870313119985173,-9.515233715861227,27.7189789043625,16.683342480555936
14.228011378464297,16.050732301410758,-9.960138657759929,-9.167324374302689,27.7698447213332,16.061901683932774
13.677661169241759,16.173397321311125,-10.045421888628363,-8.820767105491749,27.818484812280385,15.444311320285799
13.124454192293435,16.291370734822408,-10.127254217711926,-8.47145373714385,27.86545185594126,14.823203499172836
12.677765852339869,16.38276829318294,-10.190521239587826,-8.188718756832,27.90193733920342,14.321465673142608
12.567310067612128,16.40553433469888,-10.193161856616717,-8.117722002644193,27.897597021226318,14.195241810263953
12.584684121808216,16.41878324048165,-9.861310730146702,-8.103043081028051,27.553513228990163,14.15954634292126
12.612172132817292,16.434565084486444,-9.334568632635829,-8.080851177664373,27.012549913670888,14.104017769754734
12.640048102042565,16.444215314761742,-8.798305988027598,-8.059596667050032,26.468163059245096,14.04884458653428
12.668138803707734,16.44761421426461,-8.255849103925602,-8.039406510416507,25.923790099524087,13.994356045324341
12.696151493384734,16.444825380973967,-7.71299780308954,-8.020493700125426,25.385148602517123,13.941109403270454
12.724243101535418,16.435972868293764,-7.16656531430881,-8.002635683383938,24.848949136418675,13.888699593798076
12.752017625054801,16.42139232299603,-6.624434551102438,-7.986068715262519,24.322717037450968,13.83783942902537
12.779957926466013,16.401009601462825,-6.077248383690116,-7.9704590623775085,23.797194882438415,13.787595214422469
12.807530992210165,16.37540553786131,-5.535621432809424,-7.9560955322623315,23.282389039989717,13.738904041133079
12.835298220827937,16.34422261134459,-4.988374448943513,-7.94256977143355,22.767516273540316,13.690673564152595
12.856936479597438,16.31624657073147,-4.5607668558683585,-7.932688535614395,22.36878651790805,13.653644306468765
12.960045470998482,16.29323746539559,-4.494353440366189,-7.992345792867918,22.311823868187656,13.755221183879684
13.426547059678,16.201364137650796,-4.4313538307956994,-8.274655533274547,22.2757962789706,14.248234067707093
14.00630465223133,16.08221018686787,-4.349475456815467,-8.624708219404113,22.229266771401676,14.860776913332854
14.584898521618722,15.957734264327279,-4.263731643894597,-8.973142962158006,22.180884144542755,15.471902595522659
15.165423822547941,15.8271866973367,-4.173572693332883,-9.321776741707438,22.130354401938853,16.084867921492368
15.749416475161976,15.690070701806427,-4.078629083341182,-9.67149548824687,22.07757873971665,16.701291144362916
16.328296309802987,15.548345124217843,-3.9802216126256287,-10.017120322610888,22.023308202708726,17.312104244775494
16.908696177059106,15.400356413084044,-3.8771661213702417,-10.362574955415191,21.96690655661948,17.924294951288008
17.49449321430061,15.244925263048836,-3.7686070925928017,-10.710126804877536,21.908023337810818,18.5419484664697
18.082887045960003,15.08257493495739,-3.6548596180105597,-11.05804398521189,21.84686399213108,19.162093494379242
18.638729398154382,14.923380946583904,-3.542966342717531,-11.385586667524231,21.787198381800565,19.747689812874007
18.912167926569087,14.841651340380388,-3.4875667407123743,-11.546522117287939,21.759727319553626,20.036236274873836
18.85187430266442,14.732928862774418,-3.619566659976825,-11.530839818319475,22.007413829021516,20.02568821356444
18.726353210206877,14.500434492718538,-3.8932515864702695,-11.499096668920476,22.528012587378726,20.004358460323946
18.598316166806292,14.25448951080341,-4.170745212205512,-11.46801550031187,23.066048301870495,19.983512699913184
18.471815444005625,14.002487055873704,-4.4430977419061986,-11.438665323288326,23.60470602868991,19.963848885255594
18.346968908272192,13.744730306420161,-4.709949926368175,-11.411030519511021,24.14332440038541,19.945429992904874
18.223944880060728,13.48165325773191,-4.970868377574044,-11.385164287279597,24.68101302157878,19.92826963699093
18.102230076621765,13.212222208565526,-5.226855470862307,-11.36095832595097,25.21986685396134,19.912305699428913
17.981881300900124,12.936573593124429,-5.477703379152877,-11.338455547354174,25.75952941989397,19.897545434317113
17.863703216378486,12.656696978082978,-5.721652509059588,-11.31774830256078,26.29618008118211,19.88411977940892
17.784289749296075,12.463359782672217,-5.884178321296318,-11.304647446776245,26.660598335780666,19.875709184153283
17.752199119360327,12.384008753184306,-5.94951951954172,-11.299543729523865,26.808733148483125,19.87245411713417
17.58733661215693,12.424199001931209,-5.992444361187497,-11.200088254820868,26.843385897675514,19.693000420668664
17.108588006881398,12.564917405735994,-6.097108253937914,-10.90622729865104,26.89921091616424,19.1618416772034
16.573851171871077,12.71681885102294,-6.209787388577101,-10.576926892459264,26.959711784487165,18.56815186437063
16.03533530400677,12.864239707482643,-6.318842397930684,-10.24418779237393,27.01866715162468,17.969839787474765
15.495575567491658,13.006477881716966,-6.423779469143268,-9.909587952954414,27.075747424091244,17.369725147941256
14.955420612822802,13.143355045433369,-6.524505317051893,-9.573702542163808,27.130919686143695,16.768778998247722
14.41577752671327,13.274706738294947,-6.620925678564459,-9.23712270449203,27.184065704606184,16.168018820563546
13.872687869066578,13.401514897719494,-6.713788685264043,-8.897407995370456,27.2355643835713,15.563050186466187
13.32604929205368,13.523760404917422,-6.803103896987707,-8.554512202729375,27.28538965153541,14.953766946344489
12.783457279373115,13.639808858942795,-6.8877000641524795,-8.21323059612082,27.332822996915446,14.34864445059925
12.276672298125366,13.743486805675529,-6.963127419106825,-7.893685532575705,27.375364818099214,13.783164913288996
12.05064922507112,13.788270847411901,-6.995665202349723,-7.75093472409536,27.393795440599952,13.530877905591316
12.048086051307571,13.795527188581168,-6.820109088158614,-7.736607116457735,27.21299411639945,13.500317052287212
12.071582394527292,13.806032803659132,-6.326671630621461,-7.716838626260595,26.710493301669345,13.450209392193123
12.096972871921572,13.81144966923872,-5.7912793401822125,-7.6965861271307014,26.17119591683287,13.397051045424835
12.122388398845455,13.810824207537369,-5.253148893519906,-7.677429135507314,25.635157798680495,13.34482561777437
12.147675306507756,13.804324224234533,-4.71570593619142,-7.659475177023822,25.1056191452942,13.293829326573219
12.17302297839782,13.792045376620289,-4.174775221658602,-7.642477576313052,24.578344407802764,13.243579258386523
12.19837169431114,13.774115225671704,-3.6317769354404796,-7.6264826494674205,24.054613547676457,13.19418759073789
12.223672442141133,13.750700804301164,-3.0878141431932287,-7.611486465733692,23.53536203492148,13.145710885970033
12.249071131910977,13.72176417897101,-2.5397894571891912,-7.597374914314917,23.017539620242328,13.097836970126066
12.274509041767079,13.687447112450794,-1.9891089207841348,-7.584193504495412,22.502397457509822,13.050674201566228
12.298519504682602,13.65024272731441,-1.4675015761927552,-7.5725361857495965,22.019128090634233,13.006802449492517
12.309434734280892,13.635180303998371,-1.2437320106879457,-7.568047834200781,21.81083523274864,12.988559214915908
12.354169176182179,13.86153131327214,-1.52391699979699,-7.597828291253508,21.85843238108342,13.042873237655304
12.448436671992598,14.333274627604167,-2.105346954188001,-7.660450914815242,21.954920089556488,13.156965670083913
12.549642022134345,14.832031399464341,-2.716370964510095,-7.727481955637288,22.052932244801266,13.278916596334275
12.653892139938998,15.337707504201335,-3.3319715778229093,-7.796312540511165,22.14808132682693,13.40396300082281
12.758406438180527,15.83668787759931,-3.9355555241740405,-7.865096552500256,22.2377791580016,13.528751945269478
12.82707409588316,16.160299298516435,-4.324947132223316,-7.910168489207949,22.293715554827518,13.610431944953941
12.85089112773614,16.27177449658443,-4.458705471300365,-7.9257791970672695,22.31257509744628,13.638705687861497
12.78241429910212,16.301443040862836,-4.487223291635648,-7.884444513867784,22.32065918608739,13.566769825594266
12.34498616183864,16.236791801206685,-4.370578275346997,-7.617620969115789,22.326884531052208,13.10061177945881
11.767864588688905,16.14699864664094,-4.213293937575751,-7.265020293993154,22.333113275852963,12.485805934070946
11.191272866299133,16.052158555025223,-4.052252985768902,-6.912133942936112,22.337040124650233,11.87182552126462
10.616726269181838,15.952527391340139,-3.887843004536097,-6.559928832735953,22.338605759769848,11.260295480562752
10.040648180330031,15.847465811584163,-3.718995150955783,-6.206260464706515,22.33785227856446,10.647417940624303
9.463111386887919,15.73691355765973,-3.545630873164404,-5.851205519726339,22.33469764632934,10.03328701577114
8.887226776524017,15.621431925071024,-3.368613147890729,-5.496714249636652,22.329094049467365,9.421226735210183
8.309823936676047,15.500351500352739,-3.1869068654623742,-5.140881496578864,22.321041391128794,8.807877688495301
7.732605320200693,15.3739676902235,-3.000950721997533,-4.784792137973949,22.31047559524499,8.195068093540403
7.15489880043146,15.242084457326683,-2.810445399738506,-4.428073093468843,22.297351320407383,7.582100800307573
6.575710552083335,15.10439986548612,-2.6149601775014895,-4.070152024409667,22.281625791137525,6.967937622168554
5.999338769912418,14.961902412247616,-2.4158697447181234,-3.71372654374754,22.263366901499413,6.357154771760674
5.432827202155791,14.816458913471452,-2.215661921449853,-3.3632006620384747,22.242815930124397,5.757225445826234
4.907380815128118,14.676740780654152,-2.025885594165629,-3.0379442135023824,22.2214716602439,5.201152081499233
4.682019711614374,14.615384266219008,-1.9432693882867813,-2.89841031229197,22.211642049487146,4.962766934313069
4.662251217595057,14.51514479011024,-2.060258494048323,-2.89070176554873,22.429568424629924,4.953795264273615
4.630570224332692,14.28151564494794,-2.3346024260804383,-2.8817696593816042,22.93845624400706,4.948002405481518
4.597927468581143,14.03183894660046,-2.615741675098015,-2.872895440335952,23.470207554482954,4.9422608463107975
4.565644307578057,13.775669920915208,-2.8920887577867758,-2.8644600633791444,24.003641434636936,4.936820698346993
4.533815268659402,13.513801359890897,-3.162728840958762,-2.856488310150314,24.537047693199757,4.931700612919096
4.5023144865033755,13.245233976218984,-3.4286259705560767,-2.8489491537218865,25.072393324546315,4.926883304237503
4.471364060870605,12.97194996488168,-3.6878119946174808,-2.841894449805485,25.605721915867615,4.922404338359813
4.440919503606107,12.69373752753294,-3.940589108438136,-2.835309431014726,26.137548905970085,4.918256384549501
4.410831301016005,12.40933275397059,-4.18811318904227,-2.8291602250526284,26.670298340641942,4.914420330280977
4.3919002590570795,12.225441221723708,-4.342600420905545,-2.825480245051453,27.0091897359028,4.912146552450503
4.383969289720337,12.147243332337677,-4.407020065331284,-2.82398300165388,27.152021178005807,4.911227028642613
4.501108621677281,12.128516311947468,-4.408965510881661,-2.899746460673204,27.16687901846508,5.042684172036383
4.955454651476453,12.093532804047875,-4.382772627446684,-3.1916472500624162,27.151732448082488,5.54852092864472
5.503480075252138,12.04680407652715,-4.3477604923784945,-3.5434095459345314,27.13153049253039,6.158521241995056
6.0479645593779425,11.995448156940363,-4.309242962799876,-3.8925087186147183,27.109326644860744,6.76441817908471
6.593530620547256,11.939040595556854,-4.266898946626641,-4.241877882480975,27.085008345170667,7.3713464766974
7.139435086426487,11.877611709896176,-4.220735824650074,-4.590998792873695,27.058568428943254,7.978459995310466
7.68634888478374,11.811038600824721,-4.1706452403037035,-4.940257215738073,27.029939263437683,8.586485047644944
8.233003390136185,11.739435448947095,-4.116704582658861,-5.288808606764491,26.999226461519534,9.193999649413753
8.778992039712897,11.662834986330434,-4.058922087551316,-5.636355527676632,26.966442989094656,9.800534954325647
9.32423828640359,11.581231627916766,-3.9972769455032844,-5.98281251461074,26.9315929119206,10.405989805041912
9.842615975757719,11.498880715499503,-3.934970070552419,-6.311584265818556,26.896467158130875,10.981352282345751
10.100567665195818,11.456160422040924,-3.9026149774277954,-6.47495995748616,26.87830791646846,11.26756894944087
10.150063216458099,11.474961593084114,-3.8246976649137636,-6.500633671549905,26.776667864106084,11.309948000755659
10.186464774994382,11.591899026506999,-3.4862030328244407,-6.497761550306473,26.320081564048788,11.292368516986672
10.229984641297044,11.725071706891839,-3.0799558564161464,-6.49517287109923,25.7792543318546,11.272050441110755
10.273730341986047,11.851836677014935,-2.6699807569411247,-6.493466325417147,25.241070709297038,11.25236102973364
10.317945105237907,11.972918982667784,-2.2540556355423957,-6.49262095196194,24.70257611306986,11.233174121122742
10.362610598378637,12.088238147130063,-1.8323990389521096,-6.492632544884307,24.164070559872435,11.214486477952672
10.407707101332687,12.19771349927165,-1.405291139211306,-6.493526977035632,23.62590054610706,11.19629964544675
10.453410910000969,12.30174874114502,-0.9710157267415028,-6.495243257869405,23.085971213470195,11.178522206768564
10.499495498903881,12.399781978117549,-0.5318161949221113,-6.49780188636173,22.54708077756818,11.161237803934158
10.545669192618137,12.491277121005512,-0.09054073871661979,-6.501170387512536,22.012624801603305,11.14453489830578
10.574628309588254,12.545307147933253,0.18680600261148783,-6.503681812956083,21.68017899375144,11.13436010469538
10.582855083407761,12.571948394037564,0.21793069790293682,-6.506065102970852,21.62187599621859,11.135896000537468
10.633767940373408,12.876899714852438,-0.16365145321570262,-6.540349907952171,21.692369555303745,11.198344303042733
10.715619409177386,13.361088262317077,-0.7666190383782072,-6.5953476868502525,21.801234597289028,11.298387418896745
10.779401381996802,13.733322635701064,-1.2277463836503761,-6.6381004431222586,21.882361884324148,11.37604684489176
10.800841943564379,13.857475436806576,-1.3810785514447497,-6.652451528612677,21.90892287548059,11.402094389501585
10.799074356345338,13.87092066379475,-1.4657429953123267,-6.6547042234084985,21.979862413173777,11.409142994848937
10.738918185413217,13.680368071433918,-1.6950471586577336,-6.637992113138677,22.403702664970524,11.39855407650504
10.664146462542458,13.435408529443146,-1.9785868339412505,-6.6179016358892895,22.93711971104439,11.385855225941365
10.590615937707087,13.185475192177947,-2.255672627025428,-6.598907832541774,23.46893809954237,11.37389093223635
10.517888088815818,12.929158019063394,-2.527864113550744,-6.580894181182216,24.002156809828385,11.362593832309202
10.446026462616468,12.666685620875494,-2.794833004625186,-6.56390325475738,24.536210231230896,11.351973970659836
10.375000027631842,12.398001077411594,-3.0565706597653666,-6.547888312792167,25.07115764069031,11.342046712718167
10.305345658475689,12.125271868274858,-3.3110302106768517,-6.532971548077496,25.602749576962253,11.3328845280842
10.236401881311469,11.846030070890514,-3.560557614704983,-6.519013330445488,26.135840924682757,11.32439933426233
10.179270117151846,11.607416648454272,-3.765444384365626,-6.508076306895947,26.582894957607163,11.31782756644016
10.156357190300715,11.509842036416247,-3.847108059106605,-6.503854725818207,26.763551332698068,11.315312960797419
10.143559132642421,11.45486734245835,-3.8925910273001625,-6.501538499001837,26.86479926029965,11.313939208252751
10.167245278138918,11.607621939859193,-4.100349349285749,-6.519638336522692,26.91678581014771,11.34709003426366
10.236400808073387,12.041857715811991,-4.6547402863271365,-6.570241814882081,27.02834205624328,11.438895071870574
10.314379353484403,12.524766415736641,-5.26783217320704,-6.627127763757196,27.148775278009687,11.541992473570144
10.393850651426504,13.009798941838692,-5.879953394147545,-6.684912379750397,27.265868740139027,11.646610437929718
10.4753115701376,13.499742911619906,-6.494520683450318,-6.743943394444157,27.380185449473394,11.753378642619074
10.539815953208537,13.882627277708835,-6.972157072566347,-6.7905724853329845,27.466722845807205,11.837593880487988
10.56202588479048,14.013460030667206,-7.134834254982555,-6.8065877029128,27.495733242460854,11.86652146268507
10.511468324499882,14.069663868724446,-7.199475395844641,-6.775106712513811,27.510050835713365,11.811454187874423
10.10352006617235,14.137435465768752,-7.2484019434617535,-6.51546511973898,27.538203292678308,11.355361213302201
9.555638018379767,14.224023299376192,-7.310823534348306,-6.1661489165009975,27.57426845895487,10.742593919358617
8.998133064991805,14.306955452738803,-7.370515040737963,-5.810009877284409,27.60890435316375,10.11881028692874
8.45177912230606,14.3832011535286,-7.425311400538294,-5.460358650657059,27.640822648246107,9.507268729525057
7.897449285877841,14.455509101928776,-7.477202785178491,-5.104996899536967,27.671142935204777,8.886575495586657
7.342750510669235,14.522808598777,-7.52543958643353,-4.748834540705371,27.69945084971365,8.265262772129047
6.790966638210419,14.584766573534498,-7.569793963040328,-4.394018825399215,27.72556652504325,7.647022011156182
6.23903245082222,14.641792951313,-7.610568476009317,-4.038618073088367,27.749618742164166,7.028432350998019
5.6856696058061935,14.69402702583629,-7.647881634851643,-3.681854446357583,27.771718483229836,6.4080800775394104
5.134702127580246,14.74114355424571,-7.681507722284857,-3.326229498831424,27.791686235336897,5.790264332560813
4.690885298770162,14.775563106083279,-7.706052701176581,-3.0394972691621898,27.806286927723416,5.292501171052159
4.571418096476407,14.786872220729794,-7.705612086130716,-2.962022570472041,27.800739979624275,5.157957514106202
4.583452280819006,14.874753793881515,-7.47226507544616,-2.9610896630624453,27.47932371854163,5.152679525233206
4.603749176765736,15.017144954569774,-7.077624697662799,-2.95986341309618,26.94197016552347,5.144077761608605
4.624477563412754,15.155190906808803,-6.673287483116836,-2.9590458826238235,26.399251298000674,5.135666452163652
4.6455188988284615,15.287915628350214,-6.261596433527621,-2.958648042254473,25.85448798471265,5.127496087978006
4.666842467514482,15.415027594663215,-5.8432009164541086,-2.958671727056592,25.30862163213051,5.1195765137637625
4.688336023672881,15.535839326714454,-5.420365579604063,-2.959113734785903,24.76460633331005,5.111943573972925
4.710092879945668,15.650871521541626,-4.99131980498865,-2.959972355200958,24.22014926285511,5.104557743319127
4.732028890199196,15.759674666359484,-4.557788086910997,-2.9612409870581384,23.677425979222235,5.09744142867093
4.754276468777575,15.862882658876293,-4.117216914128231,-2.9629252964536397,23.133246796841615,5.090546477671189
4.773550466783185,15.946648763660571,-3.734885364391476,-2.964696690159309,22.666797848537573,5.084823459459081
4.7801982270828205,15.974351279950149,-3.602888123465533,-2.965373056746459,22.506975938997172,5.082901529855082
4.790684879704773,16.100328352785386,-3.733003485022673,-2.9719471875117986,22.510578152972506,5.0942062895570706
4.825523119082846,16.53840203781551,-4.2544704943400795,-2.9953010461680427,22.592086771588388,5.135708882375642
4.86533809240059,17.031796514577703,-4.838174202921862,-3.0219211090540465,22.680229167936577,5.182943218885249
4.887794690374782,17.306752597729933,-5.161790497979999,-3.0369026371458783,22.727661180520055,5.209493082746675
4.88562469626723,17.30972886159098,-5.2515950314989865,-3.03748928357905,22.814479886970812,5.212185169834928
4.855916428629806,17.105476612512206,-5.489582073927742,-3.028998251985869,23.257638124776662,5.206065796222345
4.82025386744513,16.851619643096658,-5.774128237276282,-3.0191447266609335,23.797136041601334,5.198966187051944
4.785267323131955,16.5930739511952,-6.051916719940158,-3.009851769534644,24.33453522690999,5.192275027774012
4.750888948368088,16.329531850188346,-6.323394484469763,-3.001095857379794,24.870592702758074,5.185977998685133
4.728499981475571,16.15268515171877,-6.499323374614366,-2.995600984500391,25.224039210161223,5.182031779320453
4.719208054047677,16.07805535458304,-6.572121842477641,-2.9933697943586095,25.371744788343502,5.180431000867737
4.704408386379528,15.957670313199323,-6.687797015688251,-2.9898769302881902,25.608245305434426,5.177927205391758
4.672401221659096,15.69081312585615,-6.936749699896071,-2.9825844106007953,26.12500152111258,5.172710149970203
4.639269171799583,15.404912589579583,-7.192597582702368,-2.9754585468588326,26.66771595451428,5.167601636427397
4.606937610840607,15.11621904977277,-7.4401932127458394,-2.9688692443009153,27.204943964556694,5.162926297526535
4.583226267457493,14.89819438628996,-7.620393831522648,-2.964295564258671,27.60385222317127,5.159697553961549
4.574064148314072,14.81248965495735,-7.689692557519992,-2.962588550205727,27.759118307111947,5.158496778133544
4.574238275731072,14.827143761363388,-7.7647086269565415,-2.9643454639525366,27.819390593205362,5.1622195903460275
4.600473617138778,15.179846636980416,-8.19526838376462,-2.983431714094195,27.89579161818551,5.196199656920687
4.637883818418711,15.676493982280787,-8.798133085652863,-3.010568445798871,27.999921904302898,5.24446763958239
4.676455350165217,16.181034459295635,-9.406472307972315,-3.038449948561874,28.101555189753167,5.294007822202794
4.715749923206663,16.68741913458308,-10.012853175125242,-3.0667521107926405,28.199331198432393,5.3442433381897105
4.753901321883628,17.171945016649946,-10.589119262223694,-3.0941324368066763,28.288902233897364,5.3927947842795145
4.773851331111062,17.42258692361079,-10.885700427617936,-3.108411473469745,28.33370189314204,5.418096696873098
4.879875832195057,17.44842800784551,-10.920060921912453,-3.177442990639115,28.336439614259984,5.538122318487963
5.329813427845979,17.413263068252764,-10.896227230457999,-3.4695027505041924,28.321836398878244,6.04586164647856
5.897008407999908,17.364451048879346,-10.863117915198496,-3.8373183594824622,28.301605150246555,6.685806688171627
6.462229334790961,17.310812220833903,-10.826694443105183,-4.20341456962693,28.27938318974943,7.323381368376836
7.029469409543776,17.25194258889888,-10.786679213150794,-4.57034223888859,28.255076864973976,7.963080729202745
7.5937753202808915,17.188338190090533,-10.743390251123246,-4.934849766458337,28.22884176029946,8.599301014594365
8.161080784756377,17.119300143257977,-10.696346816611747,-5.300736418639288,28.200468134860692,9.238723940948704
8.725297299875654,17.045535604390523,-10.646012990191645,-5.6640302670711655,28.17022967070617,9.874471158315947
9.293117285803486,16.966126141426457,-10.591743045340907,-6.028992950130991,28.13773536726741,10.51406656125589
9.85842302667872,16.8818744496718,-10.534076445948047,-6.391658975022868,28.103392040461454,11.150611358642
10.427707920264373,16.791749419158304,-10.472281928976997,-6.75613904993691,28.06673688775126,11.791396097333488
10.896008907551774,16.71360852907726,-10.41861992057262,-7.05538784545877,28.03507170638616,12.31832818324988
11.03643106526855,16.691033420583018,-10.39631587878082,-7.144533245185936,28.018097626730185,12.475272906863212
11.05819458269637,16.748610167906012,-10.165644437905883,-7.139364967183803,27.729397408243535,12.459004599335698
11.098846077809842,16.85090324078295,-9.733742772523392,-7.13053643723556,27.194326580363544,12.429358844343886
11.140442893954628,16.948652924821513,-9.290471456522592,-7.12257879665836,26.652367931981168,12.399984846593412
11.18251616885689,17.040591688755324,-8.840842775765907,-7.115594735405016,26.109811635675687,12.371218224013964
11.225240332792296,17.127015533716225,-8.383025447216509,-7.109556212911802,25.564526577632982,12.342933079679339
11.268394076502913,17.2073985222786,-7.919484445145262,-7.10452733364133,25.019500971953587,12.315281719479517
11.311854885037638,17.281551216220468,-7.4514751204812715,-7.1004410724667775,24.476200502799678,12.28829371163633
11.355769265517198,17.34972868731717,-6.977527426182144,-7.097305541154424,23.932888541220027,12.261874110607943
11.400261897340883,17.412081200677935,-6.496338304313083,-7.0951089771832505,23.388108877250584,12.235936894428589
11.443342264829589,17.466188670927732,-6.029536129986603,-7.093887843270259,22.86596797170997,12.211581878829085
11.464051013541324,17.490048862842986,-5.804913553476462,-7.093641479333389,22.61687350822229,12.200139859262682
11.389335769251444,17.473401828245045,-5.73645376862976,-7.045606158132794,22.57446437457424,12.114592286030987
10.938585882846583,17.35297147518244,-5.560152982936249,-6.768786481092423,22.572073709341336,11.63289236645797
10.371680657212421,17.1967548356216,-5.3344070204749645,-6.420167075109584,22.566740265266723,11.02733301801467
9.802451566572897,17.034518620629314,-5.103143334703988,-6.069633424818543,22.55872542087668,10.419612519486995
9.232554417332969,16.866632380069177,-4.866890867522178,-5.718238943918464,22.547955562409104,9.811521714042923
8.663479341935021,16.693477402313604,-4.626170578489559,-5.366951478474841,22.53447542052809,9.20466670731622
8.095136918100426,16.514982215837062,-4.380847529144298,-5.015755229913021,22.518216528936517,8.598972931283507
7.52536945246941,16.330389208258065,-4.12986340589766,-4.663358325144936,22.49906389661358,7.992163362933151
6.952618623696349,16.13905239529689,-3.8723438055073887,-4.308833983837997,22.476849643242954,7.382609202397251
6.383427265033097,15.943089950146499,-3.611117419232458,-3.9562800982708466,22.451843586602276,6.7772915862037095
5.821720380146443,15.743941272813405,-3.3480036909645032,-3.6081743471517886,22.42422209657112,6.1803987673920044
5.2654802021972795,15.541007454815384,-3.0821067482706246,-3.2633139276249366,22.39393667409263,5.5897954864520365
4.711285199840481,15.333070791279287,-2.81175746039592,-2.919620561130603,22.360777079302295,5.001868849871143
4.155305039401272,15.118612216507,-2.5349573815247806,-2.574761478252757,22.324527317300472,4.41257366935135
3.6035735069524852,14.899906315610178,-2.254596206397856,-2.2325195563650078,22.285516202703274,3.82833300273528
3.1848829305995423,14.729965706583458,-2.037970558212496,-1.9728167943777835,22.253850229985876,3.3853575792329584
3.117967574175537,14.670933512855935,-2.0445135994745276,-1.9323221997252866,22.3216163546945,3.3172529101636816
3.0996959746824353,14.471833028650101,-2.28151939859895,-1.9270884352666842,22.758076170225525,3.313845638025466
3.0776319683444053,14.223014042166342,-2.5663352826291734,-1.9209741231376098,23.292134937701473,3.3098728024582824
3.0559378546854226,13.96912213411233,-2.8447452771192587,-1.9151898222621928,23.824850352130866,3.3061249183694335
3.0345959554107846,13.710101773895769,-3.116888977829263,-1.9097281521336962,24.356417970909302,3.3025988643481603
3.013421318408118,13.443739051719877,-3.385016812459981,-1.9045422003624413,24.891305678136405,3.2992661325135306
2.992501302190414,13.171105418654308,-3.647903425420714,-1.899655349572527,25.42721505579257,3.29614360540833
2.9720577670244706,12.895284140768041,-3.9026905496219353,-1.8951160309465362,25.958200543680697,3.293263608391916
2.95182189945627,12.61282065065333,-4.152656937539986,-1.8908617421366136,26.491000510328032,3.2905878330849947
2.934313204063118,12.36061052019717,-4.367002118397628,-1.887379764682302,26.957873437236216,3.28841960615989
2.927070229452132,12.25410678722941,-4.455116802432415,-1.8859948848410817,27.15262252891226,3.2875639326906985
2.926515679601325,12.256563291495562,-4.521727964836805,-1.8867224496810986,27.21676049135707,3.2893208912482974
2.941706920091372,12.587744850927955,-4.939412140377533,-1.8979800488370921,27.302718704534097,3.309460152878174
2.9642046713161703,13.072271608713573,-5.547381114649273,-1.9146110349844259,27.4253506234871,3.3391801173343945
2.9874696780966055,13.56606427667074,-6.163151898781115,-1.93175728378727,27.546485735914256,3.369782437210211
3.011067374857511,14.059610361767763,-6.774735944604066,-1.9490945801179422,27.663663391828575,3.40068776857856
3.0352719056326447,14.558438343317448,-7.3889032338205025,-1.9668208764093769,27.77811480636735,3.432248756624462
3.0599032575071807,15.05859654807875,-8.000688351995917,-1.9848004991407595,27.88883251340845,3.4642234400952145
3.085130507649189,15.563289966250926,-8.613919689460193,-2.0031530078578768,27.996433342961996,3.4968241290499673
3.110861851325201,16.070427662064134,-9.225951097401301,-2.021807432051194,28.10036513256637,3.5299243236462248
3.1371757510778875,16.581314624867556,-9.838259882737349,-2.0408164533034427,28.200796905522832,3.5636171460245225
3.164092724333027,17.096074760174787,-10.450879529995666,-2.0601902773659972,28.29763706862075,3.5979201823578015
3.1839052479457797,17.47005071988214,-10.893213098931671,-2.0744048329741602,28.365240124464897,3.623065803477436
3.188493036846443,17.553204723764363,-10.977303113463263,-2.0774076402837265,28.36601040923752,3.62828026839203
3.1930240121804143,17.56532773428793,-10.64481941058203,-2.0736581093487914,28.02146693134734,3.6192193443618965
3.20018203328235,17.579318096382014,-10.117974636700252,-2.0680024261800956,27.48072856486366,3.6051524679387805
3.2074321091008025,17.58717685090072,-9.58242734975731,-2.062597488796912,26.9374167923252,3.591201806652831
3.2147659960402875,17.58881648466486,-9.038779083642181,-2.0574490996092445,26.392220599419016,3.577380679993199
3.222084954397393,17.584275218841086,-8.49438346096763,-2.052619455441277,25.852454277114685,3.5638664025090345
3.2293822991617276,17.57374898334532,-7.949810423762669,-2.048099661043225,25.31849195063927,3.550656991503727
3.2366263210109656,17.557513814450274,-7.407509009365243,-2.0438946232590225,24.79250646122949,3.537794357634776
3.243887836235744,17.535589294964403,-6.862243794524134,-2.039951446087112,24.26924376515706,3.5251399886665817
3.250404812774938,17.511203615758777,-6.371517535863744,-2.0366369277564083,23.80297078865996,3.513978586780278
3.2529213210851236,17.500639368169022,-6.1821072912718265,-2.0354491615336374,23.624136567900457,3.509740770690041
3.25850722896865,17.47484426239632,-5.7600821304787875,-2.0328387205760197,23.227962037938248,3.5003724776466276
3.264132843735318,17.445712171833108,-5.334154901952372,-2.030356918268636,22.83122129888002,3.4910630164186807
3.260451587178047,17.35898889053014,-5.175397381995208,-2.0269986833335425,22.759359681225213,3.4843952530937305
3.2382242078601013,16.950191559551126,-4.69444946315671,-2.0121364388359573,22.688019758865376,3.458100574692304
3.210785163038066,16.438211145312017,-4.088385566677298,-1.9937420461561255,22.594931102802356,3.425506892957971
3.1839565547392463,15.929550424681882,-3.482167715383898,-1.975706089327446,22.49834032862766,3.39349318384552
3.1574409774375956,15.41872834101638,-2.869293796572885,-1.957831105387461,22.397237399789795,3.3617095144287377
3.132909869913067,14.938739200037096,-2.289701342332708,-1.9412500398801102,22.29850649319046,3.332175343176814
3.1209834200443796,14.703207269698657,-2.005292486949731,-1.9331929110049395,22.25005100208975,3.3178223613582016
3.111297325343369,14.598971651084554,-2.1311393878240463,-1.930386337847317,22.480321409679988,3.315994114960237
3.0899894987485235,14.363525211677251,-2.407001589255268,-1.924362691674924,22.99204115517511,3.3120753315666556
3.068040025682166,14.111912724118332,-2.689631512213492,-1.9183804947456207,23.526703808322637,3.308192656286297
3.0464471607139028,13.855095296113936,-2.965979297120581,-1.9127246456676117,24.060279158597943,3.3045333546472624
3.0251696967459223,13.592706529632835,-3.2364804937457485,-1.9073824165905622,24.593570019835372,3.30109087036616
3.004180464797094,13.324500782416273,-3.501384695646462,-1.9023459999017103,25.127072208402623,3.2978618403324913
2.983502228242692,13.050865408554927,-3.7603125587505284,-1.897619795151201,25.66001866927544,3.294850686560293
2.9631323848836826,12.771888010940645,-4.01321265523269,-1.8932016004324173,26.192270494654196,3.2920574980568458
2.943043224621748,12.487300117166116,-4.2603450139796815,-1.8890841681528951,26.724356763520067,3.289479153603707
2.9305565237783537,12.305547098204276,-4.412730503093721,-1.8866490611517592,27.0587211634367,3.2879685031309798
2.9251573194225275,12.225779941138898,-4.478316752720081,-1.8856263308801122,27.204171857028566,3.2873377924881466
2.7368819743383996,12.232261900819655,-4.486541501041022,-1.7644138599976793,27.211868790063342,3.0777399546872988
2.240081414896361,12.252311428122823,-4.5015177401557285,-1.444289282483932,27.220587730611584,2.524247437169407
1.6959774175559974,12.269667781912526,-4.51447841742142,-1.0935341072074565,27.228143751796193,1.9179924817440002
1.1516094604741993,12.28222370839074,-4.523848417077668,-0.7424899850047868,27.233582976477997,1.3113939180882959
0.6073830944110818,12.289976212787309,-4.5296356636266975,-0.39145581779278626,27.236965440747973,0.7049209056644146
0.06220237821503491,12.292932263083149,-4.531843058242058,-0.03976311363505238,27.238261056687183,0.09736681985922245
-0.4816555862061513,12.291086210434635,-4.530466938611802,0.3110808769251383,27.237466595056905,-0.5087150814917833
-1.026426406215415,12.284433692866175,-4.525499889813526,0.6624779433263913,27.23454908749502,-1.1158003167978503
-1.5711760882629622,12.272973511638604,-4.516947352228571,1.013791032890093,27.22957251203421,-1.7228325938511446
-2.117872680240232,12.256632452494143,-4.5047485711327,1.3662486543708954,27.222475490956114,-2.3319890456498644
-2.6345129459950996,12.236726836275546,-4.489883248256283,1.6991914976584204,27.213830632993282,-2.9075991830187253
-2.9001379025770215,12.224801545514756,-4.4809730010486915,1.8703059881829676,27.20863806992665,-3.2035167043006427
-2.928370800606928,12.259880931711312,-4.378527292838917,1.8861635519272262,27.070272000874773,-3.2298667058481723
-2.9396467365360492,12.383666391022945,-4.020621536680034,1.8853819557959324,26.58847422499192,-3.224608061308031
-2.952396443760504,12.516814706044084,-3.6144649471779506,1.8847518234089757,26.049046421502485,-3.2188737347981338
-2.9652684368395463,12.644090574823773,-3.2029227520127237,1.884378982084112,25.51010179137764,-3.2133021854910777
-2.978264169641905,12.765499553144116,-2.786003042516401,1.8842610983177324,24.971642894041665,-3.2078888039236095
-2.991391975125627,12.881106294784022,-2.3634923553802736,1.8843961371550053,24.433391564904223,-3.2026263685943572
-3.0046527598367576,12.990901828379945,-1.9354148931328807,1.8847824495121492,23.895381002785616,-3.1975109633700796
-3.0180821433931397,13.095139621328252,-1.5006702096123796,1.885420440990131,23.35625695043953,-3.192526057369818
-3.031704980249512,13.193929902195725,-1.0584968828970969,1.8863122537108545,22.81514750795648,-3.1876608137178684
-3.0450750785520295,13.284273719912157,-0.6234723863522574,1.8874186147771568,22.289633989237558,-3.183064383364221
-3.0525668159241155,13.332100746510998,-0.37928694885389674,1.888135661788173,21.997539298099806,-3.180563014055494
-3.0555328704422933,13.373575454581637,-0.3749562296705999,1.88935803653166,21.951663505096526,-3.182050252149835
-3.0719597827337504,13.711928950184788,-0.7920829800602576,1.9005549437943976,22.029864542447974,-3.202113739882995
-3.0965054491105053,14.210904459739353,-1.4040130280089003,1.9172505200739682,22.141959614142884,-3.2319833003230527
-3.114791672312202,14.577621848787775,-1.8512945084305619,1.9296610601145756,22.221879962458967,-3.2541512943455695
-3.120868267383618,14.69855580833997,-1.998339875904107,1.9337799474303041,22.247776800493533,-3.2615020386480422
-3.1130252283259776,14.616634136619417,-2.109986471190257,1.9316068254232153,22.441493102488987,-3.260289146943416
-3.0920859407087296,14.385911688774668,-2.3812652465995683,1.9256729893304347,22.943898618907454,-3.2564341414023494
-3.070184365140287,14.13563801645794,-2.663502931451763,1.919686163887651,23.47682965120938,-3.252553857517193
-3.0485711726937548,13.879388268967295,-2.9403485544335752,1.9140067903695044,24.010335898799713,-3.248884508811021
-3.0273031604842755,13.617934490368418,-3.2109784493142226,1.9086484639014691,24.542820646197292,-3.2454365847809177
-3.0062809225802405,13.35013439863797,-3.4765596870852122,1.9035853838723111,25.076595186499237,-3.2421951684593147
-2.9855364276322605,13.076440391345598,-3.736585184159612,1.8988254621426013,25.61069949177266,-3.2391670299246385
-2.965119083775066,12.797614355939691,-3.9903482911202963,1.8943787276822013,26.143664179591656,-3.2363600759909343
-2.944977857995859,12.513078686178023,-4.238400444302265,1.8902326193219126,26.676619302803648,-3.233767827689667
-2.9312145297637295,12.313073451073912,-4.406508203550073,1.8875415893648606,27.044981443553006,-3.2321017411667397
-2.925780636608744,12.232838737365352,-4.472550701846467,1.8865117320903781,27.191356602480354,-3.231468221945324
-2.9304432385296444,12.339299640498053,-4.626242340527695,1.8903142689018113,27.238409515193972,-3.238410444549156
-2.9495303370816224,12.75386633381241,-5.148280055153163,1.904448672393129,27.345195559795396,-3.263687914255067
-2.9723372524079887,13.242588674782587,-5.760214024566462,1.9212912076539437,27.467584154600164,-3.2937729476474376
-2.995752168743275,13.737040765302725,-6.37546630617359,1.9385298768342243,27.58753422165503,-3.3245271730583226
-3.0195134761023033,14.231479261659658,-6.9868017882316265,1.955968595196416,27.7035631955129,-3.3556004590797777
-3.0412307761557207,14.677120797331563,-7.534445205951202,1.9718586113386671,27.80476707475391,-3.383882426417906
-3.0503567263916995,14.86264286916228,-7.761488655036438,1.978521973729952,27.845951795310352,-3.3957335449552883
-3.052902010117436,14.879650088038476,-7.623217000394072,1.9773467148648975,27.69067823928871,-3.392529229848319
-3.0585129283871972,14.888633543825918,-7.1691099925047785,1.9726725266939558,27.227671009863187,-3.380809831579993
-3.0610355377417733,14.891210587050985,-6.964442951077925,1.9706424078627502,27.020463575772705,-3.3756052299078863
-3.0634228521803393,14.892823555881328,-6.770468113834769,1.9687611761641208,26.824910025271407,-3.3707156722578344
-3.0650123126142885,14.89345567982785,-6.641168737388376,1.9675299662669237,26.6950011043794,-3.367479299935704
-3.0680473335888054,14.893689279036575,-6.393941578805812,1.9652257268227644,26.447582964433337,-3.3613412406787573
-3.0743238401176134,14.890166126113526,-5.881296691659209,1.960651351286956,25.938547349494925,-3.348817048937266
-3.0808885251733513,14.88080467880364,-5.343177363265303,1.9561345781107877,25.40987674640441,-3.335953753241368
-3.087469953413954,14.865716958838462,-4.801748680694016,1.9518718477033996,24.883620549833218,-3.323289569981891
-3.0940531200992045,14.845035495014526,-4.2582867013809045,1.9478652090757467,24.36092221439718,-3.310844427050817
-3.1006499399988035,14.818846335757806,-3.7122804239532456,1.944136101021894,23.841175437615217,-3.298605446420143
-3.107263485404939,14.78717627353914,-3.162651958320619,1.940603747067585,23.323294722289297,-3.286521960020719
-3.1138560017141517,14.750343665550128,-2.613011896774549,1.9373169688656782,22.810562453139,-3.274672815433606
-3.1195750840104273,14.714220550441214,-2.134803400354298,1.9346495661255654,22.368540556516244,-3.264545498262242
-3.1217358286969255,14.715794869843641,-2.0192814134989474,1.9343647752882323,22.2514397872762,-3.262550833734552
-3.1365917112946065,15.009375836068608,-2.3752279254292414,1.9444226981023036,22.313279280588002,-3.280486151720014
-3.1619613462969665,15.504563135362202,-2.972568687828701,1.9615630025336088,22.414529919482124,-3.3110079706410436
-3.1885797233145325,16.015991388072454,-3.5854811171579257,1.979498533689153,22.515060778940395,-3.34288973606476
-3.2158228359883947,16.531069515904303,-4.198622028815559,1.9978037317080986,22.61214146867101,-3.375371374344231
-3.2432021030175857,17.040478016612155,-4.800905843570283,2.016148293769843,22.704023273922463,-3.407866733540532
-3.2609062580094457,17.365598225367187,-5.183159394363333,2.027982642936096,22.76051072410318,-3.4288009911131407
-3.264497296837482,17.43563745651821,-5.27840714715778,2.0305870807513333,22.7855791890455,-3.4335736516905784
-3.2494574707464277,17.28221547035111,-5.458722101199419,2.0262373459448404,23.11962774334228,-3.4304348783861234
-3.2257004853357603,17.032268985594627,-5.742591385464732,2.019565124703649,23.65393245263047,-3.4256208679476754
-3.202099253158174,16.774454800392757,-6.023295083968795,2.013186207933492,24.192932012791683,-3.4210209778233907
-3.178912619138015,16.51161310530965,-6.297634890204572,2.007171606484791,24.73058270690279,-3.416688245127682
-3.1603415115699565,16.294035789951465,-6.5162237954421975,2.002541587706709,25.16712179027729,-3.4133575843127733
-3.152940686684957,16.205535954281107,-6.603028728857233,2.0007442595365923,25.34257441193448,-3.4120661207029928
-3.1461698395546347,16.12366018832942,-6.682284273017456,1.999124245493111,25.50384061688316,-3.410902908095568
-3.126217466493726,15.877246766957395,-6.914896869511013,1.994488376785091,25.98326205237566,-3.4075795343770086
-3.104151997370819,15.595576990455891,-7.170393053064924,1.989608665974437,26.52086161373766,-3.4040922637504147
-3.0823479519612675,15.307487835254618,-7.420884569430968,1.9850519104878839,27.05986685709323,-3.40084963972817
-3.0627997358940853,15.040693565238099,-7.64363852577418,1.9811996534351402,27.54979236863156,-3.3981225419506615
-3.0541800507101176,14.920431614754259,-7.741276330287869,1.9795732366463537,27.767857458761277,-3.3969761457008105
-3.0247449606891883,14.876816610408683,-7.778169028677569,1.9619793723801624,27.849323433593877,-3.367105310786137
-2.6711671447039906,14.892648623431695,-7.789434686538005,1.7328833410693323,27.85609201632408,-2.9703072825674948
-2.122639309850218,14.913306244999715,-7.804122037570072,1.3773213795523043,27.8648713129231,-2.354671134841082
-1.567279674508382,14.929395984961383,-7.815560883584384,1.017177777524307,27.87174073913357,-1.7313127245237827
-1.0084176109198193,14.940693023233676,-7.823590541688518,0.6546481841522469,27.87656901605562,-1.1039810137055515
-0.451753502465818,14.947069635157805,-7.8281185208096735,0.2934724531834741,27.87926679058941,-0.4790890830769835
0.10393904244935163,14.948585305372724,-7.829196128070694,-0.06710743296237735,27.8799226075865,0.14472374857696035
0.6607813629800643,14.945244334780062,-7.82682283481113,-0.4284260420989491,27.878505798511803,0.7698246814194767
1.2202852708639094,14.936984620466749,-7.820950008212581,-0.7914204051180824,27.8749587551343,1.3978955681221452
1.7754364347526264,14.92392966863035,-7.811671468884579,-1.1515050806707023,27.869399291911083,2.021048121540443
2.3325277907800444,14.90595684175647,-7.798893697649186,-1.5127193264155747,27.861746475610953,2.646331422846378
2.8391057721205026,14.885367947380297,-7.784246326586575,-1.8410302995187908,27.8529484180072,3.214863635187931
3.049248215686929,14.875639767508268,-7.777326914446366,-1.9771776607135088,27.848821361321413,3.4506894570449775
3.053595581679003,14.881277272349607,-7.555671599827871,-1.9758666621572865,27.621515283229705,3.446701066564519
3.0598857139963895,14.890286701129977,-7.046612763084976,-1.9706868136760642,27.103539705961502,3.433628228472895
3.06647955710496,14.893739528921428,-6.510907415119477,-1.9655475707605734,26.56447556704382,3.4201853326588867
3.0730748320814443,14.8911902190253,-5.97302506258157,-1.960694565542582,26.02923352964991,3.406995498278413
3.0796494317003322,14.882803050133113,-5.434831996377206,-1.9561329566974666,25.499515458365813,3.394090843758595
3.0862558690445847,14.868623319073826,-4.8920770743315005,-1.9518175987680382,24.971025747019397,3.381358371538811
3.0928521931552915,14.848836550611516,-4.348247741376638,-1.9477682856714704,24.447065892014727,3.368870022903046
3.099442035793991,14.823573528736649,-3.8031003067568885,-1.9439733424488879,23.927261600968926,3.3566084708184403
3.1060483618645045,14.792851205345576,-3.2547774898130863,-1.940412054763434,23.409739036721323,3.344522268707118
3.1126334320849094,14.756964979786058,-2.706458306585101,-1.9370968728261166,22.897381489829478,3.3326714630405876
3.1187603290401635,14.718954760479491,-2.1947490381178687,-1.9342163625324194,22.423750669352977,3.3218140217124725
3.115489816517854,14.704003480032762,-2.0048207007426173,-1.9297670466080792,22.248980932896398,3.3119870549940673
2.7868747276249843,14.718380120564143,-2.0149700669548416,-1.7263608563099713,22.255006394788154,2.9656502595876715
2.219988152231353,14.73940157693292,-2.0297985348975756,-1.3753315650293383,22.26376765716576,2.3681572054353435
1.6376349521140356,14.756029916820587,-2.041527305055595,-1.0145783128965096,22.270730836524482,1.7543258951860843
1.0591853895626497,14.767570859895674,-2.0496659937205197,-0.6561337723796619,22.2755697751723,1.1445816886742164
0.47646773385039165,14.774188180105634,-2.054328718885837,-0.2949738233014346,22.278319617360566,0.5303207696193332
-0.10629250790654361,14.775783858701974,-2.055455388038467,0.06624523622210153,22.27899979421588,-0.08399329039689589
-0.6866224498335527,14.772380956115096,-2.0530549097772606,0.42594970797848397,22.27755729154302,-0.6957432050699589
-1.269449818705329,14.763949518700912,-2.047113151717296,0.7871571755392377,22.274042752986638,-1.3101147006196676
-1.8524486825830908,14.750482403066211,-2.037615635915526,1.1483834696365325,22.268392998832525,-1.9246446347777701
-2.433184859869001,14.732057871653666,-2.024622366801344,1.508085549069625,22.260705683429972,-2.5367592278392146
-3.0139734568118928,14.708619693474573,-2.0080859311480532,1.867657354207008,22.25092983990447,-3.1488882495336825
-3.5973198711974383,14.68001932648021,-1.9878927254293755,2.228606625100321,22.238978216124945,-3.7636606746387495
-4.176716491854145,14.64658089702396,-1.964273439045418,2.5868746117025863,22.22505581208372,-4.3742115946830715
-4.6098342942184525,14.618297313072162,-1.9442819512295126,2.8545111715254166,22.213283818473244,-4.830572719193311
-4.6710320420619205,14.577704982638656,-1.984853722555911,2.893964407506077,22.29135644629712,-4.899410247092624
-4.643349497778661,14.37599584196775,-2.2250175944345263,2.886071841825336,22.734030797512247,-4.894293553652582
-4.610509785504275,14.12832693594585,-2.5085241208944513,2.8770165535418326,23.266150137136577,-4.888435232775183
-4.5780233188436865,13.874080919081598,-2.7873298943463394,2.8683991957850012,23.80012836326783,-4.882876757010803
-4.545908821068083,13.613403510342991,-3.061159236697498,2.8602263738187097,24.335543634361095,-4.877625183464454
-4.5144209393736405,13.34849025174321,-3.3277524811987407,2.8525599003149247,24.867933722820844,-4.872722668946989
-4.4833719651369375,13.077930898460352,-3.588621763511996,2.845349712650612,25.400226486609085,-4.86813942519527
-4.452602670380015,12.800360787370781,-3.8449986150522735,2.838560090912976,25.935022644613042,-4.86385533311682
-4.422396625327507,12.518427260219507,-4.094430754168369,2.832252519495279,26.46721488527781,-4.859911488249
-4.396802033466342,12.271990235410525,-4.303901571613892,2.8271955696716593,26.923817508776814,-4.856782034019263
-4.386313919312724,12.16895965982528,-4.389210936282008,2.8252017502914244,27.11244064612436,-4.855557878600536
-4.408092427255505,12.13526841487186,-4.414026345317805,2.840670060265655,27.16981098288741,-4.883027422942027
-4.756517544895091,12.10927943929319,-4.394575480622885,3.064578321784266,27.158580830886667,-5.270964190238015
-5.29421272491047,12.065244648739398,-4.361589282969315,3.4098407148369487,27.1395043503494,-5.869516940701185
-5.838680672711562,12.015783035185779,-4.324510365519134,3.7590846598293735,27.118140205986386,-6.475460475580027
-6.386051580398862,11.961092112353704,-4.283472087926082,4.109777548777551,27.0945512322736,-7.084465105334116
-6.930799897192595,11.901693863254984,-4.238851124330082,4.458336978028352,27.068940576158578,-7.690363158048188
-7.477224923824042,11.83710668400621,-4.190281091389932,4.807483397266694,27.041173180575203,-8.297928302556059
-8.02396489551681,11.767433697843499,-4.137822136026406,5.156302443686345,27.01127416441007,-8.905625625371519
-8.569510874413515,11.69284676787834,-4.081589302593341,5.503794367356895,26.979329282651868,-9.51176227721102
-9.11531966333194,11.613123841122292,-4.021395829434213,5.850845189706364,26.945224500161903,-10.117936396378544
-9.661599488523182,11.52818904947195,-3.9571750846652267,6.197557674428554,26.90900413844703,-10.72437167472033
-10.049512918816852,11.46473014705759,-3.9091266349102836,6.443345211570724,26.88198602828945,-11.15482894015347
-10.143375160841247,11.45241416449198,-3.8881738186101846,6.5020512904594066,26.862921781816013,-11.257383547497044
-10.17055844496303,11.540952668602339,-3.6356583004325285,6.499748743671691,26.521010787543638,-11.244119987497692
-10.21328827049571,11.674384539193307,-3.237361223823161,6.496863693293831,25.987910872954227,-11.223880048048194
-10.257047233719772,11.80391947361319,-2.827828602334815,6.49480988306829,25.447410216499094,-11.203893779680113
-10.301128087313169,11.92732256823391,-2.413699564740396,6.493629257981065,24.908405942700558,-11.184484204740212
-10.345588393418987,12.044775691306173,-1.9944907671000636,6.493309111492966,24.370231501014786,-11.16560946429575
-10.39045732841159,12.156358771171254,-1.5699803887312007,6.493840909933956,23.832584653333427,-11.147242850962483
-10.435938589729389,12.262519349824768,-1.1383301627157136,6.495257206525943,23.29316225245589,-11.129297672989496
-10.481954834279673,12.363029499021597,-0.7002221377528052,6.497493658941448,22.752898405403624,-11.111785606389118
-10.528183885929256,12.45719619822917,-0.258826348414252,6.5005574148663605,22.215657655278314,-11.094820006918743
-10.567607544349697,12.532250111148572,0.11852540060852179,6.503795856418837,21.76180187833505,-11.080826175740475
-10.579953797680583,12.55478021675938,0.23686806760746695,6.5049255986784145,21.62047151412985,-11.076530447610729
-10.6084670508366,12.72511427567133,0.02607802256794076,6.524010054841376,21.657512002603507,-11.111190203294749
-10.683645132061248,13.172226688469673,-0.531872041321307,6.5745723130673825,21.759263015621862,-11.203217501532274
-10.760366104639397,13.622099706843947,-1.090206120284258,6.626042211475582,21.85840035527184,-11.296757395531321
-10.794361305894528,13.81941507585367,-1.3341206816996785,6.648806547346322,21.90085187987678,-11.338085147048073
-10.807334835127978,13.896325485769133,-1.4345809919099433,6.657767040295196,21.922775849986067,-11.354587299966393
-10.766713819029105,13.768794515433038,-1.5896346621834843,6.646387175626803,22.208055255507492,-11.347376417920804
-10.692852766875014,13.530170504965291,-1.8703657845024226,6.626260918238635,22.732282360013475,-11.334647523781236
-10.618926114670268,13.282387527102328,-2.1496578042690313,6.606870960228049,23.264196947375982,-11.322422634196297
-10.545770792884905,13.028086365643457,-2.4242094417776086,6.588454071857731,23.7978019091195,-11.310858194005446
-10.473443231324715,12.767465220960148,-2.6937006337309697,6.5710280940046415,24.332575725713355,-11.299971791469387
-10.402274169217526,12.501781271480182,-2.9568276347299247,6.554702560615381,24.865931850863365,-11.289807617710213
-10.331814380609826,12.229464930314604,-3.2151226417907277,6.539307286253841,25.40101147950607,-11.280325681790702
-10.262652424620974,11.952879974539778,-3.4663663433020915,6.524999195032836,25.933189927878637,-11.271597916636804
-10.19737264287161,11.683121487195843,-3.701261931588913,6.512251992517903,26.44191602031355,-11.263911534163423
-10.166054329332065,11.550630151069281,-3.8131334295361192,6.506405652429454,26.688220628281808,-11.260421278572126
-10.149604808221655,11.480228875896593,-3.871670565904929,6.503406344803477,26.818175826994345,-11.25864065956681
-10.150704981659025,11.501951988115813,-3.965020684667424,6.508208253796637,26.889218219262343,-11.268951393241055
-10.207135417204212,11.857838823524235,-4.420181061448831,6.5495399152083476,26.981487616753146,-11.343960348764147
-10.28424759923652,12.338057990584316,-5.03124352317177,6.6058640615821735,27.102711229774453,-11.446081277742685
-10.363204228321175,12.82266720842908,-5.644248293643563,6.663348353597081,27.221199174186484,-11.550196562773035
-10.44391712653061,13.310860854172974,-6.258064671238447,6.721914716379367,27.336633703582653,-11.656164542966636
-10.526439729863338,13.80271086376257,-6.872678714146341,6.781587906339005,27.448918451554473,-11.764030135303251
-10.610525265705611,14.296528394101959,-7.485893523601219,6.842175956828112,27.557573130543574,-11.87344708660484
-10.696405860402002,14.793468688315238,-8.099063004860362,6.903832472247196,27.662763157568303,-11.984693807795159
-10.78406256561723,15.293164616235225,-8.711642071903825,6.966558474291136,27.764298325178387,-12.097733507365968
-10.873738055554197,15.796808324603234,-9.324993296875595,7.0304530791089865,27.86233501778754,-12.212824515545778
-10.963766251850794,16.294950654400527,-9.92760710424788,7.094348483507882,27.95501640682593,-12.327826932160063
-11.023823337286919,16.623203026038922,-10.322497189154543,7.136832989971792,28.013748369310026,-12.404245701538544
-11.03715758535374,16.690602419362982,-10.377873624367192,7.144496993322179,28.00017143990629,-12.417447584762844
-11.053929475218268,16.70455028703486,-10.01521165585307,7.130429281343641,27.624409120524387,-12.383235400820933
-11.078314720477465,16.719442836329137,-9.486176327921783,7.1109236236319475,27.081675373901163,-12.33436364649824
-11.102937911376326,16.728136630683306,-8.949932944042612,7.09233001787804,26.53790010418788,-12.286020674055857
-11.127768988613386,16.730596221027266,-8.4072595898309,7.0746993949838135,25.99389309289031,-12.238278858880836
-11.152560023783082,16.72687921385039,-7.863381904151283,7.058102745073796,25.454819251632756,-12.191520208886326
-11.177326777131446,16.717147714438354,-7.31813565512907,7.042527828471699,24.920351749925253,-12.145701585940156
-11.201945939279192,16.701648195956803,-6.774309942473572,7.028007524456061,24.39303023280084,-12.101003336081117
-11.226492451901674,16.68054758829978,-6.230448374188234,7.01449016136893,23.87123343856891,-12.057269796038044
-11.251058441698978,16.653903154305883,-5.684321303280069,7.0018159361142045,23.352686322904237,-12.014242746225591
-11.275367838127458,16.622218915404158,-5.142258959772603,6.99012399234445,22.843203360098876,-11.97239073297207
-11.290376149278998,16.600067326734735,-4.806801855084277,6.983315948212237,22.530435938630717,-11.94689873650358
-11.295162730423781,16.592592246058764,-4.699689468404458,6.981209311231728,22.43096797923953,-11.938822856045418
-11.05872784836151,16.53460587587518,-4.6113267862022465,6.836112768187773,22.428653378511257,-11.68640584633321
-10.529585220786432,16.401685392306888,-4.412828731604339,6.511149767686253,22.42368179071082,-11.1219404701115
-9.95945557525085,16.25331810837623,-4.194632711025098,6.16054067053114,22.415806775828727,-10.51407520857726
-9.389442549747104,16.099590187808673,-3.971909995036548,5.809552096719578,22.405292935293964,-9.906685783783937
-8.818050236227212,15.940024560556507,-3.743964393424039,5.457303558009479,22.392078116938823,-9.298196386822564
-8.24855804986109,15.775485437383296,-3.5120055699264032,5.1058571628845355,22.37617991049074,-8.692119406452825
-7.67847875082463,15.605209555256584,-3.274924672347152,4.753719861974698,22.357461857585076,-8.085830022057504
-7.1056825952780835,15.42844780034777,-3.0316892972618485,4.399617917058581,22.335848078677824,-7.477081956180605
-6.538856466426214,15.24785895796078,-2.7859095739789668,4.048964529708089,22.31161138198713,-6.875128886058794
-5.97782366893004,15.063490133840656,-2.537546080197266,3.701699023558305,22.284784512531527,-6.279792046976284
-5.423250681405956,14.875671212628536,-2.286939581080542,3.3582804554737735,22.255446084334867,-5.691786405068523
-4.90407783704048,14.69475096250537,-2.0476162498379495,3.036683231352804,22.225362590854214,-5.141770336427204
-4.682375490439998,14.615977981626768,-1.9440081690593782,2.899329359534699,22.211772784280964,-4.907030734806734
-4.662721929053199,14.517829719800064,-2.057042709744664,2.8915668218609065,22.42365549212671,-4.897852389587317
-4.631079341122739,14.28454594189802,-2.3311194216161244,2.8826449062843147,22.931929763609478,-4.892072115210981
-4.598209124193898,14.03316648412726,-2.614282001877798,2.8737092725636413,23.467413816583047,-4.886297138224007
-4.565936595297958,13.777086821113809,-2.890596361364985,2.8652783246619378,24.000725417538654,-4.880866185589175
-4.534260830541227,13.516506917394384,-3.159995648212084,2.857345817520986,24.53159802671078,-4.875777555012975
-4.5027700596349245,13.248075477957899,-3.425876219410649,2.8498091256192053,25.06679102124683,-4.870968043295961
-4.471836088833524,12.974990640694363,-3.6849933275163833,2.8427581578155428,25.5998512144683,-4.866497616195366
-4.441351629208758,12.69646274620486,-3.9381699054197283,2.8361647174983156,26.13239436862671,-4.8623505177496105
-4.411377366279924,12.413194369904216,-4.184827617544207,2.830038658098194,26.663138083119534,-4.858534981814722
-4.392115263610646,12.226102551110491,-4.342056873991205,2.8262951415568867,27.00798083696993,-4.856225997487104
-4.384145783809199,12.147515278809218,-4.406801924038326,2.8247915958848715,27.151528128927463,-4.855304371019436
-4.390064807451262,12.239024867028839,-4.5444102698913795,2.829760969625323,27.19728157483553,-4.864445028614247
-4.41787699127326,12.642578111607234,-5.053524845144499,2.8503317853552974,27.301347905571156,-4.901294767423274
-4.4521455558281655,13.133208508905517,-5.66903926434301,2.8756082918694097,27.42437972747263,-4.946521955611242
-4.486996076213496,13.624909940451138,-6.282073652830589,2.901234829047746,27.543817586059305,-4.992319219625183
-4.522463894652752,14.118033765014962,-6.893015706259587,2.9272329299192914,27.659695350936154,-5.0387252036011905
-4.558870535434403,14.616800478839533,-7.506989721506179,2.953832504520236,27.77289850099646,-5.086149699728831
-4.596156881620806,15.120078619277553,-8.12246015752351,2.9809835447764033,27.883025335966227,-5.134502463954251
-4.633934039564315,15.622441546836594,-8.732726559292269,3.0083976164139132,27.988822929485845,-5.183269822962925
-4.672824164738445,16.13192338628075,-9.347451855052329,3.036519997053358,28.09188461668485,-5.233243464063481
-4.712403280416492,16.642680214025717,-9.959460960506826,3.065037070655216,28.190902121344852,-5.283865326378177
-4.751410524811666,17.138643114524502,-10.549647766297687,3.093039927508199,28.28290944835398,-5.333524527887725
-4.773559126368517,17.417064665116232,-10.879189250536577,3.1088950400898394,28.332764591492563,-5.361620268312802
-4.778140821274415,17.458945733157766,-10.853355639403802,3.1098885071334346,28.26490272986457,-5.362610435012273
-4.786891065921566,17.473680474543208,-10.423245240087029,3.102707892282366,27.82024018749244,-5.345128307723727
-4.794989243647064,17.483558180635686,-10.02402451163951,3.096353359132122,27.411305663244747,-5.32921747620084
-4.798867104571102,17.48702830484931,-9.832467917174617,3.0934070995116105,27.2163557580788,-5.32168725518809
-4.803291985870462,17.490002716662193,-9.613588278898646,3.0901202841779045,26.994588062923263,-5.313163480663435
-4.806710009626161,17.49158772673332,-9.44429601993661,3.087635383738161,26.823776571673196,-5.306628538066674
-4.80888763445291,17.49227588268352,-9.336341912217891,3.0860765349466557,26.71517579961088,-5.302487227777758
-4.812365232202324,17.492859734545025,-9.163786186870238,3.0836258472985167,26.542101822504353,-5.295908878370549
-4.821416740357553,17.4914377625628,-8.71376727507671,3.0774671537386262,26.093671896665786,-5.278985782146808
-4.832198045187665,17.484292216535785,-8.176107208509222,3.0705355144873585,25.563349517778153,-5.2591920041752696
-4.842961348505483,17.471383289469802,-7.637884536167825,3.064075611374197,25.03821097235821,-5.2398334378486116
-4.853863370778572,17.45254923987813,-7.090754360734343,3.057911883138083,24.51009520902999,-5.220568734008907
-4.864623040723457,17.428414269845874,-6.549138207567979,3.052225912341782,23.992785627513932,-5.201903294778619
-4.875469449987054,17.39863589105265,-6.001566591250227,3.0468802601761653,23.475159245954963,-5.183421894096991
-4.885962356608198,17.36473987783573,-5.470367996402986,3.0420658689364224,22.978012508095766,-5.165848813210802
-4.891097284841573,17.346362729498356,-5.2098995196758615,3.03983442699825,22.73599552790054,-5.1573548304392025
-4.908304176746387,17.554658721104527,-5.452555183066794,3.05125811188033,22.76941310435905,-5.177551065043908
-4.948510195818855,18.03735737994348,-6.015887438487797,3.0779838295659157,22.847829940274252,-5.224818973440565
-4.992893675335067,18.5618581623219,-6.623805014858211,3.1073990978615393,22.928783506675682,-5.276761474551828
-5.038174925055412,19.088220755453037,-7.229468961590504,3.137315513769908,23.00555440825709,-5.329503165262263
-5.084703101332916,19.620170617854416,-7.837057248405843,3.1679576562276455,23.07857445390766,-5.3834372910587165
-5.119470821948801,20.011945248430543,-8.281634984755405,3.1907902304427016,23.1294089688983,-5.423569837153141
-5.126563741341498,20.09588557708327,-8.390325226318001,3.1957836195284717,23.153733700557243,-5.432610045735362
-5.102157047558033,19.93993280077158,-8.570749355063889,3.1886820303367402,23.490920319072714,-5.42700744462608
-5.0636288825724405,19.685918265714662,-8.854836153381026,3.177797166361337,24.030290822319994,-5.41841007944359
-5.02512904148371,19.422201095673742,-9.137678631486427,3.167333784017819,24.578107456820085,-5.410134956898698
-4.987816467225473,19.156833735874667,-9.410647264024416,3.1576047186289373,25.11765071659655,-5.402432262760349
-4.958823974873747,18.94376480316717,-9.621857760517104,3.150336171037532,25.542860620784264,-5.396673194855055
-4.947462295787603,18.858585948168212,-9.704395190362487,3.1475592767561307,25.710939705678072,-5.394472162943119
-4.935628436885276,18.768844105478582,-9.790215261458178,3.144710673262296,25.886878385764184,-5.392213900331038
-4.902854950554114,18.51475957458152,-10.027055989475613,3.137059448170027,26.378841101782083,-5.386146851694474
-4.8671150298287165,18.22809885249751,-10.283849344561327,3.1291604068166126,26.92340988885485,-5.37985739792419
-4.83200950191746,17.93655681286627,-10.534331554665618,3.121804466762952,27.46652484255049,-5.374025289482617
-4.799487934731999,17.657322510318515,-10.764702299348881,3.115391516031841,27.977130757992438,-5.36894426385266
-4.784812887652696,17.528361510178534,-10.868086032223568,3.1126285308273003,28.20992406034139,-5.366756846750201
-4.776901137267431,17.458057880360627,-10.92366907773432,3.111173441084827,28.3360517728786,-5.36560543744513
-4.987582775541972,17.440307192559803,-10.914568952239595,3.248089515358232,28.333095614588917,-5.603591193636058
-5.499257727880405,17.3992179451645,-10.886715538374478,3.5801392551228766,28.31604587797603,-6.180971407089195
-6.064905286804197,17.349052739467826,-10.8526760095226,3.946823104274801,28.295236431489958,-6.819127269396731
-6.63155497017767,17.29378381390229,-10.815138843522229,4.313709891162618,28.272387401752585,-7.458270577944658
-7.198981547267545,17.233380878817186,-10.774064498696262,4.680603070859716,28.24743493647394,-8.098128028365911
-7.762016328975081,17.16841535166319,-10.729837736310424,5.044131501889749,28.220692153643117,-8.732864845262819
-8.328823513622114,17.097920381465745,-10.681783451852832,5.4095223246452395,28.191743985470108,-9.371669203834122
-8.895954246844873,17.022234920558237,-10.630113909187031,5.774499550023121,28.16071461425561,-10.010635294568326
-9.461650198746923,16.94157233839273,-10.574967037498942,6.137901342611187,28.127770095167605,-10.647775839158939
-10.029004739801925,16.85544768821095,-10.515986728498083,6.501662524370061,28.092666117418293,-11.286554044271343
-10.589875015907873,16.765123137393978,-10.454028646433589,6.860541782385407,28.055998103104706,-11.91779933521504
-10.977817651297311,16.6996080275961,-10.40901970582217,7.108323654012295,28.029464747499556,-12.354273439658686
-11.037882856984972,16.69126757614409,-10.362288959468831,7.143900756452109,27.98396939846451,-12.4159774539993
-11.055946709535352,16.706022325596905,-9.971602636197181,7.128796558979296,27.579439237074453,-12.379173132352452
-11.080406345049576,16.720427234277405,-9.44077970145302,7.109324410634097,27.035405463150767,-12.330237219365857
-11.105112086824636,16.728603678494835,-8.902561696993368,7.090762518994544,26.490173116135207,-12.28181738667081
-11.129894506124245,16.730518450457957,-8.360661154767918,7.073219492236688,25.94748121785389,-12.234220815313849
-11.154714306328032,16.726271540842276,-7.816097655958126,7.056728558292011,25.408241100863034,-12.187515858747771
-11.179396944645138,16.716068437643855,-7.272543051316003,7.04129012219538,24.87593012851998,-12.14192659582095
-11.204097659281675,16.70002462883993,-6.72676038512367,7.0268024082299725,24.347196269192054,-12.097150769575821
-11.228561018860635,16.678513454168915,-6.184469601397993,7.01337058193205,23.827377937375644,-12.053604088739842
-11.250074797847406,16.655071898163698,-5.706161127453101,7.0022883532716875,23.373329675433915,-12.015937807908703
-11.258223251129092,16.645112906423652,-5.524783586243688,6.998300453373969,23.202206274450393,-12.001846567854516
-11.277914873762604,16.618601561063464,-5.085429477881588,6.988963826872808,22.790083832502138,-11.968058528908774
-11.294521834089622,16.59360848667303,-4.714091936458636,6.98150648740466,22.444332121850362,-11.939914781325339
-11.350917611676913,16.436955258260312,-4.520237395005576,7.013865641118752,22.400686229041096,-11.994265845931116
-11.513416604576456,15.97869555871912,-3.9921796918138086,7.108879097884787,22.311878253777707,-12.155584508595917
-11.691020984871644,15.470019910981616,-3.4024159339602105,7.212302450177643,22.20977423966832,-12.33089773391628
-11.86583946630338,14.961112210243746,-2.8085885614189183,7.3136557081408196,22.103930648425706,-12.50238577452348
-12.036914749101731,14.454971574489532,-2.2142335491036387,7.4123915745258495,21.995018206399543,-12.669113814326085
-12.19463277427201,13.981009975133881,-1.6542769753010602,7.503011594954185,21.88975197137416,-12.82182147853544
-12.270146046162331,13.751529322798982,-1.3819840035297934,7.546256973223221,21.83765009505059,-12.89458140930459
-12.303326401693848,13.6501646628373,-1.2614647185119245,7.5652292032455835,21.814401034203097,-12.926477457519448
-12.289130819682658,13.577965674517227,-1.3078245326197833,7.562943101636803,21.93375383556312,-12.928481417080452
-12.213698089183195,13.36635703684978,-1.5615113136983902,7.5423257104156125,22.404709178398086,-12.91555027254486
-12.129653514044684,13.122171616905685,-1.8425614138287214,7.520158927258212,22.936206404030717,-12.901687298800606
-12.04601583429094,12.870077923393719,-2.120420004925957,7.498971679760977,23.47234265598071,-12.888488818237159
-11.96408235119591,12.614029747676543,-2.3906887853603624,7.479107820794471,24.00466367156461,-12.876146226524556
-11.883139778144562,12.351971384899034,-2.6556324542285825,7.4603515535345934,24.537557515954354,-12.86459146410292
-11.802772847392726,12.08252630523233,-2.91650679175902,7.442629956712254,25.073680030634314,-12.853757152684624
-11.724084963978694,11.80949587502463,-3.1696497965517096,7.4261817475061545,25.605489111815512,-12.84379527896549
-11.646277402169114,11.530264405812884,-3.4175762746400955,7.410847521359602,26.13816602963779,-12.83458517832928
-11.591393087539155,11.327621786512573,-3.5909267277563623,7.4005823381569105,26.518029451037197,-12.828512344564489
-11.569995847275944,11.247319717175786,-3.6581504728997847,7.396709911720643,26.667057780366548,-12.826239701996208
-11.555797471939687,11.193803365053464,-3.7036597630097208,7.394235559633243,26.767071453130217,-12.824882700556888
-11.595307830821442,11.413595056123942,-3.9864974427108786,7.423090160178695,26.82454053153058,-12.877510824631411
-11.67750777573323,11.866222494326488,-4.566616031549991,7.482985574880929,26.940382153415896,-12.986674811046829
-11.766173741752697,12.34760141768108,-5.1801092631598245,7.547386420343327,27.059859650251376,-13.103935939616981
-11.856627089602044,12.831575312089793,-5.793277823806258,7.612864002788392,27.176087273710007,-13.223043160699754
-11.948783552412339,13.317502835030156,-6.405236427112791,7.6793432996332065,27.28882910427801,-13.343861616440376
-12.043003724323562,13.807071035448377,-7.018025006817053,7.747069169212994,27.398381585633388,-13.466837721222003
-12.139332074771332,14.300257272506489,-7.631510382108413,7.816056468834982,27.50462270117094,-13.591999469194592
-12.237671366759578,14.796323350232104,-8.244676967589067,7.886218348520941,27.60728422397822,-13.71919070400022
-12.33812272598237,15.295548466684224,-8.857778126263515,7.957609532375256,27.70632039882283,-13.84851236291414
-12.440954491384494,15.799000794872688,-9.472016193886889,8.030401442644346,27.80182008918335,-13.980276445486622
-12.530808376381023,16.232805138085194,-9.997998963489398,8.093765411475825,27.88056376930299,-14.094901763403476
-12.565274175461376,16.397724616705435,-10.197162316902768,8.118010598332397,27.909635204674014,-14.138744291537504
-12.576548406216572,16.412781772607495,-10.019638065818151,8.110756909678805,27.71739997029525,-14.120553066886751
-12.60240912543354,16.429597689357887,-9.52463757001873,8.089479927438871,27.2070698547334,-14.06793614983962
-12.630188169095446,16.441476341762417,-8.990883367599372,8.067847714618289,26.662977957122784,-14.012533154031647
-12.658287710069809,16.447119393424586,-8.448988082531704,8.047246634590554,26.1169359964531,-13.95765111232499
-12.686306811250557,16.44651214453276,-7.906519558156776,8.027867227581341,25.576520051150272,-13.903971167333614
-12.714370546871207,16.43980433282927,-7.361217915591281,8.009616212699859,25.03932308569496,-13.851238346745578
-12.742330421921755,16.427191082584372,-6.816134851384415,7.9925835111384425,24.508190265091887,-13.799715583216642
-12.77006854879882,16.40895604008404,-6.273447764095118,7.976710477597138,23.985026030466088,-13.749496885314716
-12.797830666099395,16.385127764761176,-5.728521932923506,7.961847293835572,23.465174527957668,-13.700119966500562
-12.825517222716547,16.35593643429822,-5.183472106869359,7.948047519541985,22.9505113354556,-13.651751862328195
-12.8510285064096,16.324333096827417,-4.67967128307222,7.936143771533832,22.479387207551657,-13.60787089857356
-12.861746167498973,16.321974545730452,-4.518903196061393,7.9335902019688165,22.321045528159416,-13.595459854028126
-12.922852522651144,16.605753054457168,-4.8583138889323765,7.973576423415515,22.367866647327862,-13.667835409464237
-13.030938903290947,17.101565700791628,-5.448313747316858,8.044120648301279,22.446391514712005,-13.795394511273152
-13.144711995367599,17.6152154833879,-6.055485774854778,8.118122607100753,22.523321257695578,-13.929038228523174
-13.26081488293464,18.13093538628531,-6.660939466246284,8.193372549318754,22.596010974165416,-14.06476699018969
-13.376059861527395,18.634671870384924,-7.248281508889063,8.267800488831117,22.662587157323667,-14.198852667564886
-13.443113661752138,18.9241186949553,-7.58395556745512,8.310983998480337,22.698855240524754,-14.27657936267591
-13.46170971406438,19.00573273903501,-7.683932602314377,8.323298735975422,22.714388059704895,-14.299016026760016
-13.405698970534672,18.867843228858195,-7.84550389880883,8.307777227943372,23.018647492101813,-14.287012215436478
-13.308538258644612,18.621459440469387,-8.124941236262364,8.281628222097364,23.552738397306662,-14.266769399913587
-13.210941211188688,18.36450724031601,-8.404430524877164,8.25638820076618,24.097416221944155,-14.247208991584088
-13.114733880762595,18.101602306519048,-8.67859928902842,8.232556964178587,24.642538264425106,-14.22872493070727
-13.041213538875699,17.894049736072635,-8.887113305193395,8.21507551620415,25.06470700270835,-14.215159188029403
-13.012435668996783,17.811186914961432,-8.9684912207781,8.208443255859056,25.23131934403432,-14.209979047592356
-12.98173692836725,17.721798477898847,-9.055117786227463,8.201445065445116,25.409862750490102,-14.204547240381418
-12.897504129148448,17.47107126073472,-9.291875356811882,8.182850456448838,25.904246246967862,-14.19011507020891
-12.805920014367889,17.189153367501437,-9.547623117114123,8.163675105774836,26.449346981733562,-14.175237610262482
-12.716199369402057,16.903260694624397,-9.796313213351974,8.145985941731075,26.991145721345234,-14.161525366782525
-12.634123791169861,16.633021026967242,-10.022070810021981,8.1308274591679,27.493678609034433,-14.149764099892913
-12.597533589511801,16.5098080097196,-10.122130815468932,8.124369247160367,27.719848840115162,-14.144772162299004
-12.576774256360236,16.439138717930422,-10.178733770494034,8.12079332632716,27.84875958358813,-14.142010426706038
-12.607119464183713,16.396937227804106,-10.200345466462995,8.144658258305336,27.907666376406624,-14.186007052716352
-12.983539655897365,16.320602791994002,-10.147528913845855,8.383038035002173,27.87717944595232,-14.608857585486149
-13.535931169718129,16.204158162000212,-10.066802786181713,8.732073839829567,27.830762481604708,-15.22912589445644
-14.091867396868427,16.08160379507991,-9.981650218710994,9.082402379755754,27.782138302776154,-15.853068833687484
-14.650400549265715,15.952998637058935,-9.89207839764112,9.433363314583385,27.73132553444551,-16.479599180471208
-15.207952908510821,15.819077429456907,-9.79856604793125,9.782655805998743,27.67861046171558,-17.10468319708752
-15.767821460048328,15.678963454509121,-9.700477543558586,10.132321400592382,27.62373506028721,-17.732013773516222
-16.32346718816653,15.534250735641557,-9.598894484790135,10.478233243566274,27.567316550697853,-18.35424624083245
-16.8694792075629,15.386486670223816,-9.494877054982837,10.817016549327443,27.50994522727543,-18.965315278571463
-17.414791496849674,15.233341469475102,-9.386767434609633,11.154230691392703,27.450794611701216,-19.57522894181383
-17.957917732492515,15.075201088802801,-9.274802257195589,11.48891955903581,27.39000803743753,-20.1823083895073
-18.382390997854685,14.947661460060893,-9.184257987054062,11.749650373719133,27.341190837802692,-20.656482772536148
-18.49831751608372,14.912593552798937,-9.153915149562211,11.820135026096887,27.322240266520133,-20.784662983685177
-18.521385917814925,14.926355596691646,-8.844794828810125,11.800124261175814,27.00149629392964,-20.73562881398229
-18.560133714882518,14.944484267925239,-8.323778684995705,11.767928689433841,26.465848875455542,-20.65455136463556
-18.599372870885404,14.956589615492721,-7.793921190912245,11.737079654142578,25.92731195470123,-20.574026710480393
-18.638957893912167,14.96256224788216,-7.25724763258192,11.707726312819721,25.388006770747722,-20.49436793140219
-18.678387401022004,14.962416796884616,-6.720449789159095,11.680113308779143,24.854577682264495,-20.41646380978059
-18.71792500042677,14.956294112784724,-6.18014637358131,11.654077504005116,24.323524407996075,-20.339791752244512
-18.75726330452823,14.944387731912354,-5.640447160903592,11.629682798058102,23.79874884728364,-20.264820641049425
-18.796448051294707,14.926884444803287,-5.100876819347971,11.606870499212516,23.279595817218272,-20.19141999335708
-18.83597262913904,14.903647483172792,-4.554754064007104,11.585355407496763,22.75955906200264,-20.118648803401907
-18.875309027932506,14.875065425176464,-4.009254232438936,11.565309802668603,22.245395418153542,-20.047376080936598
-18.90734049958165,14.847851817015298,-3.5636867012403535,11.549993217992917,21.82922539982614,-19.99017463598923
-18.928015807116818,14.891186794860866,-3.5458934045075736,11.557095671922053,21.76527560020009,-19.998380441602087
-19.040541391468626,15.249277091833186,-3.9862059343733383,11.628981742038066,21.823649610171405,-20.132585272623274
-19.19807861945515,15.74382254947048,-4.591112511954125,11.729286062040568,21.900448553511804,-20.319713070341408
-19.359556218183084,16.242757003879472,-5.197620866746594,11.831691527243606,21.973410529248127,-20.510613841000644
-19.524838948346623,16.74534290318703,-5.804727510574248,11.936083291080982,22.042284205418078,-20.70507663837764
-19.67163747757167,17.185054698559856,-6.332711765284268,12.028439209192724,22.0987107296947,-20.87700972979562
-19.72881725913378,17.35466939536127,-6.535583110968553,12.064321116320484,22.11951595325031,-20.943782898114943
-19.761161013795846,17.450206501857487,-6.649657550373489,12.084594964437898,22.130998482076322,-20.981504667625355
-19.763400111229718,17.456809987881904,-6.65753733839036,12.0859978999252,22.13178609380308,-20.984114831589217
-19.763400111229718,17.456809987881904,-6.65753733839036,12.0859978999252,22.13178609380308,-20.984114831589217
-19.763400111229718,17.456809987881904,-6.65753733839036,12.0859978999252,22.13178609380308,-20.984114831589217
-19.763400111229718,17.456809987881904,-6.65753733839036,12.0859978999252,22.13178609380308,-20.984114831589217
-19.763400111229718,17.456809987881904,-6.65753733839036,12.0859978999252,22.13178609380308,-20.984114831589217
-19.763400111229718,17.456809987881904,-6.65753733839036,12.0859978999252,22.13178609380308,-20.984114831589217
-19.762582432765385,17.456483974889377,-6.656672258338054,12.085497986986928,22.12988522197849,-20.983246923814345
-19.403984479049274,17.313508958296357,-6.277286044699837,11.866258072373881,21.29624611283429,-20.602620594935473
-19.04638502535089,17.170932049263968,-5.898956215062463,11.64762862153052,20.46492823463028,-20.223054103103056
-18.650385185011732,17.013044690575505,-5.47999989233188,11.405521910426783,19.544340287318867,-19.802728320697053
-17.911922835149394,16.718615607445614,-4.698728186999028,10.95404018597461,17.82762358802856,-19.018902840572057
-17.17113015699741,16.423257409348867,-3.9149910620585593,10.501133743478324,16.105489532673435,-18.232603882021493
-16.4334828294153,16.129153280176002,-3.134581626612429,10.050150308024389,14.39066753032879,-17.449643490320085
-15.69395328828936,15.834298701900254,-2.352180863936864,9.598016123291607,12.671469912324206,-16.664685262256434
-14.952967404728641,15.538863471722783,-1.568239333288793,9.14499155871215,10.948886708882343,-15.878181229848968
-14.215083844802628,15.244665155388667,-0.7875799708880732,8.693863695331698,9.233515532961313,-15.094970094246504
-13.474919655604024,14.94955753936471,-0.004507768995452417,8.241341498933433,7.512842537173804,-14.30933823220496
-12.73570488022477,14.654828459958622,0.7775599806676788,7.789399755944151,5.794376660758764,-13.52471410568701
-11.995566170407974,14.359731002707187,1.5606052261148118,7.336893137151489,4.073762897348166,-12.73910928820459
-11.256655787132733,14.065123286141214,2.3423509377779923,6.8851374936594265,2.356004646729054,-11.954808252345376
-10.517254323154713,13.770319772943104,3.124616198553171,6.433081612839659,0.6371047719725529,-11.169985969102726
-9.778509356225925,13.475778008802779,3.9061869045290485,5.981427101730803,-1.08026893229244,-10.385860510979068
-9.032922369345599,13.178508292910461,4.694996268774313,5.525589510784455,-2.8135484033306137,-9.59447273328754
-8.300068980796798,12.886315534133686,5.470333856042252,5.077536997756122,-4.517225849428906,-8.816600768321996
