RAMEL-ESPOL/ARCHIE/matlab/data/joint_goals_square_t35_h35_p12.txt
Joint0,Joint1,Joint2,Joint3,Joint4,Joint5 
-0.0034600151038899647,9.580548065453447,14.247331722684265,0.00011139449818126626,-23.82241524249476,-0.0048740147160423065
-0.0034600151038899647,9.580548065453447,14.247331722684265,0.00011139449818126626,-23.82241524249476,-0.0048740147160423065
-0.0034600151038899647,9.580548065453447,14.247331722684265,0.00011139449818126626,-23.82241524249476,-0.0048740147160423065
-0.0034600151038899647,9.580548065453447,14.247331722684265,0.00011139449818126626,-23.82241524249476,-0.0048740147160423065
-0.0034600151038899647,9.580548065453447,14.247331722684265,0.00011139449818126626,-23.82241524249476,-0.0048740147160423065
-0.0034600151038899647,9.580548065453447,14.247331722684265,0.00011139449818126626,-23.82241524249476,-0.0048740147160423065
-0.0034600151038899647,9.580548065453447,14.247331722684265,0.00011139449818126626,-23.82241524249476,-0.0048740147160423065
-0.0034600151038899647,9.580548065453447,14.247331722684265,0.00011139449818126626,-23.82241524249476,-0.0048740147160423065
-0.0034600151038899647,9.580548065453447,14.247331722684265,0.00011139449818126626,-23.82241524249476,-0.0048740147160423065
-0.0034600151038899647,9.580548065453447,14.247331722684265,0.00011139449818126626,-23.82241524249476,-0.0048740147160423065
-0.0034600151038899647,9.580548065453447,14.247331722684265,0.00011139449818126626,-23.82241524249476,-0.0048740147160423065
-0.0034600151038899647,9.580548065453447,14.247331722684265,0.00011139449818126626,-23.82241524249476,-0.0048740147160423065
-0.0034600151038899647,9.580548065453447,14.247331722684265,0.00011139449818126626,-23.82241524249476,-0.0048740147160423065
-0.0034600151038899647,9.580548065453447,14.247331722684265,0.00011139449818126626,-23.82241524249476,-0.0048740147160423065
-0.0034600151038899647,9.580548065453447,14.247331722684265,0.00011139449818126626,-23.82241524249476,-0.0048740147160423065
-0.0034600151038899647,9.580548065453447,14.247331722684265,0.00011139449818126626,-23.82241524249476,-0.0048740147160423065
-0.0034596962421945855,9.580548727412694,14.24733010096368,0.00011139556666234246,-23.822411167340906,-0.004873692879346456
0.014648342012424579,9.618058549491094,14.15533970343348,0.0001108263463347882,-23.591141328796372,0.013378446261263654
0.05583199668882647,9.702755066495051,13.946911143905684,-0.00034400713147285004,-23.06631048689889,0.05470922750148224
0.09892165025441836,9.790468880601875,13.729989007240386,-0.0014847032391116584,-22.518861493489386,0.09769672757954058
0.14233122500821513,9.877911725057382,13.51262505529427,-0.0033099308977206647,-21.969022903681577,0.14075402961662561
0.18595052567808779,9.964855562271687,13.295369616869257,-0.00581638387026336,-21.418168303894838,0.18378264523504168
0.2295469771812627,10.050841151061707,13.079366605913634,-0.008984641376897494,-20.869194286572775,0.22656655591620875
0.2732787210882954,10.13618692423401,12.863815423644569,-0.012818780453512884,-20.320065650211934,0.2692747012453515
0.3171883317164553,10.220975850574742,12.64849751320403,-0.017320156271132644,-19.770215765125418,0.31196069570323465
0.36130548214694047,10.305262608110363,12.433261764608954,-0.02249143596728727,-19.21924531511256,0.354664837448104
0.405362668870056,10.38854048664803,12.219399245632871,-0.028296087000459685,-18.670456262164734,0.39714093924700256
0.44948786362905724,10.471059740036937,12.00627007264435,-0.0347431554903432,-18.12220986854041,0.439525686385283
0.49390927466562556,10.553244413236001,11.792766696551723,-0.04186630063240876,-17.571643759349215,0.4820494991170511
0.5383987093594088,10.634669384208907,11.579980886998042,-0.04962959180642316,-17.021559683608743,0.5245050854511283
0.5829174648801176,10.715268562727504,11.368083759985469,-0.0580216774297256,-16.47239839107086,0.5668677577097787
0.6276943449559081,10.795455042858524,11.155979246609627,-0.06708546917771553,-15.921308556357086,0.6093665985830847
0.672400438487926,10.874641416158317,10.945215254925897,-0.07675242528345713,-15.372305740673553,0.6517010305179793
0.7172695667874451,10.953245953433177,10.734676528963838,-0.0870695708056196,-14.822482841652985,0.694104278708993
0.7621624386754203,11.03102574610446,10.525007299882997,-0.09800366460436735,-14.273515540361739,0.736456081271169
0.8071506103576107,11.10810759438219,10.315862150423888,-0.10956990949259618,-13.724495657019656,0.7788353960947589
0.852287660244719,11.184582299746088,10.106985153453618,-0.12178274929009118,-13.174741367998209,0.8213038144657641
0.897532957004329,11.260379453522468,9.898558164873082,-0.13463245732492163,-12.624720423840435,0.8638341927899147
0.9427009891921783,11.33519293508928,9.69142281285201,-0.1480634166241843,-12.076653581027145,0.9062634512871858
0.9881399772753545,11.409599329769645,9.483974625038138,-0.16217985612350053,-11.526287136755512,0.9489298031510756
1.0336465133347392,11.483261101136446,9.277139360161353,-0.1769224832963947,-10.976061486642806,0.9916532750043227
1.079103681693747,11.555993364488645,9.071436086473426,-0.19225127420219165,-10.427357233640778,1.0343351892096064
1.1247176913213641,11.62812769446961,8.865922344788196,-0.2082357464936475,-9.877655531876266,1.0771802130001435
1.1704140404997176,11.699544049834051,8.660928642885823,-0.22485271134550167,-9.327828781761006,1.1201294732599785
1.216169405062793,11.770206296764586,8.456551824740634,-0.24209499874900162,-8.778129719297446,1.163172108151562
1.2619313026693957,11.84003556753751,8.253016668048122,-0.25994300642016177,-8.229159392478252,1.206269699503681
1.3078554141429612,11.909268650325338,8.049624217013928,-0.2784599406085331,-7.679023779615084,1.249580001419597
1.353781565223617,11.97766319437749,7.847077507106719,-0.29758398516748263,-7.129615517559584,1.2929631172008287
1.3997756665707937,12.045318912904062,7.6450770778555395,-0.3173438021345617,-6.580117996833128,1.3364922982643166
1.4457748648312356,12.11214463860855,7.443890560793209,-0.33771399277966496,-6.031254552673641,1.380119058154396
1.4919529322588245,12.178390853470995,7.242752810003756,-0.35877569008965404,-5.48092698100948,1.4240196296820988
1.5381656330712574,12.243847759732768,7.042287894881394,-0.38046817165114044,-4.9308302992539765,1.468068507141966
1.5843892525062793,12.308483317653748,6.842590204686831,-0.402782337886007,-4.381219622808885,1.5122541662440634
1.6305656750559883,12.372219849718848,6.64390045547501,-0.425690855598446,-3.8327576547387006,1.5565318043574845
1.6769186714979096,12.435365061785967,6.445250090363812,-0.44930918903910455,-3.282761814891603,1.6011275700940262
1.7234547770363016,12.497920433905186,6.246611390748554,-0.47365003194605154,-2.73113403116,1.646060608521429
1.769824593956376,12.559417945693392,6.049467467670856,-0.49853342689577623,-2.181989698078437,1.6910047907960282
1.8161962123994622,12.620086901516265,5.853091045472627,-0.524049003550199,-1.6333093424804368,1.7361333046548684
1.862637268788772,12.680015596922432,5.657189310594038,-0.5502385862365604,-1.084268087904338,1.78152366804908
1.9091767642709723,12.739238659841282,5.461635991700303,-0.5771253689130267,-0.5345000542015749,1.8272166523012223
1.955875592516418,12.797828050254811,5.266173788898119,-0.6047537567672392,0.01673572040958037,1.8732853601024222
2.002409717711991,12.855378738235133,5.072151198230353,-0.6329360425621444,0.5656392594089887,1.9194217216618978
2.0489375636836082,12.912092438830856,4.8788961367043795,-0.6617690377994736,1.114105902174896,1.9657932579439426
2.0956828958462372,12.968237250478477,4.685477050046788,-0.691400751877916,1.6647951957594749,2.0126365738291665
2.1422510307771665,13.023338995507947,4.493520938821673,-0.7215869925030404,2.2130810095413795,2.0595685006644304
2.1890326656523715,13.077859697330199,4.301411388965739,-0.7525874097812699,2.7635867175197895,2.1069953743516585
2.2358398800194927,13.13157466086942,4.1099189268677385,-0.7842885367127774,3.3141222684027207,2.154741257612758
2.282413933984156,13.184192880320296,3.9200909478385535,-0.8165169543950811,3.8616692728861066,2.2025528556273652
2.3292998450807327,13.236328459197457,3.729701463087766,-0.8496581434921079,4.412657622401111,2.2510032258271857
2.376125159039982,13.287560684425616,3.5402625286772684,-0.8834615694520161,4.962731287844613,2.2997231164797443
2.422826877235755,13.337825684433712,3.3520189035893884,-0.9178849990594368,5.511173824168732,2.3486582124465727
2.4697955059253838,13.38753989186633,3.163393952399162,-0.9532274237116178,6.0625926687163085,2.398232811569593
2.5165821912253645,13.436225740843021,2.9761865668901706,-0.9891613493233501,6.611739807079495,2.4479878771174195
2.563396237770844,13.484104947987383,2.789550360689924,-1.025852536372636,7.161094378749201,2.49815809573677
2.610551081274987,13.531487707307917,2.6022385118046776,-1.0635646297084873,7.7143549884185525,2.549098401756007
2.658006012358837,13.578315348296337,2.4144213676323467,-1.1022902468047182,8.271064119293918,2.6007880424788734
2.705227940838833,13.624059325387444,2.228205151432173,-1.1416062726934935,8.82498953920972,2.652662529522004
2.7525163947046547,13.669013520275358,2.0424001475921947,-1.1817686901280677,9.379666637056516,2.70506417786662
2.800000671225628,13.713292766758457,1.856499135961437,-1.2229052428819098,9.936633320825539,2.7581561297912542
2.8472352911568,13.756482061384324,1.6722403866124755,-1.2646403844334317,10.490685578618848,2.811455833890841
2.894527229996875,13.79886622685506,1.4884178078385324,-1.3072525554792311,11.045445100747452,2.8653233730486956
2.941740328851442,13.840322559760116,1.3055558558132168,-1.3506312148300905,11.59933540555411,2.9196203394662965
2.9892348730294263,13.881160424950508,1.1222591389950827,-1.395126243014087,12.156604411845837,2.9747820897875124
3.0364675365045772,13.92091059045919,0.940620879031408,-1.4402430522161367,12.710897656005121,3.0301959008608246
3.0837030355710398,13.95980139103969,0.7596137814321026,-1.4862417116237683,13.265341171563275,3.08618609994543
3.131100549093301,13.997957598942493,0.5786274658959859,-1.533296957697384,13.821824221350667,3.142963346443484
3.178335173831372,14.035115774280234,0.398898952192759,-1.5811019301198543,14.376552208182506,3.2001578687503693
3.2255456913475884,14.071388361653906,0.21989284398817646,-1.6298078488959082,14.931173855459326,3.257953904086998
3.272837482032521,14.106852684074802,0.04120734786794629,-1.6795420546393378,15.486947171241843,3.3165020776653535
3.3200909496965645,14.14141560281222,-0.13670798035956663,-1.7301977845227785,16.042486502855173,3.3756763384982738
3.367194832804664,14.174998782680893,-0.3134411341447669,-1.7816681308968019,16.59650177858987,3.4353547891070195
3.4143933222683915,14.207775381304504,-0.48991231254373035,-1.8342372808793408,17.15188386305953,3.4958678562481915
3.4615358835238514,14.239637343990472,-0.6655607950421712,-1.8877584512099235,17.706880751828958,3.5570462103892866
3.508634451825572,14.270592944444378,-0.8404357236200201,-1.942262408383369,18.26165094832614,3.6189264662005187
3.555633879268299,14.300607218227636,-1.0143376715790464,-1.9977018324662748,18.815562200884443,3.6814568265041228
3.6028655731129273,14.329885336741777,-1.1884928220646231,-2.0544942013578398,19.372540253953975,3.7451064981556996
3.649875509947922,14.358142579773201,-1.3612291587480367,-2.1121169932890727,19.927249638938505,3.8092896850446243
3.6969071443115284,14.385528069678726,-1.5334474024030549,-2.170885266122807,20.482579108501707,3.8743598251945692
3.743867020875967,14.411985585805814,-1.7048083079519147,-2.230705300456276,21.037442764969658,3.940213640650995
3.790920847806546,14.437604821668868,-1.8759182315941365,-2.291814523624469,21.593816807831402,4.0071122262611825
3.837056549968237,14.461854692560038,-2.0431140198886766,-2.3528940272994725,22.139741174529632,4.0736211661985005
3.865695885585582,14.476473707081137,-2.1466171717956857,-2.391400507834516,22.478840651086042,4.115376046535104
3.876882315399901,14.482093212048467,-2.186985775259832,-2.4065656929642314,22.61133655386641,4.13178479569878
3.8703735525682066,14.411947087363568,-2.275637874290187,-2.4063548095627527,22.783537283317408,4.132534556514858
3.845263620390291,14.184895454292647,-2.5352605202150857,-2.399417436460205,23.270813734899082,4.128033894993755
3.818065618040129,13.930069378490197,-2.8148931901342404,-2.3921765229717202,23.80591981668366,4.123349157923092
3.7914036846123422,13.670991257505927,-3.087256256805175,-2.3853646847988967,24.33799052050473,4.118958172312246
3.7710752944236714,13.46709602209483,-3.2936423621793494,-2.380368320479974,24.74874840228182,4.115750433336077
3.763364394832573,13.388282053239468,-3.3716201866928093,-2.3785189798436104,24.90572016667739,4.114566494941462
3.7541993960834805,13.293535811046553,-3.4640732444426026,-2.376354291620903,25.093132806068688,4.113183296836081
3.730279863494602,13.040691937923356,-3.7041350238899273,-2.370879068578193,25.58659229855807,4.10969927770949
3.704826096300552,12.762570826058376,-3.9575136361645793,-2.365337680655149,26.11867662372558,4.106199186274547
3.6797164189488734,12.478769855570436,-4.205192002325683,-2.3601700718934255,26.650727742878555,4.102965811322271
3.65541760284668,12.194925973841805,-4.4425483652773305,-2.355462865908155,27.172476554339063,4.100054186682123
3.6425433785059704,12.040770333084572,-4.567320439985903,-2.353089658338796,27.451692986896923,4.098601592457137
3.636421070011564,11.966530331793502,-4.626405461467033,-2.351991094832422,27.585154833503587,4.0979332938388735
3.647339722953272,12.159505083002985,-4.873248610662685,-2.3601989899125577,27.63853241430861,4.112643693302154
3.673141751021237,12.610085573882426,-5.44240832519411,-2.3794444158839,27.755951656863992,4.147065717705989
3.7015574333866232,13.099409846451074,-6.056874862201627,-2.4005777660088867,27.879809030017118,4.184819752205977
3.7304992077083066,13.59058380725836,-6.6698390869637,-2.4220357248199145,28.00028266616072,4.2231079176108555
3.759940694915453,14.083000599148948,-7.28048527318125,-2.4437948460490113,28.117164504554292,4.261888460580605
3.790258492128568,14.582681123673407,-7.896158255644709,-2.466128281844801,28.231760700229685,4.30164758532452
3.821038153449725,15.082536762691433,-8.508013226559589,-2.4887255999067044,28.342333616876452,4.341832166018773
3.8526270339361655,15.58798438914439,-9.122589426096104,-2.5118368517333414,28.449989012763776,4.382886624461356
3.8848078253085037,16.09528382438666,-9.735226815929293,-2.5352975283512427,28.553816587671598,4.424518274801396
3.917745806523905,16.606804698660273,-10.348690688923117,-2.5592227277718314,28.654203687468456,4.466931086302939
3.9513475458490697,17.12084356011211,-10.960833161851184,-2.58353885015728,28.750709695843284,4.509994228243236
3.985733606279861,17.638991777307368,-11.573445053990293,-2.608327233330611,28.843527712479364,4.553851398718966
4.020067618307087,18.148642011673587,-12.171657183922742,-2.632982005268011,28.93043563404086,4.5974316052043775
4.04624719455986,18.532218197101944,-12.619029959431868,-2.6517167919280706,28.992963855189657,4.630521541392011
4.041289295615924,18.62115659286765,-12.722071676811353,-2.64883736276864,29.007280881001744,4.6256345882625975
3.711895986093921,18.64050220778165,-12.734894966850376,-2.43327886297354,29.015318183250596,4.251016110626183
3.1589720821800564,18.669256599786433,-12.753938900375289,-2.07122934509053,29.027217374538257,3.6221085803453037
2.583906940067085,18.694231217148022,-12.77047463093274,-1.6944445511553978,29.03759495324938,2.967942880848123
2.0141264792569396,18.714028482308606,-12.783573224915841,-1.3209246234920382,29.045799290625954,2.3197256673437985
1.4416356823723484,18.72897064767093,-12.793459635216415,-0.9454745767198556,29.05202419842415,1.6683770273249825
0.869313964234353,18.738955361980587,-12.800061254483472,-0.5700251298099783,29.0561590689068,1.0171854848333624
0.2982616723376255,18.743988433839153,-12.803391577327575,-0.19534170254388625,29.05826806818417,0.3674174973676808
-0.2747099951216496,18.74409049678262,-12.803457523414346,0.1806230290559002,29.058294558106347,-0.2845415507904907
-0.8456190315308202,18.73926421881412,-12.800268588280671,0.5552146261821558,29.05630373644214,-0.9341472861548987
-1.4180245723886877,18.72948326620151,-12.793799889652385,0.930722420205563,29.052231494764918,-1.5854350151644072
-1.9901298462484553,18.714758896706766,-12.784061130814562,1.3059255460116836,29.04611936323742,-2.236347060036453
-2.561608393991594,18.695104311891043,-12.771057912449152,1.6805667609885624,29.037973943558196,-2.8864984400892277
-3.133927093706411,18.670455793394428,-12.754739236435679,2.055560122405732,29.027731912350873,-3.5375424700396727
-3.687660638455272,18.64186814106093,-12.735806627365491,2.4181514567371987,29.0158984337659,-4.167374212178845
-4.012545918578974,18.622920025273526,-12.723250328546793,2.630768503179722,29.008048138816633,-4.536868976051455
-4.053871158456913,18.624823307249812,-12.642924258619717,2.655674931349475,28.92401404053333,-4.57946505870305
-4.061543278922385,18.645960206977904,-12.21057042074603,2.6491855700196942,28.470656014969354,-4.564226557628225
-4.070935979806933,18.66578891077844,-11.679474128222736,2.641645262573915,27.919887374094234,-4.5459491383900685
-4.080363988114042,18.67914889618534,-11.144473430438158,2.63450817041475,27.371677163896717,-4.5280044663989445
-4.089887365748155,18.686151238174094,-10.60218724994993,2.6277211768563054,26.82253437147632,-4.510268336356566
-4.099492525393845,18.686766363058368,-10.053402918442044,2.6212896393293206,26.27327582723336,-4.492759177366492
-4.1090877379830575,18.68107447288548,-9.503404527040344,2.615264264574,25.72910430190156,-4.475631438469988
-4.118617710858778,18.669335682268645,-8.955443341088658,2.6096606569544214,25.193010515719866,-4.458963490463419
-4.128193656785053,18.651579900031106,-8.40318836731682,2.6043986388584646,24.658635350174837,-4.442544507015397
-4.13767639159934,18.628252154044002,-7.854734162401546,2.599539212257717,24.13362682063424,-4.426596335977133
-4.146828322353842,18.600446223160315,-7.323976161483884,2.595169634086637,23.630784175137578,-4.411485242617614
-4.15130539669793,18.584987073441972,-7.063832241694072,2.59314353205971,23.38615142666924,-4.404189842669345
-4.16648682077395,18.79798542136239,-7.3077462503176704,2.6032094886395987,23.416361154659317,-4.421909415856141
-4.201541071090164,19.28568270846567,-7.867266205691702,2.626480503867992,23.48654214476061,-4.462890568060046
-4.240055223600041,19.813098806307305,-8.46804987176635,2.6519686971135656,23.55809385083696,-4.507708768329761
-4.279495853892291,20.344353993337666,-9.068671417454919,2.6779841716013046,23.625587529689465,-4.553383368005608
-4.319879178762356,20.879328443555146,-9.668885020096047,2.704532197125813,23.688895519714926,-4.59992125280756
-4.350132953435862,21.274336067630397,-10.10908529100586,2.724362369614528,23.732632341419045,-4.634636828370223
-4.340423615515703,21.34249988048983,-10.18435701448497,2.718447131884174,23.740185215147115,-4.624611070547191
-4.012155498655756,21.111143909902356,-9.918417882098232,2.512704096483193,23.72035028129146,-4.271464485119305
-3.4951744971085708,20.740513925896025,-9.492118911323704,2.1886535031763996,23.685523424861746,-3.7156200990383494
-2.972398226724147,20.357748461857202,-9.051453557856565,1.8609723528439526,23.645770046946822,-3.1539812583511906
-2.449911949202205,19.966960075721616,-8.601047063163003,1.5335238963172482,23.60134693915313,-2.593149636085359
-1.9335714308290652,19.572459357118667,-8.145769916870329,1.2100261437273672,23.552699857287156,-2.0394607286626556
-1.4244113275709294,19.175132824696966,-7.686558849740679,0.8911717177307216,23.499969528256,-1.4940627691164232
-0.9196503376270715,18.772864630647483,-7.22087958695065,0.5752616531061084,23.44288650931358,-0.9540174521139383
-0.41579828923250267,18.362771342626534,-6.745290243995103,0.26015657781767854,23.380983630515843,-0.4156437901730201
0.08413019205447926,17.94718872639019,-6.262391886210523,-0.05221356458245447,23.314548962228677,0.11778186230517346
0.5084062383396635,17.587523001529103,-5.843652514224816,-0.31705706761440555,23.254125668633577,0.5698435187002365
0.7057773006176824,17.417980185381413,-5.645990550434012,-0.4401744188601467,23.224738269907846,0.7799312133247351
1.145450457700067,17.035102240730765,-5.198936808362534,-0.7142075987760287,23.156219255396664,1.2474063047507138
1.6387212685496064,16.596821258601615,-4.68600758476409,-1.0212448274681247,23.07425996022894,1.7709672676872306
2.1292891046214946,16.151520983627226,-4.1635076313988035,-1.3261303130172435,22.98723616564862,2.29063995352121
2.6090002825932395,15.706712654869312,-3.640162272936762,-1.623767767903831,22.896638289365036,2.7977522760782554
3.0772309136194456,15.263351353049606,-3.1170535718037438,-1.9137669147518144,22.802815223916106,3.2916553105659863
3.5326664083472883,14.823118497504089,-2.5961314735075147,-2.1952943735424864,22.70620619244955,3.7709471353654984
3.8250519168074066,14.535697563059188,-2.2551992499832387,-2.3757291051502047,22.641325332109243,4.078035657899532
3.87709836221903,14.471437472784597,-2.2059024807777714,-2.408255251123684,22.654155028217755,4.1337717231268645
3.858128291397131,14.302179253463136,-2.4024276990120494,-2.40294446363343,23.020394663144085,4.130323353765669
3.830859840553877,14.051103000655127,-2.6835792152482263,-2.395549108410352,23.553273874838847,4.125531767955933
3.8039818460978294,13.794369395647918,-2.959004586468301,-2.3885446809596753,24.086069887677112,4.121008232422943
3.7784181173694042,13.541381519859348,-3.2192374953299763,-2.3821553969298783,24.59989178251576,4.116898726121311
3.765764125457793,13.412889106372056,-3.3473810070479995,-2.3790941812732167,24.856823502336873,4.114936909657105
3.759308333102432,13.346486949618175,-3.412576925774589,-2.377558863073258,24.988572032991616,4.113955007595889
3.742368727146972,13.169485981941389,-3.5830445531966895,-2.373616759406045,25.336433943925325,4.111440879751498
3.7168038125501814,12.89462064120837,-3.8385674283439637,-2.367910320376672,25.867411659697993,4.107822731353644
3.691413049941041,12.61215015993028,-4.090116858938172,-2.3625418990905245,26.402012097755463,4.104447912139352
3.6664532876555462,12.324974033700205,-4.335048711100391,-2.357566490662673,26.934685825085193,4.101353024485961
3.6461933721623714,12.08474019077402,-4.532021785945124,-2.353756081379428,27.37234829826511,4.099010497775628
3.6381125890607082,11.987099300847827,-4.610101048236659,-2.352294878392458,27.548249220709796,4.098119985596772
3.5553977938515318,11.970269874786402,-4.630792195192975,-2.2997021846088486,27.58907411647814,4.007373632921516
3.131332693062359,11.99344623678009,-4.648197483053539,-2.025721981759044,27.59918189071149,3.5328957672685615
2.587692182636844,12.018839351517089,-4.6672601908305476,-1.6742908307431859,27.610272675251608,2.924545361214744
2.0459857634377907,12.039325737448324,-4.682633237280004,-1.3239264195175706,27.61922785760591,2.318281888326076
1.5028853695383189,12.055047520303239,-4.694427355900927,-0.9725150078243522,27.626105917636274,1.7103970358612923
0.9614048234946194,12.065927168218888,-4.7025836436099615,-0.6220451613346678,27.630838329561115,1.1042791239081688
0.41767514139119016,12.07203981212728,-4.707168301055233,-0.2700514081546396,27.633519851700118,0.4956161825682813
-0.12382318635419631,12.073337545891086,-4.708142700346808,0.08052765157787743,27.634096083349252,-0.11056152114868151
-0.6654932666785242,12.069853392319823,-4.705531911266388,0.43120933609907036,27.632581657139873,-0.7169279065395998
-1.209312120543057,12.061541912097915,-4.699297374527948,0.7832334245861989,27.62892583641456,-1.325680137597682
-1.7524995667199244,12.048423362289029,-4.689460242423402,1.134764111929864,27.62320199495243,-1.9336889518110953
-2.292529964334006,12.030601843894907,-4.67609217627683,1.4841283788756527,27.615425996993096,-2.53811207226509
-2.8352286875760546,12.007884395178687,-4.659044886601456,1.8350566722780417,27.605516644783325,-3.1454533775390576
-3.3506481270120316,11.981835491112228,-4.639484849959016,2.1681566463526725,27.59412860815438,-3.7221872379841545
-3.612178694281086,11.966949513661932,-4.628306817532929,2.3370989903206323,27.587657529167878,-4.014796468590412
-3.640535067303101,12.003605869014393,-4.524654314781485,2.352401747516288,27.44631751451376,-4.040004370978932
-3.6546139475573862,12.132470181425383,-4.166569837253355,2.3511869609827736,26.959206261396965,-4.0332122128947026
-3.6702854994607415,12.26908423328798,-3.7664442512253844,2.350153845813218,26.42228199310222,-4.025919278423054
-3.686199087079418,12.400635956265122,-3.3585827851413392,2.349436436980087,25.882677406941227,-4.018789438115037
-3.7023102863316573,12.526655526776826,-2.9441579658922796,2.3490380419671015,25.3420353973925,-4.011841112345225
-3.7184550571794874,12.645900127648783,-2.527453503693695,2.348957691251327,24.805884589397284,-4.00513829230976
-3.73487136498999,12.760123345832625,-2.1023827820438576,2.3491913949112693,24.26638186694649,-3.998577184172953
-3.7514133634227402,12.86825059798464,-1.6727668995591176,2.3497369869550284,23.72842479803072,-3.99221322072276
-3.768151293815993,12.970734099621838,-1.236836851446959,2.350594513155353,23.18979131200775,-3.9860146919628128
-3.784624812824825,13.064986236278273,-0.8066769652077947,2.351727926916765,22.665159573644175,-3.9801394292903836
-3.793346146477504,13.112290860911747,-0.5785237491329571,2.352440813820307,22.3895841550217,-3.977115872251875
-3.7968339332889407,13.145604939838485,-0.5481177825192473,2.353522475768211,22.32577807148337,-3.9779652439230264
-3.8159993149539004,13.464516234644266,-0.9427663535787172,2.366662822948768,22.400681037997604,-4.0015477001487305
-3.8461107691717746,13.95923505793134,-1.551879212685777,2.3872650782699556,22.51375767336548,-4.038466873181346
-3.8697218253534635,14.341875000797266,-2.020405662136061,2.4033829205596047,22.598605558427995,-4.067304606742858
-3.877771957249254,14.471296553056037,-2.1783637115973336,2.4088708518188757,22.62678681303439,-4.07711463138595
-3.8690588523225924,14.39935873782388,-2.29031283557978,2.406700548047471,22.81086920597123,-4.0762650659285296
-3.843578344509917,14.168403999916423,-2.553736441493214,2.3996792945417442,23.305858381349456,-4.0717165117401475
-3.8164666685524624,13.913729014351288,-2.8324299502024344,2.3924833628759927,23.83987188177597,-4.067068185478653
-3.7897950832305995,13.653898980065184,-3.104831447661483,2.385691221889877,24.372732887041686,-4.062697399390866
-3.7692539523739264,13.447315247880013,-3.3133162393643603,2.3806612572204195,24.788282709186404,-4.059474182724102
-3.761352461380515,13.366314215962507,-3.3931912187413475,2.378774227574117,24.94934303879271,-4.058268575560873
-3.752383511153536,13.273320400222932,-3.48363070213866,2.376665067730648,25.132984998222284,-4.056923698884738
-3.728691392534098,13.022210886010352,-3.7213226362342073,2.371264673084152,25.622334748212765,-4.0534948621130455
-3.703187926183805,12.742834341513888,-3.975096323147144,2.3657369366232355,26.156070438640675,-4.0500118674998475
-3.6779966252305667,12.45735723720288,-4.223461661250992,2.360578523301878,26.690486221919976,-4.046793179842287
-3.6540632812331393,12.177095456343134,-4.457136024435836,2.3559661297044427,27.204962416513848,-4.043948984425186
-3.6422741842785546,12.035666616932996,-4.571409158582868,2.353832302871455,27.460905391533657,-4.042625412998725
-3.636572713266037,11.966942307081913,-4.629042855862459,2.3528571499451822,27.587389004545667,-4.0421056243980065
-3.6489555843737813,12.185186294419275,-4.9057825800325405,2.3621109916072416,27.64533020034371,-4.058670165954298
-3.675227884048723,12.643571657211176,-5.484587363420014,2.381704060299546,27.76456817373369,-4.093711468708557
-3.7037107777539138,13.133557524584333,-6.099622359656487,2.4028833625298676,27.88832894850156,-4.131544574740057
-3.7326957220780317,13.624960697056368,-6.712604214245502,2.4243690492670233,28.00858859269335,-4.16987920676633
-3.7622275574867596,14.118375971068563,-7.324213259207936,2.4461903965432485,28.125430201165727,-4.208767646759314
-3.7924816161777066,14.616493094446529,-7.937682408682126,2.4684721486229644,28.23938841441083,-4.248431813286734
-3.823403087018592,15.11813452973807,-8.551441511333199,2.49116861360953,28.350072588078124,-4.288789792046922
-3.854993924091888,15.623083896290456,-9.165121277536285,2.5142760067220626,28.457329181422715,-4.329834467924279
-3.8872677305309398,16.131314736256865,-9.77858797393386,2.5377989430305825,28.561049731032867,-4.371573699948317
-3.9201390759757517,16.64126993388885,-10.389878957185621,2.561670030510466,28.660832191440484,-4.413887764225026
-3.953863886871248,17.156657422295957,-11.00332856166654,2.58606925892641,28.757290257064806,-4.4570953002964036
-3.988257477059109,17.674375900294482,-11.615126497999292,2.6108567916128327,28.849723069592816,-4.5009481854859
-4.0227135840002655,18.185297710439855,-12.214524851772808,2.635592766595083,28.936539112104256,-4.544669208649393
-4.047897847150882,18.553974506824712,-12.644340305004278,2.6536114399047186,28.996457251185472,-4.576492768979241
-4.052972854122375,18.622058423465695,-12.693327843877878,2.656438203620091,28.9771475966336,-4.581246033615427
-4.0594172968158695,18.640556465216306,-12.330379126584981,2.6509372631054733,28.595813070998886,-4.568399096848651
-4.068273750996384,18.660838860932117,-11.830070334574165,2.6437220468507796,28.075370898683385,-4.551066824980916
-4.072728189459958,18.668829999300268,-11.57778783552455,2.64023976371492,27.81517000122473,-4.542486243996251
-4.078366374183497,18.676858379959796,-11.25785554529602,2.635969223177393,27.48729934937732,-4.5317527844145316
-4.081480931543463,18.6803052512344,-11.080837566252548,2.633674682959406,27.30688326558825,-4.525883305246006
-4.08665624411317,18.6844967646285,-10.786252800446427,2.629961590417335,27.008186544304642,-4.51622217306792
-4.089656289911916,18.686056734722026,-10.615237262434123,2.6278652904611617,26.8356563274544,-4.51067338075142
-4.091460323003635,18.686690151690605,-10.5123125422167,2.62662427674573,26.73212513826195,-4.507354641644762
-4.094093638909102,18.687206740769923,-10.361958827629952,2.6248389038780666,26.58129378791432,-4.502534237710011
-4.1016246342812,18.68603838891898,-9.931212864741802,2.619901362383598,26.15182512618324,-4.488902063668031
-4.1110222356595845,18.67917376702467,-9.392180193744293,2.61408128224346,25.619788101866263,-4.472200645577397
-4.120379689768052,18.666508098504345,-8.853822760581554,2.608650006223681,25.094221608562233,-4.455898123992817
-4.129800158798963,18.648020316026564,-8.310254400996326,2.6035362026231654,24.569262161585748,-4.439801621749375
-4.139206199204975,18.62397170150486,-7.766309755199688,2.598809364631937,24.049478786634744,-4.424067263742183
-4.14799827964581,18.596534021246285,-7.256228076322362,2.594655244996066,23.566939318605662,-4.409588330718968
-4.15182014173411,18.591659532485874,-7.069883618918378,2.593470329158061,23.385485700759915,-4.404714250433522
-4.171098692069582,18.862523355192337,-7.382005360208236,2.6062931334454573,23.425844488060996,-4.427317055674651
-4.20748798172342,19.367638854184342,-7.960914663903851,2.6304395866488886,23.497932429395505,-4.469830634346242
-4.246212790550338,19.896572158008663,-8.562721710320474,2.6560540522737006,23.56897835812532,-4.514859945351898
-4.285764173613695,20.427931542122618,-9.162744031268556,2.6821289179935692,23.635761247314377,-4.560627751313529
-4.3258196641144115,20.957226521150023,-9.75589331725936,2.708447948865104,23.697697978030135,-4.6067535686527865
-4.352540633439986,21.305514196916167,-10.143719992498491,2.725956401263965,23.73595019832249,-4.637399913837739
-4.307590389245816,21.333753137972085,-10.173715459624432,2.6979201464953015,23.73979418872205,-4.589368492494087
-3.906078824328982,21.168526852163495,-9.979372432249557,2.4465135816138694,23.728391502864312,-4.158082789744626
-3.33746121458112,20.92936351209343,-9.699348970377443,2.0903837601573576,23.709633284312744,-3.547563211140826
-2.7679208367729218,20.683637749868083,-9.413089948768395,1.7336123830766195,23.687763928721186,-2.936386601569069
-2.194567252312736,20.42990989376768,-9.118893642896476,1.3744345079843536,23.662562674802963,-2.321487382108655
-1.6217193507318166,20.169914289215953,-8.818735862551074,1.0156039866389373,23.634098515821982,-1.707536959762423
-1.060633451178879,19.908847000190743,-8.518536735975891,0.6642155800830316,23.603036556442895,-1.1066123701927497
-0.502850279714389,19.642904557917312,-8.213827200308826,0.31501447167481067,23.568945687732587,-0.5096733983678167
0.053730831711878375,19.371034964954557,-7.903341435231649,-0.033270657727315876,23.531672365615737,0.0854989304374038
0.6072779075960092,19.09407470592112,-7.587970604465458,-0.37944769293423514,23.49128083478137,0.6769106414765326
1.1589168425149272,18.811416164008676,-7.266965282943328,-0.7241833589630141,23.447730953779175,1.2657447390944807
1.7065773894888996,18.524085303294314,-6.941420189424451,-1.0661409529998966,23.401138699668863,1.8497575554525967
2.254494584460306,18.229785257250747,-6.608668611213571,-1.4079230135867267,23.35110844714523,2.4334321805080594
2.7956388728915207,17.932266223664993,-6.27288027498528,-1.7451063740132071,23.298271120880962,3.0092513853941396
3.33808073392869,17.627042673923302,-5.928922160030747,-2.082680874482232,23.241815725121988,3.58577104916827
3.8432934803053187,17.33633292448059,-5.601724960954547,-2.396671212358282,23.186020389022808,4.122071767474016
4.055881037442184,17.210918999684658,-5.463220111255102,-2.5287081340829136,23.16398021514134,4.347655179660676
4.040980695621207,17.086033258078373,-5.605919726765213,-2.524508692235599,23.4319488173177,4.344624796016936
4.012197365173634,16.837982652248115,-5.880655137639819,-2.516619253527541,23.955470614855,4.33893338608296
3.9830861995716456,16.577719225875335,-6.157151076100688,-2.5089485767039177,24.49296794956011,4.3334040274807455
3.954343808154214,16.311165755919294,-6.428627195533419,-2.50169205855714,25.03171992298809,4.328179962607291
3.926017294369108,16.038823386450442,-6.694529380791581,-2.4948614623075294,25.57067021524644,4.323271840065066
3.898096223957019,15.760685007928249,-6.954853269090992,-2.488453340130669,26.109821969402322,4.318679277602909
3.8705556455596293,15.476587182515575,-7.209729885291249,-2.482461459119646,26.649470390097644,4.314399855468042
3.843448452483697,15.187187901188954,-7.458575862979888,-2.4768960486701768,27.188372962937947,4.31044282292985
3.816828171848204,14.893240157083586,-7.700823617402418,-2.471764592296737,27.72520798653125,4.306815233564649
3.799546437270309,14.697091744241735,-7.856873761539945,-2.46861690626114,28.077818482855943,4.3046031769776025
3.792348952379706,14.614139301011422,-7.921568045221039,-2.467349724154959,28.225636011374625,4.303716123287695
3.623816004747507,14.617415781165846,-7.933751066764945,-2.3581235892803356,28.24159397727193,4.1143210455508425
3.136129912018196,14.643537225041632,-7.952437619926381,-2.041134252811855,28.252764139468038,3.5645547610080364
2.5808564925630497,14.668670038570648,-7.97040899762607,-1.6799991370937215,28.263525956737258,2.938516294407
2.02625304670157,14.68888373280445,-7.984853248499609,-1.3191093925784654,28.27215796525305,2.3131596105085297
1.4713821483752536,14.70422930788775,-7.995818543100904,-0.957897701633217,28.27874199603113,1.6874466760313904
0.9165312474909937,14.71470187755254,-8.003300542644933,-0.5965907370870979,28.283240803767615,1.0617152026694565
0.3625300875117423,14.720300628121864,-8.00729686643439,-0.23577015348999728,28.285619890838674,0.4369155183141879
-0.19133489196881404,14.721050591245158,-8.00783420808996,0.12498861653091156,28.28595290330373,-0.18773964762862827
-0.7472481981295026,14.716929036225395,-8.004892653176062,0.487067696322659,28.284198159924482,-0.8146997250239101
-1.3008115611181477,14.707969174457904,-7.99849118354903,0.8475601249731135,28.280338148081814,-1.4389891550647476
-1.8557365647285289,14.694122251111118,-7.988601006857638,1.2088453576443963,28.27441840084427,-2.064777732695324
-2.412375538771453,14.675331275065309,-7.975174262359466,1.5711094534509673,28.266380852571846,-2.6924473458964253
-2.965785256933563,14.651773768197355,-7.958331832978647,1.93109343551368,28.25628623126276,-3.3164083931586377
-3.494761271979007,14.624703512601652,-7.938972048828265,2.2749839242588656,28.244723783199543,-3.9127445927074396
-3.774067222203447,14.608610440918818,-7.927456202446276,2.4564691025763725,28.237839074358337,-4.227582392689129
-3.794111441685685,14.61258484713119,-7.785346979010827,2.4661149028675626,28.091036916572165,-4.2430242650914884
-3.8014410119933304,14.626256482639494,-7.308164586569101,2.4597120567670383,27.600323558844213,-4.227388217741759
-3.8095680317820606,14.63552406545083,-6.776998595799931,2.452972935181404,27.060041092303514,-4.210376656277609
-3.817716559970797,14.638727246860348,-6.242301400754796,2.446583319848918,26.522287318239343,-4.193649476031173
-3.8258865195691145,14.635949016553129,-5.7041171749933515,2.4405333493878065,25.98702361248256,-4.17719521269411
-3.8340454491929723,14.627318499344488,-5.164634690313567,2.4348354776667507,25.456309270870545,-4.161066188075298
-3.8422064674318284,14.612956972982788,-4.623041935197404,2.429468381639077,24.929211445666663,-4.145222969228545
-3.8503767293548172,14.592962106014875,-4.0789100172274955,2.4244170405900642,24.40520388786839,-4.129639847454414
-3.8585359844373457,14.567505088225058,-3.5336365780547867,2.4196833803450106,23.88551292534076,-4.114343456509763
-3.866730526241492,14.536533801058349,-2.9841660413074953,2.415231935523192,23.367135983198075,-4.099236768926352
-3.8746155299731235,14.501726077742225,-2.4537530686814417,2.4112261170689147,22.871645095517202,-4.08493254819702
-3.878470678573318,14.482951432131294,-2.193828494328497,2.4093641305113858,22.630549941437966,-4.078018762331449
-3.891236371932877,14.686617859007741,-2.4405835618496186,2.4180348515258685,22.673075188229653,-4.093489381169818
-3.9209231286624506,15.156275970620333,-3.0100391789996856,2.438217074844579,22.771554187633146,-4.129501862637106
-3.953477301130703,15.663505373198502,-3.6211821499032726,2.46028981125098,22.874012981017103,-4.168822213411111
-3.9869019025646866,16.17607795130848,-4.234666450297232,2.482888736503207,22.973421355317477,-4.20901138342096
-4.0210732769659225,16.691766461638096,-4.847707341869866,2.505925680717391,23.069226696869546,-4.249910532602558
-4.047214233747413,17.080742917808788,-5.307336330827917,2.5235033131779927,23.138688874686085,-4.2810719541850455
-4.055588606991928,17.204361619500688,-5.452906766202155,2.5291260531541755,23.160258014078973,-4.291031757834924
-4.056109507669403,17.212035617105155,-5.461935706111816,2.5294756676002637,23.16158913873744,-4.2916509199335735
-4.056109507669403,17.212035617105155,-5.461935706111816,2.5294756676002637,23.16158913873744,-4.2916509199335735
-4.056109507669403,17.212035617105155,-5.461935706111816,2.5294756676002637,23.16158913873744,-4.2916509199335735
-4.056109507669403,17.212035617105155,-5.461935706111816,2.5294756676002637,23.16158913873744,-4.2916509199335735
-4.056109507669403,17.212035617105155,-5.461935706111816,2.5294756676002637,23.16158913873744,-4.2916509199335735
-4.056109507669403,17.212035617105155,-5.461935706111816,2.5294756676002637,23.16158913873744,-4.2916509199335735
-4.056104224730073,17.21202567917201,-5.4619100593983605,2.5294723842883338,23.16152802191304,-4.29164533483514
-3.9691985979828286,17.04854428091817,-5.040015434527977,2.475461110768588,22.15614151298835,-4.199769117928647
-3.8822965275937906,16.885069572661667,-4.618138074459278,2.4214520475019987,21.150796146561504,-4.107896660787201
-3.795664356261943,16.722102581533605,-4.197570974332866,2.3676107247183475,20.148573165658206,-4.016309539650448
-3.6842649143855395,16.512544959037896,-3.656767950405467,2.298376706734302,18.859824667358836,-3.89853857742189
-3.535768433681855,16.233202720682964,-2.9358725450565824,2.206087123928196,17.14191106486572,-3.7415488014818026
-3.3872107280558943,15.95374530985559,-2.2146799153899717,2.113759490236928,15.423289168638695,-3.58449429884392
-3.238560056769018,15.674113017874895,-1.493035971877461,2.0213740790008954,13.703591779088901,-3.427341513349718
-3.0899068832668326,15.394476018884157,-0.7713798810365353,1.9289871126545615,11.98386544212099,-3.2701860825253433
-2.9412994716640943,15.114925104300017,-0.04994594726556197,1.8366285870267436,10.264668511568392,-3.1130790309642804
-2.7928709764568262,14.83571075598433,0.6706194136825054,1.744381256758014,8.547541413970968,-2.9561611289689433
-2.6438929408587697,14.555462646854235,1.3938525896582132,1.6517923907629113,6.82405683969813,-2.798662255475756
-2.495522072189049,14.276356701955994,2.1141381951134437,1.5595808750069804,5.107596407143859,-2.6418052759829243
-2.3471519315586065,13.997252126599447,2.834420266207671,1.4673698117226566,3.3911443970691884,-2.4849490661697686
-2.1983025271288263,13.717245990331593,3.5570289855110353,1.3748608891497807,1.6691479202424264,-2.3275861809383294
-2.0499551637272244,13.438184262065143,4.277200481596751,1.2826639817628709,-0.0470405865420161,-2.170754051103603
-1.9012287503900076,13.158409488903885,4.9992121247060695,1.1902314973423855,-1.7676142143564748,-2.0135211914725866
-1.7525906636291786,12.878800870141959,5.720794975006385,1.0978539073062448,-3.487166017099261,-1.8563817102797049
-1.6039828946566959,12.599249283296336,6.442230643675083,1.005495159575489,-5.206367081960915,-1.699274280909041
-1.4554970584094726,12.319927068623313,7.163074374130941,0.9132121922288293,-6.924157541760957,-1.5422957582378998
-1.3071415825702013,12.040850079749431,7.883285253096397,0.8210102430154435,-8.640439899032332,-1.3854550519725004
-1.1584620831925834,11.761163558177856,8.605069146310493,0.7286069153112563,-10.360470792574842,-1.2282717895573299
-1.0098696914858891,11.48164089807733,9.326430164050086,0.6362577244497111,-12.079493962216747,-1.0711806169592117
-0.861379568496634,11.202310619454854,10.047294705050541,0.5439720929211677,-13.797334014117634,-0.9141975623647023
-0.7129057149565513,10.923010945896735,10.76808026390206,0.4516965727479202,-15.514985849382644,-0.7572317077547855
-0.5642707923838705,10.643408279406511,11.489647753241044,0.35932094923383234,-17.234501046531577,-0.6000955717266248
-0.41563732886133464,10.363808357589638,12.211208159432061,0.2669462325097809,-18.953999364343858,-0.442960978199365
-0.2836477427694454,10.115517851015134,12.85196870619149,0.18491557577335604,-20.48094939211692,-0.3034222130461488
-0.19688237691472454,9.952300302729219,13.273182416386383,0.13099147347271048,-21.48471326261933,-0.2116942792907847
-0.11016922041021084,9.789180967388694,13.69414266952625,0.07709981893868109,-22.48787313798008,-0.12002154101313273
-0.023516074523481145,9.626174520247387,14.11481159334688,0.023245460607585082,-23.49033876755065,-0.028412245676318754
0.005499288547613644,9.571592644444323,14.255670432717093,0.005212603935766416,-23.826009260648565,0.002262658710411385
0.005499288547613644,9.571592644444323,14.255670432717093,0.005212603935766416,-23.826009260648565,0.002262658710411385
0.005499288547613644,9.571592644444323,14.255670432717093,0.005212603935766416,-23.826009260648565,0.002262658710411385
0.005499288547613644,9.571592644444323,14.255670432717093,0.005212603935766416,-23.826009260648565,0.002262658710411385
0.005499288547613644,9.571592644444323,14.255670432717093,0.005212603935766416,-23.826009260648565,0.002262658710411385
0.005499288547613644,9.571592644444323,14.255670432717093,0.005212603935766416,-23.826009260648565,0.002262658710411385
0.005499288547613644,9.571592644444323,14.255670432717093,0.005212603935766416,-23.826009260648565,0.002262658710411385
0.005499288547613644,9.571592644444323,14.255670432717093,0.005212603935766416,-23.826009260648565,0.002262658710411385
0.005499288547613644,9.571592644444323,14.255670432717093,0.005212603935766416,-23.826009260648565,0.002262658710411385
0.005499288547613644,9.571592644444323,14.255670432717093,0.005212603935766416,-23.826009260648565,0.002262658710411385
0.005499288547613644,9.571592644444323,14.255670432717093,0.005212603935766416,-23.826009260648565,0.002262658710411385
0.005499288547613644,9.571592644444323,14.255670432717093,0.005212603935766416,-23.826009260648565,0.002262658710411385
0.005499288547613644,9.571592644444323,14.255670432717093,0.005212603935766416,-23.826009260648565,0.002262658710411385
