RAMEL-ESPOL/ARCHIE/matlab/data/joint_goals_square_t35_h35_p12.txt
Joint0,Joint1,Joint2,Joint3,Joint4,Joint5 
-0.0038918562954436795,9.573845103431065,14.25188158120274,-0.00559485465120014,-23.82344766741738,0.0049048949632643475
-0.0038918562954436795,9.573845103431065,14.25188158120274,-0.00559485465120014,-23.82344766741738,0.0049048949632643475
-0.0038918562954436795,9.573845103431065,14.25188158120274,-0.00559485465120014,-23.82344766741738,0.0049048949632643475
-0.0038918562954436795,9.573845103431065,14.25188158120274,-0.00559485465120014,-23.82344766741738,0.0049048949632643475
-0.0038918562954436795,9.573845103431065,14.25188158120274,-0.00559485465120014,-23.82344766741738,0.0049048949632643475
-0.0038918562954436795,9.573845103431065,14.25188158120274,-0.00559485465120014,-23.82344766741738,0.0049048949632643475
-0.0038918562954436795,9.573845103431065,14.25188158120274,-0.00559485465120014,-23.82344766741738,0.0049048949632643475
-0.0038918562954436795,9.573845103431065,14.25188158120274,-0.00559485465120014,-23.82344766741738,0.0049048949632643475
-0.0038918562954436795,9.573845103431065,14.25188158120274,-0.00559485465120014,-23.82344766741738,0.0049048949632643475
-0.0038918562954436795,9.573845103431065,14.25188158120274,-0.00559485465120014,-23.82344766741738,0.0049048949632643475
-0.0038918562954436795,9.573845103431065,14.25188158120274,-0.00559485465120014,-23.82344766741738,0.0049048949632643475
-0.0038918562954436795,9.573845103431065,14.25188158120274,-0.00559485465120014,-23.82344766741738,0.0049048949632643475
-0.0038918562954436795,9.573845103431065,14.25188158120274,-0.00559485465120014,-23.82344766741738,0.0049048949632643475
-0.0038918562954436795,9.573845103431065,14.25188158120274,-0.00559485465120014,-23.82344766741738,0.0049048949632643475
-0.0038918562954436795,9.573845103431065,14.25188158120274,-0.00559485465120014,-23.82344766741738,0.0049048949632643475
-0.0038918562954436795,9.573845103431065,14.25188158120274,-0.00559485465120014,-23.82344766741738,0.0049048949632643475
-0.0038918562954436795,9.573845103431065,14.25188158120274,-0.00559485465120014,-23.82344766741738,0.0049048949632643475
-0.0038918562954436795,9.573845103431065,14.25188158120274,-0.00559485465120014,-23.82344766741738,0.0049048949632643475
-0.0038856147750535954,9.57384771393607,14.251875280594616,-0.005594849400326246,-23.8234317781944,0.0049111452290166845
0.08694594534330918,9.611690557236882,14.160337391084749,-0.0058251703250950145,-23.59234042263849,0.09574652718531329
0.2909632225547451,9.69561870711055,13.955845867445653,-0.008565942615586384,-23.0743019274636,0.2988939992255114
0.5062119239291284,9.782575828418034,13.741738859445551,-0.014745808796670543,-22.52923014502591,0.5119683624869823
0.7218294492830858,9.868061109128355,13.528923707347248,-0.024266011643656032,-21.984704374682632,0.7241892071390734
0.9375361693720046,9.951975465165729,13.317650517957976,-0.03707158932224676,-21.44138693183452,0.9353514997163852
1.1546144906282736,10.03481782492507,13.10664934824541,-0.05322121057268513,-20.896014636258002,1.1467716235116123
1.3712916172899763,10.115916437058015,12.897624825214542,-0.07255708582324995,-20.35300452337908,1.3567862315644603
1.589736126487798,10.196083000114815,12.688471151256783,-0.09525745730535823,-19.80688926776672,1.5675571409159699
1.8104663436185466,10.275477932803021,12.478707552071599,-0.12142177708989936,-19.256364786127005,1.7796269892998458
2.031483072082341,10.35336790515032,12.270233854026108,-0.15082819686578688,-18.706395816245283,1.9911272969056566
2.2539798910394073,10.430168186159062,12.061915365227547,-0.18363379906678307,-18.1539834690406,2.20325779467188
2.475075930760159,10.504896247039484,11.856424117434209,-0.21937899582710474,-17.606238773324637,2.4133367878045555
2.697507672738309,10.578490084711119,11.651190498420302,-0.25847007037514746,-17.05634032913213,2.6240291127565993
2.9202148743785443,10.650593511189681,11.447184192061833,-0.3007221879223254,-16.506881297319566,2.834386577272203
3.142383356026718,10.720956815700227,11.245124498396267,-0.3459454722931333,-15.959829158225384,3.043702893964951
3.3665785099018914,10.790387462044308,11.042669339832331,-0.39466483848789696,-15.40883910401478,3.254451027388293
3.590065715988799,10.858034655825115,10.84227836126378,-0.4462875766160826,-14.860603451851018,3.464116286491079
3.8151215989565213,10.924588114792273,10.641896243294177,-0.5013331928793007,-14.309506073713594,3.674891900389018
4.039758521404782,10.989457238048406,10.443281979489191,-0.5593168577698611,-13.760385364391299,3.8849724428388535
4.265412366339392,11.053059041455617,10.245150671816711,-0.6206013657857825,-13.2096995412163,4.095757930343931
4.490055018901292,11.114829826051116,10.049263036047545,-0.6846182339477545,-12.662363595507808,4.305411075318072
4.716282710692708,11.17548525920625,9.85334062748543,-0.7521025884290601,-12.112021268153107,4.516411169735571
4.94297234820002,11.234710152666953,9.658355379035715,-0.8227464332259661,-11.561383079349282,4.727765639020512
5.169167077833314,11.292261652876268,9.46511141248942,-0.8962383413743373,-11.012740549070829,4.938638447470787
5.3959479185522445,11.348420045674589,9.272668065868997,-0.9729209324691823,-10.46344038430971,5.150093046427827
5.624013928480399,11.403345140033068,9.08043070575251,-1.0530590018402461,-9.91176751886127,5.362837489508309
5.851265108173585,11.456531697306838,8.890156533587861,-1.1359171497103322,-9.362773514418318,5.5749684285191305
6.078978050685789,11.508286994155329,8.700757299015956,-1.2219486947398492,-8.813342952369409,5.787732215964296
6.30634445617507,11.558430527743656,8.512890514598125,-1.3108473351805965,-8.265397714094007,6.000428371273336
6.5351642110085,11.607352051982947,8.325062689781307,-1.4033372247734393,-7.714576377966905,6.21479747168952
6.763428505470421,11.654616718475914,8.138915105723454,-1.4986241879012325,-7.1656904633326866,6.429014156058229
6.991968793449712,11.70040267320218,7.953753115830767,-1.5970517816267153,-6.6167124302069285,6.6439127978043775
7.222076927442175,11.744952975854126,7.768530657289608,-1.6992166922493255,-6.064519254364963,6.860768633737556
7.450656038948834,11.787669919075615,7.585727461881366,-1.8037504425164825,-5.516516802063223,7.076718355110984
7.680113816512776,11.829012055811567,7.403399883953842,-1.9117482269453545,-4.966905245304491,7.2940896260341015
7.910426279349156,11.868959293613239,7.2215676529778685,-2.023242359192166,-4.415722809791916,7.5129222514816565
8.140113817904554,11.907253916159728,7.041388514048927,-2.1375319024230617,-3.866487052685755,7.731867318950667
8.370054346801737,11.944046786744563,6.862159331560189,-2.255058858729294,-3.317074107054834,7.951816285823132
8.600315964318453,11.979343550526425,6.683819989718577,-2.37588382318009,-2.7672999422635245,8.17289382589942
8.82988018051299,12.012992015815778,6.507145686275082,-2.4994805412095453,-2.219573149597266,8.394176862527404
9.060446162076113,12.045237901154996,6.330820534635489,-2.626787884091047,-1.6698187468189314,8.617362584878935
9.291536461653921,12.075998276113124,6.15521080413684,-2.7575937059904785,-1.1191576510973322,8.842056668111349
9.522408659242009,12.105170431600325,5.980873070208338,-2.891505255862847,-0.5693391015625086,9.067598170042949
9.75331664681589,12.132786714483972,5.8076052014140345,-3.0286898134969027,-0.019738276550911954,9.294293718793032
9.983571709216367,12.15876953717914,5.635910633319631,-3.1687497774568407,0.5280259025543707,9.521522546137394
10.214603022299663,12.1832767449243,5.464716189616107,-3.312584409026406,1.0773716099806598,9.75075706989534
10.446276845034703,12.20627746861461,5.29412272029371,-3.460169706907219,1.627996366457251,9.98193810316578
10.677521243156054,12.227660178358256,5.12491344245714,-3.6108588582986836,2.1773693846732307,10.21406101242513
10.909079295426237,12.247491891240085,4.956536326870009,-3.765166131832286,2.7272728418123666,10.447934573718719
11.141151330854115,12.265777812689599,4.788844424692037,-3.923278600068365,3.278197320260783,10.683834224056657
11.372665286197952,12.28243015347748,4.622605485126978,-4.084502024448734,3.8276131248395004,10.920736085851594
11.604090741332708,12.297485247697352,4.457471710905806,-4.249187956246906,4.37664991742037,11.159181395393576
11.835744310868611,12.310957950970115,4.293212185344001,-4.417605906068613,4.926072489461325,11.399566256076042
12.06719652290121,12.322818293993377,4.130126105855922,-4.5894875862107245,5.474875254274239,11.641515005300754
12.299310782176109,12.333100683545478,3.9676029986201584,-4.765530701689347,6.025117367245205,11.88600687825856
12.531951709255772,12.341781358968909,3.8057406924052843,-4.945708999034549,6.57648852893206,12.132986716550429
12.762816832951975,12.34878181420558,3.646128426508163,-5.128259240766466,7.123543422945545,12.380068509234889
12.99577746457274,12.354210157282385,3.4860876014273305,-5.31630306156044,7.675465227740922,12.631475802542102
13.227101346323275,12.357968211852254,3.3281815229388347,-5.50689430436792,8.22342038369904,12.883264417205206
13.459174135763849,12.360097561147567,3.1707724096128795,-5.70203377213799,8.773068720992228,13.13809796339438
13.690867465280462,12.360577195846076,3.014624820807558,-5.900841653914885,9.321744894615277,13.394823426323079
13.923310545648139,12.359398233957986,2.858977392637469,-6.104359469802953,9.872129237357994,13.654780880788751
14.155874142436026,12.356547101996286,2.704254604150898,-6.312124674116397,10.422736922148507,13.917365468055124
14.387349009851585,12.35204113034691,2.5512526680670047,-6.523099568219796,10.97070980464214,14.181283514886637
14.619966371381054,12.345828429778386,2.398495198891178,-6.739389930403295,11.521333292121223,14.44916914533143
14.852147959099119,12.33793507122304,2.247021744759956,-6.959621939147416,12.070873598713066,14.719308815589073
15.083307089126567,12.328388353978145,2.0972045328383135,-7.183274668724533,12.617943837633335,14.991087418779767
15.310815889563024,12.317339115786995,1.9507161338971495,-7.407750209972558,13.156326372089682,15.261422813941596
15.538028455192025,12.304658746542568,1.805371429901717,-7.636323393118533,13.693958636496749,15.534320033536114
15.765528992844013,12.290305912894901,1.66079646095216,-7.869662820313713,14.232220794225618,15.81057614806046
15.993954549185283,12.274217841210907,1.5165942297686832,-8.10854317157035,14.772616244484208,16.09108813589827
16.220578987027274,12.256587040839408,1.3744804989017398,-8.350173972572579,15.308691346061872,16.372590516645637
16.44626806544804,12.237366823699492,1.2338959059604078,-8.595484255914043,15.842489248228084,16.65620306937996
16.67133841672348,12.216537830705839,1.094634460934332,-8.844861710895042,16.37475240627209,16.942393706592743
16.89773581162551,12.193902336808932,0.9554979009386023,-9.100580428227694,16.910073449873202,17.233759850147255
17.12298996916313,12.169695232749952,0.8180070939691259,-9.35995513473473,17.44260132468199,17.527236602289666
17.34802104524162,12.143822933530005,0.6815935520562884,-9.62410206591547,17.97450084221152,17.82410256741208
17.573807078121177,12.116156478995238,0.5456698869254059,-9.89429364536122,18.508070420126842,18.125777610105025
17.800356106314766,12.08666708842105,0.4102431424076491,-10.170702161924186,19.043313172393443,18.432431404504573
18.02517553920308,12.055679504554488,0.2767998684150866,-10.450366363228184,19.57432466346115,18.740787718328413
18.248389755196147,12.023204039975301,0.14524804606127148,-10.733437763403959,20.101384139332804,19.051051845448264
18.472802384193816,11.988826574290814,0.013935888199788452,-11.023576941650756,20.631092456390174,19.367237654126107
18.64457582692768,11.961335588734569,-0.08593222222930906,-11.24949550154392,21.03641424787227,19.612222803106548
18.71967597870868,11.948994159897763,-0.12941937622982355,-11.3493298275801,21.2135828387838,19.72015690630618
18.769381295040382,11.940717850663527,-0.15814265996278948,-11.415764190364206,21.330828501232258,19.79187332224139
18.780354113498323,11.920319905284707,-0.19083665754099624,-11.440460184017857,21.417571966505243,19.819681467725285
18.685570915484067,11.743062983479707,-0.40600716810893234,-11.416244189935515,21.820619677020414,19.805411575058965
18.561620266130518,11.503627791950109,-0.6856632277681287,-11.385672572754252,22.353512691345383,19.78747168038535
18.439118032989555,11.258245976013301,-0.9599818536668198,-11.356719331663825,22.886755080988117,19.770581242499837
18.318273519384004,11.007393267798678,-1.2284226724920144,-11.329456372053313,23.419309764210027,19.754762613168122
18.19830057867549,10.749460984301027,-1.4926184450034647,-11.303659953124244,23.954504058541488,19.739957363981247
18.08071003708564,10.48778644293308,-1.7491813976032735,-11.279673548155335,24.485450746435582,19.726342008335482
17.963658430796627,10.218332801069465,-2.0020555025545597,-11.257119176379685,25.020331292085952,19.71371172551414
17.848356501981957,9.943878365770358,-2.2485397366446302,-11.236267948608557,25.553537659603418,19.70220021541091
17.755808694787834,9.716938879779455,-2.4443755055887117,-11.220499835991141,25.986087425247018,19.69367650007026
17.719523569900247,9.626312284563834,-2.5206487056256823,-11.21456490110903,26.156801754223597,19.690511768958917
17.694094961924375,9.562239811368213,-2.5739255680547903,-11.2104900546528,26.27681829339366,19.68835461712202
17.700849793730402,9.597889162530509,-2.6727737081037635,-11.220636187822791,26.33750611472694,19.709403868158958
17.797256675810132,9.950035485570083,-3.138968223593659,-11.289773876268589,26.430680342092998,19.83903836170886
17.92618947108989,10.415064171791503,-3.751788438022013,-11.381945496312543,26.55042217812253,20.011763814799156
18.057506023675252,10.881913850011289,-4.363766209170275,-11.475475825234247,26.66682595215056,20.186931747600536
18.192039462909424,11.353322026284944,-4.978402554783802,-11.570933718873924,26.780463649409974,20.365614011203796
18.329000565561845,11.826302053395912,-5.591717563739975,-11.66773396287335,26.890506123816227,20.546722216536118
18.468773777125637,12.301998601153846,-6.205128730456153,-11.766124269314565,26.997132356088603,20.73072787834269
18.611314189475998,12.780057120898604,-6.818103084499694,-11.866047163763275,27.100164387383348,20.91753183375099
18.75681484031775,13.26091913107647,-7.431129235089397,-11.967610985500405,27.199596223548966,21.107345430465678
18.905047195174518,13.743618290559358,-8.042900834386181,-12.070651883072388,27.295103272886106,21.299862793749334
19.056973953455618,14.231079167597024,-8.65703499420004,-12.175761998630785,27.387200918147542,21.496218226243723
19.209828756505576,14.714303170853265,-9.262165874391346,-12.281027438357668,27.474117499314406,21.69283793507052
19.36483908189658,15.197177734940993,-9.863194593420598,-12.38727792314264,27.55658084877827,21.891282984502578
19.491954982918593,15.587928286866797,-10.346863200977849,-12.474032762732493,27.62007604856352,22.0533128396793
19.535980369371636,15.722185121048282,-10.512486967521264,-12.504000482723452,27.64122028789648,22.10928336775792
19.570402305179464,15.826775715512046,-10.641315231759757,-12.527402916181677,27.657453626945216,22.152992410958458
19.432035008046842,15.887228165479915,-10.691155006388124,-12.443146749286626,27.676892620203017,21.99849328962622
18.957762001496402,16.037427255463438,-10.795924095335463,-12.152593410577792,27.73311168156733,21.466339607393202
18.413265868597303,16.204462475398564,-10.912085795906084,-11.817827595981322,27.795952219869385,20.855017769102208
17.86676763534284,16.36638347035371,-11.024334039187906,-11.480572111025001,27.85716235764424,20.24105124296835
17.316073383652036,16.523824849178734,-11.133147625503423,-11.139510628345219,27.917019955133892,19.62199295350511
16.766166258518616,16.675385715673425,-11.237587265821777,-10.797743876462869,27.974938369189566,19.003448217435917
16.216363992198737,16.821341737087643,-11.33787387979136,-10.45487752815118,28.030963753837092,18.38465782743151
15.663838254615708,16.9624776398316,-11.434584769406689,-10.109197111607788,28.085433548386998,17.762458826284416
15.110035861524242,17.098432092159058,-11.527496835465831,-9.761623268553643,28.138155535011588,17.13848393209021
14.552424445603751,17.22981775300334,-11.61705133975556,-9.410580697680382,28.189312892825093,16.50988293416137
13.998038839964908,17.35503418488833,-11.702192914308618,-9.060552682947696,28.238318195361355,15.884607168671156
13.43992087465682,17.475705930106646,-11.78404540625419,-8.707165927020231,28.285721537204406,15.254811686121963
12.878947777544752,17.591608859438086,-11.862486764065961,-8.351014267793023,28.331476156064642,14.621501811527978
12.34940077347716,17.696115026640054,-11.933063526427446,-8.013961126538499,28.372895370719192,14.023407986832812
12.065866094737403,17.750128803856928,-11.969482995507862,-7.833161107998315,28.394350384935002,13.703068643538842
12.041671219434768,17.76178960037125,-11.86012281370357,-7.808957517619784,28.277733198895493,13.657265619722493
12.065394177329795,17.78304416233469,-11.399892553135128,-7.789137022554787,27.797502044801043,13.609710992651548
12.092548975409736,17.80125534500974,-10.87118218343715,-7.7676277556033435,27.251963077052746,13.556370118428658
12.119867696057351,17.813135140148567,-10.33729418200414,-7.747212744236238,26.707532285721914,13.50383497864975
12.14740218931456,17.818724844084453,-9.797341759584778,-7.727870489777783,26.163277536423234,13.45200938143844
12.17496868699191,17.818055185697244,-9.254757958228133,-7.709627735749762,25.62261044781487,13.401144595306498
12.202548279249811,17.811257730623637,-8.71007343096638,-7.692495926238963,25.085923439529743,13.35126252236558
12.230010242791646,17.79854225434787,-8.16593753696561,-7.676510885429304,24.555652947787518,13.30255011905192
12.257362922719166,17.78012090475913,-7.622369901069969,-7.661653803453258,24.03160113480089,13.254966672475904
12.284613542306516,17.75618073235664,-7.079082606535618,-7.647802082041153,23.5133126185687,13.20839506984259
12.31079257317518,17.728051777290947,-6.555662795736936,-7.635391859497909,23.01900279539494,13.164430591159078
12.322970091005567,17.714091479558405,-6.315127084459383,-7.630057022920941,22.792848972388814,13.144607606170547
12.370312608639368,17.93946284838291,-6.579672878454631,-7.660935005939702,22.82550062246333,13.200162279576967
12.473183033542208,18.423728882331552,-7.14540069176993,-7.727865577484197,22.892724190580086,13.320478022038001
12.585192770503907,18.942761603659136,-7.747622741443012,-7.800488056581442,22.960309555609662,13.45087053082106
12.699637038473412,19.46446221327662,-8.348629956179327,-7.874416503491705,23.023564944895913,13.583448441429175
12.816643108415724,19.989128394139723,-8.948681801964403,-7.949716830895563,23.082427597569527,13.71832762996372
12.902293724524565,20.367771253874533,-9.378998031259556,-8.00465777697768,23.121933976975896,13.816641040142178
12.946840225239002,20.38808287538084,-9.40553361543448,-8.032008048296662,23.12199822851044,13.86467017046504
13.2493639725271,20.012278145407123,-9.013315927780242,-8.214059973375887,23.063796898449816,14.181758012329132
13.65112202730855,19.504246911292533,-8.480445833155663,-8.455083077271283,22.98204127283611,14.601808522591963
14.04328638158032,18.998205633062113,-7.946617467398698,-8.689508862857236,22.897202323370934,15.010611283907403
14.428652288341532,18.490853550379423,-7.408324254354934,-8.919002604136221,22.808722476395026,15.411046964758784
14.803178692915518,17.987890103934742,-6.871626060589512,-9.141194723373335,22.717732412985203,15.798935080894234
15.170974464073325,17.484174371335538,-6.331042976025846,-9.35852558467737,22.623320437810623,16.178511411718283
15.532705451171612,16.979002211825023,-5.785786431108952,-9.571415230795612,22.525433717226505,16.550467241069974
15.88322069385318,16.479957994854708,-5.244061453598264,-9.776838216964103,22.425564449771013,16.909492598460393
16.22920904336421,15.977866894860902,-4.6959271888599785,-9.978757831456402,22.32200102892206,17.2624711593056
16.56714594459837,15.478065186111799,-4.147183559525282,-10.175120143867895,22.215840519774467,17.6057858159319
16.897785329657967,14.979783979555268,-3.597004394029368,-10.366377889315423,22.106956370217343,17.940201188935973
17.222087921488544,14.481869668441936,-3.044127499449325,-10.55313008892572,21.99520237917695,18.266724435099324
17.53984362212318,13.984904011406627,-2.4891923981396684,-10.735253384849957,21.880689618565878,18.585118317794617
17.851018929394517,13.48923137385311,-1.9326005248609224,-10.912774814830858,21.76360250898766,18.89539276489003
18.15803167435818,12.991187747533276,-1.3702140944861916,-11.087077257941345,21.643061737822975,19.199938856598404
18.455421837998422,12.499960777057273,-0.8124370143424151,-11.255077886726781,21.521323616593776,19.493346191770346
18.67233025686026,12.13606630887067,-0.3972657767050347,-11.37709381545423,21.429371996275997,19.706338307852445
18.745057781554618,12.012975013239123,-0.2564475698301465,-11.417902901277962,21.39792505494732,19.777552637284707
18.78893242160388,11.938451816135027,-0.17109807337017474,-11.442496963122183,21.378802057439742,19.82046489071371
18.72169613285545,11.811208537752432,-0.3241349422820507,-11.4253976827029,21.66657468426708,19.810808276576832
18.59977634387245,11.57826727484613,-0.5997988214673985,-11.394957220687544,22.18878459337122,19.792918187290997
18.47649389245254,11.33404863809446,-0.8765197584431712,-11.36542583680045,22.723383001396048,19.775656826768586
18.354809263501902,11.08416832765187,-1.1475064561424448,-11.33757339072229,23.257628827861986,19.759458654973212
18.234770316845825,10.828821365748432,-1.4125624672621468,-11.311364917068689,23.79113539829133,19.74437259208542
18.11638921857533,10.568126196825009,-1.671597444310391,-11.286815518403605,24.323690259536296,19.73038728122271
17.999445274951476,10.30168079763383,-1.9250214406009811,-11.263874554901248,24.85613101855703,19.717483280896825
17.883482905467297,10.028452576407696,-2.1737368777288735,-11.242481369302434,25.39043777665939,19.705608245477297
17.772036317832566,9.757168370536276,-2.410169355905887,-11.223194893269106,25.909946514762346,19.695130875022745
17.71303059533553,9.609997978439603,-2.534265275898694,-11.213513123452984,26.187418091567153,19.689962525561047
17.684783414621908,9.538663459058238,-2.593397102382651,-11.209010686358479,26.320845566431327,19.687583603712746
17.428697788220067,9.617350934518157,-2.6556719733576624,-11.052969187857517,26.353832529405462,19.405742492655445
16.925650298264994,9.768845432377775,-2.7741857100125173,-10.745521756352831,26.41586557220937,18.851451080670756
16.396931270174004,9.922583551995157,-2.8941297530223586,-10.421291207425346,26.47903622546941,18.268384266995753
15.869093432574171,10.070526707739003,-3.009243740248614,-10.096516931088336,26.5400367982002,17.685807437608254
15.340548936426027,10.213191514514197,-3.119963811479517,-9.770256957205392,26.599060271288558,17.101986336430716
14.809510967795319,10.351076197241705,-3.2267028090592205,-9.44142500056992,26.656264851288977,16.514953936851352
14.278600171102811,10.483530519482988,-3.3289944124038895,-9.111690332835801,26.711424960117053,15.927636505387392
13.745399876817844,10.61118445500265,-3.4273494875552717,-8.779572009680217,26.764754307563678,15.337367985349694
13.213587549951962,10.733203389963716,-3.5211526515960174,-8.44739371739125,26.815886396141,14.74823562856525
12.679012140175498,10.850575700678272,-3.6111899061842356,-8.112594858863698,26.86521843323661,14.155656569721227
12.142374446887487,10.963130433016765,-3.69735327667212,-7.77563852693002,26.91266388140303,13.56041960188743
11.604658446734694,11.070666127233403,-3.779507552278432,-7.437164393120716,26.958089796138573,12.963623856500647
11.095837873025072,11.16763527068481,-3.8534559872384775,-7.116149852270308,26.99918669053865,12.398589941665046
10.845526602912242,11.213642788494033,-3.8884978492941293,-6.957979022165029,27.018737202890865,12.120520023203373
10.836548996635806,11.257103808574609,-3.78204198300299,-6.943107078466986,26.87100107010988,12.090254711517153
10.877925823936454,11.383305386775902,-3.4212615182462884,-6.93955788804924,26.382633521833377,12.069946843291858
10.923940675812554,11.516863051437067,-3.018405164868391,-6.936536031651066,25.84464666191832,12.04812806901455
10.970581499189022,11.645122786364643,-2.6084057071339903,-6.934432514775045,25.30476024140025,12.02679896724967
11.017564427980252,11.767270596993324,-2.193802804971419,-6.933255002212453,24.766338245549118,12.006077378969515
11.065135406866283,11.883925398318913,-1.7724737951405298,-6.932991012207665,24.226630829515177,11.98584168321286
11.113082774850277,11.994531850019762,-1.3463829033217605,-6.933668659372236,23.68815355781244,11.966175849802083
11.161406325087672,12.099137843316578,-0.9155041321497084,-6.9352125159274385,23.150857478611133,11.947049801293769
11.21051088834145,12.198549810715326,-0.4763107330698834,-6.937668008039381,22.610382409690345,11.928301354924827
11.258257950402848,12.288738198603989,-0.04803767301756415,-6.940883257752188,22.090076085536953,11.910703756294971
11.282567009119697,12.332257417612787,0.17044235358693383,-6.942824845930146,21.827127787594574,11.90197458639029
11.29341485620212,12.370492392860523,0.18859066434498603,-6.946655271932058,21.769877826620515,11.905953128941455
11.351167567889787,12.695280550873607,-0.21919526803642825,-6.985592788832122,21.845425265360667,11.9770709160913
11.439262203603027,13.184380877096247,-0.8302752387964731,-7.044849531260543,21.955984451294903,12.085157314244608
11.505049253724968,13.544772161465298,-1.2782255110557064,-7.088992459228098,22.034970969052026,12.165566766726062
11.525563268401879,13.656318650672036,-1.416472388107389,-7.102738276783204,22.05899057985386,12.190587295539569
11.513238186665673,13.63123137338143,-1.5081567085334748,-7.101145427810168,22.17635574359626,12.193267565435445
11.443483343580962,13.420446318731962,-1.7567018777999297,-7.0822186330149846,22.640598620856473,12.1813447151413
11.36427018674662,13.17261478489738,-2.0373305645219304,-7.061487402898897,23.174598119068474,12.168324310812448
11.28599552161579,12.91859439439784,-2.312786506708729,-7.041826573862518,23.7095059766737,12.156026606896479
11.209280307233442,12.660543224897394,-2.580806476420463,-7.023383185726745,24.2408589042056,12.144549548516096
11.133233998475077,12.395552399644284,-2.844434599480738,-7.005970681089943,24.774666373418214,12.133753784833788
11.058106588492649,12.124525835812115,-3.1026634251482608,-6.989586334517467,25.30901182385808,12.123702784866255
10.984278169950684,11.848939333157647,-3.3541278651019093,-6.974339477207005,25.841023786369032,12.114439856901216
10.9111862832948,11.566791299718865,-3.6006636216209498,-6.960110491377453,26.37457813792808,12.105897820553123
10.857303749300494,11.352677691368596,-3.780773927018688,-6.95022198345688,26.77236070157016,12.100014198730406
10.836935221228899,11.270367248268556,-3.8484728131219286,-6.946605274035104,26.92371069492753,12.09788660356036
10.824110560714068,11.218426644006621,-3.892597099453077,-6.944445279076375,27.0206085724267,12.096755807262308
10.861087719251708,11.438100805585911,-4.175090744524548,-6.971616152807744,27.078522279996278,12.146178760849539
10.938302837845265,11.892169566739309,-4.756645862551359,-7.0282269202268335,27.195722814074486,12.249075470309492
11.021298647954742,12.373392598666346,-5.369488695294903,-7.088883555851417,27.3162241021339,12.359216614512306
11.106072151455331,12.857827584864033,-5.982773539826471,-7.150632671340126,27.433650599343824,12.471231813143177
11.19259733599609,13.345103313466923,-6.595940074100348,-7.213441225638444,27.547812806804362,12.585061970902425
11.281056430454436,13.836013068133537,-7.20989111764849,-7.2774265988468825,27.658791441239707,12.700920684911877
11.371302816854966,14.329513040449275,-7.823227693682213,-7.342467438140842,27.7662471131118,12.818589293864624
11.463118686250171,14.824232811734111,-8.434180429988407,-7.408392673539579,27.86980693642719,12.93776021824789
11.557183890197832,15.323610436484254,-9.046905190734462,-7.475674358401988,27.970090466796517,13.059288218182578
11.65350588166427,15.827384586964955,-9.660951205452553,-7.544298549458838,28.066901848327007,13.183148764677052
11.75210549795412,16.33537048064827,-10.27596770734957,-7.614260411425238,28.160066705809072,13.309334093116458
11.851040664455926,16.837499827785823,-10.87976583071535,-7.684170491918872,28.247734604176735,13.435341846549235
11.951183209924935,17.338258087400263,-11.47780849495475,-7.754638085378364,28.33075805864799,13.562275218461787
12.02325475367122,17.694110756606296,-11.900291835833496,-7.805168991234412,28.387070032605948,13.653250755668127
12.037520200024845,17.757553747146,-11.94038903027086,-7.812492680440963,28.36201256654133,13.665625588140323
12.056441211759125,17.775617584810384,-11.573665421680063,-7.796468541936772,27.978234656848528,13.627496260180935
12.0835342777316,17.795926921815244,-11.046821482911886,-7.774598016845856,27.43247899484881,13.573897250634317
12.110673467798,17.80984974017993,-10.517095295128179,-7.753916184289936,26.890175783279325,13.521339127438601
12.138112895075594,17.81754534733823,-9.979657092282245,-7.734244907709078,26.346343672146602,13.469339061235383
12.165792780861784,17.818964125065456,-9.435475037821133,-7.715542061920609,25.802011505474287,13.417917052915907
12.19342736320386,17.814172968263048,-8.890311500283412,-7.698008760647088,25.262857099914342,13.3676064326091
12.220825696884464,17.803446250647156,-8.34812801212662,-7.681746152715869,24.732555689326034,13.318731246852048
12.248223124644392,17.78690484553104,-7.80412966812909,-7.666488320548496,24.206217390871394,13.270743247234034
12.275557710373478,17.76474245770866,-7.259712179840861,-7.652268306619718,23.685037324008487,13.223744800326333
12.3028350104138,17.73712805804861,-6.714937632300429,-7.63907962144832,23.16890440423672,13.177717589699295
12.321479239752064,17.715151274178805,-6.341604780418642,-7.630578757590904,22.818233640787753,13.146696589963408
12.345921477085115,17.823545278083078,-6.443706528956433,-7.645038060486055,22.808812569925184,13.171553593641008
12.436973910558983,18.254108383618615,-6.947668852528583,-7.704338006283828,22.869632452753663,13.278189064992558
12.547642914243923,18.769700052859857,-7.5472977903390115,-7.77617734050061,22.938286657757217,13.407227403826854
12.661280308707832,19.290558496629547,-8.148771014182827,-7.849675080482757,23.00299930761078,13.539085295601812
12.77769844862261,19.815452552388862,-8.750537829589112,-7.924690879524666,23.0634694003032,13.673506981762646
12.8808736645137,20.27349576538187,-9.272071151829152,-7.990937620449353,23.112328822222402,13.792086101668806
12.920135630236492,20.42309313747454,-9.4421386786284,-8.015935333617794,23.127233625996205,13.836683974269862
13.180910625008266,20.224067677638782,-9.243667849093345,-8.173803100000116,23.091746200836194,14.112333754285492
13.687068033842548,19.831310501116352,-8.851252783066705,-8.479501265961568,23.020121231245824,14.64672218034071
14.207665512107445,19.418255228394763,-8.43743546553336,-8.792902772086107,22.942620762174965,15.195429958384253
14.731223735875808,18.993280901013794,-8.010415515357426,-9.106996779765383,22.860634980303853,15.746243043126723
15.259600947385477,18.554373310676986,-7.567989043734136,-9.422822544360182,22.773646088485812,16.30101940148868
15.780744938418271,18.111310229680406,-7.119862176691323,-9.733132173468313,22.68352290041048,16.84703421368356
16.299574768748634,17.659878078214295,-6.661647511885243,-10.040835488357837,22.589382909104973,17.389392017073668
16.809030362669795,17.206253917083444,-6.1994989019895055,-10.341735625787189,22.492501232674122,17.920671002822285
17.31763191530334,16.742840308281792,-5.725550180012498,-10.640850980083979,22.391229426701507,18.44970821676989
17.82141665798508,16.273096149511865,-5.243189707654639,-10.935832363276928,22.286294329754067,18.97232395409626
18.321649191074606,15.795766366011348,-4.750979805599181,-11.227379586195921,22.177312305170595,19.48975330644344
18.820814824960518,15.308279870656623,-4.246101859851736,-11.516918578627283,22.0636521617214,20.004498373603223
19.307258351176994,14.822128587003778,-3.740346039336645,-11.797694984552683,21.947981048511775,20.5045055617777
19.58565793431512,14.538834052052549,-3.4445686264307263,-11.957761189571528,21.879542736125845,20.789915603053014
19.538336007087715,14.437764470515482,-3.5511954416252713,-11.947754833871963,22.09235686666294,20.787296623624037
19.411462427246914,14.208444004579158,-3.818272685363036,-11.916362775575704,22.603808884077257,20.766363862154467
19.279740322985877,13.961674728877894,-4.093828830070364,-11.88510232962776,23.141646816141694,20.745565831755844
19.149717383895986,13.709127239749938,-4.363956778145224,-11.855645341415084,23.679508876475715,20.725997888097897
19.02074726708542,13.449560208119339,-4.629885727497174,-11.827813432177093,24.219954630227512,20.70761536672358
18.894252900987773,13.185921620854511,-4.888608874955165,-11.801928589337164,24.756860384110816,20.690609658017877
18.76901155087594,12.91578430418018,-5.142556264858572,-11.777731361689316,25.295226508296803,20.674819717963793
18.64476138384549,12.63854173170956,-5.39215780779601,-11.755209679725427,25.836112907661317,20.660218041335316
18.522917416517053,12.357470547234188,-5.634485838085924,-11.734569601807195,26.373171203795643,20.64700829644654
18.43503224897063,12.148921814824462,-5.807682592991887,-11.720615733347026,26.764694807119803,20.638181050555968
18.40101176816832,12.066858061883252,-5.874352460722858,-11.715429605727003,26.917196622973954,20.634926593216118
18.25965376745602,12.096219874640667,-5.917150028246133,-11.631643269136529,26.958798460077027,20.48359952901922
17.79919875253682,12.23824141075891,-6.023449677858534,-11.34987166088666,27.014988344621237,19.972208101954543
17.263275015718495,12.398236730318919,-6.142873287795135,-11.020810214312554,27.078542744472056,19.376561858651556
16.728144213464656,12.552376192277576,-6.25759598543827,-10.691079021485677,27.14002451728397,18.781341649397746
16.19238787127826,12.701144242638174,-6.368013979827982,-10.359840026798029,27.199604221322595,18.184986255017975
15.652766944978163,12.845440485886954,-6.4748214311512315,-10.02510343003761,27.25759293415442,17.583893918298187
15.11452004569226,12.983896649342661,-6.5770435822789,-9.690165802648405,27.31348060732306,16.983927369033
14.575440526385716,13.117152668973278,-6.675180470476869,-9.353682123490445,27.367473132147417,16.382635834145304
14.035461066223279,13.24526246846063,-6.769300102161615,-9.015641790020542,27.419572177117363,15.77995784375833
13.491247257664952,13.369000672810293,-6.859993785046115,-8.673974233369325,27.470051752420662,15.172177190847892
12.948088491226706,13.487176952064754,-6.946419018388577,-8.332039103123988,27.518446897359794,14.565221453825563
12.403988793967926,13.600282874909512,-7.02895979073723,-7.988614571500418,27.56492907721671,13.95687335326979
11.861691881051653,13.707813530612821,-7.107271397558369,-7.645470030551097,27.609264792120076,13.35021509713794
11.410358599334971,13.793384165455713,-7.169477700623752,-7.359256139635841,27.644642771379942,12.845077932687792
11.278075582794052,13.818093062965994,-7.180288415159737,-7.274780988184915,27.647574221805403,12.69595077705912
11.291301400833405,13.827341002549506,-6.8855082518227535,-7.26309865034485,27.34432826902826,12.667267448601018
11.314633303125929,13.83893610639542,-6.36374898086429,-7.243330522338317,26.812320078988847,12.617422267796732
11.33833418867607,13.844658011383117,-5.831523024476773,-7.224316136228734,26.275697502943128,12.56774026616993
11.362302826460276,13.844366210209765,-5.2910695555712515,-7.206142551290551,25.736834871912205,12.51843066516248
11.386079428004544,13.838166394052303,-4.752915519149811,-7.189165849581867,25.20612761593787,12.470434398820867
11.40982211841816,13.826221281473451,-4.213332146963589,-7.173148553791491,24.679700274890493,12.423320597065501
11.433651026946922,13.808572578212008,-3.6697470937207375,-7.158019192628844,24.154943898465813,12.376848272605475
11.457335233367068,13.785527992624553,-3.1274828600807414,-7.143890836656808,23.636863653520173,12.331430539529338
11.481167590875856,13.756915315837995,-2.579879751785907,-7.130560169857981,23.118987759977923,12.286472931124441
11.505128247988104,13.72278432219739,-2.027526890278042,-7.118062688813365,22.60185310219844,12.24202092343579
11.525511554957967,13.689585307447258,-1.5560511977357607,-7.108065078033162,22.164480361598937,12.20472782528241
11.535769556160725,13.711656795162142,-1.484984801093972,-7.109587424117184,22.070817678772396,12.203025448400947
11.597150779818982,14.042524838268596,-1.8936556272234626,-7.15064955595953,22.140571971041346,12.277704413838892
11.689644202821736,14.534675795719776,-2.4984358846780834,-7.212371565752489,22.24101182956191,12.389818005293789
11.78550855128543,15.036840333651924,-3.1116862676129355,-7.2761485543618445,22.339386269668328,12.505495367222435
11.883596508289049,15.54256705038053,-3.7253547121105313,-7.341199993364257,22.434240124052934,12.623314825162998
11.97739301074165,16.018755068920324,-4.299557793883032,-7.403211695249722,22.519662957114,12.735476009112961
12.024230047260177,16.25389409266106,-4.5817960839587615,-7.434106273288784,22.560446234047475,12.791301549850523
12.045478024934631,16.359995925302574,-4.708868533793296,-7.448106300414435,22.578545396882536,12.816587650462694
12.046609350261207,16.365635740310644,-4.715618349466115,-7.4488514573395745,22.579502407377525,12.817933322882654
12.046609350261207,16.365635740310644,-4.715618349466115,-7.4488514573395745,22.579502407377525,12.817933322882654
12.046609350261207,16.365635740310644,-4.715618349466115,-7.4488514573395745,22.579502407377525,12.817933322882654
12.046609350261207,16.365635740310644,-4.715618349466115,-7.4488514573395745,22.579502407377525,12.817933322882654
12.046609350261207,16.365635740310644,-4.715618349466115,-7.4488514573395745,22.579502407377525,12.817933322882654
12.046609350261207,16.365635740310644,-4.715618349466115,-7.4488514573395745,22.579502407377525,12.817933322882654
12.04658473523022,16.36562186789565,-4.7155795864287935,-7.448836229259874,22.579407587737702,12.817907123358436
11.809879623782104,16.232220795215095,-4.34282323793508,-7.302398700733693,21.667595068632544,12.565965076129313
11.573541982619528,16.099026819584413,-3.9706455709957265,-7.156188507562004,20.757198082993078,12.314414153601591
11.337787233422514,15.966161347267352,-3.59938582542833,-7.010338920286456,19.849046457363933,12.063483644356111
10.93088484460829,15.736841351547724,-2.958607737790767,-6.758608909874681,18.28161646016284,11.63038855725341
10.484238111698726,15.485122438868228,-2.2552414090813495,-6.4822910758768035,16.56108714758134,11.154990744384042
10.037688676374728,15.233458360671193,-1.5520283017894583,-6.206033434993786,14.840932635341293,10.679696492239442
9.589966957973969,14.981133613091197,-0.84696911708749,-5.929050561624474,13.116262367700845,10.203154496028466
9.14339688065819,14.72945790158456,-0.14372350338525836,-5.6527801505809725,11.396028340378038,9.727838273147208
8.69882027962031,14.478905663382784,0.5563828416564304,-5.377743002890028,9.683473389419952,9.25464384852998
8.252462826627404,14.22734978161948,1.2592936207380214,-5.101604131804221,7.964058412933338,8.779553936803849
7.806147494515009,13.975817638129541,1.9621380690778802,-4.825491318785365,6.244805690425653,8.304508857319835
7.35838848577155,13.723471874646311,2.6672559775306515,-4.548485375759513,4.519991776536474,7.827927170350916
6.914112270987886,13.473088926614423,3.3668892830060493,-4.273634061912209,2.808593944431815,7.355052468140117
6.466662053233473,13.220917189999144,4.071520916359733,-3.9968191523160543,1.084969525302066,6.878799449333326
6.02168117279,12.970137110049297,4.772263908891112,-3.7215318973222837,-0.6291427516511457,6.405174721456168
5.5756412724944555,12.718760193033317,5.47467461518932,-3.445589480093744,-2.3473344823736144,5.930422803600077
5.1297341574110735,12.467458110437386,6.1768762151842616,-3.1697292103869654,-4.065014710754371,5.45581221846802
4.683137793460276,12.215767584441588,6.880163224317386,-2.8934425371265586,-5.78534999690825,4.980468016855758
4.236636612027141,11.96413070092896,7.583300342780608,-2.617214748495047,-7.505318630180512,4.505225124751404
3.789131139239387,11.711927823960718,8.288018990159205,-2.3403656553932146,-9.22915589740144,4.028913294091609
3.3431578992800373,11.460588475040746,8.990324721692156,-2.06446447755669,-10.947090845629024,3.5542323275616927
2.8982251210136964,11.209835504273245,9.690991964309253,-1.789206980956782,-12.661017828031401,3.0806587982450946
2.4522994031495657,10.958522937615982,10.393222859424107,-1.5133352026466629,-14.378769716243553,2.606028412853392
2.0056662039972624,10.706811652223127,11.096567875564874,-1.237025741302643,-16.099246895395307,2.130645004922261
1.5575050601605454,10.454239255472563,11.802319054706425,-0.9597710175519882,-17.825609875167185,1.653635297037196
1.1133993335921988,10.203952390329055,12.501683880282023,-0.6850251761752262,-19.536350969070728,1.180942057532179
0.7070574043808229,9.97494825560523,13.141579372382218,-0.43364189388680235,-21.101622018037855,0.7484435073562361
0.4710588033792263,9.841945354518227,13.51322312870331,-0.2876414477836968,-22.010712985985652,0.49725344933087856
0.23480146816467576,9.708796637308637,13.885274332163418,-0.14148093585667088,-22.920800624825134,0.2457880021223256
-0.0008394684048949821,9.575995306938038,14.256354848904033,0.004298241279545184,-23.82851383246701,-0.0050213682673729805
-0.0008394684048949821,9.575995306938038,14.256354848904033,0.004298241279545184,-23.82851383246701,-0.0050213682673729805
-0.0008394684048949821,9.575995306938038,14.256354848904033,0.004298241279545184,-23.82851383246701,-0.0050213682673729805
-0.0008394684048949821,9.575995306938038,14.256354848904033,0.004298241279545184,-23.82851383246701,-0.0050213682673729805
-0.0008394684048949821,9.575995306938038,14.256354848904033,0.004298241279545184,-23.82851383246701,-0.0050213682673729805
-0.0008394684048949821,9.575995306938038,14.256354848904033,0.004298241279545184,-23.82851383246701,-0.0050213682673729805
-0.0008394684048949821,9.575995306938038,14.256354848904033,0.004298241279545184,-23.82851383246701,-0.0050213682673729805
-0.0008394684048949821,9.575995306938038,14.256354848904033,0.004298241279545184,-23.82851383246701,-0.0050213682673729805
-0.0008394684048949821,9.575995306938038,14.256354848904033,0.004298241279545184,-23.82851383246701,-0.0050213682673729805
-0.0008394684048949821,9.575995306938038,14.256354848904033,0.004298241279545184,-23.82851383246701,-0.0050213682673729805
-0.0008394684048949821,9.575995306938038,14.256354848904033,0.004298241279545184,-23.82851383246701,-0.0050213682673729805
-0.0008394684048949821,9.575995306938038,14.256354848904033,0.004298241279545184,-23.82851383246701,-0.0050213682673729805
-0.0008394684048949821,9.575995306938038,14.256354848904033,0.004298241279545184,-23.82851383246701,-0.0050213682673729805
-0.0008394684048949821,9.575995306938038,14.256354848904033,0.004298241279545184,-23.82851383246701,-0.0050213682673729805
-0.0012385949806841495,9.580054722015612,14.249667275983539,-0.00452939233568449,-23.82354776890895,0.004118554486023692
-0.0012385949806841495,9.580054722015612,14.249667275983539,-0.00452939233568449,-23.82354776890895,0.004118554486023692
-0.0012385949806841495,9.580054722015612,14.249667275983539,-0.00452939233568449,-23.82354776890895,0.004118554486023692
-0.0012385949806841495,9.580054722015612,14.249667275983539,-0.00452939233568449,-23.82354776890895,0.004118554486023692
-0.0012385949806841495,9.580054722015612,14.249667275983539,-0.00452939233568449,-23.82354776890895,0.004118554486023692
-0.0012385949806841495,9.580054722015612,14.249667275983539,-0.00452939233568449,-23.82354776890895,0.004118554486023692
-0.0012385949806841495,9.580054722015612,14.249667275983539,-0.00452939233568449,-23.82354776890895,0.004118554486023692
-0.0012385949806841495,9.580054722015612,14.249667275983539,-0.00452939233568449,-23.82354776890895,0.004118554486023692
-0.0012385949806841495,9.580054722015612,14.249667275983539,-0.00452939233568449,-23.82354776890895,0.004118554486023692
-0.0012385949806841495,9.580054722015612,14.249667275983539,-0.00452939233568449,-23.82354776890895,0.004118554486023692
-0.0012385949806841495,9.580054722015612,14.249667275983539,-0.00452939233568449,-23.82354776890895,0.004118554486023692
-0.0012385949806841495,9.580054722015612,14.249667275983539,-0.00452939233568449,-23.82354776890895,0.004118554486023692
-0.0012385949806841495,9.580054722015612,14.249667275983539,-0.00452939233568449,-23.82354776890895,0.004118554486023692
-0.0012385949806841495,9.580054722015612,14.249667275983539,-0.00452939233568449,-23.82354776890895,0.004118554486023692
-0.0012385949806841495,9.580054722015612,14.249667275983539,-0.00452939233568449,-23.82354776890895,0.004118554486023692
-0.0012385949806841495,9.580054722015612,14.249667275983539,-0.00452939233568449,-23.82354776890895,0.004118554486023692
-0.001232359414113182,9.580067754193456,14.249635797935667,-0.00452936845557709,-23.823468370950856,0.004124838497538817
0.017055402420653024,9.618204767857076,14.157424787087734,-0.004521869933119345,-23.590770794669204,0.022529316849261776
0.05805099704120971,9.703088916379782,13.951496511425173,-0.00495642414819429,-23.070295830761506,0.06360684726906282
0.10078417664768057,9.790685736860105,13.737970941931886,-0.00606450815116051,-22.529429322089076,0.10617303962707199
0.1439346009194849,9.878232009749807,13.52350935525249,-0.007850726265020551,-21.984958017045088,0.14890851942810343
0.18747457600659811,9.965656775883396,13.3082594011878,-0.01032179989920284,-21.43722654486198,0.19179405245076342
0.23064223186588087,10.051440039303827,13.095966725597808,-0.013424555961017215,-20.8957700237294,0.23409367286230506
0.27416760549511165,10.137042847642057,12.883019754843245,-0.017201376850869164,-20.35138192382922,0.27653710794915415
0.31771359776744673,10.221800114517864,12.671061977113157,-0.021622193406101414,-19.808251259116116,0.318806846643058
0.36141243705317017,10.3059731339044,12.45943664160355,-0.026695436547394476,-19.264691418251026,0.3610437127853926
0.40559271740383945,10.39018460617077,12.24655657093608,-0.03246467636661837,-18.71660136919259,0.4035748951612747
0.44936005817442554,10.472736149239786,12.036715383649355,-0.038806776326524295,-18.175035917420985,0.4455520618780122
0.493336947289987,10.554816265354278,11.826903200249365,-0.04580005404809396,-17.632239576650797,0.4875861395088818
0.537939689794865,10.637185190979244,11.615145688971575,-0.05352135170945145,-17.08307014611039,0.5300837132388306
0.5826801211005932,10.718926622459932,11.403769805754889,-0.06189555190774546,-16.533530559848106,0.572588913143798
0.6273380819074214,10.799644231538682,11.193800667840543,-0.07087624983006649,-15.98628613141044,0.6149048234582628
0.6724745745630629,10.880347760555296,10.982597431258116,-0.0805784961591829,-15.434438381184659,0.6575739767998848
0.7174323466262762,10.959860337046353,10.773229495682116,-0.09086164234713809,-14.885995744908508,0.6999862207016216
0.7625699713882209,11.038822814432491,10.564011386150703,-0.10180256860337045,-14.336545084633137,0.7424918282753783
0.8077569234508309,11.117006828093713,10.355540274049226,-0.11336946631910977,-13.787646060140354,0.7849791365081741
0.8532247722533867,11.194809860151668,10.146743552414565,-0.12562388371019637,-13.236460746437764,0.8276769360148966
0.8986406991979532,11.271661832874326,9.939142456011146,-0.13847673153435022,-12.686995545622747,0.8702838803833199
0.9442098076553266,11.347912750158436,9.731788466059191,-0.15198437802768627,-12.136736533406877,0.9130037478132099
0.9898097798101821,11.42335832704989,9.525230103934627,-0.16611089190902353,-11.587131751028604,0.9557330513079602
1.0354848456151988,11.498074075313744,9.319256903720747,-0.18086911633712416,-11.037617044189856,0.9985244298757436
1.0812770832897005,11.572128546750045,9.113671905663113,-0.1962738471229878,-10.48765841001308,1.0414284397547469
1.127017043945963,11.645250744486624,8.909225178981401,-0.21226710984229777,-9.939259714374208,1.0842973884574103
1.172874862200045,11.71771550114179,8.705145876876491,-0.22890774880154935,-9.39035045277469,1.127301757105006
1.2188963937491553,11.789591953981288,8.501226127791458,-0.24621638178158992,-8.840357843809873,1.1704957593817558
1.264942502405302,11.860661891930258,8.298076135347015,-0.2641431284439975,-8.290918364346465,1.2137599685638523
1.3110630569124075,11.931003627328556,8.095467291991273,-0.28270843421122055,-7.741408563764266,1.2571523026204268
1.3572779529481667,12.000646759208587,7.893305820632558,-0.3019230493815154,-7.19156523251511,1.3007026984622903
1.4036650839977738,12.0697050873072,7.691247530498887,-0.3218243767434293,-6.6404381730897795,1.3444960995189403
1.4497685141330612,12.137506373611558,7.4912648339558805,-0.3422146447453068,-6.093412134821067,1.3881125874266265
1.496421180255202,12.205271684448125,7.289741589330527,-0.36346791742158086,-5.540581060289252,1.4323519327590688
1.5426018583309697,12.271518686179238,7.091081227997503,-0.3851212017542168,-4.994019582894666,1.4762568311987234
1.5891929299918803,12.337517820600443,6.89147645843421,-0.40758803990908754,-4.4432547439442915,1.5206769087194092
1.635716559243636,12.402585775958226,6.692973944449655,-0.4306462352754846,-3.893914487246647,1.5651689450028918
1.682269390277161,12.466861389699233,6.495151040108785,-0.4543446103134119,-3.3448294058975865,1.6098362104105424
1.7289346789536038,12.530458279359362,6.29764857124858,-0.47873043689375583,-2.7949931231181293,1.6547703512275944
1.7755770909324868,12.593191921755267,6.101032794890077,-0.5037371598135263,-2.245975167758065,1.6998526498915616
1.8223059767975063,12.655209824143316,5.904835794619767,-0.5294274075209539,-1.696463162092079,1.7452003815111354
1.8692686172920898,12.716700951099194,5.708438772899156,-0.5558917246574618,-1.144704285833111,1.7909697424763802
1.9160446908868007,12.777115499972956,5.513592540354319,-0.5828976287688395,-0.5956118798364901,1.8367628429554272
1.9628915843767827,12.836790730580997,5.319214093907281,-0.6105949997875935,-0.04613737485043848,1.8828424314986043
2.00977557692145,12.89568236747526,5.12543823890072,-0.6389701985751678,0.5033472049035486,1.9291877418714083
2.0566797543891777,12.953769043658228,4.932328729442369,-0.6680185888001284,1.0526675770776583,1.9757942550572651
2.1036085480818123,13.011056259250607,4.739861106465414,-0.6977486550206164,1.601899462382892,2.0226786543342374
2.150552784061528,13.067532947584034,4.548066735392453,-0.7281604759576986,2.1509591644687203,2.0698441349089802
2.197650292325608,13.123361427019535,4.356379497825156,-0.7593524585427845,2.7014807819797797,2.1174428904852802
2.2447679800412486,13.178380169373973,4.165338331904751,-0.7912460916875805,3.2519304864511787,2.1653544360256647
2.291805473616382,13.2324742147146,3.9753422588735496,-0.8237783851339447,3.8011596198918434,2.2134887940750696
2.3388731768610422,13.285772521369735,3.785937685343609,-0.8570311040522066,4.350480876527165,2.2619712265330016
2.3858823114546066,13.338175714900494,3.597475029937737,-0.8909478747773918,4.898881118360534,2.310722978570144
2.433182517781618,13.390067694544808,3.408551719294347,-0.9257936265540376,5.450460150314064,2.3601224183642038
2.480237277781452,13.440858885877937,3.2213057568186314,-0.961181871769758,5.998983567983627,2.409623160928144
2.5274280329856254,13.490963926654613,3.0342111307588784,-0.9974051928523242,6.548920729134847,2.4596389919824335
2.5745431430032673,13.540156475421643,2.8481026564423404,-1.0343110954144807,7.097826852332227,2.5099602588976726
2.621663334238106,13.588522508576412,2.6626545082531576,-1.0719701399589556,7.6466644191999995,2.5606865286417135
2.669044806710156,13.636317594684122,2.4768588849964552,-1.1106029928982135,8.19843810184559,2.6121116532206723
2.7161073616735196,13.682957630202594,2.2929845206293336,-1.1497450213268796,8.746412747127888,2.6636199447113724
2.763356675837641,13.728946621363,2.1090480168638055,-1.1898240168634038,9.296497699403012,2.7157782693264023
2.8106690790423725,13.774156999868971,1.9255311980602068,-1.2307520565921217,9.84727366485619,2.7684691494859015
2.857743314027083,13.818304665056488,1.7435943432295686,-1.2722755053014465,10.395254529953394,2.8213703743398773
2.905095963559322,13.86187222600049,1.5612371403577037,-1.3148628054815983,10.946474316258351,2.8750792919112746
2.9522441787189817,13.904412327990205,1.380316329257483,-1.358094041496128,11.495332647308665,2.929066052642961
2.9995086225573084,13.94621565244672,1.1995952808281214,-1.40227364971257,12.045582573954457,2.9837133500691366
3.0467262309583236,13.987134783264093,1.019694899982834,-1.4472645551379768,12.595345837171982,3.0388513065433074
3.0939644584468224,14.027227618865629,0.8403536245688046,-1.4931441856893146,13.145427652280839,3.0945760664283983
3.1409774505897468,14.066289513454606,0.6624969303043104,-1.539682534957041,13.69298412751747,3.1506121513897507
3.188172132110104,14.104658112294384,0.4845808686842675,-1.5872963133096516,14.242774021454109,3.207462562972048
3.2355281390021737,14.142306095211634,0.306685398741587,-1.6359903891866925,14.794580833386993,3.2651285905963188
3.28311267923836,14.179274436656074,0.12856242408166377,-1.6858619675250315,15.349208986032504,3.3237200236304894
3.33070370209342,14.215382384333996,-0.048955602385961125,-1.7367026281999045,15.904091031274612,3.3829890568622782
3.3784578519998236,14.250742111900573,-0.22645288633370753,-1.7887030913133042,16.461073844326148,3.4431559865239016
3.425945017577267,14.285035847993285,-0.40233592511467553,-1.8414106126202547,17.015159413650903,3.503698740366588
3.4733415518531867,14.318398527038985,-0.5772678975760689,-1.8950291078432708,17.568421988267165,3.564856716902219
3.520973044401001,14.351052988375292,-0.7524505253164617,-1.9499519194141404,18.124682242417638,3.6270768394234865
3.56848730170203,14.38275213265204,-0.9265889746293956,-2.0057978731999477,18.67984686291569,3.6899259451261064
3.6159364199305286,14.413533233482228,-1.0998803424483172,-2.06264398391731,19.234541596702247,3.753493221290154
3.6635368728668944,14.443531668957347,-1.2731160680595193,-2.120775415940688,19.791316459756914,3.818096571672736
3.710849878694792,14.472471943305793,-1.4447042333058753,-2.1796751678357382,20.34505604794849,3.883163207960048
3.758639543923415,14.500813333742718,-1.6174146920043333,-2.240326023728976,20.904723647368748,3.949776594428804
3.8055384949455884,14.527753521713906,-1.7863157319997194,-2.301002834822774,21.454319150307793,4.016046938926399
3.8517843380061625,14.553468891020062,-1.9522939205164576,-2.36198152621178,21.996626415884926,4.082293494469781
3.8768236656290864,14.567039163052367,-2.0419252405177892,-2.395482003098184,22.29041024998786,4.118544342640591
3.8880846414729717,14.573061073977398,-2.0821813305466246,-2.4106606686367904,22.42257107976816,4.134936720750533
3.878359957723817,14.482552012717166,-2.192790565395742,-2.4086101265747693,22.62989262078307,4.134000558726501
3.8522965029074805,14.249273501984437,-2.4626786029376992,-2.401335894728154,23.13368554191584,4.129278278893801
3.8252075806833616,13.997897479816759,-2.7416313080149055,-2.394049276262151,23.664660344102657,4.124560118775304
3.798294549937935,13.73884879252758,-3.017038590071037,-2.387096903071362,24.199753099809612,4.120073836656416
3.774863196778644,13.505514430901032,-3.255272399186475,-2.3812855623409654,24.67187145714987,4.11633916855781
3.7649020085897926,13.404064286827836,-3.356083807813697,-2.3788851674180074,24.87436569679872,4.114801573814589
3.7584967752220524,13.338107873660288,-3.420753543323868,-2.3773641925789835,25.00514108237414,4.11382904166104
3.7370932991862285,13.113543916884312,-3.635939329920184,-2.372412110841672,25.44538729838635,4.110673288582278
3.711461041375943,12.83598477640529,-3.8916818174600136,-2.3667526523824636,25.979278943116512,4.107090829332154
3.6861050067647017,12.55188304343703,-4.142399301394414,-2.3614555097144447,26.51467684129787,4.103767668715798
3.662295038182173,12.276200182257153,-4.375609247931996,-2.3567646747998143,27.024108440009112,4.100856440560093
3.650898836299714,12.141120149489971,-4.486421796725837,-2.3546196460028646,27.270257296762892,4.099537527228929
3.645621319162457,12.078985608507752,-4.54395579559517,-2.3537611379702,27.39003969931038,4.099187917753076
3.658821548951946,12.310744245276926,-4.8372721406059505,-2.3635833235208037,27.45100657785919,4.11677279231369
3.685626658308663,12.776484375608801,-5.424162086716786,-2.383486510674995,27.570951474480072,4.152373489429919
3.7140694857908954,13.26370766960876,-6.034455000401196,-2.4045435618541484,27.69273503709413,4.189992555411024
3.7433477227052805,13.757969737379016,-6.649710621777874,-2.426151928923272,27.812396705939026,4.22855000491224
3.7731566692574314,14.2538449816203,-7.263052115919355,-2.448081701531319,27.928498571013645,4.267634872342134
3.803486903196562,14.75101845570203,-7.874033911084483,-2.470321951816632,28.040910030601665,4.307227765782136
3.8348658415303767,15.257797915259317,-8.492713001149951,-2.4932534721666166,28.15135539714835,4.348005598528986
3.8664270619090777,15.759982097710758,-9.101670668538812,-2.5162383295286137,28.256656874976624,4.388833778194869
3.8988361647276264,16.2680340941618,-9.713558442777606,-2.5397572091894167,28.35897144716257,4.430566451222727
3.932063028659123,16.781136075460303,-10.327235054946554,-2.5637816885535676,28.457976384285775,4.473152226351205
3.9659849351649323,17.297110875620994,-10.939976579388256,-2.5882169902116092,28.553130080461283,4.516422531042984
4.00053883938576,17.814790880117645,-11.550318535258047,-2.61301235673985,28.644138102677204,4.560287327931828
4.03502918227089,18.323808731681634,-12.146108182701377,-2.637666466743884,28.729248151072674,4.603860975478561
4.0591243091818585,18.674968779395414,-12.554612956012635,-2.654833374335761,28.785425564955194,4.634178349061553
4.036061364600412,18.74196270148406,-12.631472623744125,-2.640038156897478,28.796342123947518,4.608560018056456
3.664930085482054,18.763528401613215,-12.645724798528592,-2.3976475938669535,28.805263039740076,4.187489028704048
3.1027297664411533,18.79221403070998,-12.664672703474654,-2.0302482429614073,28.81713862132174,3.549570698814426
2.5289617692397064,18.816553877056382,-12.680739196692175,-1.6550547439232024,28.82720476814839,2.8984537018769916
1.9556546634273317,18.835907489066322,-12.693512281219313,-1.2799706380327898,28.835243852703517,2.2478009127552707
1.3830016401459935,18.85029073331906,-12.702998734904265,-0.9051654039812361,28.841195752679546,1.5978438383678957
0.8075758493141796,18.85977070222072,-12.709253082381954,-0.5284394823793449,28.845146968456216,0.9447073023828041
0.23359885175812645,18.864263909615985,-12.712214581103131,-0.15260071290431426,28.846998163997323,0.2931959470727925
-0.34050482877159444,18.863803525475486,-12.71191348422276,0.22333970191917152,28.8468243431884,-0.35846480538104825
-0.9135661562296239,18.858400517432212,-12.70834929076403,0.5985703768443243,28.844566688613984,-1.0089340418146644
-1.4878620433460803,18.848029918941524,-12.701512150766018,0.974541224871426,28.840279763775808,-1.6607834949581606
-2.0587490625095684,18.83279691141059,-12.691461781949844,1.3481656863179212,28.833946138491434,-2.3087280735431883
-2.6314933270639513,18.812575394213475,-12.678119828343723,1.722851784282303,28.82558165875485,-2.9587331833384707
-3.2052441143428005,18.787347615312665,-12.661466785610477,2.097996195992324,28.815152094153593,-3.6098187479480655
-3.7525408079771885,18.75863453577401,-12.642498527016128,2.455613186268929,28.803258070629138,-4.230812733502022
-4.043060833136827,18.741544285300286,-12.631203730286975,2.6453427450678215,28.796188263418223,-4.5604213364334205
-4.066076068775877,18.74664889276833,-12.502026849138055,2.656943529940894,28.660993990807317,-4.579404163753505
-4.074385401555786,18.766488959678885,-12.034657182073508,2.6501384492260387,28.17392424974036,-4.563135671030998
-4.083776278074729,18.782760206164358,-11.504662747652437,2.642856505167956,27.62781061055808,-4.545131365065674
-4.093174500756488,18.792661696915705,-10.972413163062894,2.6359874238061884,27.085805438224583,-4.527501150793916
-4.102684810084273,18.796340114765304,-10.432006236665417,2.6294466756048407,26.54186166924443,-4.510038402537142
-4.112259869793257,18.79375658298566,-9.886144633607842,2.623262885198113,25.998720266961556,-4.492823575654582
-4.121776246011636,18.785090909872608,-9.341924448043823,2.617501584297704,25.463296031469568,-4.476062756947099
-4.131256522806031,18.77056053522156,-8.798137645365124,2.612129697466237,24.934164146491618,-4.459695710977358
-4.14071508743019,18.750338838267304,-8.25402912133291,2.607122898077483,24.410396616909193,-4.443680189795041
-4.1501645492308255,18.724563491155315,-7.708933893845349,2.6024607189135,23.89119121053511,-4.427979672177059
-4.15917562871833,18.69491707846745,-7.18776713825401,2.598320697288318,23.399775856302305,-4.413274537197408
-4.163336612739129,18.681336920609816,-6.9539339142240255,2.596613982416803,23.179564292869312,-4.40684073731019
-4.180078626204944,18.915623791293594,-7.223581416322151,2.607717755875882,23.214144415033726,-4.42640388155274
-4.215944848564779,19.41182561035116,-7.791768215123519,2.6314527280969724,23.284449231062407,-4.468174771376354
-4.254765959867508,19.94036582016767,-8.39263396768043,2.657062971570487,23.354943789362203,-4.513176550563304
-4.294567810205977,20.47332959748908,-8.993970431325488,2.6832343445590996,23.421425899345984,-4.55909195987524
-4.335234720932211,21.008841035189164,-9.593558558332264,2.7098855214303432,23.48355702729928,-4.605775983634612
-4.364328123801994,21.386509456430716,-10.013624080548087,2.7288972331366677,23.524553670684973,-4.639034142597375
-4.343896110292414,21.43372092356037,-10.06527562192045,2.716249347078709,23.52994136232625,-4.617441476661556
-3.9927258431954584,21.186561713446388,-9.78159859578771,2.4965188187081027,23.50913320855794,-4.240567787441868
-3.4733221245846084,20.8145160927733,-9.354305997901207,2.171488441737146,23.47466117722822,-3.6834693291783025
-2.94948446259164,20.431279610379,-8.913748215843727,1.8436828680972561,23.43535479252025,-3.122047313435745
-2.4271329724990727,20.04089887011114,-8.464470493857782,1.5168554091778814,23.391485019951265,-2.56270719028082
-1.9082520016950693,19.644750366221253,-8.007956599772445,1.1922958872837512,23.34314694119003,-2.0076257278413387
-1.398567971844004,19.247285077080463,-7.549247838056716,0.8736307917159958,23.290906112667727,-1.462968966437517
-0.8904526727374694,18.842586323763946,-7.081424200396675,0.5561341590512082,23.23398722319866,-0.9206279623954806
-0.3871267486590008,18.433142685112763,-6.607260593786005,0.24186261093728498,23.1726931322221,-0.38409135020265184
0.10947441457765757,18.020581935592855,-6.1285523263466555,-0.0679362727480761,23.107275754045865,0.1445372980212358
0.4248198893983101,17.754064262984965,-5.818777079073905,-0.264501732454161,23.063136317690287,0.4798151425289432
0.6899759808272744,17.527176188931882,-5.554719683124747,-0.4296684364481171,23.024378736989682,0.7614590663534212
1.1740086659236642,17.1062999458846,-5.064034978590357,-0.730897463351522,22.949770252317666,1.2749410688727707
1.66946024102969,16.66630025370358,-4.549805176792671,-1.0388159385219229,22.86805797199689,1.799597238086482
2.160640650251205,16.220638904536866,-4.027598860623074,-1.3436223312869306,22.781566189447513,2.318728893733361
2.6394091052234145,15.776897025307463,-3.506217537614245,-1.6402264161902018,22.691760653050004,2.823684076598274
3.109985140842203,15.331488369569989,-2.981397543303471,-1.9312348327149447,22.59805019314107,3.318915746538273
3.566112493350162,14.890727403635458,-2.4605437600842275,-2.2127724144075582,22.501890669653662,3.7978433733081087
3.859178183639924,14.602721309450716,-2.119370959855899,-2.393370818598416,22.43727763475417,4.1049628489952905
3.884134104462557,14.533104501054623,-2.132841275826246,-2.410263381330632,22.519271621184433,4.135082698921705
3.860790747237279,14.326194351004627,-2.374898653995744,-2.4036864020385242,22.968801282449746,4.130810590844944
3.8334819757509,14.075647125947908,-2.656625123578336,-2.396252464454103,23.501727880975476,4.125992725231035
3.8064731084764283,13.81855467863096,-2.933560150139367,-2.3891864364123916,24.036395980212497,4.121427859911604
3.7804928821150443,13.562235664833171,-3.1981918094657704,-2.3826685434324593,24.55795798420454,4.117234011873094
3.7664215675166823,13.419613789425833,-3.340743117214992,-2.3792562899119254,24.843460233457613,4.115046633198267
3.7597373757679957,13.350912389581229,-3.408256301570201,-2.3776650979404734,24.979830622531352,4.114028881871557
3.7445561072403235,13.192563294832343,-3.5610908386668725,-2.374123458621686,25.291366892031498,4.111769434648189
3.719192227408468,12.92069510339282,-3.814795907689811,-2.368435627195632,25.817525456622064,4.10816066071195
3.693781937098001,12.638905564482465,-4.066754986897983,-2.363034664347605,26.3518555155755,4.104762420743929
3.6689084719200222,12.353642112641575,-4.3110719650171925,-2.358047160372595,26.882000213399944,4.101656570781696
3.652600786317656,12.161412564865433,-4.469919814348043,-2.3549434919142715,27.233444881822564,4.09974374443465
3.645900929948432,12.081218869425795,-4.534860134049691,-2.3537074826474873,27.3787291636263,4.098987064177895
3.4751044925846326,12.085346449165643,-4.546900994427768,-2.243808479235922,27.393439739691267,3.9088089281827267
2.9822248977652785,12.11126897364387,-4.56632147068752,-1.925893135201772,27.40472574894693,3.3585529552979176
2.4444891074701536,12.135018310322865,-4.584106357471263,-1.5788482800546542,27.415077292218353,2.7581376592609317
1.9014350609576363,12.154212111842737,-4.598470637704726,-1.2281986835848908,27.4234186629321,2.1517109357537194
1.3573594457777574,12.168625062890765,-4.609256868482685,-0.8767560592012696,27.429710786724666,1.5440897629548254
0.8151178194207845,12.178197694966862,-4.6164196574957455,-0.5264022680574069,27.43389421761671,0.93847701212039
0.2704450194501546,12.183000887703816,-4.620010092005654,-0.17442007934850864,27.4359663646553,0.3301236171192034
-0.27370503786819494,12.182987375246338,-4.620001437872729,0.17724354974488446,27.435969368559025,-0.2776524165463365
-0.815753612008462,12.178190563339232,-4.616414824926022,0.5275300341254656,27.433885866585797,-0.8830733837471628
-1.359224655354739,12.168586743335084,-4.6092316020524,0.8786783761563596,27.429706604763116,-1.4900593537555693
-1.902251296888734,12.154190201187335,-4.598456704141123,1.2294421339357595,27.42340761254773,-2.096509739909808
-2.446260482098613,12.134951853746934,-4.584058248951625,1.5807076572412124,27.41503379119066,-2.7040011016030268
-2.9920014389541376,12.110798815577077,-4.5659739600931095,1.932917618866914,27.404524930128673,-3.3133542320373435
-3.4686119721135795,12.085720429081764,-4.547187648313653,2.240339135620627,27.393615651636864,-3.8454472838838347
-3.6456239657066662,12.075921071836936,-4.5382426555925015,2.354429824599763,27.387419638340987,-4.042966445197979
-3.652842525348876,12.142253165134484,-4.355031061981674,2.353793373206397,27.137792630506823,-4.0394776454020525
-3.668037462993519,12.276881252547467,-3.968248509257121,2.3526879738963777,26.616203810049196,-4.032330742818508
-3.683880413638533,12.410189708455125,-3.5634263339010985,2.3518635219960387,26.077883510746638,-4.025152812510558
-3.699928325466724,12.538067034027591,-3.1518570343077523,2.3513574229487997,25.538240887892904,-4.018154057910391
-3.716145265853907,12.660172891239046,-2.7345070768206114,2.35116999908007,24.998583220278544,-4.01134686735732
-3.732490644659805,12.776201720040138,-2.3124773738742643,2.351298649159004,24.460317549183696,-4.004743082861602
-3.748977528656171,12.886267392052224,-1.885490844821136,2.3517396807969204,23.923052830104243,-3.9983316007559866
-3.765701397894765,12.990963114221161,-1.4511230581424523,2.3524949698753113,23.383770232917872,-3.9920719008247976
-3.7825678001038203,13.089657602280127,-1.0118768242888234,2.353559569577161,22.845605130643193,-3.9859958684064156
-3.798173926755336,13.174979986415988,-0.6044765514736854,2.3548061999161862,22.352671931370125,-3.980575975198887
-3.8045167932252824,13.208046326040606,-0.43864340681115455,2.355382781783912,22.153686099606887,-3.9784266063959017
-3.810106349687935,13.290167746631468,-0.5094732748755921,2.358646581737952,22.142179972314906,-3.983805610462784
-3.833907255301838,13.683436946403173,-0.9948970122777374,2.374905163629159,22.233297525017306,-4.01296498887317
-3.864129507821928,14.17592526689333,-1.5994331741147907,2.3955035102695392,22.344021388415236,-4.0498475919560555
-3.8831290413018564,14.481689497217808,-1.9728780180807854,2.408426098765207,22.410865541897543,-4.0729529875466906
-3.888551568973315,14.570708791157095,-2.08789492049453,2.4122331557926286,22.436617585328126,-4.079857534632706
-3.8732079881724046,14.436215531453833,-2.247285601150123,2.4078648521638173,22.730871905884293,-4.0770218009819486
-3.846218156645318,14.192706156692585,-2.526505584606155,2.4003931562156473,23.254248903337487,-4.072179904439699
-3.8189680843909954,13.937621743668727,-2.806785283557527,2.3931330422382677,23.790261802435918,-4.067488624425287
-3.7923679151099603,13.679374867168118,-3.0786312812754035,2.3863316014493847,24.320982945524353,-4.0631100776951214
-3.7704925060603336,13.459936373381208,-3.300774839896239,2.3809573537794946,24.763077862270848,-4.059664948293642
-3.761710104363975,13.370001354412098,-3.389575398918202,2.378856930162372,24.9420183590317,-4.058322762142273
-3.7540966612864195,13.291171706432642,-3.4663703480989594,2.3770631014049823,25.097820139178094,-4.057178662467118
-3.7311228585859997,13.048352910343835,-3.6970079919162324,2.3718051714810717,25.571808614299858,-4.053838352031497
-3.7056599293960555,12.770335488904342,-3.95059384636548,2.366257322696631,26.103996896955007,-4.050339748056298
-3.6805053623555963,12.486222387070715,-4.198831172193174,2.3610762998254247,26.63692032015617,-4.047103511105361
-3.65821797046607,12.226336357573784,-4.416779552571199,2.356776931224092,27.11524735693099,-4.044425269196116
-3.6486512211194992,12.112415591094903,-4.509690750923505,2.3549940028097844,27.322294224060403,-4.0433337326781675
-3.646855306171314,12.098033954275639,-4.568104126659717,2.355384637369878,27.395100929477774,-4.044698903667421
-3.6645125320615697,12.407505117854647,-4.959492055761462,2.368518901488177,27.476226884354414,-4.068209969862253
-3.6923314819525825,12.889348965021236,-5.565878546321798,2.38916204150117,27.599517534417863,-4.105124423142197
-3.72107853119181,13.38010235260566,-6.179701192306433,2.4104294582245793,27.721285253051956,-4.143108616224679
-3.7503697836187944,13.872884700259453,-6.792206379389968,2.4320318423088345,27.83967381875748,-4.18164478695802
-3.7802983598528925,14.369050282638982,-7.404991713144928,2.454033455521405,27.95492186152005,-4.2208473001216555
-3.8108264979576942,14.867749655148145,-8.016916897037019,2.4764018816466074,28.066739774316805,-4.260658076805136
-3.842302391507104,15.374342646075464,-8.634411342003283,2.4993863576035307,28.17618045336076,-4.301519779505332
-3.8740970151427025,15.878486594316929,-9.244781014718791,2.522522645582444,28.28092120663663,-4.342606840806788
-3.9067423222070436,16.388440878996672,-9.857963329054794,2.546193237179903,28.382614747971033,-4.3845985424087885
-3.940028380584937,16.900644387591004,-10.469555665461854,2.5702400185172634,28.480428811841076,-4.427213803803169
-3.9743524598868745,17.42087283635677,-11.086303971218177,2.5949432407845374,28.575314110595798,-4.470948410808556
-4.008673366912403,17.933237934836594,-11.689350993393994,2.619549412272306,28.664350836635123,-4.514468769861069
-4.042587328263849,18.432089381461513,-12.272299717096859,2.643770903856815,28.74681188011777,-4.557269106865226
-4.06182711143034,18.71189238671735,-12.597455445173297,2.657471055473943,28.791231710516893,-4.581461000544347
-4.065445412745485,18.744935048404805,-12.537319977898234,2.6574604832059228,28.69798698702863,-4.5806322663348995
-4.073236986666954,18.764056840933826,-12.099224899800143,2.6510448371958812,28.240901908383712,-4.565345160382654
-4.0824235387233845,18.78081453661032,-11.581006777093922,2.6438658815840435,27.70607565432676,-4.547681065434167
-4.087519594773962,18.7874611611873,-11.292769316621268,2.6400579325482143,27.41127192149681,-4.5380443569742575
-4.092307361604136,18.792011746412644,-11.021482474170462,2.6365908386258607,27.135508339952224,-4.5290928156066945
-4.095513450265591,18.794152022414902,-10.839558252283847,2.634327919552885,26.951492421530613,-4.523152680510085
-4.098475030931646,18.795488414082374,-10.671325872237636,2.6322788949325058,26.781967914983444,-4.5177035343664125
-4.100165646248176,18.795977368851847,-10.575212843554933,2.6311268127201313,26.685390941435895,-4.514609037671141
-4.104561702009848,18.796324713397333,-10.325031648512752,2.62819022326743,26.4349265679985,-4.506616612306529
-4.113537491052033,18.792941116371047,-9.813064687089884,2.6224545259760443,25.92647042914737,-4.490534846785673
-4.122962910022947,18.783588357135486,-9.273833316537809,2.616796604287385,25.39672015389769,-4.473977898670207
-4.132412543553889,18.76838871797744,-8.731608332647976,2.6114865149461344,24.86981831809016,-4.457703573297778
-4.141837002113407,18.747562152283525,-8.18927834989089,2.606539364940013,24.34843318525895,-4.4417827348162255
-4.151274604726074,18.72118728993692,-7.645018969229705,2.6019593032934045,23.830659671577415,-4.426171396524483
-4.1600447179533395,18.691813920673717,-7.137653034699707,2.597961195712758,23.352768867135353,-4.411886536580079
-4.163802636369295,18.687828733284967,-6.9614172723237795,2.596943420275821,23.180528404963702,-4.407392109684895
-4.183914331205573,18.96900576771553,-7.28489667271498,2.610279642676875,23.221892790095062,-4.43088633212782
-4.22059552319879,19.475553301622917,-7.864454204090153,2.6345453135241628,23.29318309922558,-4.4735836448870785
-4.259686171913992,20.00668055651728,-8.467705121013298,2.6603230802122724,23.363461451889073,-4.51887101670924
-4.299620054942585,20.540297139516625,-9.069204182183675,2.6865704081426047,23.42944537310295,-4.564910655717543
-4.339876047790121,21.069339789750046,-9.661003888838483,2.7129417417413184,23.490274858089464,-4.611095929804839
-4.365964268908055,21.407564881437512,-10.036974630842046,2.729985264413246,23.526764008413437,-4.640907539620817
-4.314707474801559,21.42929217952341,-10.059535745694225,2.698042207695209,23.529979353038858,-4.58620451727179
-3.9049840370237674,21.260978603033827,-9.86187262937796,2.441914160532706,23.51866514303611,-4.147141451822371
-3.3324655922824085,21.020535664663445,-9.580810444570966,2.083925790764665,23.500240836919197,-3.5338872616398884
-2.7616741870569945,20.774621359836992,-9.29480090329175,1.7269502129844423,23.478773140238157,-2.9228137388726965
-2.1883351331232688,20.521264217317768,-9.001510517188148,1.368360880214583,23.454008416971476,-2.30937883182057
-1.6144458565465605,20.261176029707844,-8.701736031988228,1.0094537242482013,23.42599766339525,-1.6957498004951759
-1.0483463432123574,19.998133893914762,-8.399760150020992,0.6554906338810879,23.39512876088472,-1.0908713858346364
-0.49044772931025604,19.7324770107704,-8.09587662728211,0.3067711515460094,23.361494529386544,-0.49519889079206914
0.06750650376364034,19.46028454680851,-7.785526348150295,-0.04182081101906548,23.324573747494455,0.10005416832495052
0.6213223472319097,19.183544920926096,-7.470922650127322,-0.38762580722237683,23.284678677002926,0.6903924453234788
1.1742802397273568,18.900570543845948,-7.150079621171494,-0.7326483321089646,23.241519770062467,1.2792788730624838
1.723529840276789,18.612761655474635,-6.82452074042863,-1.0750683497327445,23.195292711123255,1.8636471480642922
2.2719934744294434,18.31852559984538,-6.49237843457579,-1.4166665977808086,23.14572254172103,2.446574678891374
2.8168338909533444,18.019317860438633,-6.155228527126807,-1.7556354582891258,23.093034202755998,3.025013262273393
3.359684412631255,17.7141939676798,-5.811935973512567,-2.092952402833445,23.037047827414273,3.600665504503066
3.8622727596078903,17.42532605144675,-5.4873314582025925,-2.4048437788170167,22.982038514221927,4.1329855586635675
4.067166323839813,17.303942662407156,-5.354942750697654,-2.5319398547939347,22.962391592365286,4.349988806852257
4.05165781484994,17.175764135059318,-5.5036969818597115,-2.527510120324521,23.239724453199216,4.3467920712883785
4.022739539218887,16.92988843607508,-5.780178334001206,-2.5194743610318078,23.762822957436715,4.3409941447858875
3.9933234596426104,16.670341135502987,-6.060085710136394,-2.5116099824026117,24.30302559390187,4.335323285753858
3.964698848813997,16.408316372128276,-6.331006995289563,-2.5042693562643565,24.836693292459298,4.330035887555758
3.946733006744065,16.23894770816269,-6.500238010989147,-2.49982505315989,25.175742731552518,4.326838827557006
3.9391220952504904,16.166030065514974,-6.571728407059934,-2.4979811859835217,25.320340554519056,4.325513608897678
3.925908246581495,16.037756768488464,-6.69554972938869,-2.494835890727885,25.572763603886816,4.323254945779093
3.8988954536220035,15.768783663983593,-6.9474276933802015,-2.48863227458931,26.094281804412613,4.3188087778366056
3.871429431983455,15.485753401966326,-7.201674214779715,-2.482646508845313,26.632230928436396,4.314533212787647
3.8442912628567507,15.196335891301779,-7.450870903073142,-2.477064076603902,27.171503385130965,4.3105634425442405
3.81897293420292,14.917289166167237,-7.681388563409297,-2.4721655359697383,27.68167633781609,4.307099250828593
3.8071962567486883,14.784442458631307,-7.787920236755171,-2.4699921650985064,27.92133593225737,4.3055696898935025
3.7911724726340648,14.722042712413533,-7.8382125769312125,-2.462189655351473,28.03460876087537,4.293066317965284
3.487719953791685,14.739491144750023,-7.8506690073783405,-2.265387379438376,28.04206958328099,3.9518013149805857
2.9498611568454036,14.766822092305846,-7.870165489157112,-1.9163765840454625,28.053707575993545,3.346848833189505
2.3933425263643127,14.790275805495547,-7.886891780720375,-1.5550470975698742,28.06373248221963,2.720832058047107
1.8388895472365385,14.808771527014102,-7.900077361932093,-1.1948840559605125,28.071645900162604,2.0970737423276447
1.2821263174610307,14.822460462567843,-7.909829964377661,-0.8330853419987473,28.077477894639802,1.470664843019435
0.7247974702597837,14.831269682420732,-7.916107822837932,-0.4708251859250097,28.08125701040235,0.843585881353585
0.17099511063556655,14.835175700317844,-7.918890385234247,-0.1108043569279213,28.08292532729215,0.22045451916405834
-0.3845370867891538,14.83424232201937,-7.918225339743308,0.2503533008245757,28.082521447134994,-0.4046278635363078
-0.9405527402722941,14.82844177054024,-7.914095070769912,0.611797706807142,28.080053221621874,-1.0302434398856184
-1.4990926366456463,14.81770977163579,-7.906446825812757,0.9748122568803181,28.075446143525284,-1.6586737314109705
-2.05167943880743,14.80225107634924,-7.895431909085287,1.3338505221972146,28.06885213667356,-2.280365280284926
-2.609948234095911,14.781735032006434,-7.880807923982922,1.6964302479133126,28.0601025059228,-2.9083934242380463
-3.1652683496444283,14.75643275263445,-7.862760117792006,2.0569014074701943,28.049284419549497,-3.533032966507654
-3.6429477116196622,14.730755161420422,-7.844438815413152,2.3667928523975084,28.038340419306547,-4.070272022261069
-3.801903431882211,14.721582653835762,-7.832555901269975,2.469749569746261,28.028986018776248,-4.248768702577832
-3.8062035174042412,14.729821874983589,-7.553693737765997,2.4659898483260623,27.741967042547763,-4.239606678081926
-3.8141904858187443,14.740538049869008,-7.034132513789838,2.459288153171176,27.21183888855312,-4.22284411467505
-3.8223426521645516,14.745439383687971,-6.50172492382923,2.45281409296487,26.674677377209544,-4.206064236062465
-3.830564743074872,14.744338364057691,-5.962658332207689,2.446646232470955,26.136855683976634,-4.189463052655359
-3.8387326211150326,14.73736431336608,-5.425120364982612,2.4408663068302023,25.60643015254633,-4.173278314330324
-3.846937050898149,14.72458599983395,-4.883197169676317,2.4353971233444525,25.07741993188101,-4.1573159273904805
-3.8551468391308252,14.706131713728261,-4.338984869806436,2.430250810115561,24.55179251802097,-4.141626174551175
-3.8632859100218826,14.682359771116797,-3.7975979367840402,2.425460596603757,24.03430310251929,-4.126339103228316
-3.8715358707473606,14.652817565379992,-3.24698989059274,2.4209117115470136,23.513360776881857,-4.111103966225218
-3.879720841735829,14.618203497807782,-2.698928607882775,2.416694091372172,23.00003253428276,-4.096236698917545
-3.886937452696453,14.583391116789095,-2.214263334727642,2.4132122316361695,22.55028173009573,-4.083324703257756
-3.8902047934992603,14.594830806075956,-2.1106972549314627,2.4132299457414694,22.435243578585194,-4.0815342299819175
-3.91020958569375,14.912519750532091,-2.4966134674770544,2.4268058081385755,22.502585447793994,-4.105771104225304
-3.9420482133143064,15.411713954198506,-3.099842235274311,2.4483652065699832,22.605203602711516,-4.144206114093353
-3.975184553103377,15.923107174361764,-3.713775889654335,2.4707417444596835,22.706260458704392,-4.184028868177386
-4.009090464134806,16.438047131299346,-4.327822837719858,2.493573042706403,22.80383948170531,-4.224590924401435
-4.0429359042832775,16.943931163266434,-4.927004871201332,2.5162982954682573,22.895602248112603,-4.26489665886924
-4.0641093117202605,17.25638655789623,-5.295064726042988,2.5304819117445607,22.95024121515417,-4.290019474297204
-4.067466277007757,17.30564663426902,-5.3529503216549,2.532728341591861,22.958713302466982,-4.293996169970252
-4.067466277007757,17.30564663426902,-5.3529503216549,2.532728341591861,22.958713302466982,-4.293996169970252
-4.067466277007757,17.30564663426902,-5.3529503216549,2.532728341591861,22.958713302466982,-4.293996169970252
-4.067466277007757,17.30564663426902,-5.3529503216549,2.532728341591861,22.958713302466982,-4.293996169970252
-4.067466277007757,17.30564663426902,-5.3529503216549,2.532728341591861,22.958713302466982,-4.293996169970252
-4.067466277007757,17.30564663426902,-5.3529503216549,2.532728341591861,22.958713302466982,-4.293996169970252
-4.067225530341452,17.305188884107995,-5.351789946078446,2.5325781452152514,22.955943982302188,-4.293742302920223
-3.9800654805860987,17.139464774932044,-4.9316869617633685,2.478200969990742,21.953337852560914,-4.201832142537023
-3.893023130187592,16.97396445659971,-4.512151276930133,2.4238972247214594,20.952085624027504,-4.110046095974262
-3.8059557811794136,16.80841660648727,-4.092495101223423,2.3695778833874392,19.950545835317584,-4.018233688409749
-3.69311819654996,16.5938698244837,-3.5486288898250424,2.2991810774135035,18.65256982070728,-3.899246600521941
-3.5435224705092216,16.309431959840232,-2.8275920027776644,2.2058517019646873,16.93176318587252,-3.7414980997852156
-3.394232083231339,16.02557465928104,-2.1080268189459543,2.1127128204343264,15.214468877110837,-3.5840715783812684
-3.245028783403301,15.741882944791223,-1.3888813881740318,2.019628270785754,13.498176339358725,-3.4267368905811932
-3.09518338111633,15.456970351489321,-0.6666410858412152,1.9261431279982442,11.77449766698352,-3.2687251065638865
-2.9458288582186527,15.172991104941266,0.053233225456026795,1.832964233711517,10.056465603187037,-3.1112309542313428
-2.79667616128661,14.88939560563127,0.7721347551783024,1.7399112540603248,8.340755152914797,-2.9539496271200205
-2.647339653387835,14.605450612386795,1.4919222359284952,1.6467435989222066,6.622930316493437,-2.7964744715806527
-2.4979279191212993,14.32136258546097,2.2120723004734884,1.5535290117619902,4.90424014764459,-2.638919989933219
-2.3482431147685556,14.03675534936871,2.9335385363431343,1.4601440623777042,3.182408840819684,-2.481077556231033
-2.1986397380315355,13.752302937867718,3.6546122990043894,1.366809913833261,1.4615141996676821,-2.3233209878449164
-2.0494667705645786,13.468668896629966,4.37361153073848,1.273744287855776,-0.2544294235159424,-2.1660182854805945
-1.9001150606764476,13.184694998673406,5.093472283602605,1.1805671485418079,-1.9724291291320246,-2.0085270994629987
-1.7507007860313073,12.900602141530264,5.81363459252603,1.087350976497084,-3.6911485200748078,-1.8509699389895926
-1.6011878055582693,12.616321607401568,6.5342726539643445,0.9940732241284115,-5.411003328773423,-1.693308693347599
-1.4517167021874398,12.332120697429557,7.254708871832563,0.9008215979325795,-7.130376423206292,-1.535691607056033
-1.3019566072130413,12.04737030548507,7.97653800119455,0.8073896764396503,-8.853073801574237,-1.377769779490133
-1.1529774271761117,11.764104727199106,8.694603196315471,0.7144449500379282,-10.566788278884749,-1.2206714257215736
-1.0035476420480356,11.479982378781294,9.414840264261954,0.6212191013552169,-12.285686087638332,-1.063097909463857
-0.854058722417094,11.195747593383052,10.135362354775534,0.527956359999393,-14.005264123344729,-0.9054620359489138
-0.7041679873208477,10.910748805322722,10.857821156851262,0.43444293510189924,-15.729464261145724,-0.7474024485425226
-0.5551362592140331,10.627383313348146,11.576139628571276,0.3414654251529914,-17.443783201362365,-0.5902486829018434
-0.40533364537727795,10.342552077019024,12.298173694725012,0.24800697710764255,-19.16696967619306,-0.43228201925026577
-0.27995757682336314,10.104164910749603,12.902474182265248,0.1697876958216362,-20.60917645794511,-0.300073116188028
-0.1929915524950569,9.938809717047485,13.321641982844607,0.11553156865382472,-21.60955070412242,-0.20836755536814155
-0.10598179735842544,9.773371374594609,13.741020561677711,0.061248158828033014,-22.61042798783365,-0.116615880467112
-0.018897509539576567,9.607791317418076,14.160758380808597,0.0069182497547963795,-23.61216262447512,-0.024785610948529782
-0.00025293268941649745,9.572340948836047,14.250623432492588,-0.0047136782353056446,-23.82663206418829,-0.0051249286361053446
-0.00025293268941649745,9.572340948836047,14.250623432492588,-0.0047136782353056446,-23.82663206418829,-0.0051249286361053446
-0.00025293268941649745,9.572340948836047,14.250623432492588,-0.0047136782353056446,-23.82663206418829,-0.0051249286361053446
-0.00025293268941649745,9.572340948836047,14.250623432492588,-0.0047136782353056446,-23.82663206418829,-0.0051249286361053446
-0.00025293268941649745,9.572340948836047,14.250623432492588,-0.0047136782353056446,-23.82663206418829,-0.0051249286361053446
-0.00025293268941649745,9.572340948836047,14.250623432492588,-0.0047136782353056446,-23.82663206418829,-0.0051249286361053446
-0.00025293268941649745,9.572340948836047,14.250623432492588,-0.0047136782353056446,-23.82663206418829,-0.0051249286361053446
-0.00025293268941649745,9.572340948836047,14.250623432492588,-0.0047136782353056446,-23.82663206418829,-0.0051249286361053446
-0.00025293268941649745,9.572340948836047,14.250623432492588,-0.0047136782353056446,-23.82663206418829,-0.0051249286361053446
-0.00025293268941649745,9.572340948836047,14.250623432492588,-0.0047136782353056446,-23.82663206418829,-0.0051249286361053446
-0.00025293268941649745,9.572340948836047,14.250623432492588,-0.0047136782353056446,-23.82663206418829,-0.0051249286361053446
-0.00025293268941649745,9.572340948836047,14.250623432492588,-0.0047136782353056446,-23.82663206418829,-0.0051249286361053446
-0.00025293268941649745,9.572340948836047,14.250623432492588,-0.0047136782353056446,-23.82663206418829,-0.0051249286361053446
