RAMEL-ESPOL/ARCHIE/matlab/data/joint_goals_square_t35_h35_p12.txt
Joint0,Joint1,Joint2,Joint3,Joint4,Joint5 
-0.000603850359972857,9.579852479770109,14.253243297538702,-0.0036044162831965283,-23.82959194824691,-0.0010774829020956213
-0.000603850359972857,9.579852479770109,14.253243297538702,-0.0036044162831965283,-23.82959194824691,-0.0010774829020956213
-0.000603850359972857,9.579852479770109,14.253243297538702,-0.0036044162831965283,-23.82959194824691,-0.0010774829020956213
-0.000603850359972857,9.579852479770109,14.253243297538702,-0.0036044162831965283,-23.82959194824691,-0.0010774829020956213
-0.000603850359972857,9.579852479770109,14.253243297538702,-0.0036044162831965283,-23.82959194824691,-0.0010774829020956213
-0.000603850359972857,9.579852479770109,14.253243297538702,-0.0036044162831965283,-23.82959194824691,-0.0010774829020956213
-0.000603850359972857,9.579852479770109,14.253243297538702,-0.0036044162831965283,-23.82959194824691,-0.0010774829020956213
-0.000603850359972857,9.579852479770109,14.253243297538702,-0.0036044162831965283,-23.82959194824691,-0.0010774829020956213
-0.000603850359972857,9.579852479770109,14.253243297538702,-0.0036044162831965283,-23.82959194824691,-0.0010774829020956213
-0.000603850359972857,9.579852479770109,14.253243297538702,-0.0036044162831965283,-23.82959194824691,-0.0010774829020956213
-0.000603850359972857,9.579852479770109,14.253243297538702,-0.0036044162831965283,-23.82959194824691,-0.0010774829020956213
-0.000603850359972857,9.579852479770109,14.253243297538702,-0.0036044162831965283,-23.82959194824691,-0.0010774829020956213
-0.000603850359972857,9.579852479770109,14.253243297538702,-0.0036044162831965283,-23.82959194824691,-0.0010774829020956213
-0.000603850359972857,9.579852479770109,14.253243297538702,-0.0036044162831965283,-23.82959194824691,-0.0010774829020956213
-0.000603850359972857,9.579852479770109,14.253243297538702,-0.0036044162831965283,-23.82959194824691,-0.0010774829020956213
-0.000603850359972857,9.579852479770109,14.253243297538702,-0.0036044162831965283,-23.82959194824691,-0.0010774829020956213
-0.0006030146438217084,9.579854221747423,14.25323905948427,-0.003604412938721456,-23.829581280459642,-0.001076639325494995
0.017489439516488903,9.617483959855347,14.161595549722133,-0.0035932359958101468,-23.598791584172698,0.017161118786338393
0.058540543638270194,9.702255191915981,13.954443110348697,-0.004019434012186604,-23.076294512482352,0.058361876090972716
0.10127044329404959,9.789604125390037,13.739955225735683,-0.0051193717582209315,-22.53409175866413,0.10099434961730262
0.1444369986089153,9.8769357929674,13.524429500248656,-0.006899063679380323,-21.988017245087974,0.14381541692224084
0.18747850744985817,9.96311444280155,13.310660907290304,-0.009331880264207074,-21.445143646237845,0.18628008437654017
0.23079418682635108,10.048944958004396,13.096651031250714,-0.012433519934861631,-20.900393965429696,0.22879562099996628
0.27441404537367453,10.134478696218576,12.882253058278904,-0.016209421629999735,-20.353373345286567,0.2714014536139115
0.31854742573366107,10.22011051718532,12.666448641661345,-0.020686595063580077,-19.801451366753128,0.31431053891606864
0.3625556017741569,10.304598464696964,12.452355595405786,-0.025799909295044308,-19.252588411795504,0.3569132760931468
0.4067266991358217,10.388503651412176,12.238553905655355,-0.03157507512259075,-18.70314623490776,0.39950210780412787
0.4510349311091048,10.471776660181794,12.025160376355437,-0.03800720808645581,-18.153414965934225,0.4420638827755436
0.49543007824929575,10.554324700363695,11.812406496929677,-0.04508625970723237,-17.603984072130928,0.4845623527738435
0.5399596415190375,10.636237608839703,11.600054432094945,-0.0528173080942262,-17.05423248392246,0.5270548749492421
0.5846125601701269,10.717495154114323,11.38814846305586,-0.061197137815894635,-16.504265944207425,0.569542483555941
0.6292502329565461,10.797849341608734,11.177333161519647,-0.07019572591829368,-15.955754998904965,0.6119053397056999
0.674116785599555,10.877740561224137,10.96644630861838,-0.07986081720971176,-15.405668339835751,0.6543866724431182
0.7191259644528942,10.957011357586536,10.755889650996705,-0.09017596217520224,-14.855038956442698,0.6969157829214069
0.7642334210351933,11.035583312351392,10.54586292957462,-0.10113080473372436,-14.304380008538871,0.739462109070833
0.8092801982600231,11.11318483019693,10.33709230092156,-0.11268278419754535,-13.755595467334839,0.7818874391491227
0.8542999479273948,11.189882514068595,10.12940424712007,-0.12483440832555419,-13.20823507709952,0.8242352386620164
0.8996345350319593,11.266256486658621,9.921216396133513,-0.13767975771397312,-12.658116368541211,0.8668381082436568
0.9450135247843461,11.341846559253627,9.713767974120449,-0.1511458367694925,-12.108497924354028,0.9094528424409876
0.9904347115428166,11.416652067619399,9.50705806111913,-0.16523043458778935,-11.55937429473484,0.9520885943842793
1.036011054519779,11.490858680792906,9.300565337193214,-0.17996961217260257,-11.00935191497966,0.9948625098353674
1.081630183150407,11.564282879311058,9.094791944128868,-0.1953283971952495,-10.459759385363443,1.0376802261609597
1.1274770115573618,11.637219498537487,8.888899215647905,-0.21137220061276243,-9.908343956733068,1.0807264751017414
1.173039794026513,11.708860543371186,8.685171417212327,-0.22791893313186556,-9.361226395871983,1.1235316913014655
1.2190347184811274,11.78033235970484,8.480398541881444,-0.24523008600961288,-8.809778855610613,1.166779839144917
1.265201448963893,11.851217883748179,8.275745306773109,-0.2632184275644178,-8.257107632779821,1.210237901342919
1.3108045902103098,11.920402703672874,8.074449185527646,-0.28158879145051663,-7.711974985366285,1.253223804562109
1.3570072209672608,11.989654131415515,7.871366158246597,-0.30080985795930537,-7.160448045692515,1.2968448288315684
1.402912047370516,12.057622587230119,7.6704379284073125,-0.32051405744958,-6.613215681764251,1.3402652734291907
1.4491132049304978,12.125191162103476,7.469053422906632,-0.34095652876650523,-6.063165693834,1.3840579679575389
1.4954831717773067,12.192163904605525,7.267770908300818,-0.36209053120289164,-5.511797889811961,1.428114355186614
1.541670163428178,12.25803616450499,7.068107032410196,-0.3837562045743766,-4.963266263831188,1.472111037337823
1.588065198765895,12.323367826787011,6.868362344231834,-0.406138550895535,-4.412899208170989,1.5164315232352192
1.6344321923491574,12.387824263345752,6.6695485519242395,-0.42912870139406645,-3.8634732232254914,1.5608619767175376
1.6808828725677794,12.451561834804348,6.471178780207303,-0.45278491032458634,-3.313638040172486,1.6055207263813724
1.7272332939889277,12.514330966211313,6.27402916564743,-0.47701521150460596,-2.765543799910977,1.6502418582929992
1.773877330311993,12.576661981052524,6.076420625552267,-0.5020318962683639,-2.214509743901705,1.6954175844421884
1.8204950420096013,12.638122246602379,5.879706775007336,-0.5276715321204386,-1.664293683308093,1.7407507642402302
1.8670211010348425,12.698630718928674,5.684151974873399,-0.5538988229499356,-1.1156388192270401,1.786188470001309
1.9136250665674335,12.758410041565913,5.489035097514098,-0.580812451613838,-0.5665198735403123,1.831907587746925
1.9604248564206268,12.817605652763927,5.293861362650804,-0.6084900121383597,-0.015526144042233871,1.8780371957087976
2.007006049282003,12.875695456056638,5.100350808538278,-0.6366899841733783,0.5324884401589437,1.924180245259957
2.0538206134540826,12.933244029643516,4.906618664014322,-0.6656907106958765,1.0828656794042633,1.9707963435676452
2.1004744024546627,12.989765986301842,4.714290574147252,-0.695254393931607,1.63099511108222,2.0175054698864203
2.147323991500134,13.045693471108036,4.52189024690625,-0.7256128292730443,2.1810898091413016,2.064676962742254
2.1943128820462223,13.100950968717637,4.329650665880895,-0.7567421640172424,2.732506732445893,2.1122691148965544
2.241062832966288,13.15509700022538,4.139110298057907,-0.7883955862469402,3.2808316956158676,2.159910367068985
2.288015615632098,13.20864489095691,3.9484611245350947,-0.8208775998913378,3.831269887205779,2.2080631710964274
2.3347404373618734,13.261104391421512,3.7594455254493697,-0.8538962793413702,4.378794104235114,2.256298231477071
2.381713851455052,13.31301039967279,3.570129929280112,-0.8877957982997545,4.929011264551723,2.30512069492045
2.4287291253233767,13.36412687568204,3.381348107364204,-0.9224410005897943,5.479520385929407,2.3543320669314522
2.4756323988588465,13.414288540527942,3.1937103952149255,-0.9577246650797965,6.028542673692505,2.403783976487639
2.5226930328409156,13.463782172989303,3.0061345466192866,-0.9938587432503853,6.5792530197643275,2.4537747246685253
2.569540672240633,13.512219613715006,2.8200899847839422,-1.0305661419304901,7.1273395541235525,2.5039241523790716
2.6166062407803277,13.560045918061864,2.63386018946113,-1.068193754640444,7.67786547162505,2.554707924561159
2.663673647783914,13.607035301685075,2.4482996753878288,-1.1065835270733926,8.228323929982821,2.6059102456256755
2.7105319246699313,13.652982059976823,2.2642307498770675,-1.1455683451684062,8.77626938931869,2.657313701354778
2.757555155875577,13.698253593437546,2.080178045646434,-1.1854686713495193,9.3260974084891,2.7093431664121015
2.8047119071466455,13.7428108165163,1.8962662137811668,-1.2262762317330134,9.87746097011252,2.761983716911747
2.8516165150114823,13.78629164909062,1.713992226097416,-1.267665590580138,10.425871597850103,2.814818902399758
2.8990269529140416,13.829390884091586,1.530411371945523,-1.3103241304313444,10.980212318130937,2.868722870610185
2.9464208309150206,13.87161931806572,1.3475522328630782,-1.353807175989892,11.534396158575502,2.923126366886156
2.9938810004843983,13.913048144964744,1.1650919088181746,-1.398205303373206,12.089412680041617,2.9781427914976626
3.041360373285301,13.953632504996746,0.9832090919080106,-1.4434906327162473,12.644731947867175,3.033736983829314
3.0888006693650816,13.993321672485576,0.8021225920062602,-1.4896213618617125,13.199692658617076,3.0898587119994247
3.1363834304603238,14.032263094120951,0.6211376669324984,-1.5367919530336294,13.756439155442479,3.1467435750441375
3.183629739863565,14.070068416367198,0.4420682629583579,-1.5845376261988,14.309387056446594,3.20383465704072
3.2311395213091805,14.1072178043924,0.26263555908197955,-1.6334788041390567,14.865577176540993,3.261875402255329
3.278495650015662,14.143380123426294,0.08441371003129969,-1.6832058701360753,15.42014654595835,3.3203788147072424
3.325821814062378,14.178652895120589,-0.09306980465998098,-1.7338606022248013,15.974562087249927,3.3795147744694365
3.373355777880908,14.213206244065578,-0.27070630455218697,-1.7857212198086232,16.53162977181493,3.4396058357230994
3.4206848625243915,14.246737833294425,-0.44695658668413035,-1.8383565218364122,17.086532560764113,3.500152570825966
3.468071420030609,14.279435215788856,-0.6228034494764386,-1.8920733419395055,17.642364406911206,3.5615101484663914
3.515252234455149,14.311118480854828,-0.7972758537258539,-1.9465887736136722,18.196055491574164,3.6233576020601164
3.5624162707976863,14.341918063586373,-0.9710795063077742,-2.002135003945262,18.749840165856416,3.6859613557124598
3.609820614242546,14.37199301394474,-1.14516006138629,-2.059044282920563,19.306757760438018,3.7496930920533527
3.657054613905811,14.401078099113223,-1.3180106046122273,-2.116848867811327,19.86200303010806,3.8140281648994736
3.7041651854740336,14.429207486756972,-1.4898106980935397,-2.175619682537935,20.416142712080656,3.8790491451363467
3.7513034787041994,14.456471251600718,-1.6611156134304084,-2.2355663058523616,20.97097172489245,3.9449891020855072
3.7984354603351074,14.482846001713717,-1.8318032885148965,-2.296671819593579,21.52610773503557,4.011829123929182
3.8446596691062838,14.507849858681688,-1.9986281711529574,-2.3577593484017996,22.070939239893413,4.078292486587688
3.8712810107691564,14.521861049802329,-2.0944477326206576,-2.393471711835525,22.38489809571055,4.116990223933449
3.8826991328361506,14.52778329378513,-2.135487941556386,-2.408909569900187,22.51959923604238,4.133683894898595
3.874275147551588,14.446535970895814,-2.235180294916204,-2.4074536464629768,22.708396867470643,4.133248722578929
3.8486406767815797,14.215885411317704,-2.5004215407014168,-2.4003362731000384,23.20490406098454,4.128629793714881
3.821554105858177,13.963282043824945,-2.779123876820914,-2.393088730065833,23.73685509604507,4.12393887690074
3.794781250959943,13.704330645009918,-3.0528547646749304,-2.3862112808353513,24.27017017172666,4.119503282277939
3.772754294623968,13.484149111120315,-3.2766397313349396,-2.3807741135335556,24.714653434642305,4.116010882552843
3.7638747610282515,13.393524280074411,-3.366463964915643,-2.378640319416941,24.89530981749752,4.114644516305323
3.7564100060239047,13.316496212230476,-3.4417962141295337,-2.3768727963780742,25.04784397152634,4.113514741822783
3.7335633529546617,13.075883561396742,-3.671289521831946,-2.371615237061636,25.51847939867327,4.110166773278757
3.708021041380266,12.798003475408397,-3.9258329214905423,-2.3660164511559003,26.05149015171631,4.106626660786158
3.6828712074034655,12.514952239589112,-4.174203493587088,-2.360802357287496,26.583485280757532,4.103359947753862
3.6586959178111464,12.23376032885047,-4.410664322318596,-2.3560804187220588,27.101684419738373,4.100434392131482
3.646714033677335,12.090999801610588,-4.5269769308552466,-2.3538488647823494,27.361026623773416,4.099065404205447
3.640927525928343,12.021536084992027,-4.584665032244588,-2.3528281679407357,27.488306756739668,4.098490383508451
3.6531766582073244,12.237050904201288,-4.857704128628045,-2.361962529135962,27.545282646543246,4.114842726384901
3.679469888819827,12.695030049463355,-5.435498200390018,-2.3815296163398827,27.663915564343416,4.149841117703901
3.7078807086803773,13.182966677278136,-6.047440564188317,-2.4026107840924382,27.786636639781722,4.1875025889789175
3.7370701184518094,13.677007333855181,-6.663184282499654,-2.4242025042368724,27.907011803713853,4.226029830015801
3.7666454343490905,14.170297315944245,-7.274101764925574,-2.4460099583829735,28.02328558440245,4.264896540441475
3.7970228370956005,14.66957006503109,-7.888448687088389,-2.468335520784363,28.136960702578932,4.304641424613022
3.8279643300797703,15.170647509553074,-8.500969293145166,-2.4909990674088522,28.24696988889677,4.344943271583577
3.859575169522775,15.675024779373732,-9.113408377559773,-2.5140729062443103,28.353557434836834,4.385930486383524
3.892033792293071,16.185245321771838,-9.72872035731432,-2.5376813281390698,28.457125359011926,4.427823145666555
3.925059480827595,16.696639400572657,-10.3411660951313,-2.5616145407388387,28.556616847181285,4.470248558224147
3.9588327119963607,17.21178799329281,-10.953754215566558,-2.5859980474861257,28.65245046884874,4.513429038828146
3.9932752172453867,17.729255856781123,-11.564680889094223,-2.6107695962205026,28.744260753932405,4.557254032182264
4.027741940855512,18.239361880045585,-12.162562022244474,-2.6354625047759574,28.830375325168067,4.600898916709035
4.052777928082223,18.60518464256294,-12.588661215842047,-2.6533388400059574,28.889438797181363,4.63247089361917
4.038387871719674,18.681685933229055,-12.676886749091016,-2.6442407671159907,28.9018132134732,4.61676122526534
3.688039564993548,18.702151535681434,-12.690433459670018,-2.4151974747572442,28.91030835168335,4.218791115316871
3.1261563872124043,18.731074163071995,-12.70956206321089,-2.047642794544188,28.922269407482442,3.580462879465924
2.553976062603096,18.755604272060285,-12.72578054858043,-1.6731177317702144,28.932453262174796,2.930363925714472
1.9801381088590644,18.775226878738007,-12.738745453980727,-1.2973116354741785,28.94057909863474,2.2783197148444336
1.4085805429311906,18.789826936536738,-12.74839199555406,-0.9228484611363508,28.946656219092244,1.6288200815889315
0.835002105613263,18.79952302037814,-12.754793784658547,-0.5469537631883155,28.95066748116919,0.9769899640803464
0.2645157362342144,18.804249069112537,-12.757916744833262,-0.17302154575557122,28.952646976663324,0.3286540621696878
-0.3086949448323167,18.80405845667004,-12.757789336039874,0.2027156010692663,28.952551711317767,-0.322784108219669
-0.8825586689131413,18.798909782959353,-12.754391933232705,0.5788583780450812,28.950428933867475,-0.9749573183863581
-1.453618852812528,18.788857935927492,-12.747751998146464,0.9530948170862517,28.946237987397254,-1.6239228564486363
-2.0274028785552933,18.77380311552228,-12.737809466212388,1.3290071551691685,28.940004587903296,-2.2759497834215616
-2.599984064438645,18.753819870891714,-12.724602916044171,1.7039742438381633,28.931699062105025,-2.9265604013062227
-3.1722471185541785,18.728888874429956,-12.708123423750848,2.0785377044624127,28.921382138851445,-3.576748760889066
-3.7226229169487133,18.700221981764418,-12.68916005523145,2.438544560899112,28.909495728253166,-4.201996831375972
-4.0336977563497065,18.681981663648216,-12.677092845086893,2.6419126677375098,28.90197680477765,-4.5553562412062
-4.060100878374052,18.686301704311948,-12.564952882373252,2.6561815433000655,28.784429825279144,-4.579153440070474
-4.068205246816824,18.70701678658478,-12.108638264103664,2.6494438624519225,28.307538362073355,-4.563179249987759
-4.0775278447667045,18.724777506241388,-11.58195458301164,2.642097798536244,27.763246866967673,-4.5451818459059075
-4.086937153813036,18.73627206061515,-11.048507517520024,2.635106240771692,27.21845324577354,-4.527409728045476
-4.0964153658329785,18.74147731337987,-10.509325416246387,2.628476817650227,26.674208852522234,-4.5098885965274205
-4.105960588984003,18.740412240721287,-9.964540408898872,2.622204198115202,26.13062697833469,-4.4926129845260885
-4.115463045782614,18.733218097706306,-9.420472560281715,2.6163473401016404,25.593885106546864,-4.475766649300668
-4.124920267105487,18.720129800627696,-8.877345770751525,2.61088855734207,25.06397253326757,-4.459333666934654
-4.134383001485585,18.701257025079236,-8.332311825892154,2.605783227614514,24.53793233194533,-4.443209176381361
-4.143797858857854,18.676882484522515,-7.788509751487151,2.601045556003608,24.018620406850378,-4.427468251246953
-4.152865538643285,18.648252958961006,-7.263369417620561,2.596794158088446,23.522216681733305,-4.412580327814778
-4.157262823018527,18.632583740960698,-7.0082294345833125,2.5948395759399547,23.282796399466157,-4.40545346044871
-4.17287836812714,18.851406234430556,-7.259445629058322,2.6051948206352638,23.31446308686646,-4.423689985749723
-4.208125175642736,19.340516625345035,-7.820102518982931,2.6285576107098523,23.38435881899014,-4.464820286658262
-4.246921870530059,19.870385822716116,-8.423141443329346,2.654193264876478,23.455699221494875,-4.509883364164056
-4.286592547211886,20.403267660349666,-9.025044427774157,2.6803202464941007,23.52283655112743,-4.555738257124055
-4.326904500777422,20.935818460667114,-9.62198749310802,2.706781076135068,23.58530083906642,-4.602107150482731
-4.3569427900200495,21.326955647273067,-10.057490799893682,2.7264407386271747,23.628221379984133,-4.636512194204057
-4.344842687674779,21.39010058583261,-10.12707319604669,2.719023907154916,23.635216113973613,-4.623907217733256
-4.008578083692616,21.153311981652195,-9.855096460789618,2.5084453383384453,23.61511911622673,-4.262592601456591
-3.4918756696083646,20.783143340482596,-9.42964958512841,2.1848383374960227,23.580627684782836,-3.7077149194923305
-2.969878713773183,20.40122811539457,-8.990295072572954,1.8579154367325104,23.541269873547435,-3.147582813156927
-2.4461464225149996,20.009793289614308,-8.539483667749039,1.5299545282015026,23.497089156981264,-2.5860811443177614
-1.9293571245522938,19.61522473215531,-8.084470270761413,1.206438182904594,23.448748257087484,-2.032565744238473
-1.4187139374717141,19.217003748305746,-7.624569361519294,0.8869122563646588,23.39621112061532,-1.4862226302315353
-0.9110193420303134,18.81262882908796,-7.1567971657963545,0.5694201519974681,23.33913234616695,-0.9436763703834247
-0.4086678481637484,18.40397908760272,-6.683230116926272,0.25550248572303513,23.27775081142072,-0.40753326261687617
0.0927070874595675,17.987421527083008,-6.199553750281286,-0.05752593524718284,23.211473041558886,0.12681507023868646
0.5167592088530941,17.628132776018436,-5.781558159767656,-0.3220240731978882,23.151380649295803,0.5781164325308746
0.7137468335341971,17.459009679315074,-5.584529287088581,-0.44480756856107273,23.122193418404247,0.7875550979353881
1.1523056508421812,17.077318641988143,-5.13918750951434,-0.7179380532513316,23.05418097153068,1.2533137676220685
1.6482316850146463,16.636913518467814,-4.624146711383478,-1.02639537497178,22.972160345760614,1.779095920120931
2.139372576822546,16.191299724462098,-4.101653273710614,-1.3314088042359415,22.88540542094318,2.2987870180407857
2.617224643513167,15.748432795664021,-3.580966048974923,-1.6276751147796236,22.795538109119896,2.8033685979408394
3.0864012772519605,15.304402287602262,-3.0574441788240443,-1.9180507277774872,22.70191522332603,3.2977212094538597
3.5435459697047262,14.862715863575742,-2.535172261829455,-2.200433171555916,22.605319665990688,3.778280628709924
3.849254706624093,14.562230446382086,-2.1789772861656393,-2.388951211615356,22.53768084492037,4.0989981196625225
3.879503870972238,14.492588897259754,-2.1809324080214627,-2.4089391329565966,22.60797916306378,4.1342176980736385
3.8568174679952074,14.290320836069233,-2.4159819029354987,-2.4025833925464584,23.045842371469796,4.130090667607456
3.8295131618569593,14.038459860687228,-2.6974221984093005,-2.3951922901740414,23.579795690699797,4.125302515009483
3.8026466424357714,13.78136980040012,-2.972641315159371,-2.3882052499355835,24.112741378314396,4.1207910488399415
3.777230670406417,13.529416154180659,-3.231283626672808,-2.3818661831672183,24.623934741171848,4.116714749648188
3.7652984226004955,13.408117408459546,-3.3520898145891427,-2.3789837812373564,24.86631852596781,4.114867847761715
3.75892603806568,13.34253566778742,-3.416435353182727,-2.3774694704973873,24.99639429659953,4.1138994752757645
3.741045015046545,13.155483062551651,-3.5963292072258004,-2.3733150152481115,25.36375581645517,4.111250492342825
3.7155075096061214,12.880429983691533,-3.8514671227461212,-2.367629878809998,25.894535425216972,4.107647280916909
3.690188795455905,12.598285740917836,-4.1021879153090035,-2.3622917482634183,26.427979092125838,4.104293102519666
3.6651332863427806,12.309517785887632,-4.347935202585943,-2.357312892965167,26.963062000889465,4.101197935177324
3.6483022349461685,12.11004849227482,-4.511600452910978,-2.3541439435708464,27.326575054620903,4.099249301337395
3.641579977093514,12.029123473963221,-4.576634094073345,-2.352918706245031,27.472684246809344,4.098501240787277
3.4851857016527026,12.029638350986431,-4.590251270654885,-2.2523230446318045,27.49201770537676,3.924435251272617
3.005899866263579,12.055020393076061,-4.609289313777075,-1.9429062910412838,27.503079838227613,3.3887579491511013
2.4618782084230295,12.079270315752064,-4.62747069397018,-1.591498188162754,27.513661609772562,2.7806450631688233
1.9188794410193464,12.098649840177757,-4.641994894294222,-1.240576188557617,27.522124320282366,2.1736024705223915
1.3767836831125353,12.113196149130108,-4.652889913342261,-0.890101769265668,27.528449780212288,1.5675111354564564
0.8327208323142657,12.12298121186856,-4.660220255475644,-0.5382584990755676,27.53273070651125,0.9591813406638329
0.2916499025807656,12.127932205198718,-4.663929411820307,-0.18829114659736285,27.534901370542958,0.3541722242213191
-0.2518024863876622,12.128108471176693,-4.664058984784236,0.1632364866273821,27.534955118530515,-0.25350925761249565
-0.7961565466086888,12.12346710876869,-4.660584600111878,0.5153300728598074,27.53293716264993,-0.8621905682764359
-1.3389443704473367,12.114035479325494,-4.653521923915686,0.8663544200660398,27.528827895178015,-1.4690971157211106
-1.8802190945976898,12.099849172802623,-4.642895812066306,1.2163061575119902,27.522644915871744,-2.0742725257144516
-2.4232159165423544,12.080813346670489,-4.62862854179477,1.5672362349530655,27.514317361533095,-2.6813177342887866
-2.966211302121501,12.05695900259683,-4.610747282932579,1.9179960634318405,27.50392603200233,-3.288289652019216
-3.451305316829619,12.031562969945934,-4.591701137134329,2.2311766909037454,27.49286586121787,-3.8304644051219507
-3.641037473374437,12.020672483826743,-4.583214952796277,2.353611803126672,27.48775701429157,-4.042485190085378
-3.6478477999939773,12.083933082254665,-4.4103660877697815,2.35298000113121,27.25156940304085,-4.0391648178014945
-3.662863780287926,12.218568885721648,-4.02815337146276,2.3518144812085486,26.73454586535212,-4.032035334379461
-3.6786514826030263,12.353089344766909,-3.6247433201387973,2.3509165349540284,26.19642745944656,-4.024813157754169
-3.6946590195149884,12.482312660567647,-3.2141871726963003,2.3503363593426,25.656453591969882,-4.017763991329507
-3.710766089728116,12.605248231843296,-2.7996220970868047,2.3500758905280046,25.11875354726196,-4.01093622528379
-3.727072764910134,12.722657676128643,-2.3785281030348404,2.3501305004664834,24.580044541183977,-4.004282309536988
-3.743569153172891,12.834412857293492,-1.9512058222610162,2.3504998198464273,24.040755499317346,-3.997803258945927
-3.7601949670903556,12.940097862482023,-1.519271946984324,2.3511801415589137,23.502919858017673,-3.991518035453493
-3.7771032897862886,13.04062487139739,-1.078795559496858,2.3521779134114675,22.961692555041438,-3.9853659766178158
-3.792741813921885,13.127531580526641,-0.6703973570766917,2.3533658115329312,22.466177581790017,-3.979881276457326
-3.7994245212254647,13.162928255454286,-0.4956034640629715,2.353949000230539,22.255896409899673,-3.9775954756164453
-3.8045632654180013,13.236384146765362,-0.5517166632344623,2.3568340242118238,22.23836237548697,-3.9822374921308894
-3.827764365801644,13.620704093260747,-1.0265080868212473,2.3727093934839867,22.327823028086527,-4.010715656244416
-3.858033675735411,14.115257184560798,-1.6341376410011705,2.3933745596585667,22.43957355012466,-4.047726539838256
-3.8776673877966585,14.431998090458759,-2.0213144032393977,2.4067504346589184,22.509145023974703,-4.071647590935194
-3.883448941076127,14.526292400598502,-2.1409561600318945,2.410772796097452,22.53423283695808,-4.078908094012607
-3.869031859574907,14.399118605144633,-2.290592374313206,2.406692795462721,22.811390412452255,-4.076260415270523
-3.84210747788183,14.154826794220762,-2.568899543729025,2.3992813483166016,23.334634699238332,-4.071459436184221
-3.8151196957604148,13.900830621447817,-2.846230037003908,2.392133248308423,23.86660315803325,-4.066842820923779
-3.7884471404102995,13.640517754078234,-3.118548311808961,2.3853555227359173,24.399863540218607,-4.062482258231373
-3.768647969416121,13.441134033506419,-3.3194483308636356,2.38051539268288,24.800611052745953,-4.059381286466699
-3.7611519321340063,13.364247753593574,-3.3952157438592216,2.378726494415608,24.953439583696966,-4.058238477609858
-3.751493280516091,13.264029318669735,-3.492593893343213,2.376457441661571,25.151260835085246,-4.056791838773616
-3.7273917637872063,13.008204294422297,-3.734308290021672,2.370975545039203,25.64935783378232,-4.053312323117567
-3.701969834620703,12.729251290490335,-3.987159685431793,2.3654803144034116,26.181745574928364,-4.049851316107526
-3.6767506027246846,12.442986585324743,-4.235683639868734,2.360331161143452,26.71710796724282,-4.046640116750235
-3.654222474015427,12.178934184777708,-4.455630783368498,2.356027050633392,27.201591600110383,-4.043965049110285
-3.6444947630884834,12.06246572033305,-4.549937721672917,2.354234416787976,27.41258519871907,-4.042870322716232
-3.6420293616002875,12.038271476873252,-4.605902318477055,2.3543551825693467,27.492776815287122,-4.043828415524267
-3.659016698292923,12.336629603416485,-4.983623723742051,2.367018689687124,27.57137910734645,-4.066495272002048
-3.6865317179576764,12.814324938823333,-5.585467531484081,2.3874816994711807,27.6942890901107,-4.1030860392237
-3.715230977185026,13.305442336156238,-6.200457854683782,2.408761191701184,27.81686248953748,-4.141090575208359
-3.744433842212269,13.797924430128834,-6.813303631720192,2.430346445242381,27.935895772307102,-4.179595176817287
-3.774231238711524,14.293123639605573,-7.425618497565226,2.4523005380045584,28.05164559004515,-4.218712307314097
-3.8047747834770917,14.793296055581838,-8.040078745802626,2.4747301058464735,28.164524664244286,-4.258631420411903
-3.83580109571006,15.293914675310829,-8.651036977577993,2.4974370181234606,28.273424258687935,-4.298999669026736
-3.867688755102604,15.800840726361692,-9.265542895951453,2.5206931141486963,28.379514732202804,-4.340299932750824
-3.900173121750932,16.30958698502846,-9.878035981425839,2.5442996556245046,28.481734546315952,-4.382178703894737
-3.9333866436171894,16.82200387102146,-10.490655125821208,2.5683476094866817,28.58036539596851,-4.4247971343009045
-3.9674311648277567,17.339364947535753,-11.10479373343052,2.592904422415937,28.67552163690994,-4.4682741279020535
-4.001903679547767,17.855360846311175,-11.712897019615124,2.617674298088041,28.765976511995017,-4.512085979843127
-4.035810420688716,18.35540393777025,-12.297975564760993,2.6419438999921514,28.849375991351614,-4.5549734414003575
-4.0559752812683385,18.64936067010566,-12.639973909429255,2.6563333986819013,28.896439709745746,-4.580383684704277
-4.059582190605876,18.684810785938005,-12.593973699522076,2.6566074403531683,28.814910671050264,-4.5801644354334305
-4.067196791529696,18.70471213092574,-12.165365014629952,2.6502476280138416,28.366530966513963,-4.565128220582104
-4.076494991584054,18.7231268206544,-11.640264874326789,2.6428744901797874,27.82316933545135,-4.5471348669413825
-4.083222619022805,18.732496715366825,-11.259184724786815,2.637800409196168,27.432826226757662,-4.534358377060882
-4.086792339246542,18.7361435335455,-11.056599123500925,2.635194579823597,27.226649259698714,-4.527659156110926
-4.0908856961448565,18.739208310953718,-10.823976089278721,2.6322789355216223,26.9910239620174,-4.520044022361053
-4.09383078704758,18.740682377269742,-10.656399422380074,2.630228349921433,26.82201751078473,-4.51460844823734
-4.09601092961348,18.741382488052906,-10.532237184127453,2.6287355025937624,26.697187572874128,-4.5106077383027925
-4.099968005662462,18.741810325244593,-10.30663676034225,2.626079834110384,26.471217350324977,-4.50339557693969
-4.10867556499989,18.738971615559926,-9.809134920065114,2.620476295612337,25.97667843784046,-4.487744110591317
-4.11809081689406,18.730164458132304,-9.269592248658649,2.6147785741721603,25.446072032285453,-4.471147628558325
-4.127468989404175,18.715604115903194,-8.730569136361416,2.6094635420803853,24.92173273618388,-4.454939919168236
-4.13692175147809,18.69522198123834,-8.185692154956742,2.6044574375615768,24.397357416431966,-4.438915731325063
-4.146317676735647,18.669438281585588,-7.642911569769452,2.599855830256279,23.88047106771201,-4.423320274959096
-4.154799772653185,18.64151429684501,-7.151380341157535,2.595947703083812,23.416963062034526,-4.409453508569651
-4.158505649503138,18.64974395508837,-7.02716470846614,2.5956659451901847,23.28448920354429,-4.406870838863077
-4.181176006075572,18.96717358130589,-7.3924911014023635,2.6107188953919906,23.331328229038366,-4.4333946675028075
-4.218536503959543,19.483523271452732,-7.98329933517865,2.6354631643552184,23.40403400293189,-4.4769401916686125
-4.257548599959219,20.0139535917996,-8.585753004918745,2.6612183565801035,23.474214351169323,-4.5221942312025085
-4.297336109327487,20.54601794996588,-9.185502630312252,2.6873988659894525,23.540006620052413,-4.568123886804315
-4.33709205843832,21.06896175706601,-9.770508897272432,2.7134720146469697,23.600164150951816,-4.613795259432244
-4.360334016681715,21.370765622051643,-10.106112687051661,2.7286750148087866,23.632844224066016,-4.640394288745165
-4.2824822847971165,21.369948711159626,-10.10296658965841,2.680043991464756,23.634124617520087,-4.55702530138249
-3.8399620169771906,21.187616251916005,-9.888769476480908,2.40317951294304,23.621532797885116,-4.082273267693894
-3.26948030848405,20.947143042978116,-9.607611880480858,2.0461645694650543,23.602598267514114,-3.470513345846069
-2.6967572463186738,20.699484658468688,-9.319501750947685,1.6876863910829556,23.580465549542236,-2.8566883635877858
-2.123930514624528,20.445410657671392,-9.02529830237324,1.32913002354856,23.55510689596026,-2.2431260164875613
-1.551881569617324,20.18520385345732,-8.725289851102815,0.9710937349382885,23.526570981586254,-1.6307957005511549
-0.9874290448722929,19.921982533155337,-8.422995824755295,0.6178912309512515,23.49517470032847,-1.0270237649628406
-0.43035312413429866,19.65577562034798,-8.11835766963638,0.26942719722329206,23.460973386581443,-0.4315915394356341
0.127417957783119,19.382711345130865,-7.806874401730609,-0.0793021515567976,23.423433956564978,0.1640972806449657
0.6777108259695546,19.106781675842377,-7.493039050850248,-0.4231492607235937,23.383166037645587,0.7512965342100295
1.2330790153401556,18.82159629145613,-7.169521786690533,-0.7699124912580372,23.339173783821224,1.3433637312614688
1.7795711397569507,18.534248419718473,-6.844306538442831,-1.1108388144807169,23.292527616003838,1.9253934388628051
2.326085346940026,18.240078007421282,-6.512044661216478,-1.4514419893031163,23.242480044396846,2.506837662112647
2.8691993554233535,17.940842310660223,-6.174655875152761,-1.7895480819700669,23.189304280810862,3.0840211916491125
3.412158783257217,17.634666969614823,-5.829958995992073,-2.1271367355064097,23.13264052460265,3.660357904076314
3.89955747330387,17.353708545394127,-5.514027159486077,-2.4297840236320685,23.07872429466591,4.177100844244546
4.0611824838809385,17.254786344447677,-5.412375476415816,-2.530220609206723,23.06913216389491,4.348747178460384
4.043371307990127,17.106230371035203,-5.583045462216022,-2.5251770472083135,23.388816724798765,4.345107614727145
4.014016079354204,16.85392658308435,-5.863333320672939,-2.5171087161526016,23.92215922022895,4.339286936589657
3.984788137857778,16.593201350138603,-6.141026626231946,-2.5093880791706047,24.461319070402276,4.33372122664006
3.957511575728211,16.341021197747384,-6.398786024907806,-2.5024757847776997,24.97194466840795,4.328744307418738
3.944748103683359,16.21999819874901,-6.518893788800977,-2.4993416523900844,25.213394505248644,4.32649041734175
3.9378242856497097,16.153525847621044,-6.58390604185688,-2.4976688326791088,25.34505167259605,4.32528828445203
3.9185574287480534,15.965467626434192,-6.764261118256251,-2.493117062272152,25.7139431965525,4.322020882277767
3.8907712984264218,15.686082912836032,-7.022833548549113,-2.486827066458353,26.25258486461897,4.317516707563849
3.863372203026996,15.40085384834411,-7.275876592036961,-2.480953779310888,26.791525876476545,4.313326497731307
3.8364306063486167,15.110646037359817,-7.5226508460823895,-2.475510384672237,27.329159652746217,4.309461540188362
3.8118853632407586,14.837572673099364,-7.745556581894081,-2.470849119940057,27.825727183175484,4.306171251641521
3.801059906294239,14.714440509775727,-7.843247028468869,-2.4688864714501375,28.046807676690126,4.30479269133957
3.7741291422576295,14.66593073075131,-7.883292120427517,-2.4534551666178865,28.13643074579387,4.278821309995182
3.4316824872878655,14.685456485302497,-7.897248568609355,-2.231143891842061,28.144789883800282,3.8932541923971504
2.8875639727979543,14.712642571900746,-7.916664843645267,-1.877714241588519,28.156378718385273,3.280544058433132
2.3306727401343545,14.735601330569773,-7.933057862785964,-1.515779679496227,28.166203140177988,2.6533743545216057
1.7758035663273877,14.753591484352219,-7.945898613259512,-1.1549882505662274,28.17390892419931,2.0284175581171024
1.2226977054246948,14.766679231379012,-7.955234057834,-0.7952137110361933,28.17948857826804,1.4053968002685235
0.6673589124445256,14.774959755952077,-7.9611424617472375,-0.4338976342026796,28.1830447504377,0.7798286656089725
0.11179311156702838,14.778374643704979,-7.963579874875044,-0.07238468686872661,28.18451846036105,0.1539862973309144
-0.4444571520249455,14.776915405905998,-7.96253702379028,0.28958106151456414,28.18387310687004,-0.4726309162899284
-0.9998946907541204,14.770587985430092,-7.958025633996478,0.650986278998172,28.18117603390106,-1.0983196889452418
-1.5532756734275899,14.75944123667733,-7.950075395115568,1.0109807784553124,28.1764168832521,-1.7216645751161834
-2.108996324424172,14.743376585497732,-7.938609999395901,1.3723816207679367,28.169524312896243,-2.3476022022384173
-2.665800038902087,14.722379254766118,-7.923623396349546,1.7343336985641697,28.160559029993333,-2.974701465086111
-3.2200260417467605,14.696596717078666,-7.905212875362884,2.094415532439546,28.149556228247754,-3.5988244868273815
-3.673874719887452,14.671846921999112,-7.887526599237996,2.3891052507997914,28.13896361655394,-4.10984507141981
-3.7970214801939353,14.664914349876963,-7.872658651578252,2.4688070231129546,28.125862427089313,-4.248004741966975
-3.801996421155756,14.674980730423423,-7.549633708493807,2.464418407639617,27.792867069079794,-4.237361298517473
-3.8100670580487566,14.686361889637498,-7.023869572341288,2.4576030593197062,27.255873328609937,-4.220370390372132
-3.818222456855258,14.691758950109813,-6.490454205167366,2.4510865637417076,26.71720907331455,-4.203534307023975
-3.8264087590881695,14.69113974834052,-5.95292198092675,2.4449067114717775,26.180439993028877,-4.186956810878563
-3.8345760813130694,14.684624345360724,-5.414598483921777,2.439089520652039,25.64877094951456,-4.17072579160534
-3.8427475754123352,14.67233717051691,-4.87401612256987,2.433605723933984,25.12061054508722,-4.154781168946348
-3.8509384760605436,14.654354719205347,-4.330209578739588,2.4284352672872607,24.59491740702831,-4.139081795362876
-3.8590731572483943,14.631000718932972,-3.7882613411702533,2.423613108657652,24.076449312503232,-4.123758730220025
-3.867306087968713,14.601907503554441,-3.237913234730685,2.4190398839852,23.55531830957495,-4.108511433705417
-3.875478966355555,14.56771112365971,-2.6897796158023533,2.4147960098029513,23.041500478735554,-4.09362381152803
-3.882312376620559,14.535135291684202,-2.2301357090836316,2.4114673703894147,22.614529634688715,-4.081358458530371
-3.886225449269591,14.569102267814523,-2.1884232308309084,2.4125672981840314,22.53875635970106,-4.082045445267274
-3.9084104350130677,14.92176118966136,-2.616924677670931,2.427643544556714,22.61361641818166,-4.108962595546483
-3.9405173886007896,15.425356107362203,-3.225464534138334,2.4494121711912724,22.717131824860278,-4.147770762202497
-3.973640044678959,15.936710622466839,-3.839324527440499,2.4718071766654415,22.81815306710527,-4.187626812852749
-4.0073945292218545,16.44955108777476,-4.45084578333996,2.4945644232131277,22.915311432283005,-4.228058464160487
-4.040262155839063,16.941147762489745,-5.033144660696868,2.516660901856662,23.0045216572172,-4.267251711150756
-4.057298865286517,17.193024884098122,-5.330014130412858,2.528090120180934,23.048736949281654,-4.28749983241444
-4.061779659454223,17.258942995834406,-5.407541168166747,2.531093343652979,23.06014108439464,-4.292817676893871
-4.061779659454223,17.258942995834406,-5.407541168166747,2.531093343652979,23.06014108439464,-4.292817676893871
-4.061779659454223,17.258942995834406,-5.407541168166747,2.531093343652979,23.06014108439464,-4.292817676893871
-4.061779659454223,17.258942995834406,-5.407541168166747,2.531093343652979,23.06014108439464,-4.292817676893871
-4.061779659454223,17.258942995834406,-5.407541168166747,2.531093343652979,23.06014108439464,-4.292817676893871
-4.061779659454223,17.258942995834406,-5.407541168166747,2.531093343652979,23.06014108439464,-4.292817676893871
-4.0617029399854,17.25879794049636,-5.407170107382559,2.5310455912449186,23.059256159916945,-4.292736581798403
-3.9745652205128503,17.09404456630929,-4.985720493410332,2.4768085637798705,22.054161858896556,-4.200629040025483
-3.8874145064890957,16.929266623012882,-4.564208030093158,2.4225634481317155,21.048917671587667,-4.108507762568689
-3.8005678922491426,16.765063648464498,-4.144166373417098,2.368507612951605,20.0471811381569,-4.016707928956298
-3.6888374505840056,16.553812225140966,-3.603771791211483,2.298963366556873,18.758420876264836,-3.8986050409616158
-3.53998338631282,16.27237027900577,-2.883825385624737,2.206312307738382,17.04145636780277,-3.741261217575848
-3.3900796267958095,15.98894364891666,-2.1588020322039254,2.113007888352018,15.31238409802019,-3.582807830509864
-3.24168190809273,15.708364526281969,-1.4410627840305288,2.020640872164671,13.60068332990588,-3.4259463799556515
-3.092341755440167,15.426003521196526,-0.7187653671718768,1.9276872579310187,11.878112011156917,-3.2680887445701665
-2.9435955619553087,15.144765528941823,0.0006593114115511356,1.835103340998224,10.162391743572856,-3.1108589442850474
-2.794612618120728,14.863079907127926,0.7212290548888304,1.742372063825823,8.443940667462808,-2.9533788908046557
-2.645595842376247,14.581330318511307,1.4419624295175086,1.6496197286978362,6.725099355527911,-2.795863075841484
-2.496397557841276,14.299237546875219,2.1635736881457657,1.5567544172684893,5.004164421542642,-2.6381553998954512
-2.347114708390238,14.016984886325995,2.885593952787116,1.463836470198653,3.28225406938349,-2.480358335948605
-2.1984337474346356,13.735870230777449,3.6047031282286253,1.3712931558717367,1.5672862296090249,-2.3231974886720086
-2.049550120724281,13.454372390230146,4.32479251527795,1.2786236965392679,-0.15001926825823692,-2.1658224167796574
-1.900414707530519,13.1723984909454,5.046099690867963,1.185797518044322,-1.8702290096732828,-2.0081811979858415
-1.7513729829318971,12.890601730932433,5.766953732929876,1.0930296540306192,-3.5893580953904825,-1.8506390112328308
-1.6022540229873632,12.608658940200248,6.488181330863078,1.0002137165120912,-5.309378055994971,-1.6930151840846732
-1.4534889278619647,12.327385210160859,7.207697428973633,0.9076180346535755,-7.025316345479331,-1.5357654041207638
-1.3040015468680208,12.04474583692251,7.930706929279226,0.8145727812578765,-8.749585876756303,-1.3777521433564413
-1.1555459295966743,11.764057244077435,8.64872620921606,0.7221697273332985,-10.46195447874732,-1.2208294920406353
-1.0063516611290928,11.481972065716196,9.37031804376412,0.6293069156200177,-12.182843089206212,-1.063126061214823
-0.8575191704190944,11.20057090923008,10.090160106833189,0.5366692848076496,-13.899558756368174,-0.9058050418191103
-0.7080186503708582,10.917906693666943,10.813233155386234,0.44361585328595876,-15.623979840711598,-0.7477778926262244
-0.5590843047940269,10.636312957743476,11.53356784890935,0.3509148250695352,-17.341870357832967,-0.590349209161973
-0.4103718299642065,10.355138718157816,12.252829444108965,0.258351895599236,-19.05720169593596,-0.4331550506453812
-0.2815451013033242,10.111562935352886,12.875911794577615,0.178166427550422,-20.54315991907885,-0.296980804137368
-0.19463589788725424,9.947241621949466,13.296256169574429,0.12407163506359543,-21.54561839043272,-0.20511481163088793
-0.10776330410354139,9.782989527255177,13.716423478709089,0.06999962946685108,-22.547654586185757,-0.11328751675457346
-0.020792834949999284,9.61855237725388,14.13706417109364,0.015866703419655293,-23.55081973019475,-0.02135676427379497
0.0029460385499163774,9.573668720300438,14.251879421403542,0.00109094451986174,-23.824636931423264,0.003736034754809258
0.0029460385499163774,9.573668720300438,14.251879421403542,0.00109094451986174,-23.824636931423264,0.003736034754809258
0.0029460385499163774,9.573668720300438,14.251879421403542,0.00109094451986174,-23.824636931423264,0.003736034754809258
0.0029460385499163774,9.573668720300438,14.251879421403542,0.00109094451986174,-23.824636931423264,0.003736034754809258
0.0029460385499163774,9.573668720300438,14.251879421403542,0.00109094451986174,-23.824636931423264,0.003736034754809258
0.0029460385499163774,9.573668720300438,14.251879421403542,0.00109094451986174,-23.824636931423264,0.003736034754809258
0.0029460385499163774,9.573668720300438,14.251879421403542,0.00109094451986174,-23.824636931423264,0.003736034754809258
0.0029460385499163774,9.573668720300438,14.251879421403542,0.00109094451986174,-23.824636931423264,0.003736034754809258
0.0029460385499163774,9.573668720300438,14.251879421403542,0.00109094451986174,-23.824636931423264,0.003736034754809258
0.0029460385499163774,9.573668720300438,14.251879421403542,0.00109094451986174,-23.824636931423264,0.003736034754809258
0.0029460385499163774,9.573668720300438,14.251879421403542,0.00109094451986174,-23.824636931423264,0.003736034754809258
0.0029460385499163774,9.573668720300438,14.251879421403542,0.00109094451986174,-23.824636931423264,0.003736034754809258