RAMEL-ESPOL/ARCHIE/matlab/data/joint_real_states_square_t35_h35_p12.txt
Joint0,Joint1,Joint2,Joint3,Joint4,Joint5 
-0.087890625,9.4921875,14.326171875,-0.087890625,-23.994140625,-15.029296875
0.0,9.4921875,14.23828125,-0.087890625,-23.994140625,-15.029296875
-0.087890625,9.4921875,14.326171875,-0.087890625,-23.994140625,-15.029296875
-0.087890625,9.4921875,14.326171875,-0.087890625,-23.994140625,-15.029296875
-0.087890625,9.4921875,14.326171875,-0.087890625,-23.994140625,-15.029296875
-0.087890625,9.4921875,14.326171875,-0.087890625,-23.994140625,-15.029296875
-0.087890625,9.4921875,14.23828125,-0.087890625,-23.994140625,-15.029296875
-0.087890625,9.4921875,14.23828125,-0.087890625,-23.994140625,-15.029296875
0.0,9.4921875,14.23828125,-0.087890625,-23.994140625,-15.029296875
0.0,9.4921875,14.23828125,-0.087890625,-23.994140625,-15.029296875
-0.087890625,9.4921875,14.23828125,-0.087890625,-23.994140625,-15.029296875
-0.087890625,9.4921875,14.23828125,-0.087890625,-23.994140625,-15.029296875
-0.087890625,9.4921875,14.23828125,-0.087890625,-23.994140625,-15.029296875
-0.087890625,9.4921875,14.23828125,-0.087890625,-23.906250000000004,-15.029296875
-0.087890625,9.4921875,14.23828125,-0.087890625,-23.994140625,-15.029296875
-0.087890625,9.4921875,14.23828125,-0.087890625,-23.906250000000004,-15.029296875
-0.087890625,9.4921875,14.23828125,-0.087890625,-23.994140625,-15.029296875
-0.087890625,9.4921875,14.23828125,-0.087890625,-23.994140625,-15.029296875
0.0,9.4921875,14.0625,-0.087890625,-23.906250000000004,-15.029296875
0.0,9.4921875,13.798828125,-0.087890625,-23.642578125,-15.029296875
0.0,9.4921875,13.623046875,-0.087890625,-23.02734375,-15.029296875
0.0,9.580078124999998,13.359374999999998,-0.087890625,-22.236328125,-15.029296875
-0.087890625,9.580078124999998,13.18359375,-0.087890625,-21.708984374999996,-15.029296875
0.0,9.66796875,12.919921875,-0.087890625,-21.093749999999996,-15.029296875
0.0,9.755859375,12.744140625,-0.087890625,-20.56640625,-15.029296875
0.0,9.931640625,12.48046875,-0.087890625,-19.951171875,-15.029296875
0.17578125,10.01953125,12.3046875,-0.087890625,-19.3359375,-15.029296875
0.17578125,10.107421875000002,12.041015625000002,-0.087890625,-18.80859375,-15.029296875
0.263671875,10.1953125,11.953125000000002,-0.087890625,-18.193359375,-15.029296875
0.263671875,10.283203125,11.689453125,-0.087890625,-17.666015625,-15.029296875
0.439453125,10.458984375,11.513671875,-0.087890625,-17.05078125,-15.029296875
0.439453125,10.546874999999998,11.25,-0.087890625,-16.5234375,-15.029296875
0.52734375,10.722656249999998,10.986328124999998,-0.087890625,-15.908203125,-15.029296875
0.615234375,10.722656249999998,10.810546875,-0.087890625,-15.292968749999998,-15.029296875
0.615234375,10.810546875,10.546874999999998,-0.17578125,-14.765625000000002,-15.029296875
0.703125,10.986328124999998,10.37109375,-0.17578125,-14.150390624999998,-15.029296875
0.703125,11.07421875,10.1953125,-0.17578125,-13.623046875,-15.029296875
0.7910156249999999,11.07421875,9.931640625,-0.17578125,-13.0078125,-15.029296875
0.87890625,11.162109375000002,9.755859375,-0.17578125,-12.48046875,-15.029296875
0.87890625,11.25,9.580078124999998,-0.17578125,-11.953125000000002,-15.029296875
0.9667968749999999,11.337890625,9.31640625,-0.17578125,-11.425781249999998,-15.029296875
0.9667968749999999,11.425781249999998,9.140625000000002,-0.263671875,-10.722656249999998,-15.029296875
1.0546875,11.513671875,8.876953125,-0.263671875,-10.283203125,-15.029296875
1.1425781250000002,11.513671875,8.701171875,-0.263671875,-9.66796875,-15.029296875
1.1425781250000002,11.601562500000002,8.525390625,-0.263671875,-9.228515625,-15.029296875
1.1425781250000002,11.689453125,8.26171875,-0.263671875,-8.525390625,-15.029296875
1.23046875,11.77734375,8.173828124999998,-0.263671875,-7.998046875,-15.029296875
1.23046875,11.865234375,7.910156250000001,-0.3515625,-7.55859375,-15.029296875
1.3183593749999998,11.865234375,7.646484374999999,-0.3515625,-6.855468749999999,-15.029296875
1.3183593749999998,11.953125000000002,7.470703125,-0.3515625,-6.328124999999999,-15.029296875
1.40625,11.953125000000002,7.294921875000001,-0.3515625,-5.800781250000001,-15.029296875
1.40625,12.12890625,7.119140625,-0.3515625,-5.185546875,-15.029296875
1.4941406250000002,12.12890625,6.855468749999999,-0.439453125,-4.74609375,-15.029296875
1.5820312499999998,12.216796874999998,6.767578125,-0.439453125,-4.04296875,-15.029296875
1.5820312499999998,12.3046875,6.591796875,-0.439453125,-3.6914062500000004,-15.029296875
1.6699218749999998,12.3046875,6.328124999999999,-0.439453125,-3.076171875,-15.029296875
1.6699218749999998,12.392578125,6.064453125,-0.439453125,-2.548828125,-15.029296875
1.6699218749999998,12.48046875,5.976562500000001,-0.439453125,-1.9335937499999998,-15.029296875
1.7578125,12.48046875,5.712890624999999,-0.439453125,-1.40625,-15.029296875
1.8457031250000002,12.48046875,5.537109375,-0.439453125,-0.87890625,-15.029296875
1.8457031250000002,12.656249999999998,5.273437499999999,-0.439453125,-0.3515625,-15.029296875
1.9335937499999998,12.656249999999998,5.09765625,-0.439453125,0.3515625,-15.029296875
1.9335937499999998,12.744140625,4.921875,-0.439453125,0.7910156249999999,-15.029296875
2.021484375,12.919921875,4.74609375,-0.439453125,1.3183593749999998,-15.029296875
2.021484375,12.919921875,4.482421875,-0.439453125,1.9335937499999998,-15.029296875
2.197265625,13.0078125,4.39453125,-0.52734375,2.4609375,-15.029296875
2.197265625,13.0078125,4.21875,-0.52734375,2.9882812500000004,-15.029296875
2.197265625,13.095703125000002,4.04296875,-0.52734375,3.6914062500000004,-15.029296875
2.197265625,13.095703125000002,3.779296875,-0.52734375,4.130859375,-15.029296875
2.2851562500000004,13.18359375,3.515625,-0.52734375,4.658203125,-15.029296875
2.373046875,13.18359375,3.3398437499999996,-0.52734375,5.273437499999999,-15.029296875
2.373046875,13.18359375,3.251953125,-0.52734375,5.800781250000001,-15.029296875
2.373046875,13.271484375,2.9882812500000004,-0.52734375,6.240234375,-15.029296875
2.4609375,13.359374999999998,2.8125,-0.615234375,6.855468749999999,-15.029296875
2.548828125,13.447265625,2.6367187499999996,-0.615234375,7.470703125,-15.029296875
2.6367187499999996,13.53515625,2.373046875,-0.703125,7.998046875,-15.029296875
2.724609375,13.53515625,2.197265625,-0.7910156249999999,8.525390625,-15.029296875
2.724609375,13.53515625,2.109375,-0.7910156249999999,9.140625000000002,-15.029296875
2.724609375,13.623046875,1.8457031250000002,-0.7910156249999999,9.66796875,-15.029296875
2.724609375,13.623046875,1.6699218749999998,-0.7910156249999999,10.1953125,-15.029296875
2.8125,13.623046875,1.5820312499999998,-0.87890625,10.8984375,-15.029296875
2.8125,13.710937499999998,1.40625,-0.87890625,11.337890625,-15.029296875
2.9003906250000004,13.710937499999998,1.23046875,-0.9667968749999999,11.865234375,-15.029296875
2.9882812500000004,13.798828125,0.9667968749999999,-0.9667968749999999,12.48046875,-15.029296875
3.076171875,13.798828125,0.703125,-1.0546875,13.0078125,-15.029296875
3.1640624999999996,13.886718750000002,0.615234375,-1.0546875,13.53515625,-15.029296875
3.1640624999999996,13.886718750000002,0.3515625,-1.1425781250000002,14.0625,-15.029296875
3.1640624999999996,13.886718750000002,0.263671875,-1.1425781250000002,14.677734375,-15.029296875
3.1640624999999996,13.974609375,0.0,-1.23046875,15.1171875,-15.029296875
3.1640624999999996,13.974609375,-0.17578125,-1.23046875,15.732421875,-15.029296875
3.251953125,13.974609375,-0.3515625,-1.3183593749999998,16.347656249999996,-15.029296875
3.3398437499999996,14.0625,-0.52734375,-1.40625,16.875,-15.029296875
3.3398437499999996,14.0625,-0.703125,-1.4941406250000002,17.40234375,-15.029296875
3.4277343749999996,14.0625,-0.7910156249999999,-1.4941406250000002,18.017578125,-15.029296875
3.4277343749999996,14.150390624999998,-1.0546875,-1.5820312499999998,18.6328125,-15.029296875
3.515625,14.150390624999998,-1.1425781250000002,-1.5820312499999998,19.072265625,-15.029296875
3.6035156249999996,14.150390624999998,-1.40625,-1.6699218749999998,19.6875,-15.029296875
3.6914062500000004,14.23828125,-1.5820312499999998,-1.6699218749999998,20.214843750000004,-15.029296875
3.6914062500000004,14.23828125,-1.6699218749999998,-1.7578125,20.7421875,-15.029296875
3.6914062500000004,14.23828125,-1.9335937499999998,-1.8457031250000002,21.445312499999996,-15.029296875
3.779296875,14.23828125,-2.109375,-1.8457031250000002,21.884765625,-15.029296875
3.779296875,14.326171875,-2.197265625,-1.9335937499999998,22.412109375,-15.029296875
3.779296875,14.326171875,-2.2851562500000004,-2.021484375,22.763671875,-15.029296875
3.779296875,14.326171875,-2.373046875,-2.021484375,22.939453124999996,-15.029296875
3.779296875,14.326171875,-2.4609375,-2.109375,23.02734375,-15.029296875
3.779296875,14.23828125,-2.724609375,-2.109375,23.466796875,-15.029296875
3.8671874999999996,14.0625,-2.9882812500000004,-2.109375,24.082031250000004,-15.029296875
3.9550781250000004,13.886718750000002,-3.251953125,-2.109375,24.609375,-15.029296875
3.9550781250000004,13.53515625,-3.515625,-2.109375,25.13671875,-15.029296875
3.8671874999999996,13.18359375,-3.779296875,-2.109375,25.576171874999996,-15.029296875
3.8671874999999996,12.919921875,-4.04296875,-2.109375,26.103515625,-15.029296875
3.8671874999999996,12.656249999999998,-4.21875,-2.197265625,26.718749999999996,-15.029296875
3.779296875,12.3046875,-4.570312500000001,-2.197265625,27.24609375,-15.029296875
3.779296875,12.12890625,-4.658203125,-2.197265625,27.773437500000004,-15.029296875
3.779296875,12.12890625,-4.74609375,-2.197265625,27.861328125,-15.029296875
3.779296875,12.041015625000002,-4.833984375,-2.197265625,27.861328125,-15.029296875
3.6914062500000004,12.3046875,-5.273437499999999,-2.197265625,28.125,-15.029296875
3.6914062500000004,12.83203125,-5.976562500000001,-2.197265625,28.300781249999996,-15.029296875
3.779296875,13.359374999999998,-6.591796875,-2.2851562500000004,28.388671875,-15.029296875
3.6914062500000004,13.886718750000002,-7.207031249999999,-2.2851562500000004,28.564453124999996,-15.029296875
3.779296875,14.326171875,-7.822265625000001,-2.373046875,28.65234375,-14.94140625
3.8671874999999996,14.853515625,-8.4375,-2.4609375,28.740234375,-15.029296875
3.8671874999999996,15.380859375,-9.052734375,-2.4609375,28.828124999999996,-15.029296875
3.8671874999999996,15.820312500000002,-9.66796875,-2.4609375,28.828124999999996,-15.029296875
3.8671874999999996,16.347656249999996,-10.37109375,-2.4609375,29.003906249999996,-15.029296875
3.8671874999999996,16.875,-10.8984375,-2.6367187499999996,29.003906249999996,-15.029296875
3.9550781250000004,17.490234375000004,-11.601562500000002,-2.6367187499999996,29.091796875,-15.029296875
3.9550781250000004,17.9296875,-12.12890625,-2.6367187499999996,29.267578125,-15.029296875
3.9550781250000004,18.369140625,-12.656249999999998,-2.6367187499999996,29.267578125,-15.029296875
3.9550781250000004,18.544921875,-12.83203125,-2.6367187499999996,29.267578125,-15.029296875
3.9550781250000004,18.544921875,-12.83203125,-2.6367187499999996,29.267578125,-15.029296875
3.6035156249999996,18.544921875,-12.919921875,-2.373046875,29.267578125,-15.029296875
3.076171875,18.544921875,-12.919921875,-1.7578125,29.267578125,-15.029296875
2.4609375,18.6328125,-12.919921875,-1.40625,29.267578125,-15.029296875
1.9335937499999998,18.6328125,-12.919921875,-1.1425781250000002,29.267578125,-15.029296875
0.9667968749999999,18.6328125,-12.919921875,-0.87890625,29.267578125,-15.029296875
0.52734375,18.6328125,-12.919921875,-0.439453125,29.267578125,-15.029296875
0.0,18.6328125,-12.919921875,-0.087890625,29.35546875,-15.029296875
-0.52734375,18.6328125,-12.919921875,0.3515625,29.267578125,-15.029296875
-1.3183593749999998,18.6328125,-12.919921875,0.615234375,29.267578125,-15.029296875
-1.8457031250000002,18.6328125,-12.919921875,1.0546875,29.267578125,-15.029296875
-2.373046875,18.6328125,-12.919921875,1.40625,29.35546875,-15.029296875
-2.9003906250000004,18.544921875,-12.919921875,1.7578125,29.267578125,-15.029296875
-3.6914062500000004,18.544921875,-12.919921875,2.197265625,29.267578125,-15.029296875
-4.04296875,18.6328125,-12.919921875,2.4609375,29.267578125,-15.029296875
-4.130859375,18.544921875,-12.919921875,2.6367187499999996,29.35546875,-14.94140625
-4.130859375,18.544921875,-12.919921875,2.6367187499999996,29.267578125,-14.94140625
-4.130859375,18.544921875,-12.656249999999998,2.6367187499999996,29.091796875,-15.029296875
-4.306640624999999,18.544921875,-12.3046875,2.548828125,27.861328125,-14.94140625
-4.39453125,18.544921875,-11.513671875,2.548828125,27.421874999999996,-15.029296875
-4.306640624999999,18.544921875,-10.986328124999998,2.548828125,26.806640625000004,-14.94140625
-4.306640624999999,18.544921875,-10.37109375,2.548828125,26.3671875,-15.029296875
-4.306640624999999,18.544921875,-9.84375,2.548828125,25.83984375,-14.94140625
-4.306640624999999,18.544921875,-9.228515625,2.548828125,25.048828125000004,-14.94140625
-4.306640624999999,18.544921875,-8.525390625,2.548828125,24.873046875,-14.94140625
-4.21875,18.45703125,-8.0859375,2.548828125,23.994140625,-14.94140625
-4.306640624999999,18.45703125,-7.646484374999999,2.548828125,23.5546875,-15.029296875
-4.306640624999999,18.544921875,-7.646484374999999,2.548828125,23.5546875,-15.029296875
-4.306640624999999,18.6328125,-7.646484374999999,2.548828125,23.5546875,-14.94140625
-4.306640624999999,19.160156249999996,-7.998046875,2.548828125,23.642578125,-15.029296875
-4.39453125,19.86328125,-8.613281249999998,2.6367187499999996,23.642578125,-14.94140625
-4.306640624999999,20.478515625,-9.228515625,2.6367187499999996,23.642578125,-15.029296875
-4.482421875,21.005859375,-9.755859375,2.6367187499999996,23.642578125,-15.029296875
-4.39453125,21.181640625000004,-10.01953125,2.6367187499999996,23.642578125,-14.94140625
-4.306640624999999,21.181640625000004,-10.107421875000002,2.6367187499999996,23.642578125,-14.94140625
-3.9550781250000004,20.830078124999996,-10.107421875000002,2.4609375,23.642578125,-15.029296875
-3.3398437499999996,20.302734375,-9.931640625,2.197265625,23.642578125,-14.94140625
-2.8125,20.0390625,-9.404296875,2.109375,23.642578125,-14.94140625
-2.197265625,19.775390625,-8.7890625,1.6699218749999998,23.642578125,-14.94140625
-1.6699218749999998,19.072265625,-8.26171875,1.40625,23.642578125,-15.029296875
-1.1425781250000002,18.896484375,-7.822265625000001,1.0546875,23.642578125,-15.029296875
-0.703125,18.369140625,-7.382812500000001,0.7910156249999999,23.642578125,-15.029296875
-0.263671875,17.9296875,-6.855468749999999,0.439453125,23.642578125,-15.029296875
0.3515625,17.666015625,-6.328124999999999,0.17578125,23.642578125,-14.94140625
0.615234375,17.314453125,-6.240234375,0.0,23.466796875,-15.029296875
0.7910156249999999,17.05078125,-5.625,-0.263671875,23.203125000000004,-14.94140625
1.40625,16.5234375,-5.185546875,-0.52734375,23.203125000000004,-15.029296875
1.9335937499999998,16.171875,-4.74609375,-0.703125,23.203125000000004,-15.029296875
2.2851562500000004,15.732421875,-4.04296875,-1.1425781250000002,23.203125000000004,-14.94140625
2.8125,15.205078124999998,-3.6914062500000004,-1.40625,23.115234375,-15.029296875
3.251953125,14.853515625,-2.9882812500000004,-1.7578125,22.939453124999996,-15.029296875
3.6914062500000004,14.414062499999998,-2.4609375,-2.021484375,22.851562499999996,-14.94140625
3.8671874999999996,14.326171875,-2.4609375,-2.109375,22.851562499999996,-15.029296875
3.8671874999999996,14.23828125,-2.4609375,-2.109375,22.939453124999996,-15.029296875
3.8671874999999996,14.0625,-2.548828125,-2.109375,23.02734375,-15.029296875
3.8671874999999996,13.623046875,-2.548828125,-2.197265625,23.642578125,-15.029296875
3.8671874999999996,13.447265625,-2.6367187499999996,-2.197265625,24.2578125,-15.029296875
3.8671874999999996,13.271484375,-2.8125,-2.197265625,24.609375,-15.029296875
3.8671874999999996,13.271484375,-2.9003906250000004,-2.197265625,24.697265624999996,-15.029296875
3.779296875,13.095703125000002,-3.1640624999999996,-2.197265625,25.048828125000004,-15.029296875
3.779296875,12.744140625,-3.4277343749999996,-2.197265625,25.6640625,-15.029296875
3.779296875,12.568359375,-3.6914062500000004,-2.197265625,26.191406250000004,-15.029296875
3.6914062500000004,12.12890625,-4.130859375,-2.197265625,26.806640625000004,-15.029296875
3.6914062500000004,11.953125000000002,-4.21875,-2.197265625,27.421874999999996,-15.029296875
3.6914062500000004,11.865234375,-4.39453125,-2.197265625,27.509765625,-15.029296875
3.6914062500000004,11.77734375,-4.39453125,-2.197265625,27.685546875000004,-15.029296875
3.6035156249999996,11.77734375,-4.39453125,-2.197265625,27.773437500000004,-15.029296875
3.1640624999999996,11.77734375,-4.570312500000001,-1.9335937499999998,27.773437500000004,-15.029296875
2.548828125,11.77734375,-4.570312500000001,-1.23046875,27.861328125,-15.029296875
2.021484375,11.77734375,-4.570312500000001,-1.23046875,27.861328125,-15.029296875
1.3183593749999998,11.77734375,-4.570312500000001,-0.87890625,27.861328125,-15.029296875
0.703125,11.77734375,-4.570312500000001,-0.52734375,27.861328125,-15.029296875
0.263671875,11.77734375,-4.570312500000001,-0.17578125,27.861328125,-15.029296875
-0.263671875,11.77734375,-4.570312500000001,0.17578125,27.861328125,-15.029296875
-0.87890625,11.77734375,-4.570312500000001,0.52734375,27.861328125,-15.029296875
-1.6699218749999998,11.77734375,-4.658203125,0.87890625,27.861328125,-15.029296875
-2.109375,11.77734375,-4.658203125,1.23046875,27.861328125,-15.029296875
-2.6367187499999996,11.865234375,-4.658203125,1.5820312499999998,27.861328125,-15.029296875
-3.1640624999999996,11.77734375,-4.658203125,1.9335937499999998,27.861328125,-15.029296875
-3.6035156249999996,11.77734375,-4.658203125,2.197265625,27.861328125,-15.029296875
-3.6914062500000004,11.77734375,-4.658203125,2.2851562500000004,27.861328125,-14.94140625
-3.6914062500000004,11.865234375,-4.658203125,2.2851562500000004,27.773437500000004,-15.029296875
-3.6914062500000004,11.865234375,-4.570312500000001,2.2851562500000004,27.333984375,-14.94140625
-3.779296875,11.953125000000002,-4.306640624999999,2.2851562500000004,26.54296875,-15.029296875
-3.779296875,12.041015625000002,-3.8671874999999996,2.2851562500000004,25.927734375000004,-14.94140625
-3.8671874999999996,12.12890625,-3.3398437499999996,2.2851562500000004,25.400390625,-14.94140625
-3.9550781250000004,12.3046875,-3.076171875,2.2851562500000004,24.78515625,-15.029296875
-3.9550781250000004,12.392578125,-2.548828125,2.2851562500000004,24.2578125,-14.94140625
-3.9550781250000004,12.568359375,-1.9335937499999998,2.2851562500000004,23.994140625,-15.029296875
-4.04296875,12.568359375,-1.4941406250000002,2.2851562500000004,22.939453124999996,-14.94140625
-3.9550781250000004,12.744140625,-1.23046875,2.2851562500000004,22.67578125,-15.029296875
-4.04296875,12.83203125,-1.1425781250000002,2.2851562500000004,22.5,-15.029296875
-4.04296875,13.0078125,-1.1425781250000002,2.2851562500000004,22.5,-15.029296875
-4.04296875,13.53515625,-1.23046875,2.2851562500000004,22.5,-15.029296875
-3.9550781250000004,14.0625,-1.5820312499999998,2.373046875,22.587890625000004,-15.029296875
-3.9550781250000004,14.23828125,-1.8457031250000002,2.373046875,22.587890625000004,-15.029296875
-3.9550781250000004,14.326171875,-2.021484375,2.373046875,22.587890625000004,-15.029296875
-3.9550781250000004,14.23828125,-2.197265625,2.373046875,22.763671875,-15.029296875
-3.9550781250000004,14.0625,-2.548828125,2.373046875,23.466796875,-15.029296875
-3.9550781250000004,13.798828125,-2.9003906250000004,2.373046875,23.994140625,-14.94140625
-3.8671874999999996,13.710937499999998,-3.076171875,2.373046875,24.521484375,-15.029296875
-3.8671874999999996,13.53515625,-3.1640624999999996,2.373046875,24.609375,-15.029296875
-3.8671874999999996,13.447265625,-3.3398437499999996,2.2851562500000004,24.873046875,-15.029296875
-3.8671874999999996,13.095703125000002,-3.6035156249999996,2.2851562500000004,25.400390625,-15.029296875
-3.779296875,12.83203125,-3.779296875,2.2851562500000004,25.927734375000004,-15.029296875
-3.779296875,12.48046875,-4.130859375,2.2851562500000004,26.54296875,-15.029296875
-3.6914062500000004,12.12890625,-4.306640624999999,2.2851562500000004,27.158203125,-15.029296875
-3.6914062500000004,11.953125000000002,-4.482421875,2.2851562500000004,27.509765625,-15.029296875
-3.6914062500000004,11.953125000000002,-4.570312500000001,2.2851562500000004,27.685546875000004,-14.94140625
-3.6914062500000004,11.953125000000002,-4.74609375,2.2851562500000004,27.773437500000004,-15.029296875
-3.6914062500000004,12.3046875,-5.273437499999999,2.2851562500000004,28.037109375,-15.029296875
-3.6914062500000004,12.83203125,-5.976562500000001,2.373046875,28.125,-14.94140625
-3.779296875,13.359374999999998,-6.50390625,2.373046875,28.212890625,-15.029296875
-3.779296875,13.886718750000002,-7.119140625,2.373046875,28.300781249999996,-15.029296875
-3.779296875,14.326171875,-7.734374999999999,2.373046875,28.4765625,-15.029296875
-3.8671874999999996,14.853515625,-8.4375,2.4609375,28.65234375,-14.94140625
-3.8671874999999996,15.380859375,-9.140625000000002,2.4609375,28.740234375,-14.94140625
-3.8671874999999996,15.820312500000002,-9.66796875,2.4609375,28.828124999999996,-15.029296875
-3.9550781250000004,16.435546875,-10.37109375,2.4609375,28.828124999999996,-15.029296875
-3.9550781250000004,16.962890625,-10.8984375,2.548828125,28.916015625000004,-15.029296875
-4.04296875,17.490234375000004,-11.601562500000002,2.548828125,29.091796875,-15.029296875
-4.04296875,18.017578125,-12.12890625,2.548828125,29.179687500000004,-15.029296875
-4.04296875,18.369140625,-12.656249999999998,2.6367187499999996,29.267578125,-14.94140625
-4.04296875,18.544921875,-12.744140625,2.6367187499999996,29.267578125,-14.94140625
-4.04296875,18.544921875,-12.744140625,2.6367187499999996,29.267578125,-14.94140625
-4.21875,18.544921875,-12.656249999999998,2.6367187499999996,29.091796875,-15.029296875
-4.130859375,18.544921875,-12.48046875,2.548828125,28.212890625,-15.029296875
-4.130859375,18.544921875,-12.216796874999998,2.548828125,27.94921875,-15.029296875
-4.130859375,18.544921875,-11.689453125,2.548828125,27.59765625,-14.94140625
-4.130859375,18.544921875,-11.513671875,2.548828125,27.24609375,-14.94140625
-4.130859375,18.544921875,-11.162109375000002,2.548828125,26.982421875,-14.94140625
-4.130859375,18.544921875,-10.986328124999998,2.548828125,26.982421875,-15.029296875
-4.130859375,18.544921875,-10.8984375,2.548828125,26.718749999999996,-14.94140625
-4.130859375,18.544921875,-10.634765625,2.548828125,26.630859375,-15.029296875
-4.130859375,18.544921875,-10.107421875000002,2.548828125,26.191406250000004,-15.029296875
-4.130859375,18.544921875,-9.4921875,2.548828125,25.751953125,-14.94140625
-4.130859375,18.544921875,-8.876953125,2.548828125,25.048828125000004,-14.94140625
-4.130859375,18.544921875,-8.349609375,2.548828125,24.433593749999996,-15.029296875
-4.130859375,18.544921875,-7.734374999999999,2.548828125,24.082031250000004,-15.029296875
-4.21875,18.544921875,-7.55859375,2.548828125,23.5546875,-14.94140625
-4.21875,18.544921875,-7.55859375,2.548828125,23.5546875,-15.029296875
-4.21875,18.80859375,-7.646484374999999,2.548828125,23.466796875,-15.029296875
-4.21875,19.423828125,-7.998046875,2.548828125,23.5546875,-15.029296875
-4.306640624999999,20.0390625,-8.613281249999998,2.6367187499999996,23.5546875,-14.94140625
-4.306640624999999,20.654296875,-9.228515625,2.6367187499999996,23.5546875,-15.029296875
-4.306640624999999,21.181640625000004,-9.755859375,2.6367187499999996,23.642578125,-14.94140625
-4.39453125,21.26953125,-9.931640625,2.6367187499999996,23.642578125,-14.94140625
-4.21875,21.26953125,-9.931640625,2.548828125,23.642578125,-14.94140625
-3.779296875,21.005859375,-9.931640625,2.373046875,23.642578125,-14.94140625
-3.076171875,20.7421875,-9.931640625,2.197265625,23.642578125,-14.94140625
-2.548828125,20.478515625,-9.84375,1.9335937499999998,23.642578125,-14.94140625
-1.9335937499999998,20.214843750000004,-9.4921875,1.4941406250000002,23.642578125,-14.94140625
-1.3183593749999998,19.86328125,-9.140625000000002,1.1425781250000002,23.642578125,-14.94140625
-0.87890625,19.775390625,-8.701171875,0.7910156249999999,23.642578125,-14.94140625
-0.17578125,19.248046875,-8.4375,0.439453125,23.642578125,-14.94140625
0.3515625,19.072265625,-8.173828124999998,0.17578125,23.642578125,-14.94140625
0.87890625,18.80859375,-7.822265625000001,-0.263671875,23.642578125,-14.94140625
1.4941406250000002,18.45703125,-7.55859375,-0.439453125,23.642578125,-14.94140625
2.109375,18.193359375,-7.119140625,-0.87890625,23.642578125,-14.94140625
2.548828125,17.9296875,-6.767578125,-1.1425781250000002,23.642578125,-15.029296875
3.076171875,17.666015625,-6.328124999999999,-1.5820312499999998,23.5546875,-14.94140625
3.6914062500000004,17.226562499999996,-5.976562500000001,-1.9335937499999998,23.5546875,-15.029296875
3.9550781250000004,17.05078125,-5.712890624999999,-2.109375,23.5546875,-15.029296875
4.130859375,17.05078125,-5.712890624999999,-2.197265625,23.5546875,-15.029296875
4.04296875,16.69921875,-5.712890624999999,-2.197265625,23.642578125,-15.029296875
4.130859375,16.435546875,-5.712890624999999,-2.197265625,24.082031250000004,-15.029296875
4.130859375,16.171875,-5.888671875,-2.197265625,24.697265624999996,-15.029296875
4.04296875,15.908203125,-6.15234375,-2.197265625,25.400390625,-15.029296875
3.9550781250000004,15.644531250000002,-6.416015625,-2.197265625,25.83984375,-14.94140625
3.9550781250000004,15.380859375,-6.767578125,-2.197265625,26.455078125,-15.029296875
3.8671874999999996,15.1171875,-7.03125,-2.2851562500000004,27.158203125,-15.029296875
3.8671874999999996,14.677734375,-7.382812500000001,-2.2851562500000004,27.59765625,-15.029296875
3.8671874999999996,14.589843750000002,-7.55859375,-2.2851562500000004,28.125,-14.94140625
3.8671874999999996,14.501953124999998,-7.646484374999999,-2.2851562500000004,28.300781249999996,-15.029296875
3.779296875,14.414062499999998,-7.734374999999999,-2.373046875,28.388671875,-15.029296875
3.6035156249999996,14.414062499999998,-7.734374999999999,-2.2851562500000004,28.388671875,-15.029296875
2.9882812500000004,14.414062499999998,-7.734374999999999,-2.109375,28.388671875,-15.029296875
2.2851562500000004,14.414062499999998,-7.822265625000001,-1.5820312499999998,28.564453124999996,-15.029296875
1.7578125,14.414062499999998,-7.822265625000001,-1.3183593749999998,28.564453124999996,-15.029296875
1.23046875,14.414062499999998,-7.910156250000001,-0.87890625,28.564453124999996,-15.029296875
0.615234375,14.414062499999998,-7.910156250000001,-0.439453125,28.564453124999996,-15.029296875
0.087890625,14.414062499999998,-7.910156250000001,-0.087890625,28.564453124999996,-15.029296875
-0.52734375,14.501953124999998,-7.910156250000001,0.263671875,28.564453124999996,-15.029296875
-1.1425781250000002,14.414062499999998,-7.910156250000001,0.615234375,28.564453124999996,-15.029296875
-1.6699218749999998,14.501953124999998,-7.910156250000001,0.9667968749999999,28.564453124999996,-15.029296875
-2.197265625,14.501953124999998,-7.998046875,1.3183593749999998,28.564453124999996,-15.029296875
-2.8125,14.501953124999998,-7.910156250000001,1.6699218749999998,28.564453124999996,-15.029296875
-3.4277343749999996,14.501953124999998,-7.998046875,1.9335937499999998,28.564453124999996,-15.029296875
-3.779296875,14.414062499999998,-7.998046875,2.197265625,28.564453124999996,-15.029296875
-3.779296875,14.414062499999998,-7.998046875,2.2851562500000004,28.564453124999996,-14.94140625
-3.8671874999999996,14.414062499999998,-7.910156250000001,2.2851562500000004,28.4765625,-14.94140625
-3.8671874999999996,14.501953124999998,-7.734374999999999,2.373046875,27.685546875000004,-14.94140625
-3.9550781250000004,14.414062499999998,-7.294921875000001,2.373046875,27.0703125,-15.029296875
-4.04296875,14.414062499999998,-6.591796875,2.373046875,26.455078125,-14.94140625
-4.04296875,14.414062499999998,-5.888671875,2.373046875,26.3671875,-15.029296875
-4.04296875,14.414062499999998,-5.361328124999999,2.373046875,25.400390625,-14.94140625
-4.04296875,14.414062499999998,-4.833984375,2.373046875,24.873046875,-15.029296875
-4.04296875,14.414062499999998,-4.21875,2.2851562500000004,24.345703125,-14.94140625
-4.04296875,14.414062499999998,-3.6914062500000004,2.373046875,23.994140625,-14.94140625
-4.04296875,14.414062499999998,-3.1640624999999996,2.373046875,23.203125000000004,-14.94140625
-3.9550781250000004,14.414062499999998,-2.724609375,2.373046875,22.763671875,-15.029296875
-4.04296875,14.414062499999998,-2.724609375,2.373046875,22.763671875,-15.029296875
-4.04296875,14.589843750000002,-2.724609375,2.373046875,22.851562499999996,-15.029296875
-4.04296875,15.029296875,-3.1640624999999996,2.373046875,22.851562499999996,-15.029296875
-4.130859375,15.732421875,-3.9550781250000004,2.4609375,22.851562499999996,-15.029296875
-4.04296875,16.347656249999996,-4.482421875,2.4609375,22.851562499999996,-15.029296875
-4.04296875,16.787109375,-5.009765625,2.4609375,22.939453124999996,-15.029296875
-4.04296875,16.962890625,-5.185546875,2.4609375,22.939453124999996,-15.029296875
-4.130859375,16.962890625,-5.273437499999999,2.4609375,22.939453124999996,-15.029296875
-4.130859375,16.962890625,-5.361328124999999,2.4609375,23.02734375,-15.029296875
-4.130859375,16.962890625,-5.361328124999999,2.4609375,23.02734375,-15.029296875
-4.130859375,16.962890625,-5.361328124999999,2.4609375,23.02734375,-15.029296875
-4.130859375,16.962890625,-5.361328124999999,2.4609375,23.02734375,-15.029296875
-4.04296875,16.962890625,-5.361328124999999,2.4609375,23.02734375,-15.029296875
-4.04296875,16.962890625,-5.361328124999999,2.4609375,23.02734375,-15.029296875
-4.04296875,16.962890625,-5.273437499999999,2.4609375,22.851562499999996,-14.94140625
-4.04296875,16.875,-5.185546875,2.373046875,21.357421875,-14.94140625
-3.9550781250000004,16.69921875,-4.74609375,2.2851562500000004,20.390625,-14.94140625
-3.9550781250000004,16.435546875,-3.9550781250000004,2.2851562500000004,18.984375,-14.94140625
-3.779296875,16.171875,-3.251953125,2.197265625,17.138671875,-14.94140625
-3.515625,15.820312500000002,-2.548828125,2.109375,15.380859375,-14.94140625
-3.3398437499999996,15.556640625000002,-1.8457031250000002,2.021484375,13.710937499999998,-14.94140625
-3.1640624999999996,15.292968749999998,-1.1425781250000002,1.9335937499999998,11.77734375,-14.94140625
-2.9882812500000004,15.029296875,-0.17578125,1.8457031250000002,10.107421875000002,-15.029296875
-2.8125,14.765625000000002,0.439453125,1.8457031250000002,8.349609375,-14.94140625
-2.724609375,14.414062499999998,1.1425781250000002,1.7578125,6.679687499999999,-14.94140625
-2.6367187499999996,14.0625,2.021484375,1.7578125,4.74609375,-15.029296875
-2.373046875,13.798828125,2.8125,1.6699218749999998,3.076171875,-14.94140625
-2.2851562500000004,13.623046875,3.515625,1.5820312499999998,1.3183593749999998,-15.029296875
-2.197265625,13.359374999999998,4.306640624999999,1.5820312499999998,-0.439453125,-14.94140625
-2.021484375,13.0078125,5.009765625,1.4941406250000002,-2.109375,-14.94140625
-1.8457031250000002,12.83203125,5.712890624999999,1.40625,-3.8671874999999996,-14.94140625
-1.7578125,12.48046875,6.416015625,1.3183593749999998,-5.537109375,-14.94140625
-1.4941406250000002,12.12890625,7.207031249999999,1.1425781250000002,-7.470703125,-14.94140625
-1.40625,11.865234375,7.910156250000001,1.1425781250000002,-8.96484375,-14.94140625
-1.23046875,11.601562500000002,8.613281249999998,1.0546875,-10.634765625,-14.94140625
-1.0546875,11.425781249999998,9.31640625,0.9667968749999999,-12.48046875,-14.94140625
-0.9667968749999999,11.07421875,10.1953125,0.87890625,-14.414062499999998,-14.94140625
-0.7910156249999999,10.810546875,10.8984375,0.7910156249999999,-15.908203125,-14.94140625
-0.615234375,10.546874999999998,11.601562500000002,0.615234375,-17.75390625,-14.94140625
-0.439453125,10.283203125,12.216796874999998,0.615234375,-19.3359375,-14.94140625
-0.3515625,10.107421875000002,13.0078125,0.439453125,-21.005859375,-15.029296875
-0.263671875,9.931640625,13.271484375,0.439453125,-21.708984374999996,-14.94140625
-0.263671875,9.755859375,13.623046875,0.3515625,-22.939453124999996,-14.94140625
-0.17578125,9.580078124999998,14.0625,0.3515625,-23.818359374999996,-15.029296875
-0.087890625,9.580078124999998,14.326171875,0.263671875,-24.082031250000004,-15.029296875
-0.087890625,9.580078124999998,14.326171875,0.263671875,-24.082031250000004,-15.029296875
-0.087890625,9.580078124999998,14.326171875,0.263671875,-24.082031250000004,-15.029296875
-0.087890625,9.580078124999998,14.326171875,0.263671875,-24.082031250000004,-15.029296875
-0.087890625,9.580078124999998,14.326171875,0.263671875,-24.082031250000004,-15.029296875
-0.087890625,9.580078124999998,14.326171875,0.263671875,-24.082031250000004,-15.029296875
-0.087890625,9.4921875,14.326171875,0.263671875,-24.082031250000004,-15.029296875
-0.087890625,9.4921875,14.326171875,0.263671875,-24.082031250000004,-14.94140625
0.0,9.4921875,14.326171875,0.263671875,-24.082031250000004,-15.029296875
-0.087890625,9.4921875,14.326171875,0.263671875,-24.082031250000004,-15.029296875
-0.087890625,9.4921875,14.326171875,0.263671875,-24.082031250000004,-15.029296875
