RAMEL-ESPOL/ARCHIE/matlab/data/joint_goals_square_t35_h35_p12.txt
Joint0,Joint1,Joint2,Joint3,Joint4,Joint5 
0.005253332960689896,9.57805229130018,14.252902807349864,0.0007044195843943085,-23.823734645227184,-0.005476085141835116
0.005253332960689896,9.57805229130018,14.252902807349864,0.0007044195843943085,-23.823734645227184,-0.005476085141835116
0.005253332960689896,9.57805229130018,14.252902807349864,0.0007044195843943085,-23.823734645227184,-0.005476085141835116
0.005253332960689896,9.57805229130018,14.252902807349864,0.0007044195843943085,-23.823734645227184,-0.005476085141835116
0.005253332960689896,9.57805229130018,14.252902807349864,0.0007044195843943085,-23.823734645227184,-0.005476085141835116
0.005253332960689896,9.57805229130018,14.252902807349864,0.0007044195843943085,-23.823734645227184,-0.005476085141835116
0.005253332960689896,9.57805229130018,14.252902807349864,0.0007044195843943085,-23.823734645227184,-0.005476085141835116
0.005253332960689896,9.57805229130018,14.252902807349864,0.0007044195843943085,-23.823734645227184,-0.005476085141835116
0.005253332960689896,9.57805229130018,14.252902807349864,0.0007044195843943085,-23.823734645227184,-0.005476085141835116
0.005253332960689896,9.57805229130018,14.252902807349864,0.0007044195843943085,-23.823734645227184,-0.005476085141835116
0.005253332960689896,9.57805229130018,14.252902807349864,0.0007044195843943085,-23.823734645227184,-0.005476085141835116
0.005253332960689896,9.57805229130018,14.252902807349864,0.0007044195843943085,-23.823734645227184,-0.005476085141835116
0.005253332960689896,9.57805229130018,14.252902807349864,0.0007044195843943085,-23.823734645227184,-0.005476085141835116
0.005253332960689896,9.57805229130018,14.252902807349864,0.0007044195843943085,-23.823734645227184,-0.005476085141835116
0.005253332960689896,9.57805229130018,14.252902807349864,0.0007044195843943085,-23.823734645227184,-0.005476085141835116
0.005253332960689896,9.57805229130018,14.252902807349864,0.0007044195843943085,-23.823734645227184,-0.005476085141835116
0.005257624091381257,9.578061264287145,14.252881057774403,0.0007044297562137237,-23.82367984882867,-0.005471744800839176
0.023431063802312205,9.615979584084771,14.160876594491622,0.0006856059228048605,-23.59177089914203,0.012884994780312313
0.06413502076594342,9.700304808072062,13.95558421497587,0.00019710627453607707,-23.073501480012602,0.05382174766914804
0.10700372971908509,9.788223574008656,13.740512939863132,-0.000975108722936041,-22.52934322959485,0.09668218740927323
0.1500817396788324,9.875661585970667,13.525546234563095,-0.002821586955725235,-21.9842061340137,0.13950510970056768
0.19307524494647607,9.962029112558756,13.312133180585013,-0.0053219101549934235,-21.441764222647056,0.18201226842572804
0.23634533194948595,10.048055769011684,13.098467451516347,-0.008491214275678224,-20.897422460424487,0.22457370204619206
0.27972809917087715,10.133413459438664,12.885352649261316,-0.012316572079644629,-20.353215362438178,0.2670394872873162
0.3233109149994847,10.21827398904225,12.672351208018556,-0.01680340004797023,-19.808015895204566,0.3095069108796808
0.36688708353165417,10.302238171931092,12.460460892522253,-0.021925908206421242,-19.264373293200443,0.35178692371358744
0.4109909810965828,10.386328743450973,12.247083289246207,-0.027749926561256105,-18.715601310866557,0.3944083197656742
0.45519305710533464,10.469716465496699,12.034300572073557,-0.03422430339636796,-18.16703042116988,0.43696573734613836
0.4994664797108617,10.55235397932399,11.822229627477535,-0.0413411960096168,-17.6189576002636,0.4794455658810563
0.544174590254034,10.634912447114164,11.609130024152966,-0.04916263631343707,-17.066864975682613,0.5222069743047979
0.5886209636466088,10.71610858269939,11.398309763199519,-0.057563658805492024,-16.51931796949422,0.5645958023854517
0.6333011619496982,10.7968560657855,11.187400265645547,-0.0666310006138529,-15.970168899553995,0.6070973004181874
0.6781351513503515,10.877006039917354,10.97677610926774,-0.0763506373753281,-15.420377553402593,0.6496462312441785
0.7230557939065778,10.956438536987344,10.766744567597446,-0.08670739650717703,-14.870737306336585,0.6921902679212464
0.7681735441330008,11.035347376373151,10.556782878404011,-0.09772742309430213,-14.31986899677567,0.7348452497335375
0.8133060112444606,11.113413855919587,10.347731535955704,-0.1093657809531002,-13.769969663056653,0.777450083407096
0.8583542893825283,11.19047514852695,10.140031534820642,-0.12159113861212423,-13.222204437805669,0.8199231981715192
0.9036791663906777,11.267148879028747,9.932011130981294,-0.13450130583063347,-12.672156816994463,0.8626159786902771
0.9490729396038284,11.343079608656403,9.724620371658114,-0.14804042347654536,-12.122323785677384,0.9053437687684153
0.9946537603536164,11.418463242650459,9.517313646155062,-0.16224556940924104,-11.57124766169578,0.9482289333684749
1.0402003219639722,11.492934723161307,9.311088818651069,-0.17704790983859875,-11.021574543536994,0.9910744360796256
1.085665510190159,11.566425295603201,9.106142742610428,-0.19242724938831596,-10.473835487798882,1.0338470902959822
1.1313498762795888,11.639421785615793,8.90111206287557,-0.20848573441449847,-9.924380674104784,1.076840718099117
1.1772352163673607,11.711887986073604,8.696078615212567,-0.22522344998589813,-9.37340901294935,1.120049456427084
1.2231250490874905,11.783512370028562,8.491914261872425,-0.2425712085013232,-8.823253459827084,1.1632994763682165
1.2688953516639039,11.854108768830052,8.289155757259323,-0.26047861218338786,-8.27536609821812,1.2064846404009109
1.3149475267731947,11.924295825207667,8.086018182092594,-0.27910505866874036,-7.724915350644103,1.2499948475073204
1.3610962323972877,11.993784520124258,7.883318618491839,-0.2983825171384347,-7.17409582827953,1.293666646028469
1.4071933812470319,12.062354298954457,7.681697900213587,-0.3182497827623044,-6.62464604848976,1.3373708941588762
1.453286985710168,12.130081547419282,7.48093395729332,-0.33872654578891936,-6.07596282993343,1.3811638135517772
1.4995494854117175,12.197218400423933,7.280269963044343,-0.3598931348950539,-5.525968257920032,1.425220618081853
1.5458634673435598,12.263591591290433,7.0802111146681685,-0.38170097077637805,-4.976034437478115,1.4694411502151379
1.592027580623753,12.328918141106096,6.881614819807404,-0.404054352529039,-4.428521956684721,1.513643665213288
1.6386197132555915,12.394011075235255,6.681992815423846,-0.4272400838147551,-3.8765547661739235,1.5583936575462396
1.6850880201494638,12.45809376395561,6.483708169875659,-0.4509914445503375,-3.326648999346365,1.603173521724607
1.731366543042879,12.52108614628183,6.287025167197778,-0.47527041811964293,-2.77955225542037,1.6479292064513187
1.778113380646534,12.583878807122067,6.089145181063221,-0.5004303023264005,-2.2274628299881374,1.693309798067762
1.8245870712284158,12.645472639705977,5.893203227251607,-0.5260787365691486,-1.679114623690025,1.7386078013798816
1.8711594094108515,12.706367036852338,5.697618997398857,-0.5524203911511865,-1.1300919302619117,1.7841958821060437
1.9179312773726662,12.766687684503095,5.501968133887802,-0.579521916244855,-0.5791844664832803,1.8301861301246547
1.9646176592759959,12.826065636249474,5.307437724369213,-0.6072242543413108,-0.029725624558623136,1.8763105994815057
2.0114291406212916,12.88476919919309,5.113143497480907,-0.6356572736004581,0.5207875906999101,1.9227893201729451
2.0581378070676517,12.942513332648389,4.920024432185054,-0.6646874327906379,1.0696992761444974,1.9694079448281423
2.1049067194992026,12.999501900957421,4.727398061771753,-0.6944200131646913,1.6189506009379466,2.0163408318652642
2.1516594081582925,13.055641679206863,4.535573222772668,-0.724812420541019,2.1676670775932867,2.0635236330357856
2.1985420582202995,13.111106134380675,4.343945835074543,-0.7559676182281714,2.7175870370366133,2.111117095366483
2.245359609177754,13.16566347924181,4.153308031703267,-0.7877633249136023,3.266445326321844,2.1589362172020854
2.2923551792102574,13.21959477001058,3.9626657930867646,-0.820373320317476,3.817114466674559,2.2072429996477996
2.3391613297239022,13.272479155906787,3.7735030378870626,-0.8535490045880894,4.365312116815269,2.255672422855343
2.38611458786566,13.32469834013245,3.5844525742438713,-0.887535004237521,4.915002863810511,2.3045852913025002
2.433138498617141,13.376161847668602,3.3958210253444903,-0.9222882492612646,5.465312701559588,2.3539175127470577
2.4801735992337086,13.426802475222502,3.20784292042218,-0.9577745726338293,6.015567640863284,2.403621182448258
2.527101681723002,13.476495586911394,3.020982774176876,-0.9939107232797324,6.564407499279111,2.453583982170048
2.5741113402978693,13.52544141190336,2.8344835497689,-1.0308499966299018,7.114059994995195,2.5040204121995204
2.621044821237795,13.573475355522474,2.648965804164571,-1.0684775575344345,7.662702241400541,2.554775495573842
2.668153120854294,13.620851269755173,2.463434330096665,-1.1070065504067377,8.213289499003844,2.606136544512986
2.715212676618766,13.667340520710066,2.2787671968325793,-1.1462671134042222,8.763229797324977,2.6578763685869444
2.7621946576383953,13.712917376318655,2.0950699234285723,-1.1862425029700459,9.312207614680814,2.709976716478756
2.80921330635248,13.757693085588592,1.911890144397921,-1.2270397159885726,9.86157881614336,2.7625791652843037
2.856333694848984,13.801724994825527,1.728972688782151,-1.268730172759864,10.412124330994143,2.815774512213999
2.9034059544021873,13.844870796477396,1.5468958607861247,-1.3111944053873497,10.962113692403197,2.869410588631955
2.9503970941967803,13.887102524103648,1.3657803344949753,-1.354411762290899,11.51118176253703,2.923464447474246
2.997433041750906,13.928533262828127,1.1851357138950256,-1.3985098560346254,12.060820081713198,2.978097288951915
3.044341068568638,13.969011800639525,1.0056196371080242,-1.4433378794985248,12.609030018130312,3.0331244422935
3.0920069820666565,14.009284059845262,0.8238510548864362,-1.48977389843975,13.166185574403658,3.0896143383988086
3.139273915288396,14.048361380911778,0.644244986395414,-1.5367156933126926,13.718785483604293,3.146221122046942
3.1867754470745875,14.086770442153465,0.46438679240508285,-1.584803308701651,14.274256443696965,3.2037197896668026
3.234467952807629,14.124462555641957,0.28444661407555527,-1.6340212224784476,14.832110139635992,3.2620858169864895
3.28170851168929,14.160934889057502,0.10684139851233797,-1.6837150446327447,15.384844866240567,3.3205475223807643
3.3291109654966675,14.196667306249177,-0.0707457868501876,-1.734539294617059,15.939660837492967,3.379879510194316
3.376661307517807,14.231638647531092,-0.24825954944894715,-1.786506652253372,16.496415456692528,3.4400924716581676
3.424168946214171,14.265703657259197,-0.42498943403190126,-1.8394310949844082,17.052897227977823,3.500969671419596
3.4714216899932713,14.298716106330826,-0.6001549134543728,-1.8930864161245358,17.606637592135336,3.5622552251635846
3.5186763825876928,14.330860056118663,-0.7747159025798267,-1.9477763742684497,18.160663317088563,3.62429967765865
3.5660241014664655,14.362192246336296,-0.9490096516381398,-2.0036307465553866,18.716061809560614,3.6872490927894885
3.6133813862258903,14.392652081471729,-1.1227296054416807,-2.0605764428018385,19.271873633877824,3.751019902736727
3.660515184280456,14.422092949773095,-1.2950274635358336,-2.1183486107806884,19.825379914784353,3.8153182984332994
3.707791903067338,14.450743049343078,-1.4672464434172217,-2.1774173798958207,20.380901034231268,3.8806684995438254
3.75506920387307,14.478509321558333,-1.6388676055252298,-2.237634531335279,20.936784160526326,3.9469048333784635
3.802143419621867,14.505274864665632,-1.8091575863926828,-2.298758724797717,21.490650271325702,4.013764252879098
3.848314476646638,14.530669415136241,-1.9756065194582781,-2.359865746385277,22.03426666963258,4.080248619854283
3.8740852223514763,14.544473280470347,-2.0682648943600466,-2.3944802722458,22.337858929841943,4.117758680499279
3.885388225902668,14.550443753026569,-2.108849094450182,-2.4097783336408702,22.471053002384778,4.1343029179966395
3.876307531437404,14.46448067608954,-2.2140935070500642,-2.408028282574634,22.66931639233931,4.1336222705270655
3.8503904759288483,14.231886530217874,-2.4823600929021477,-2.4008140906164703,23.170799629641575,4.128939748465722
3.8233418874668588,13.980242114091062,-2.7607813713825404,-2.3935580967483303,23.701510083408294,4.1242424114741105
3.7965327902323494,13.721560219151336,-3.035002900523741,-2.3866521612734926,24.235047490069295,4.1197872738932615
3.773658850433983,13.493320650203746,-3.267476327734232,-2.380993234090226,24.696297338903467,4.116151541671136
3.7642794649815774,13.397678744420082,-3.3623748785800105,-2.378736690882341,24.887056829340434,4.114706371343353
3.7574823779834614,13.327609991855185,-3.430984262200195,-2.3771250819991767,25.02589329114254,4.11367607959264
3.73530829575055,13.094522533463309,-3.653820122996305,-2.3720084437962883,25.48233072590988,4.110416644327624
3.709694390353019,12.816501148269914,-3.909225773854878,-2.366373865339463,26.016347009590525,4.106851940764245
3.6844331099372276,12.532809762865233,-4.158847337625525,-2.361117177484573,26.55023613923863,4.103556401964763
3.660436095030487,12.254305443063062,-4.393721799629294,-2.35641043765664,27.064157607131097,4.100637848787039
3.64878464321112,12.115833612658143,-4.506919777950252,-2.3542291258845442,27.316089243650744,4.099298174251751
3.643274843598826,12.050319078165002,-4.564379996146408,-2.353294510159732,27.439184547932395,4.098840596330795
3.656015473102697,12.274243816753781,-4.847926917516895,-2.362785019672333,27.49823640491687,4.115831095410607
3.68250531553794,12.73507971505861,-5.4289821318191285,-2.3824762525651253,27.61726492718543,4.151052151763162
3.711097997915155,13.225494260139284,-6.043646238209789,-2.40366816138661,27.740221619237204,4.1889117668889
3.740234788118945,13.717987701541023,-6.657070486104315,-2.425196324082874,27.859826928483812,4.22732576389867
3.770012653772769,14.213983570628162,-7.270940313969478,-2.447127960584129,27.97633789152665,4.266413802649338
3.800304727218684,14.711172613122088,-7.882320886601594,-2.4693652671543935,28.089134284319478,4.3060014249981675
3.831315674278264,15.21269739247941,-8.494989245273032,-2.492053780194075,28.198840669699955,4.346347468551468
3.8631439551737334,15.719831502484405,-9.110358804829007,-2.5152596111903867,28.30559167636916,4.387568659527305
3.8955706008394615,16.228820861207677,-9.723761915808618,-2.53881757348267,28.408483366576963,4.429371079427738
3.928571459856311,16.739114166599546,-10.334474081476756,-2.562705459267424,28.507343197614325,4.471715376654372
3.9625869720343303,17.257213325770525,-10.950141633781143,-2.5872357130310393,28.60329410890394,4.515154695731245
3.9969116888594987,17.77216441799451,-11.557669083675556,-2.6118942628737862,28.69422751527711,4.558778541408473
4.031517766770042,18.28359574319214,-12.156684064264711,-2.6366587919285847,28.78014386111479,4.602548637853912
4.0559510911055705,18.640137939779287,-12.5717052544803,-2.6540855511817987,28.837439111625006,4.633325734390688
4.037504876856931,18.711834439145996,-12.654194128191376,-2.64232032588113,28.849069200248575,4.612976484141813
3.6763570168612834,18.732876097740828,-12.668112408173474,-2.4063340928319903,28.85779958448071,4.20298615969589
3.114833586451964,18.761654478879887,-12.687132184759358,-2.03919567233185,28.86969558593224,3.5654509941188772
2.5389848065075644,18.786203224282684,-12.703351725629348,-1.662455687432923,28.87988395226012,2.9115788638155005
1.967542466803441,18.805606287741462,-12.716162539499697,-1.2884044820355136,28.887914996146307,2.26264923317313
1.3939211722308833,18.820126791611003,-12.725748547637803,-0.9127773656833877,28.893945788896062,1.6111989907112105
0.8227326949514059,18.82965777993565,-12.732038437538572,-0.5386374500051231,28.897899328664916,0.9624785890057866
0.24911322897011495,18.83428562704808,-12.73509445561089,-0.1628421010607378,28.899837330745182,0.3109777383175123
-0.32415091925872974,18.833962099382564,-12.73487943434099,0.21273862680813643,28.89968691052949,-0.3401253757620083
-0.8992469446003938,18.82866824104446,-12.731388588740547,0.58949586157043,28.89750494569784,-0.993301630806498
-1.4724176521555867,18.818435684111968,-12.724633965050716,0.9649214278431543,28.893241083369418,-1.6442692244058066
-2.0430907758981602,18.803328448037075,-12.71466360360942,1.338601548756314,28.886988697364572,-2.2923662480933427
-2.620549727002186,18.78303640327051,-12.701262159259347,1.7165652251653751,28.878559511397974,-2.9481197461775306
-3.1891137986953506,18.75812893229112,-12.68480931647098,2.0885116830873334,28.868257067560688,-3.593711916284407
-3.7381410752747275,18.729424622678426,-12.665834030370922,2.4474475006857257,28.856361018601824,-4.217048482857115
-4.038417249571386,18.71178800497622,-12.654174159460027,2.643653924552138,28.849094485290436,-4.557934396619254
-4.0630977293849675,18.71654512377773,-12.532888253457363,2.6565518758415543,28.722053603938495,-4.579254977481343
-4.071309950904168,18.73683477929244,-12.07073779279011,2.6497760946395283,28.2397526949049,-4.563123037300564
-4.080643950699933,18.753806767297586,-11.543679772946131,2.6424800316020303,27.695874788429062,-4.545166061116755
-4.09007555287444,18.764529215691667,-11.009252139311942,2.6355296805114246,27.15087208532925,-4.5274129551044
-4.099555483006352,18.768954354908008,-10.470268436758452,2.6289551745130684,26.607605287926226,-4.50994799956701
-4.109093116912039,18.767136353082595,-9.926228512618328,2.6227415014983824,26.065520409330876,-4.492743257345439
-4.1185923072347945,18.759226910371044,-9.382672384097107,2.616937918643578,25.530004649095805,-4.475957075642982
-4.128098283115387,18.745366900345395,-8.837079119395154,2.6115010609296028,24.998397121591662,-4.459492373996454
-4.137527970640073,18.72588382915043,-8.294290082423567,2.6064615334723213,24.475210895700858,-4.44347496322757
-4.146966379882782,18.700801435073885,-7.749482010667564,2.601757923146864,23.95560034393917,-4.427743317740749
-4.156043656867904,18.671534783006518,-7.2241348566834445,2.5975450310162223,23.459626316735854,-4.412885142186914
-4.160275777477876,18.656537780631258,-6.980161712365314,2.5957030554646106,23.230697349032408,-4.406098487380473
-4.176454874531907,18.883251178315536,-7.241210489875276,2.6064418583248052,23.264278494285254,-4.425021560993919
-4.212037730850179,19.376280477335904,-7.806062571977213,2.6300083361385744,23.334434582418492,-4.466503220986026
-4.250830926392872,19.905271694593672,-8.407771517772794,2.6556208908659675,23.405322898145094,-4.51151740330219
-4.290675775545758,20.439642098311687,-9.01101989873349,2.6818414254495924,23.47230850683165,-4.557527716760686
-4.331055270778917,20.972217341425313,-9.607650055624534,2.708325284592463,23.534431896763223,-4.603927756034478
-4.360639493927483,21.356849829138053,-10.035685968206408,2.72767272639355,23.576411416320756,-4.6377798317443215
-4.344777035343823,21.412224337644847,-10.096527984560705,2.71789164105924,23.582612705968263,-4.62111121020398
-4.002009334411384,21.17092595825308,-9.819475007726503,2.503329779959553,23.56221967931216,-4.253031759686303
-3.481021325446116,20.79771414915555,-9.390687009965394,2.17717331509123,23.52754227376207,-3.6938929218054866
-2.960110836678478,20.416597525109353,-8.95240850205067,1.8510651385041672,23.488356236175544,-3.1352678119913615
-2.4350040207677486,20.02413624634963,-8.500575285952747,1.5223786086943731,23.44415231813013,-2.572635350059393
-1.9166328305308895,19.628337270224087,-8.044301489761567,1.1980053507073405,23.395744909129398,-2.0177644786420776
-1.4090015655382437,19.23245391170965,-7.587258411525535,0.880494042162715,23.343607933233596,-1.4749734946217243
-0.9020874059554207,18.828720426924068,-7.12039108196954,0.5636184552731145,23.286728954034313,-0.9335865266078398
-0.39881119918902264,18.41933698438178,-6.646137750861202,0.2492497268119706,23.22534901935214,-0.3967778690705278
0.10241599754552343,18.00291382178357,-6.1627824284643244,-0.0635607478141398,23.159204385294302,0.137093947649474
0.5277751587244444,17.642518363768854,-5.743640293724578,-0.32876803137238014,23.099022178583756,0.5895164560181678
0.7248844705206365,17.473285766330115,-5.546549127879405,-0.45157816832693465,23.069858883074,0.7989592603991732
1.165065490386883,17.09015661662044,-5.099674640433658,-0.7256091225497905,23.00168255785743,1.2661608606252954
1.6628464976698647,16.64803948552757,-4.582793385687166,-1.035095379603045,22.919438147797646,1.793591301276462
2.1525529111242023,16.203656178697248,-4.061902985686113,-1.3390958236222952,22.83301816713224,2.311452335093756
2.6327516386764462,15.758532844843787,-3.538720361623461,-1.6366978170250253,22.742787060142113,2.8182062639611796
3.100723356584266,15.3155459321736,-3.016578926386184,-1.9262036774409148,22.6494434983526,3.310978824688772
3.558062112744416,14.87358830477414,-2.4941425691105654,-2.2086023976470064,22.552916212090835,3.791466438498005
3.855035621833646,14.581687312109434,-2.148233543825796,-2.3916652246630377,22.487293665194322,4.102840276266333
3.8817237964647213,14.51204579607748,-2.157880171922068,-2.409572816702658,22.565421565224394,4.134631348882971
3.8586457750377305,14.306852188639908,-2.397081196483829,-2.403090035483759,23.01037158515343,4.130421158328408
3.8313262073140293,14.055473020265536,-2.678789449082495,-2.395675670937062,23.544111762875595,4.125617026590218
3.8044018548704663,13.79845098883755,-2.954719087526183,-2.3886544055680066,24.077701652565164,4.121082358669239
3.7787094534974703,13.544311699524881,-3.216286362922781,-2.3822291865892913,24.594012419122596,4.116949499833811
3.765851848951925,13.413784784622974,-3.346498711812032,-2.3791176893741053,24.855052254888832,4.114955390685269
3.759396705621494,13.34739698421385,-3.4116897114730955,-2.3775822882820092,24.986781499153953,4.113973420694905
3.7427182069849354,13.1731758992346,-3.57954110282397,-2.3736993395675237,25.329241256215663,4.111496893575452
3.7171028422459913,12.897887605097333,-3.8355955985514805,-2.367977891812899,25.861174772323267,4.107868894159413
3.6917580093843414,12.616049408030047,-4.0867192298379,-2.3626153507261916,26.394716140088057,4.104497382227562
3.6669130919593793,12.330348231812673,-4.330562905918434,-2.3576579483749485,26.92482421759641,4.101413130241536
3.650386740828335,12.134993933547026,-4.491397561313777,-2.354530203604083,27.28138508677045,4.099487721587208
3.643680549720423,12.054486836274958,-4.556335893100238,-2.3533006676957826,27.426980803279694,4.0987360402431365
3.4762512495898386,12.057737610533062,-4.568767538469629,-2.2455508209597523,27.442826492792204,3.9122682752105318
2.994418882388487,12.083152738520509,-4.587819125162884,-1.9346251044691467,27.453897535407556,3.3740450537680213
2.4503862231405,12.107280685821868,-4.605898233510384,-1.583362898435051,27.46441974779369,2.7662593517572684
1.905639232685216,12.12659556045862,-4.62036167445255,-1.2314644898497837,27.47281875053176,2.15760116287277
1.3639577344334088,12.141004628378305,-4.6311513897845575,-0.8814128445771169,27.479113121344845,1.5523140682009506
0.8211521145093622,12.150651159598093,-4.63837375502793,-0.530538408174486,27.483331554569062,0.9457307128032529
0.27781868035361823,12.155506577181994,-4.6420092747053046,-0.17926454743152173,27.485459898324002,0.3385332574271981
-0.2657429494542115,12.155559855055849,-4.642046856973234,0.1721759683059052,27.48546102780362,-0.26892842232231196
-0.8103287089337778,12.150796162529728,-4.638483010176236,0.5242603147892803,27.483391402261393,-0.87752573556045
-1.353730025270964,12.141233534542488,-4.631326460270772,0.8755217200564287,27.479228010277915,-1.4847756177505256
-1.898998792863872,12.126804598250304,-4.620521123511556,1.227892315986941,27.472912138146963,-2.0940726041535767
-2.4387910944655453,12.107746374673638,-4.606249183000739,1.576592386086818,27.464612031254244,-2.697194294293736
-2.983764511800441,12.0836773015187,-4.588217368291283,1.928466827518046,27.454134037532942,-3.3060330787962484
-3.4639872696249245,12.058438398809292,-4.5692998079818725,2.238358630431472,27.443148218810716,-3.8424603174311787
-3.643341138891045,12.048433208806182,-4.560448707691915,2.354016821245798,27.43716132912861,-4.042718420423924
-3.6504197448976847,12.113822997888379,-4.380787611906813,2.353376875322131,27.192028972957704,-4.039282646838361
-3.6656015131081796,12.249088199686788,-3.9943355908313336,2.3522378922569476,26.67013423318926,-4.032110248108876
-3.681397655340979,12.382775769023947,-3.5906948915215215,2.351380738675266,26.13261737652984,-4.024921435994258
-3.6973826412875357,12.510934004718251,-3.1807172267939485,2.3508413247905553,25.594286769130438,-4.0179180936242975
-3.7136000047092783,12.633824446705797,-2.763323791905778,2.3506188908939345,25.05380155356162,-4.011079130321763
-3.7299250625323683,12.750473867172262,-2.3417741099049634,2.3507133497284545,24.51539607718437,-4.004452976003824
-3.74639541844062,12.861183067091845,-1.915159685185062,2.351120601806205,23.977860647369837,-3.9980181208595984
-3.7630607551499455,12.966265398599715,-1.4822461567287273,2.3518401316138284,23.439646963165153,-3.991750926887579
-3.779996935053043,13.066105455179208,-1.0411031853300643,2.3528768758369085,22.89843911463497,-3.9856212374798488
-3.7955453015614107,13.151764844710575,-0.6351271220006739,2.354090450182216,22.406594332161436,-3.980196368849706
-3.802012743963794,13.185740671583968,-0.4659985712531254,2.354667053017013,22.203402085209635,-3.977994840899419
-3.8074387047384533,13.26506389176172,-0.5328043862941994,2.357810002699606,22.190677723634042,-3.983150407776004
-3.8310439642342327,13.655557626124814,-1.014996723455784,2.373948181264448,22.281347847657194,-4.0120966788168975
-3.8613454477730884,14.149926582270336,-1.6220907585824025,2.394617463422646,22.39274546463634,-4.049110129333492
-3.880449372494413,14.457720855539957,-1.998160632920594,2.4076215295994152,22.46017998236687,-4.072363533932636
-3.8859804639132793,14.54836759385015,-2.114634551656736,2.4114949855065952,22.4857573363104,-4.079378108307261
-3.870911324230002,14.415840791863365,-2.27110337207913,2.407218246020502,22.77511646769444,-4.076602301014878
-3.8440168529060346,14.172448137021243,-2.549209516632114,2.399795761157861,23.29726020488713,-4.071793295128237
-3.8169214596497665,13.918080500467047,-2.8277641368633644,2.39259938489142,23.83082716487633,-4.067144408093841
-3.790221034006766,13.658124353529656,-3.100490632739384,2.385795095764618,24.364140045548,-4.062765480699079
-3.7693507445117542,13.44830403899121,-3.312331512977026,2.380682227175948,24.78629029052421,-4.059488959079989
-3.7614138574336944,13.366948696578932,-3.392566146768965,2.378786474829267,24.94806541522054,-4.058277753236537
-3.7527169065058312,13.276799070014544,-3.480268135331298,2.3767405257887924,25.126119375317575,-4.056973114444081
-3.7290899161792175,13.026503196645496,-3.7173344621123805,2.371351095942185,25.614028434814596,-4.053550876085294
-3.7035482994710387,12.74685093507982,-3.971521357963311,2.3658105907418605,26.14845400118101,-4.050059365355644
-3.678402907677471,12.462040096319804,-4.219470273612666,2.3606569260604253,26.681786127003374,-4.046843095518198
-3.656053706486436,12.200691207461078,-4.437832463375785,2.3563696761927737,27.161993856642766,-4.04417520825944
-3.6465267114452216,12.086919210567986,-4.530271547520364,2.354604593550016,27.36841878113775,-4.043096009889665
-3.644486974041244,12.068991656444972,-4.588063259129319,2.3549027440269965,27.444157218675404,-4.044324197998308
-3.6619211968542538,12.37486018141947,-4.9750850193345215,2.367885090927176,27.52452952268507,-4.067562449492592
-3.689672905811321,12.85605184056451,-5.580965302920344,2.388500741709646,27.647969038825273,-4.104426653725917
-3.718415571445197,13.347258604747976,-6.19567747480317,2.409788046198052,27.770172961850545,-4.142445383251382
-3.747656076261999,13.839716923415534,-6.808101754814132,2.4313764029408436,27.888806812701255,-4.180955651858246
-3.7775755532491053,14.336268860644125,-7.421688740748911,2.453395151571904,28.004470418610413,-4.2201879451950175
-3.8079680314196955,14.833302035288176,-8.031898988521009,2.475688343250485,28.11624570755913,-4.259864266092472
-3.8392648296555283,15.337602693580209,-8.646949273527623,2.4985670878028836,28.225542761299167,-4.300537761320749
-3.871110536246462,15.843158141777993,-9.259382088493586,2.521765957213311,28.330932669180683,-4.341735918329509
-3.903631741617978,16.35178104254537,-9.871318700102707,2.5453723382067834,28.432717621313905,-4.383613830273914
-3.937047985967603,16.86659638230237,-10.486383243025536,2.569539361562044,28.53138578395184,-4.4264424338914905
-3.971051820256099,17.38259723953445,-11.098480255207376,2.5940387126786955,28.62586253119585,-4.469816623765472
-4.00557140729948,17.8985626133626,-11.706127061018954,2.618814184502436,28.715889148534245,-4.513637168077985
-4.039349374493225,18.396013315844602,-12.287778407992887,2.642964426474798,28.798460010319094,-4.556312447969422
-4.0589332299910215,18.68114879625992,-12.619315515549365,2.656924270462376,28.843911974410602,-4.5809634020800605
-4.062542878646126,18.714995024413728,-12.56392218869561,2.657004752323228,28.754601968488522,-4.580334113949801
-4.070274468018497,18.734558378446128,-12.128955871170858,2.6505947230586213,28.300203821358995,-4.5651175427606
-4.079529719189826,18.75211813166108,-11.606557979836804,2.6433119625771893,27.760397717374502,-4.547267225746185
-4.085406527683771,18.760019520951943,-11.273909231825188,2.6389016389428126,27.419940594424716,-4.536131751161081
-4.089606938867622,18.764146661419574,-11.035713127688819,2.6358485976030126,27.17768235405796,-4.528264523631616
-4.093095845916964,18.766622374379313,-10.837592156689615,2.6333744508095682,26.97713874877154,-4.521786839914667
-4.096174342757757,18.768096012921657,-10.662573979238534,2.631237199196513,26.800693091311697,-4.51611329814781
-4.097942804156654,18.768643214284296,-10.56194859743121,2.6300286768949643,26.699546741428193,-4.5128717402238365
-4.101777463221556,18.769085461764373,-10.343545691702776,2.6274558045511456,26.480757773572794,-4.505886470406126
-4.110538149143404,18.76631886740457,-9.843516096592836,2.621818013265583,25.983619636548887,-4.490146803308181
-4.1199285109121995,18.757630137358472,-9.30594585234814,2.6161355640617336,25.454866760451544,-4.473602366714206
-4.129362617595673,18.74307745617908,-8.764258521248607,2.6107893353756935,24.92785618254445,-4.45730656266256
-4.138787549078306,18.722849680353058,-8.221538202283117,2.6057986974232623,24.40548266852668,-4.441338419900629
-4.148230324983937,18.69703485726208,-7.676606129320617,2.6011747607017703,23.886477391210715,-4.425673994436609
-4.15701098656982,18.66813465544303,-7.1682705110689255,2.597134985989067,23.407144491547868,-4.411332108014322
-4.160783939675402,18.663633220578912,-6.988341454164197,2.5960580372124666,23.231729482138764,-4.406698752219972
-4.180574117873241,18.94066683602144,-7.307187736632146,2.609191097227155,23.272619175704744,-4.429838532907572
-4.217253009483857,19.447858139913492,-7.887739800071965,2.633473931973713,23.344260422386007,-4.472572850734141
-4.256078353147608,19.976109411820307,-8.488001446484521,2.659096465782706,23.41443811961173,-4.517595074622208
-4.295841595858089,20.50822346412284,-9.088103985706455,2.685251933503297,23.480536338764864,-4.563481863823788
-4.336139923940693,21.038606273180356,-9.68169873273236,2.7116713201532328,23.54181887083205,-4.609759926847318
-4.362516967400785,21.3810554290588,-10.062539657369296,2.7289163764980837,23.5789403127384,-4.639929575236937
-4.313898876921167,21.40588701102942,-10.08862187122633,2.6986152373315004,23.582449636140677,-4.588036218106112
-3.906572684597872,21.238493839267935,-9.891960083263164,2.4438818724951377,23.571122878612684,-4.15128295076098
-3.3375556753490594,20.999458833943017,-9.612423788730126,2.0879387803410916,23.552714053074197,-3.541416966905002
-2.7657624763404285,20.753059339414,-9.325725203875153,1.7301924737517997,23.531114266965627,-2.9289075000023215
-2.1924981941979684,20.499672520334343,-9.032276909082594,1.371505577233099,23.50626698449767,-2.3151884116191495
-1.620712552500412,20.24048229249441,-8.73340734169076,1.0137710773904745,23.478245570302057,-1.7034494314272097
-1.055551798065702,19.97783601729031,-8.43175433859216,0.6602538314506895,23.447335209251623,-1.0992179549103132
-0.4950244434853359,19.71087369236438,-8.12624751239693,0.3097520489146613,23.413442883852493,-0.5003877685540072
0.06144873505376281,19.43934030558418,-7.816519767338615,-0.03805224135490007,23.376519610292327,0.09363220012179198
0.6152475954349848,19.162551006377885,-7.501727253527529,-0.38398228970195925,23.336515175555537,0.6842948673169048
1.1692571923065966,18.87896986216618,-7.180063626393272,-0.7297959333873781,23.29316188515504,1.2746422642266535
1.7170858864330731,18.591837499600008,-6.855136615629243,-1.0714625650675171,23.246940341336618,1.8578340107722684
2.263590975570234,18.298601652039302,-6.523986529102425,-1.4119731238472286,23.19744023078833,2.4390141647123498
2.809484901194487,17.998767169200995,-6.185991483161031,-1.7517286611492222,23.144542108957225,3.0189034729341855
3.3507040785472073,17.694514548614382,-5.843539325928075,-2.088161245972064,23.08861552851568,3.5931535022448977
3.856559869597299,17.403712235069683,-5.516629284076724,-2.402199391439209,23.03313830796399,4.129237430775123
4.064363420332436,17.280963257872536,-5.381850726657103,-2.5311330906288974,23.01235025401773,4.349406208176326
4.0491289795752365,17.154621816542676,-5.527922322161377,-2.5267956016080517,23.285156033700442,4.3462760639410565
4.020179280973729,16.907681709735673,-5.804596113009261,-2.5187772058781572,23.809511658203974,4.340490865544091
3.9909056983770634,16.64857474444645,-6.083026669660913,-2.5109778068916686,24.347792979153127,4.33486727282437
3.9625962504304506,16.388692705329397,-6.3508460224631405,-2.503742568139981,24.87620759378853,4.329656349566502
3.9463512720787297,16.235306751977795,-6.503826467975471,-2.49973195439512,25.182980517223804,4.326771500019845
3.938916696770219,16.164052185474485,-6.573655890725382,-2.49793168617977,25.324249876805204,4.325477645422802
3.923868392922904,16.017763539500013,-6.714629548487482,-2.4943566746555144,25.61188607413933,4.322910652221256
3.8966498373317062,15.746008743917773,-6.968287420756602,-2.4881304432041405,26.1379704938082,4.318449314185707
3.869066253593443,15.46094149754853,-7.223456271941504,-2.4821470137002977,26.67888129520243,4.314176832691004
3.842055668073378,15.17205126105665,-7.47130422600517,-2.4766192668251215,27.21627413486033,4.310247646173959
3.816663569533367,14.891392598577378,-7.702314586721064,-2.471733938624631,27.728553010513075,4.306794698091092
3.804824295739699,14.757447251288912,-7.809321443499004,-2.4695626008825706,27.969787684691443,4.305267605316838
3.7895044841301417,14.693601255916015,-7.8604843310594905,-2.4622697236208264,28.085345034505377,4.293660137873599
3.4898885417604815,14.710845402502034,-7.872802641275742,-2.267864425550933,28.092722444090647,3.9565152207583307
2.953693572944635,14.738141402194396,-7.89228646810162,-1.919770817032605,28.104351813807597,3.3530859433107327
2.3996995898394173,14.761553931038732,-7.908993918607513,-1.5599127459692899,28.114364373786753,2.7295490409882888
1.8444303258582588,14.780145841469784,-7.922256460187539,-1.1990508799181894,28.122323384110175,2.104511087564439
1.287350531415754,14.793901733170392,-7.932062978037605,-0.8368764807688461,28.128187384861107,1.4773829997913215
0.7312352205332433,14.802750391392872,-7.938372894591513,-0.47523490175064304,28.131985363880915,0.851306679320864
0.17730631351575823,14.80671727534913,-7.941202334802989,-0.1149615115827828,28.13369509802258,0.22767170775718476
-0.38054285075776634,14.80582374990996,-7.940563585744331,0.24787387034068809,28.133293999093333,-0.40038244935062633
-0.9343297706841841,14.800086142456253,-7.936475583049441,0.6080402579127586,28.130851263902603,-1.0238521059205408
-1.4905067451607241,14.789455275781737,-7.928894541093784,0.9696911434743617,28.1262839515772,-1.6499872662653314
-2.0476292871124535,14.773911132212513,-7.917811760706324,1.3318488685517877,28.11964934215197,-2.2771456896744593
-2.6036381358652685,14.753505722942515,-7.9032574336484664,1.6931326975382361,28.110941048794377,-2.9029943672550207
-3.1584372859915577,14.728263000173278,-7.885240813234492,2.0534377075343584,28.10014164162955,-3.5274098531708726
-3.6372043727317305,14.7025518467455,-7.866884183725743,2.364183210826632,28.089177412201213,-4.066184273831661
-3.799421285382531,14.693184073244414,-7.855197332633296,2.469312342722167,28.080081304000057,-4.248470582626217
-3.8036370695219763,14.70158790281683,-7.581668563055535,2.465603722478034,27.798229845986263,-4.239464147215764
-3.811569307629329,14.71287855619534,-7.065425494193505,2.458903593884709,27.27084502387865,-4.222769747736012
-3.819768324901016,14.718456271123957,-6.529696732847555,2.4523481635448476,26.729687482174906,-4.205846907474516
-3.827938275801039,14.71798590546806,-5.993776803376337,2.446177097410202,26.194381531397333,-4.189306382985821
-3.836143634077413,14.7115879640617,-5.453489402363784,2.4403295393756412,25.660631719633667,-4.173004036126813
-3.844306980149939,14.699456520584219,-4.91398749101582,2.4348484195699975,25.13339583897471,-4.157080085961032
-3.8524998553280647,14.681623009040006,-4.370598734427318,2.429673629128261,24.607971518543845,-4.141381593453044
-3.8606991867645535,14.658220906579652,-3.824889615067377,2.4248111947983944,24.085791567038992,-4.125942513992572
-3.8688613799183766,14.629523636143658,-3.279819313007635,2.4202750347351127,23.569541278924152,-4.110831840654276
-3.8770952837205344,14.595229506119747,-2.7281527826950773,2.415996864537067,23.05228909785255,-4.095838539761854
-3.884304039623725,14.56088717686129,-2.2437149068433797,2.412489595001137,22.602295972577704,-4.082909725165948
-3.887567283745545,14.57166134965389,-2.1370047024292056,2.412457788773607,22.484781528953725,-4.081003603060684
-3.907502672749318,14.88859723467459,-2.522149024786389,2.42599730661535,22.552107597167474,-4.1051779927726315
-3.9391518093640907,15.385394996212309,-3.1227172642701615,2.4474455194997806,22.654470058822724,-4.143418940090876
-3.972226565632508,15.896456099538605,-3.7365050147588406,2.4697983807293267,22.75571587652542,-4.183204265074567
-4.006090509290078,16.41138916404792,-4.350799103527428,2.492619605175131,22.853550822928362,-4.223753445392662
-4.0397952812040065,16.915804852947304,-4.948497323513459,2.515268428222662,22.945304518110113,-4.263928896913613
-4.061173469029111,17.23167300201074,-5.3207322998698805,2.5296004869641453,23.00069651736765,-4.289318004098087
-4.064620966504425,17.282320495901565,-5.380271100317734,2.5319092766062674,23.00943024983332,-4.293405607414127
-4.064620966504425,17.282320495901565,-5.380271100317734,2.5319092766062674,23.00943024983332,-4.293405607414127
-4.064620966504425,17.282320495901565,-5.380271100317734,2.5319092766062674,23.00943024983332,-4.293405607414127
-4.064620966504425,17.282320495901565,-5.380271100317734,2.5319092766062674,23.00943024983332,-4.293405607414127
-4.064620966504425,17.282320495901565,-5.380271100317734,2.5319092766062674,23.00943024983332,-4.293405607414127
-4.064620966504425,17.282320495901565,-5.380271100317734,2.5319092766062674,23.00943024983332,-4.293405607414127
-4.064614054588767,17.28230740208037,-5.380237734550917,2.5319049718763837,23.00935065233057,-4.293398315366373
-3.976960620094383,17.116258153919134,-4.957109878138475,2.4773145547555675,21.999935196814675,-4.2009242370114395
-3.890139585558277,16.95178579077146,-4.538000251154869,2.4232425549813836,21.000105645010404,-4.109328337810676
-3.803521233270424,16.787697385595685,-4.119869028562725,2.3692967853833347,20.002610178517504,-4.017946267699603
-3.690966182881947,16.574474919167926,-3.57653404717849,2.2991976821912625,18.706428139400963,-3.899201068393873
-3.5421086537349047,16.29248162431775,-2.857956759452518,2.2064894539902133,16.992187374533266,-3.742156876190003
-3.392770897578335,16.00957859519032,-2.1370612804736333,2.113482141184962,15.272416323620662,-3.5846060461074996
-3.2431589929495757,15.72615622363262,-1.4148424094788459,2.0203040891549873,13.549488183581651,-3.4267659903096046
-3.093657206390739,15.442942457964978,-0.6931551094732324,1.927194618480715,11.827828161356312,-3.269042108704827
-2.9449018612171236,15.16114273878083,0.02492890738565781,1.8345500302929136,10.114764145382464,-3.112105720248977
-2.7958541279411158,14.878789124306053,0.7444243641010617,1.7417233432682235,8.398332993012124,-2.954860863329265
-2.646024186079305,14.594953706541684,1.467695762330764,1.6484094980024357,6.672893939918884,-2.7967907789844024
-2.4970157284009082,14.31267449512358,2.1870016246563715,1.5556072717563634,4.956915084660256,-2.639587357687971
-2.3478150181210706,14.030031083487762,2.90723554452595,1.4626853109013074,3.238722251724911,-2.482181110544131
-2.1984936178541212,13.747159038693002,3.6280520690114426,1.3696881845176359,1.519139554957995,-2.3246475358701235
-2.0491556184040665,13.464255548674329,4.348948722436615,1.2766807201895958,-0.2006342977182275,-2.1670964491138123
-1.8998825499551293,13.181475062893652,5.069531935601562,1.1837136947839493,-1.9196604060938656,-2.0096138643451256
-1.7503446543089314,12.898192892755125,5.791393544358685,1.0905817354285177,-3.6417362599529275,-1.851851887774723
-1.6016427255251935,12.616494364715734,6.509219705234218,0.9979704148818683,-5.354185133692688,-1.694971853430397
-1.4522669364772745,12.333519286694264,7.230298779709187,0.9049394152534473,-7.074394170732899,-1.537380898775537
-1.3030487210073054,12.050842713509478,7.95061720206996,0.8120065521943126,-8.792788593139008,-1.3799561837150298
-1.1535106910272817,11.767560288891124,8.672479459294358,0.7188745091759916,-10.514865993984117,-1.2221940654228927
-1.0044134715270276,11.485112928513775,9.392213799974868,0.626017002210943,-12.231867028868214,-1.0648970007031693
-0.8551832630315885,11.202413635935574,10.112590116052964,0.5330766699149587,-13.95039956275093,-0.9074596330411591
-0.7061209927150773,10.920032482726464,10.832155747163956,0.4402409292449734,-15.666998123431586,-0.7501994395926468
-0.5567290585523316,10.637026819660676,11.553312758662932,0.34719987446517153,-17.387393087338573,-0.5925914518959878
-0.40748973696515317,10.354310263388925,12.273733066205768,0.2542538665504031,-19.10603056743021,-0.4351444699528669
-0.27988230103840794,10.11257280133002,12.88973015904565,0.17478016200999374,-20.575555621482305,-0.300519054569765
-0.1929820730872786,9.947950415458196,13.309222074985005,0.12065884070512145,-21.57629716330226,-0.20883960658271358
-0.10593580405753193,9.78305137172984,13.729418972410823,0.06644656525287915,-22.578720511690864,-0.1170060857492871
-0.01908355932957742,9.61851988449968,14.14867925979526,0.012355127821730991,-23.578909479531745,-0.02537725990117621
0.0021870646503201504,9.57822515856959,14.25135856244992,-0.0008921823627550827,-23.82386162222447,-0.0029368231981352615
0.0021870646503201504,9.57822515856959,14.25135856244992,-0.0008921823627550827,-23.82386162222447,-0.0029368231981352615
0.0021870646503201504,9.57822515856959,14.25135856244992,-0.0008921823627550827,-23.82386162222447,-0.0029368231981352615
0.0021870646503201504,9.57822515856959,14.25135856244992,-0.0008921823627550827,-23.82386162222447,-0.0029368231981352615
0.0021870646503201504,9.57822515856959,14.25135856244992,-0.0008921823627550827,-23.82386162222447,-0.0029368231981352615
0.0021870646503201504,9.57822515856959,14.25135856244992,-0.0008921823627550827,-23.82386162222447,-0.0029368231981352615
0.0021870646503201504,9.57822515856959,14.25135856244992,-0.0008921823627550827,-23.82386162222447,-0.0029368231981352615
0.0021870646503201504,9.57822515856959,14.25135856244992,-0.0008921823627550827,-23.82386162222447,-0.0029368231981352615
0.0021870646503201504,9.57822515856959,14.25135856244992,-0.0008921823627550827,-23.82386162222447,-0.0029368231981352615
0.0021870646503201504,9.57822515856959,14.25135856244992,-0.0008921823627550827,-23.82386162222447,-0.0029368231981352615
0.0021870646503201504,9.57822515856959,14.25135856244992,-0.0008921823627550827,-23.82386162222447,-0.0029368231981352615
0.0021870646503201504,9.57822515856959,14.25135856244992,-0.0008921823627550827,-23.82386162222447,-0.0029368231981352615
0.0021870646503201504,9.57822515856959,14.25135856244992,-0.0008921823627550827,-23.82386162222447,-0.0029368231981352615
