RAMEL-ESPOL/ARCHIE/matlab/data/joint_goals_square_t0_h20_p21.txt
Joint0,Joint1,Joint2,Joint3,Joint4,Joint5 
-0.0029120613525619662,-0.0014118229585629717,0.0024107511340532703,0.0006644263736842188,0.0034188404101575982,0.003684842845087217
-0.0029120613525619662,-0.0014118229585629717,0.0024107511340532703,0.0006644263736842188,0.0034188404101575982,0.003684842845087217
-0.0029120613525619662,-0.0014118229585629717,0.0024107511340532703,0.0006644263736842188,0.0034188404101575982,0.003684842845087217
-0.0029120613525619662,-0.0014118229585629717,0.0024107511340532703,0.0006644263736842188,0.0034188404101575982,0.003684842845087217
-0.0029120613525619662,-0.0014118229585629717,0.0024107511340532703,0.0006644263736842188,0.0034188404101575982,0.003684842845087217
-0.0029120613525619662,-0.0014118229585629717,0.0024107511340532703,0.0006644263736842188,0.0034188404101575982,0.003684842845087217
-0.0029120613525619662,-0.0014118229585629717,0.0024107511340532703,0.0006644263736842188,0.0034188404101575982,0.003684842845087217
-0.0029120613525619662,-0.0014118229585629717,0.0024107511340532703,0.0006644263736842188,0.0034188404101575982,0.003684842845087217
-0.0029120613525619662,-0.0014118229585629717,0.0024107511340532703,0.0006644263736842188,0.0034188404101575982,0.003684842845087217
-0.0029120613525619662,-0.0014118229585629717,0.0024107511340532703,0.0006644263736842188,0.0034188404101575982,0.003684842845087217
-0.0029120613525619662,-0.0014118229585629717,0.0024107511340532703,0.0006644263736842188,0.0034188404101575982,0.003684842845087217
-0.0029120613525619662,-0.0014118229585629717,0.0024107511340532703,0.0006644263736842188,0.0034188404101575982,0.003684842845087217
-0.0029120613525619662,-0.0014118229585629717,0.0024107511340532703,0.0006644263736842188,0.0034188404101575982,0.003684842845087217
-0.0029120613525619662,-0.0014118229585629717,0.0024107511340532703,0.0006644263736842188,0.0034188404101575982,0.003684842845087217
-0.0029083837293940105,-0.0013934453451198983,0.0023898150249863207,0.0006644260901242985,0.003421398948428594,0.0036885204385915045
0.04163885890408325,0.220516901775126,-0.2500360975716898,0.0006520589256539617,0.03387775531888451,0.04814624272126277
0.14085370038232115,0.7099379868443585,-0.8040923864778127,0.0006209393128839321,0.09835457254612524,0.147122302640638
0.24876448783312677,1.2349089901985848,-1.3943120752857419,0.0005897535878278912,0.1634448444295798,0.25479433910326277
0.3588246586263231,1.7626717352047625,-1.983404431967527,0.0005590290429471475,0.22461601796479452,0.36461595036203714
0.4717885672774009,2.296543681493786,-2.574956315981405,0.0005287230271916817,0.2821374193133426,0.477341363082903
0.586364894276506,2.830183357015786,-3.1618614924850856,0.0004989418253017049,0.3352442829662596,0.591679273598959
0.7042992858301502,3.3714396369232094,-3.7526536077681096,0.0004668448670170752,0.38460143012945147,0.7093455752901587
0.8244174600862189,3.914610267983991,-4.340984936601888,0.00043807559531646145,0.42960334338500195,0.8292255318240761
0.9472642585405263,4.4618944565815415,-4.929154502225611,0.0004087373719752823,0.47032168403062397,0.9518220271477712
1.0746062158883896,5.020688236638378,-5.52490723794116,0.00037940797964617577,0.507109857222164,1.078908289451859
1.2040765425857678,5.580194141986013,-6.116568478158513,0.0003496815451667296,0.5390861145663296,1.2081107924571852
1.3355940536992594,6.139917490458521,-6.7036012952871395,0.0003232126567516481,0.5662364477525477,1.3393903500633093
1.4692459002342544,6.700063981355266,-7.2862077450475935,0.0002948975962820328,0.5885171434281504,1.4727745038166244
1.6049127682708209,7.260006641165225,-7.863733189269729,0.0002697807184146406,0.6059405726454359,1.6082034649689458
1.7428224273558786,7.820524746435331,-8.43697338849387,0.00024294992915944617,0.618483206146356,1.7458455137019897
1.8833492490337174,8.382951922713591,-9.007260437869652,0.00021805351490606772,0.6261733881727577,1.8861194149252556
2.026023287001832,8.945221807734173,-9.5724766597358,0.0001939540573755665,0.62895017686129,2.028540910210391
2.172254282380694,9.512624889522037,-10.137875466387438,0.00016947690677543675,0.6267661659583854,2.1745043905164785
2.3204228394300968,10.078651492006205,-10.696924477752722,0.00014805502360469756,0.6196287195377542,2.32243510139878
2.4708760434549517,10.644499263639032,-11.250828158423968,0.0001252791217902823,0.6075046512017568,2.472620737934226
2.624244163969553,11.212355749636787,-11.801709563499113,0.00010547711329652592,0.5903695111062669,2.6257509842119853
2.7797540736777298,11.779167880374755,-12.346597553084598,8.447576162895499e-05,0.5682651902505419,2.780993302778102
2.9374363349562183,12.344950868288894,-12.885541251261392,6.6399753205057e-05,0.5412656737269261,2.9384376926728764
3.0974182292773595,12.910031318720689,-13.418879503945092,4.7273625788237046e-05,0.5093431435397225,3.098152021133902
3.2603155279499387,13.47642198289939,-13.948513285892371,3.098811919903448e-05,0.4724257947801548,3.2608113187506613
3.4248678448498353,14.03961003402742,-14.470253577803343,1.3813726458517524e-05,0.43079746724814233,3.4250959473725335
3.538193516167448,14.422381977045836,-14.822073475838442,4.701494207407684e-06,0.3997450849003509,3.5382729159166653
3.576333408182639,14.55025076045087,-14.943183353447841,1.1680154411231098e-06,0.3929460183116585,3.576353299734615
3.5763334435018157,14.547060867924028,-15.22096008335653,1.1680682614662836e-06,0.6739126407471933,3.5763533293257237
3.5763335099782836,14.536460587422738,-15.740660406273605,1.1682445199472606e-06,1.204213244165552,3.5763533849889484
3.5763335784986916,14.519194857699478,-16.272071835716797,1.1685323156527138e-06,1.7528904033319936,3.5763534423169743
3.57633364650979,14.495621726849485,-16.795243118719227,1.1689258915478784e-06,2.2996348171844185,3.5763534991686234
3.5763337141124816,14.46576317392747,-17.311029619067504,1.1694251391996664e-06,2.8452798704547035,3.576353555625801
3.576333781006956,14.429837701580087,-17.817239764156767,1.1700267265790027e-06,3.387415487891348,3.5763536114360264
3.576333847855202,14.387523451346306,-18.318942548083044,1.1707364390981766e-06,3.9314325220514066,3.576353667149094
3.576333914473242,14.338902369624396,-18.814770845495886,1.1715533788328655e-06,4.475881901186176,3.576353722608579
3.5763339697909373,14.293579134546764,-19.223336402205646,1.172316260013241e-06,4.929770692973562,3.576353768611179
3.576333995952581,14.270566366997492,-19.415561120538158,1.172704103237285e-06,5.145008178855342,3.576353790351163
3.576334031346541,14.237808246828326,-19.674596342471578,1.1732567557711712e-06,5.436801520957927,3.576353819745969
3.5809993949471046,14.315370960994134,-19.76536825105216,1.1721842962088156e-06,5.450010715467765,3.5810191831792024
3.6075797845375925,14.778939636020645,-20.08804858246752,1.165657554393168e-06,5.309122372396549,3.60759957624369
3.6425288655193966,15.380185517883044,-20.502020584653074,1.1570870887409813e-06,5.121848493425219,3.642548661785419
3.677948392992812,15.980150251322948,-20.91001785474138,1.1484147869450359e-06,4.929881030783545,3.6779681938665716
3.7140191755177754,16.58168628588256,-21.31400063746693,1.1395975801047773e-06,4.732327779667194,3.7140389810651984
3.750779237921051,17.185135151341115,-21.714177582529715,1.130627487834561e-06,4.529055859997368,3.7507990482072744
3.788036837589226,17.787123822524546,-22.108330530989,1.1215524864333745e-06,4.321220138003352,3.7880566526489448
3.826251841957143,18.394759887636823,-22.501085090999773,1.1122619042171227e-06,4.106338633644857,3.8262716618777435
3.8651909801052216,19.0039318697636,-22.889718826089293,1.1028139200819383e-06,3.885800387358544,3.865210804937666
3.9044855536479726,19.608706131092895,-23.27050743744354,1.093298989098197e-06,3.6618147381350044,3.904505383390755
3.94453781673644,20.21510219445287,-23.647301648848195,1.0836206701464667e-06,3.432212886939149,3.9445576514322482
3.9854839544957534,20.82481196354751,-24.021116598238873,1.0737473712735908e-06,3.1963180680048495,3.985503794196875
4.027351366268394,21.437823545413707,-24.391889985055993,1.0636738700114135e-06,2.9540798737356626,4.027371211022664
4.067250790507246,22.01245922447391,-24.734863398579602,1.0540944239202793e-06,2.722417608935615,4.06727064001283
4.085605892157737,22.273739855941635,-24.889347385525696,1.0496942423087757e-06,2.615620964750636,4.085625743827187
3.7890259236197967,22.29456507804917,-24.901621164850642,1.1192898629962883e-06,2.6070695163680453,3.789045772279668
3.2065405192932777,22.330618252676555,-24.9228561314551,1.2558867072336999e-06,2.5922512962995894,3.20656036206357
2.5938701424318578,22.362037501728466,-24.941347604009582,1.3994217138347573e-06,2.5793235056360624,2.5938899790251253
1.9816046787501624,22.386789818966058,-24.95590603149076,1.5427028046901217e-06,2.5691296001918813,1.981624509169091
1.3691628504021023,22.404913253509097,-24.966560382051494,1.6858506217501817e-06,2.5616604989878553,1.3691826746236313
0.7551333119450401,22.41642884937597,-24.9733278280084,1.8291787540498437e-06,2.556912330277834,0.755153129911786
0.1421660102798405,22.421283649947306,-24.976180299438468,1.9720529107810556e-06,2.554909980839513,0.14218582194148294
-0.4713487633654842,22.4195010693941,-24.97513284679436,2.114833075206191e-06,2.5556450869055594,-0.4713289580955786
-1.085076061298584,22.411068892039584,-24.97017781797326,2.257425424810861e-06,2.5591222120615007,-1.0850562625234792
-1.6979553548904638,22.39600829150301,-24.961325417959777,2.39956853967625e-06,2.565330387718108,-1.6979355627214827
-2.311136258131058,22.374293116229264,-24.948556271392356,2.541514041584186e-06,2.5742763900271903,-2.3111164727112814
-2.924373170722601,22.345916506173747,-24.931860558170946,2.6831895511373725e-06,2.5859572589455277,-2.924353392211941
-3.5372373107696102,22.31089070137302,-24.911237920416394,2.824481004433745e-06,2.600360396581262,-3.5372175393422856
-4.007241683455343,22.27950481013785,-24.892744510432347,2.9326259081133085e-06,2.6132528542558533,-4.00722191759299
-4.08292921455762,22.239209683203814,-24.811311203747973,2.9499221868349332e-06,2.5721146706261355,-4.0829094473678085
-4.067190594176914,22.034660908717672,-24.35127184765247,2.945744653014113e-06,2.3166240898258,-4.067170813675612
-4.0473007347456775,21.772313778274153,-23.763090180999903,2.9405455379233912e-06,1.9907895546377297,-4.047280937322935
-4.027586189282707,21.50796338676244,-23.172442937248906,2.935482788912388e-06,1.6644927034088661,-4.027566374974613
-4.008248718918257,21.244413022086068,-22.5855296788004,2.9306066697402855e-06,1.3411298106263077,-4.00822888793409
-3.9890833796942045,20.978967006093537,-21.996285397612336,2.9258639732460854e-06,1.0173315464100712,-3.9890635320669525
-3.9701465102512303,20.712455168181958,-21.40651315122365,2.9212681413760227e-06,0.6940711388991215,-3.970126646062047
-3.9512732056052884,20.44257004665959,-20.811084059997146,2.916779450653981e-06,0.3685271701564916,-3.9512533247893518
-3.9326643908843333,20.172211548950525,-20.216368545205352,2.912445720287001e-06,0.044170154020384975,-3.9326444935525044
-3.9143218818025765,19.90150264327822,-19.622582205611995,2.9082659094430953e-06,-0.27890727896894124,-3.91430196806806
-3.8960972805768064,19.628300311594955,-19.02499061729376,2.9042058266751685e-06,-0.6032965346795088,-3.8960773504194495
-3.8789486720281463,19.36729673948034,-18.45558993529433,2.900472299172755e-06,-0.9116936436957257,-3.8789287262991055
-3.8701008424613503,19.23111592091249,-18.159068851931508,2.898579675935043e-06,-1.0720339080429941,-3.870080888651837
-3.8655638174661404,19.160879814213953,-18.00628561326892,2.897618203404933e-06,-1.1545810397776008,-3.8655438595006317
-3.8807856457733836,19.386984244344177,-18.146480976507153,2.901206105943884e-06,-1.240490107439684,-3.88076568338675
-3.9183322472834603,19.93833744573255,-18.491307903088714,2.910077284943212e-06,-1.4470163841500254,-3.91831227421882
-3.9596216169820186,20.534177537624416,-18.859236029665436,2.9198780353599405e-06,-1.6749283515649434,-3.959601632060271
-4.001443992048765,21.12681556541466,-19.220340193483672,2.9298543286087037e-06,-1.906462217670816,-4.00142399500242
-4.044497944147677,21.72575995375052,-19.58039545472403,2.940176578425913e-06,-2.1453513469703234,-4.044477934507713
-4.07909461484328,22.19906348849196,-19.8614566764348,2.948509903450101e-06,-2.337593661777435,-4.079074595006645
-4.030822450922133,22.241526895219693,-19.886523835769392,2.9374570421809792e-06,-2.3549899066921274,-4.030802430646041
-3.6121628103576113,21.88622394833839,-19.676026226240015,2.8409063080934716e-06,-2.2101845482374394,-3.6121428012287833
-3.0854538595235934,21.429266740947348,-19.40277251649625,2.7192721512997923e-06,-2.026481025040477,-3.0854338638054544
-2.5569871284067087,20.95935305659073,-19.118791672348053,2.597054424299198e-06,-1.8405481603183178,-2.5569671454404683
-2.04210045255106,20.490202987699625,-18.832249460655248,2.47781363650842e-06,-1.6579402803182723,-2.0420804813148856
-1.529415502142995,20.01166191076205,-18.536849824740298,2.3589292295760057e-06,-1.4747988176544582,-1.5293955418905578
-1.0738743072610444,19.576665412967156,-18.265586313433896,2.2531726150273873e-06,-1.3110658128282382,-1.07385435617346
-0.8724674490176086,19.38134148047496,-18.142930120521406,2.2063791571053474e-06,-1.2383980654087094,-0.8724475018009259
-0.4324848447762176,18.948122671059934,-17.868995936897516,2.1040831619475555e-06,-1.0791134230626815,-0.43246490562436446
0.07213105952739196,18.44000885099942,-17.544377288270102,1.986640021769315e-06,-0.8956182336093402,0.07215099009949523
0.5643701014298844,17.93246029337201,-17.216523241363166,1.8719594732643705e-06,-0.7159237063068915,0.5643900243327873
1.043800046413728,17.42650725417717,-16.886110235307324,1.7601563535303179e-06,-0.5403836579644484,1.0438199625212936
1.514565938875102,16.918238130720294,-16.550564418571156,1.6502759235052908e-06,-0.3676603372254417,1.514585848965783
1.9743298889656609,16.41058532335593,-16.211791738120514,1.5428743131490956e-06,-0.19878019749268874,1.9743497938139885
2.4244569180495112,15.902497258997194,-15.869080950886197,1.4376426415659997e-06,-0.03340290865313265,2.424476818377776
2.8631765768008255,15.396453225849182,-15.524110037818007,1.3350041535332268e-06,0.1276702220489898,2.8631964733110378
3.209778144511287,14.98891185071246,-15.243640781845574,1.2538676393173204e-06,0.2547423490491917,3.20979803841743
3.3932952905789415,14.77030294824286,-15.09221889429061,1.210890940458349e-06,0.32192936791395144,3.3933151832541415
3.562100902450187,14.567466260948876,-14.95111148776766,1.1713494119081293e-06,0.38365865219685,3.562120794083674
3.5763351293798475,14.549035406716085,-15.067410935547215,1.1680353892391702e-06,0.5183889545000051,3.5763550182888233
3.5763350214098812,14.541250249000255,-15.541319179431438,1.16816469614338e-06,1.0000823561000685,3.5763549004976705
3.5763348991187636,14.526406691375122,-16.073943645830763,1.1684119731508907e-06,1.5475503801245325,3.576354767040744
3.5763347773467244,14.50520026888101,-16.599934425455547,1.1687658745159602e-06,2.0947475822434183,3.576354634102686
3.5763346563750624,14.477713619125822,-17.11814450809784,1.1692252548492163e-06,2.640444314640893,3.5763545019878817
3.5763345360723875,14.443962953170844,-17.62921096026312,1.1697901451575322e-06,3.1852614327611373,3.5763543705502863
3.5763344164717648,14.403995310027554,-18.133059745042157,1.1704601288068646e-06,3.729077860683467,3.576354239823465
3.5763342975159267,14.35782776422561,-18.62999545637725,1.171235358023881e-06,4.272181117820513,3.576354109742302
3.576334183004557,14.307272809552378,-19.10440145317492,1.1720858202072454e-06,4.797142069291416,3.5763539844623096
3.576334125537348,14.279621332609436,-19.34101258743556,1.172551665875061e-06,5.061404680494999,3.5763539215680864
3.57633405599494,14.24410504992043,-19.626026177219355,1.1731507065344784e-06,5.381934552967796,3.576353845437167
3.5575756599514206,14.234720305340742,-19.708915880595825,1.1777456920984832e-06,5.474209000541216,3.5575954470744207
3.1835160776438753,14.25892405774138,-19.72586706533349,1.2657549877921125e-06,5.4669564249469795,3.183535856530155
2.615812526019214,14.290508248196554,-19.747974612612424,1.3992205747979747e-06,5.457479768641191,2.6158322924199524
2.0435032699580855,14.316074622153304,-19.765859543938653,1.5336306781921267e-06,5.449798311442543,2.043523023779814
1.4711187817871652,14.335353698511382,-19.77934004572531,1.6679074821997424e-06,5.443999720964875,1.4711385230239307
0.8993616191213809,14.348338293294606,-19.788416277473928,1.8018742797858713e-06,5.440091340708945,0.8993813477705307
0.32761345765117666,14.355057572164196,-19.793112112819248,1.9356641250109824e-06,5.438067878633541,0.32763317368436584
-0.24486778588705624,14.355511139968268,-19.79342907434552,2.069438245005098e-06,5.4379312524500785,-0.24484808252668638
-0.8158685509061046,14.349709564218672,-19.789374668908938,2.2026677173543065e-06,5.439678401584415,-0.8158488602383118
-1.3871533229293185,14.337652525561095,-19.780947122799585,2.3357528696754586e-06,5.443307871621807,-1.3871336450248084
-1.9608042753774129,14.319247906107318,-19.768078793403205,2.469165227117733e-06,5.448844137747187,-1.9607846103657438
-2.5331574797718663,14.294588569622517,-19.750829662224017,2.6020400161221728e-06,5.456254317851137,-2.533137827712234
-3.1037517044318,14.26373539358403,-19.729235756871716,2.734260109209075e-06,5.4655135620993756,-3.1037320653838343
-3.5261445156654005,14.236856772251405,-19.71041255552259,2.8319730380658403e-06,5.47356896166834,-3.5261248863202233
-3.573689009794411,14.197984258548605,-19.59028027556384,2.84257419030473e-06,5.392309193069785,-3.573669377446905
-3.562822010179095,14.050387671428311,-19.103864397999846,2.8385279447790587e-06,5.053489903162607,-3.562802360734928
-3.549929926789651,13.871044378812408,-18.520598128437452,2.833853748383959e-06,4.649566926851989,-3.5499102570267644
-3.5371769766818364,13.689057452452392,-17.936882595201,2.8293656801043193e-06,4.247838320603916,-3.5371572867763614
-3.5245860429371936,13.50486140792783,-17.353878543582848,2.825068222881041e-06,3.849030314130083,-3.5245663330980737
-3.512142994285648,13.318361955626179,-16.771054175925034,2.8209529278418294e-06,3.452705399385754,-3.5121232646963945
-3.499735800149677,13.127923333904588,-16.183183285755938,2.816981221078621e-06,3.0552731315477026,-3.4997160508122938
-3.4875036697115354,12.93574094015235,-15.596907669270442,2.813195756756632e-06,2.6611799094146886,-3.487483900846237
-3.475314395273788,12.739798472410087,-15.005941094494151,2.8095537071580594e-06,2.266155802978199,-3.4752946068864907
-3.4632900533927597,12.54211438499665,-14.416247010771894,2.806089832511488e-06,1.8741458072582773,-3.463270245681733
-3.451451472834393,12.343164125174455,-13.829011531769359,2.8028062150419847e-06,1.4858605886571477,-3.451431646029543
-3.4424085264565076,12.18827142320359,-13.375924046452589,2.8003838090467947e-06,1.187665805753299,-3.442388685017965
-3.4392677869594115,12.133877069369337,-13.21763145225077,2.7995600289609963e-06,1.0837675655391912,-3.439247940428056
-3.448921208222753,12.309578514519764,-13.340490732514995,2.8017336785110474e-06,1.030925400181221,-3.4489013591491124
-3.4782884799429064,12.838539467315833,-13.724403151112226,2.8083718795562163e-06,0.8858768645448716,-3.4782686238804796
-3.511543210674067,13.428322778079673,-14.147695972157813,2.8159076251238096e-06,0.7193863731946477,-3.5115233465469213
-3.5452830505401014,14.0169748524859,-14.565185148209745,2.8235749936361715e-06,0.5482234731800393,-3.5452631780751913
-3.5720911659034904,14.47786686197644,-14.888593081913694,2.829683537762659e-06,0.41073939607098353,-3.572071286707688
-3.5763350804541347,14.54952759458287,-15.021110425178296,2.8306822847900826e-06,0.47159600651952727,-3.576315204272068
-3.5763350909981613,14.54288779527072,-15.462790430582176,2.830949334851348e-06,0.9199158112355597,-3.5763152369677873
-3.576335103717476,14.529147333071215,-15.991098109476503,2.83150381718827e-06,1.4619639523293793,-3.57631527647758
-3.576335116631012,14.508740028432944,-16.522481388097308,2.8323289085307265e-06,2.0137545355884643,-3.5763153166763635
-3.57633512929995,14.482347069469364,-17.038945318773195,2.833397612105112e-06,2.5566114252279264,-3.5763153562067376
-3.576335142008801,14.449477508931102,-17.55223498284238,2.8347305041968884e-06,3.1027706498353536,-3.576315395963312
-3.576335154633374,14.410431518570586,-18.057384693058832,2.8363163006215503e-06,3.646966350412331,-3.5763154355661086
-3.5763351671987653,14.365184971788292,-18.555501544914133,2.8381570145194408e-06,4.190329749049917,-3.5763154751010027
-3.5763351794430807,14.314913198759239,-19.036431270285185,2.840205903242298e-06,4.721531247450011,-3.5763155137473213
-3.576335186254783,14.28428440284957,-19.30208018027341,2.8414561080744024e-06,5.017808953347906,-3.5763155353019966
-3.5763351933582617,14.25030334425959,-19.577664403206004,2.8428448011093383e-06,5.327374234870476,-3.5763155578239467
-3.576484713528878,14.236063074293673,-19.709856536163954,2.8435656165534327e-06,5.473806637786956,-3.5764650852965425
-3.5914183031491436,14.497715247358931,-19.892659098629327,2.8466426110166887e-06,5.394957026448878,-3.591398671310642
-3.6241402583593074,15.0649771007324,-20.285630732461485,2.8533932948127972e-06,5.220666805286938,-3.6241206185133614
-3.659258336443546,15.664704249253314,-20.696136036170234,2.8606529219790216e-06,5.031444958730693,-3.6592386878490526
-3.6950200101273047,16.266001663220713,-21.102624868613525,2.868063213855065e-06,4.836636375425451,-3.695000352467848
-3.731382116116556,16.86788484503418,-21.504427142836217,2.875618233019641e-06,4.636555466018384,-3.7313624490871224
-3.7682191303763917,17.468091741753334,-21.90007116143549,2.8832948220352337e-06,4.4319925860530915,-3.768199453706119
-3.806132018007496,18.076050363292712,-22.2957193183528,2.8912216888587998e-06,4.219682119526009,-3.806112331267487
-3.8445215621124826,18.681794497275803,-22.684841046826126,2.899277116448229e-06,4.003059712081432,-3.844501865032578
-3.883784578743996,19.291314160643587,-23.07129018318189,2.907547820406511e-06,3.7799891830844525,-3.883764870948289
-3.9233828155175523,19.896040734310315,-23.449671898544597,2.9159237293192966e-06,3.553644322772268,-3.9233630967791098
-3.9639635131610627,20.50561374599168,-23.82604347390715,2.9245452532071396e-06,3.3204428843889415,-3.9639437830759134
-4.005427658309982,21.118100784653393,-24.19914141847991,2.933395700693554e-06,3.08105378818373,-4.005407916501295
-4.047441761740726,21.728300100059528,-24.565815466053582,2.9424076674340027e-06,2.8375285181999126,-4.047422007927786
-4.080073193664687,22.195165718482585,-24.84298579054402,2.949438659316146e-06,2.647833222591495,-4.080053430446657
-4.08304304180625,22.24068282716721,-24.814633529877458,2.949947391885522e-06,2.573963853087581,-4.083023274812456
-4.067454856113157,22.038120820735095,-24.359046788106333,2.9458090415542457e-06,2.3209391185498593,-4.06743507593591
-4.047596594712944,21.776250826995852,-23.771905820013703,2.9406168111387473e-06,1.995668145215864,-4.047576797642698
-4.027907594882477,21.51231079622586,-23.182143731223356,2.935559084342043e-06,1.6698460882046442,-4.02788778095055
-4.008427087193804,21.24686590053753,-22.59098628782122,2.9306456251443846e-06,1.3441335414877664,-4.008407256463929
-3.9893424277925504,20.982585449274957,-22.004307819326595,2.9259217614089745e-06,1.021735525230896,-3.989322580490972
-3.970390871914552,20.71592305900839,-21.41417798537642,2.9213210555809855e-06,0.6982680825142287,-3.9703710080397654
-3.9515069359718695,20.445940347240654,-20.818510471112617,2.9168285558510603e-06,0.37258328098022353,-3.951487055462509
-3.9329294079205988,20.1760932293725,-20.22489634312325,2.91250077273196e-06,0.04881627180406497,-3.9329095109247616
-3.914494414943626,19.904069770253976,-19.628206198306103,2.9082986816169394e-06,-0.27585041295812085,-3.9144745014638835
-3.8963707366379703,19.632431830354836,-19.03401618487703,2.9042598460795996e-06,-0.5984024855687626,-3.8963508068278796
-3.879155499763628,19.370467871444617,-18.46249967442221,2.900510524017776e-06,-0.9079550362413902,-3.8791355543229904
-3.8701586984311858,19.232009896519692,-18.161014237478433,2.898585632573685e-06,-1.0709824978050004,-3.8701387447745104
-3.865583027881574,19.161177769101375,-18.00693354504582,2.897615894255031e-06,-1.1542310625878964,-3.8655630700335744
-3.880414485594867,19.381488111804554,-18.143022509516523,2.901112314312085e-06,-1.2384524415707094,-3.8803945234131754
-3.9177832264337495,19.93034177447125,-18.486337519528632,2.9099411903934163e-06,-1.4439910961197178,-3.9177632536259
-3.9589473978274397,20.524534534491664,-18.853320443902327,2.919711735607835e-06,-1.6712009338597393,-3.958927413200171
-4.001081191901661,21.12172094802291,-19.21725654071284,2.929761914977823e-06,-1.9044512527301383,-4.001061195060926
-4.0440308150578534,21.71932135906161,-19.57655109186742,2.940058864211965e-06,-2.1427571148128455,-4.0440108056550805
-4.0787602207489675,22.194521754095177,-19.8587739353486,2.948423944461128e-06,-2.3357346681484255,-4.078740201111171
-4.085617590603125,22.287518209450653,-19.91364519534649,2.9500797715902506e-06,-2.373859863858682,-4.085597568936641
-4.085617590603125,22.287518209450653,-19.91364519534649,2.9500797715902506e-06,-2.373859863858682,-4.085597568936641
-4.085617590603125,22.287518209450653,-19.91364519534649,2.9500797715902506e-06,-2.373859863858682,-4.085597568936641
-4.085617590603125,22.287518209450653,-19.91364519534649,2.9500797715902506e-06,-2.373859863858682,-4.085597568936641
-4.085617590603125,22.287518209450653,-19.91364519534649,2.9500797715902506e-06,-2.373859863858682,-4.085597568936641
-4.085617590603125,22.287518209450653,-19.91364519534649,2.9500797715902506e-06,-2.373859863858682,-4.085597568936641
-4.085578054578426,22.287302777668348,-19.91345272326914,2.9345439545286667e-06,-2.373836877276214,-4.08555808307184
-3.920965340916889,21.390328168666773,-19.112073444516756,-6.175058878129742e-05,-2.278129639467463,-3.9211542158229062
-3.7564635961374835,20.49395822905827,-18.311234392340737,-0.0001263921159127289,-2.1824869199146555,-3.7568611766683575
-3.591577193543399,19.59549228917588,-17.508522721730593,-0.00019118479565714445,-2.0866205570227305,-3.5921839677197873
-3.2914402629831456,17.960046278063075,-16.047374845668763,-0.0003091246361492444,-1.9121183818907335,-3.2924278250090437
-2.976834173953922,16.24575782840709,-14.515787186918834,-0.0004327501822914279,-1.729203714432479,-2.978220881049575
-2.661973032989392,14.53007960086058,-12.982957866261915,-0.0005564759519699522,-1.5461407576004391,-2.663759208742696
-2.3455346210150583,12.80580682423071,-11.442449963093848,-0.0006808215157236737,-1.362160761930594,-2.347722266531424
-2.0305432998953834,11.089419245072385,-9.908986890179783,-0.0008045984401424839,-1.1790221172443827,-2.033130579230752
-1.7157195268437044,9.373944635267621,-8.376339486644465,-0.0009283095259709639,-0.9959808864360626,-1.7187062274275389
-1.4000538882580253,7.6538827005145285,-6.839593653653509,-0.0010523514257602929,-0.8124501878152434,-1.4034410781767013
-1.0838241486480324,5.930746979512083,-5.300101624078141,-0.001176614990989809,-0.6285915160404598,-1.0876125435842734
-0.7695533554975432,4.2182855569613436,-3.77014627648749,-0.0013001087814617331,-0.4458717924701257,-0.7737404701090486
-0.47910883020577766,2.635653458167988,-2.3561836546546084,-0.00141423995792433,-0.2770048645516419,-0.48366443577899665
-0.315079416369474,1.7418572496740794,-1.5576440374498972,-0.0014786958809850294,-0.18163676224370176,-0.3198431283147899
-0.14978568173402865,0.8411717576659308,-0.7529493641283723,-0.001543648623257891,-0.08553357302358774,-0.15475910411261862
0.004087367194528542,0.0027175773748643033,-0.003853682349273624,-0.0016041135677510312,0.003929531973532586,-0.001081276036389526
0.004087367194528542,0.0027175773748643033,-0.003853682349273624,-0.0016041135677510312,0.003929531973532586,-0.001081276036389526
0.004087367194528542,0.0027175773748643033,-0.003853682349273624,-0.0016041135677510312,0.003929531973532586,-0.001081276036389526
0.004087367194528542,0.0027175773748643033,-0.003853682349273624,-0.0016041135677510312,0.003929531973532586,-0.001081276036389526
0.004087367194528542,0.0027175773748643033,-0.003853682349273624,-0.0016041135677510312,0.003929531973532586,-0.001081276036389526
0.004087367194528542,0.0027175773748643033,-0.003853682349273624,-0.0016041135677510312,0.003929531973532586,-0.001081276036389526
0.004087367194528542,0.0027175773748643033,-0.003853682349273624,-0.0016041135677510312,0.003929531973532586,-0.001081276036389526
0.004087367194528542,0.0027175773748643033,-0.003853682349273624,-0.0016041135677510312,0.003929531973532586,-0.001081276036389526
0.004087367194528542,0.0027175773748643033,-0.003853682349273624,-0.0016041135677510312,0.003929531973532586,-0.001081276036389526
0.004087367194528542,0.0027175773748643033,-0.003853682349273624,-0.0016041135677510312,0.003929531973532586,-0.001081276036389526
0.004087367194528542,0.0027175773748643033,-0.003853682349273624,-0.0016041135677510312,0.003929531973532586,-0.001081276036389526
0.004087367194528542,0.0027175773748643033,-0.003853682349273624,-0.0016041135677510312,0.003929531973532586,-0.001081276036389526
0.004087367194528542,0.0027175773748643033,-0.003853682349273624,-0.0016041135677510312,0.003929531973532586,-0.001081276036389526
