RAMEL-ESPOL/ARCHIE/matlab/data/joint_goals_espol_t35_h35_p12.txt
Joint0,Joint1,Joint2,Joint3,Joint4,Joint5 
0.000224646759860546,9.571751320490955,14.246960604846635,0.003173777188637386,-23.8223092436311,0.0020497757238740143
0.000224646759860546,9.571751320490955,14.246960604846635,0.003173777188637386,-23.8223092436311,0.0020497757238740143
0.000224646759860546,9.571751320490955,14.246960604846635,0.003173777188637386,-23.8223092436311,0.0020497757238740143
0.000224646759860546,9.571751320490955,14.246960604846635,0.003173777188637386,-23.8223092436311,0.0020497757238740143
0.000224646759860546,9.571751320490955,14.246960604846635,0.003173777188637386,-23.8223092436311,0.0020497757238740143
0.000224646759860546,9.571751320490955,14.246960604846635,0.003173777188637386,-23.8223092436311,0.0020497757238740143
0.000224646759860546,9.571751320490955,14.246960604846635,0.003173777188637386,-23.8223092436311,0.0020497757238740143
0.000224646759860546,9.571751320490955,14.246960604846635,0.003173777188637386,-23.8223092436311,0.0020497757238740143
0.000224646759860546,9.571751320490955,14.246960604846635,0.003173777188637386,-23.8223092436311,0.0020497757238740143
0.000224646759860546,9.571751320490955,14.246960604846635,0.003173777188637386,-23.8223092436311,0.0020497757238740143
0.000224646759860546,9.571751320490955,14.246960604846635,0.003173777188637386,-23.8223092436311,0.0020497757238740143
0.000224646759860546,9.571751320490955,14.246960604846635,0.003173777188637386,-23.8223092436311,0.0020497757238740143
0.000224646759860546,9.571751320490955,14.246960604846635,0.003173777188637386,-23.8223092436311,0.0020497757238740143
0.000224646759860546,9.571751320490955,14.246960604846635,0.003173777188637386,-23.8223092436311,0.0020497757238740143
0.000224646759860546,9.571751320490955,14.246960604846635,0.003173777188637386,-23.8223092436311,0.0020497757238740143
0.000224646759860546,9.571751320490955,14.246960604846635,0.003173777188637386,-23.8223092436311,0.0020497757238740143
0.000224646759860546,9.571751320490955,14.246960604846635,0.003173777188637386,-23.8223092436311,0.0020497757238740143
0.000224646759860546,9.571751320490955,14.246960604846635,0.003173777188637386,-23.8223092436311,0.0020497757238740143
0.000224646759860546,9.571751320490955,14.246960604846635,0.003173777188637386,-23.8223092436311,0.0020497757238740143
0.000224646759860546,9.571751320490955,14.246960604846635,0.003173777188637386,-23.8223092436311,0.0020497757238740143
0.000224646759860546,9.571751320490955,14.246960604846635,0.003173777188637386,-23.8223092436311,0.0020497757238740143
0.000224646759860546,9.571751320490955,14.246960604846635,0.003173777188637386,-23.8223092436311,0.0020497757238740143
0.00022691165855496563,9.571752669183953,14.246956607247771,0.0031737783415687272,-23.822299673837243,0.002052046055468758
0.056349347352673204,9.605063605679872,14.148023156672892,0.003019191544228264,-23.58528086854231,0.05823543064446795
0.18263306442574329,9.679225303136214,13.926308579710646,0.0013392745382278684,-23.052768857817114,0.1841309610742108
0.31569503329897125,9.756189082290467,13.694020345073119,-0.002399778835725953,-22.492855171880592,0.3160344356377511
0.44974901685990115,9.832514237941966,13.461350798338106,-0.00817846525701425,-21.92994258183501,0.4481903037933655
0.5830338715591458,9.907205190405136,13.231334236626918,-0.015895823559492515,-21.37138032926269,0.5789064855531635
0.7176477777833102,9.981439772305656,13.00033302079334,-0.025657381963901243,-20.808334502691665,0.710281639001909
0.8518359078739857,10.054247367885637,12.771347408606433,-0.037328807279953566,-20.248109172839463,0.8406407040670182
0.9858519698214296,10.125782137622133,12.543912689679875,-0.050894254554540413,-19.689593037422195,0.9702768645599738
1.1205245336050498,10.196488013662771,12.316607092326235,-0.06642452439864155,-19.1292942856965,1.100030461343335
1.255686500556658,10.266270051024533,12.089706472855863,-0.0839022013140343,-18.56787687793177,1.2297752118271126
1.3909470698187352,10.334925970411335,11.863853761515132,-0.10326847234849246,-18.00692778064712,1.3591733301506566
1.5281690823963683,10.403381361592844,11.635945200886782,-0.12481321582022945,-17.438699230119333,1.4900375418123333
1.6645371643000255,10.47022382879174,11.410651195798659,-0.14809899379265892,-16.874818631790728,1.6197178351703803
1.8022056989655701,10.536509757533256,11.184398436247838,-0.17348569703775335,-16.306340795016933,1.7503008527657593
1.9395594993753882,10.601454425315572,10.959834946640937,-0.20067984800072164,-15.739903896736685,1.8802899751609399
2.0770328594579963,10.665271171177967,10.736229505298994,-0.2297488754250487,-15.173676393856447,2.010135276347253
2.214172045715808,10.727757147923793,10.51429949760339,-0.2605793492141894,-14.609487673494732,2.139446405598959
2.3520663543809803,10.789407777872276,10.292270036568963,-0.293412856801052,-14.042822307139684,2.269286773263684
2.490488671964759,10.850109428650368,10.07050540391461,-0.32821002234108293,-13.474585648414621,2.3994771623301796
2.628285074133654,10.909361243596834,9.850836743727381,-0.36466932099978067,-12.909478296882096,2.5289689776180233
2.7663412505087055,10.967552269130785,9.631831992274096,-0.403009605176315,-12.343830838620743,2.65863110548444
2.904419737744788,11.024582004981674,9.413855893904199,-0.44316340554563194,-11.77858363535481,2.7882760508696114
3.042890777225342,11.080601063131711,9.196313845551774,-0.48524041898658665,-11.2121895688891,2.9182868872781245
3.1818820848952956,11.135651967355924,8.979001259593597,-0.5292926504744636,-10.644097583413108,3.048819142337382
3.32036658933557,11.189329988865468,8.763510171920917,-0.5749911144414225,-10.078473160176088,3.178943545252126
3.4591673168593053,11.24195858920915,8.548544189653793,-0.62260089981339,-9.511921999363924,3.309468437117068
3.5976921073391606,11.293314209053221,8.335007973601089,-0.6719183791149385,-8.946830190443654,3.4398718919881484
3.7369389545287697,11.34376258728458,8.121355229803394,-0.7233070332123174,-8.379097326261066,3.5711290885608378
3.8760293385514313,11.392979318915295,7.908927722783948,-0.7764543540918729,-7.812276850873982,3.702447967440807
4.014763277283469,11.440900691818912,7.698013790795816,-0.8312759038805196,-7.2471526463340314,3.8336734092337097
4.1541226521961425,11.487863094345059,7.487111927066354,-0.8881675005604827,-6.679696524423606,3.965769818715186
4.293065225662539,11.533512684939739,7.277790681640398,-0.9467118865231892,-6.114124245665745,4.097784872183577
4.431754298852124,11.577911591381854,7.06978649068322,-1.0069694662695767,-5.549741720263948,4.229906276574693
4.57164081849951,11.621511819857197,6.860922581803445,-1.069595608081972,-4.980618207130035,4.3635552904698125
4.710289018412413,11.663554149360827,6.6548254075777065,-1.1335059774018146,-4.416636329305644,4.496439778183862
4.8499660672637095,11.704727751694783,6.448113202358097,-1.199749773124974,-3.848546725308354,4.630767449878995
4.989147291922464,11.744575232301523,6.243038377650853,-1.2676238731873242,-3.282524545054191,4.765110480442351
5.128108053213129,11.783183146222449,6.039179322405859,-1.337258453201725,-2.7174236848171964,4.899766811619956
5.267593573669609,11.82075293886154,5.835437151264484,-1.409044663584869,-2.1501881211192178,5.035496763952169
5.406731805691401,11.857045583295724,5.633079042169033,-1.4825498111619257,-1.5843390333357699,5.1714895248065
5.545566692693515,11.892078632782274,5.432027066408448,-1.5577974950656592,-1.019673294948527,5.307820755224592
5.685253630334626,11.926134215812949,5.230605511941408,-1.6354400756212664,-0.4514669891142308,5.445666418524575
5.824136074294633,11.958805210547549,5.031196154190506,-1.714573692685502,0.11356546947155727,5.583430019503785
5.96381856687552,11.990466267481516,4.83148801390205,-1.7961296335786447,0.6819757365763454,5.722741778706616
6.102731251906684,12.02075798290323,4.6337191368578345,-1.8792103108914473,1.2473988142574925,5.862075224210708
6.24174843029493,12.049876342673471,4.4366322402285725,-1.9643437071412275,1.8134151446365372,6.0023410327478475
6.380697779221407,12.077781176166322,4.240465814356789,-2.0514457332798837,2.37934556762098,6.143405691583373
6.5195462584708785,12.104464266613482,4.045259098061694,-2.1405137768398705,2.945077177624383,6.285274678621327
6.658549300671672,12.129970041599861,3.8506477838982356,-2.231735863316777,3.511672537158505,6.428250849914802
6.797620433356407,12.154275465747098,3.656749523768744,-2.325084633701828,4.078801137223659,6.5722897713372825
6.935950842999765,12.17724362197062,3.4646810077644337,-2.420027470833014,4.643183659561045,6.716589114402471
7.074897335887201,12.19909670165146,3.2725524566697,-2.5175198435956596,5.210376083060347,6.8626065510243865
7.213099175599909,12.219617724109588,3.082239644654443,-2.6166318153758485,5.774843426357289,7.00895464520797
7.352450436630936,12.239077324665704,2.891133486830892,-2.7187612818441327,6.344343252203577,7.157689859779682
7.490710139326691,12.257156687362922,2.7023035456457194,-2.8222979436733815,6.909736824247863,7.306467159940116
7.628710463739789,12.273977134101207,2.5145980333094795,-2.9278649948115545,7.474441086517301,7.456211379531095
7.767180549142236,12.289619160157855,2.3270232818617873,-3.036058996522893,8.04145928291073,7.607764663244335
7.905406524795303,12.303993216144745,2.1405448327317167,-3.146363136869085,8.60788755468919,7.7603982019842705
8.043249481588635,12.317087345838871,1.9553416869021238,-3.2586875468364727,9.173171805747899,7.913999603605145
8.181610799840943,12.32897911454218,1.7702009396809486,-3.3738087029534833,9.741026819925121,8.069627048435546
8.31902468669377,12.339541965817464,1.5870777550369894,-3.4905358623056157,10.305451834032421,8.225677625782565
8.456757169223053,12.348875313303376,1.404277291841965,-3.6099694039936185,10.871660609186732,8.383632610838626
8.594481152074001,12.3569459310353,1.222233976986182,-3.7318773957217326,11.438326492880783,8.543177493823784
8.731995635553162,12.363738244355948,1.0412095893976756,-3.8561208524364505,12.004637218020335,8.7041321714886
8.869457209556654,12.369256367534772,0.8609941124336713,-3.9828812321392433,12.571251806263051,8.86673357833779
9.006600711380853,12.373487662849817,0.6819304975653798,-4.1119520471593605,13.137090174205921,9.03072055027385
9.144155211402888,12.376445872328905,0.503066139770681,-4.244072935118589,13.705175633007288,9.197028148096006
9.28097332326042,12.378103217074228,0.32588922569892836,-4.378185092046065,14.270781846015039,9.364325596116192
9.417795854313662,12.378471293938716,0.149433528060848,-4.515047443238045,14.836980463586071,9.533568069606291
9.554620788645579,12.3775421218346,-0.0262991219839653,-4.654714804100102,15.403776382049504,9.704819537788401
9.691128827394449,12.375314230657825,-0.2009017064858279,-4.796910482879313,15.969857598408174,9.877741680709192
9.827625393192886,12.371779096439637,-0.3747678867105693,-4.942003452076475,16.536500689756412,10.052784124982661
9.963679812515371,12.366946118451786,-0.5473529215730792,-5.089584422726188,17.101926315215337,10.229455753766954
10.099508946237293,12.360808784204368,-0.7189372043498888,-5.239932181229354,17.66704217900528,10.408095810676308
10.235876650300032,12.353319285523005,-0.890482967429786,-5.393971201803388,18.235039025353807,10.589793508183838
10.371644443279695,12.344532288728379,-1.0605581756112026,-5.550484081303961,18.80118431834082,10.773109051290694
10.506846203179784,12.334453835389668,-1.229213914854885,-5.70954230242331,19.365620226595617,10.958137739460488
10.642466700460883,12.323003727815768,-1.3976790814869522,-5.872374960399097,19.932465444167697,11.146306518901453
10.778131085275554,12.310197527647366,-1.5654834531311392,-6.0386280440512055,20.500164603995163,11.337194948960823
10.913668445880035,12.296043269526876,-1.7324151743878795,-6.20817138829373,21.06800918391639,11.530649538470586
11.048311412689042,12.280627010778902,-1.8975358958917599,-6.380091012504157,21.632783109347077,11.72563557302924
11.182652985654787,12.263889488024077,-2.0615808512110587,-6.555184792553042,22.196970466849255,11.923068164389349
11.317787313394202,12.245677339115161,-2.225880606002253,-6.734989699860477,22.765174964029416,12.12466886264006
11.452201354299392,12.226183609037907,-2.388593154099048,-6.917590309486791,23.331039363949962,12.328283742651088
11.58577011323,12.205440693054587,-2.5495775935721525,-7.1028487431650404,23.894028710611657,12.53377278717657
11.67974998027852,12.190021035696693,-2.6624250691906415,-7.235525826162033,24.290561374845886,12.680298070680374
11.712364271558577,12.184509906996206,-2.7015053941989664,-7.282026572284808,24.428251245209772,12.731530480488203
11.779991842852002,12.172818701253169,-2.7824063157089975,-7.379208853700346,24.713889111427914,12.838402886538734
11.809722691933638,12.167566075999254,-2.817915021814961,-7.42226040094419,24.839518614614253,12.885662805670846
11.826609180431744,12.16387003046506,-2.838918199597564,-7.447039585870434,24.912982663868334,12.912861515334281
11.780435217410796,12.006428449765817,-2.9881454159788885,-7.437114509306775,25.222972156821044,12.906816169635425
11.702996479170695,11.735241870669318,-3.236614612828064,-7.421170488845462,25.748161415422953,12.897181382060147
11.626445579937739,11.458141377076743,-3.4798734676854646,-7.40630072244848,26.273946033117024,12.88830246887983
11.550666623464638,11.174730926323228,-3.718197092091327,-7.392486448745742,26.801005846447502,12.880174579096856
11.498933721788664,10.975909146373779,-3.879387770478803,-7.383590481319883,27.16462795857055,12.875019472775008
11.478328488324399,10.895487611848697,-3.9432339020245144,-7.380171002263799,27.310327359353625,12.873057806113593
11.477579980164897,10.852735067614729,-3.9739586084800442,-7.384582074667694,27.383291405571317,12.88285791601205
11.787996645760881,10.791581902576409,-3.927045639635593,-7.580878786035094,27.357292234016224,13.229029844244826
12.308608755115173,10.685084759256984,-3.845220710968318,-7.909469604786373,27.312078201609378,13.809329055773524
12.842485080127789,10.570713755587182,-3.7571721254498485,-8.245594695307398,27.263654500382152,14.404042750504875
13.378689464169684,10.45053053334394,-3.6644509215054484,-8.582287961246285,27.21288531826444,15.000947792852628
13.911648678380631,10.325745251432147,-3.567972319801568,-8.916029844393222,27.16035957928571,15.593836329766265
14.449033387634104,10.194484198154537,-3.466254988453413,-9.251576824027122,27.105276667926834,16.191215411419233
14.984329658880787,10.05824211109795,-3.36042610521735,-9.584818575075902,27.04828359657394,16.785822584496575
15.520304068942181,9.916272274897157,-3.2498752496071033,-9.91744462581963,26.98908676386507,17.38071395346504
16.04958268698956,9.770554993967014,-3.1361163438844475,-10.244859665225247,26.928526424657587,17.967693697803536
16.564546694885273,9.623448504629753,-3.020974875666373,-10.56237907636267,26.867590161380765,18.538322745902736
16.85305652801997,9.53870906546421,-2.9545109010466906,-10.739804946858355,26.832565112961056,18.857803662875043
16.933556241111695,9.516380027506639,-2.9292401177334577,-10.788487137144434,26.814743709706423,18.945222871184797
16.963644567650316,9.56698956909159,-2.678456650348757,-10.77843420215857,26.513082782944053,18.914965151314505
17.016547272728953,9.651023867839465,-2.2358921018945277,-10.761911891875847,25.985951885353536,18.86273543462756
17.071176884736104,9.731302610153056,-1.7767690279953057,-10.74634852918297,25.44592229393553,18.810051520833397
17.12609961814616,9.805496560625311,-1.3131323048985766,-10.732218618130155,24.90737717415656,18.758327140675494
17.181469522951982,9.873842182633217,-0.8436325645719714,-10.719393297722545,24.368744550322074,18.70735220007166
17.237399945399584,9.936443522495521,-0.36736325396236297,-10.707871116222407,23.82900700653895,18.657018400317416
17.293767680056852,9.993132357912152,0.1145689707680705,-10.697701679533575,23.28943610529842,18.607429599740033
17.35035819121796,10.043737104526828,0.6003783059967156,-10.688834260953687,22.75200895889501,18.558712914229044
17.40769526792802,10.088705132930622,1.094502325762988,-10.68121076121514,22.21182608647155,18.510409798606506
17.463010079823324,10.12620862147293,1.5729551663801618,-10.675113435312703,21.694759145482045,18.464771999707878
17.48886876774383,10.141794369191723,1.797155418621421,-10.672708809507016,21.454428245426055,18.443760842255706
17.544761177903336,10.34991719140246,1.526259587302127,-10.709971363867778,21.50596623119411,18.514025364987933
17.666271610285605,10.797763310615437,0.9451476906254715,-10.790832919409619,21.614708683518018,18.66639201419884
17.797989718749708,11.276110005101243,0.3276839015424665,-10.878218334547116,21.727099969876832,18.83085742136008
17.91694633249108,11.701930885712509,-0.21916161277245844,-10.956895808809561,21.823861208830973,18.97877143370319
17.96684377347552,11.878839616391323,-0.445567420456232,-10.989829314121284,21.863145010191054,19.040643051323205
17.98991148978265,11.9602890197756,-0.5496504353952145,-11.005040843542153,21.881049857553666,19.069212283102797
17.932197534827218,11.846819265337183,-0.6885830894029682,-10.99074974137294,22.139613819335835,19.061226508874753
17.816262941785844,11.610886649954255,-0.9583223028021183,-10.962431584588,22.65770996290619,19.04449655169717
17.69869404959208,11.36298075050656,-1.2298151679763534,-10.934919884249043,23.18961727767366,19.02834115901989
17.581669256465783,11.107305510196696,-1.497841684468319,-10.908784627231965,23.72567672954903,19.013110387297424
17.497883607612312,10.918632476762873,-1.6882910341932806,-10.89086350439066,24.113588630640646,19.00274945823173
17.465601415228782,10.844649422690946,-1.7613432711123023,-10.884172214223526,24.26399326226728,18.998873720090987
17.421689735817832,10.742873763934185,-1.8603843644316893,-10.875189002797024,24.46938681251427,18.993727736711183
17.315762739594984,10.491790058014969,-2.0977618061636574,-10.85431090220323,24.968831471306686,18.981868752228284
17.204849434866247,10.220247413988341,-2.3438597555340923,-10.833683483298772,25.497884734428222,18.970322204475053
17.095239455157557,9.942962010340963,-2.58443668799396,-10.81458196246277,26.02693534588753,18.95982606784638
17.00356358886495,9.70402362307624,-2.78352933291477,-10.799653283647643,26.474249382440277,18.95177268088914
16.965746177548862,9.603564572282577,-2.865060961769763,-10.793757090297614,26.66005216210836,18.94865183088014
16.942213234875723,9.540483775767338,-2.9156166482945536,-10.79017076004295,26.77605516857742,18.946769926037717
16.946220181252883,9.566753556476911,-3.0045686196025674,-10.798537448918918,26.836882853385937,18.964303609764748
17.036541065323743,9.911713446068621,-3.4612969244019247,-10.864103419362362,26.92979738259896,19.086668645167556
17.159509660993013,10.375543765001138,-4.072615749433848,-10.953094273878879,27.051495174280124,19.252654688414562
17.285151110797067,10.842715343305713,-4.68507910122891,-11.043690033216123,27.17029118379684,19.421530239709593
17.41348833066307,11.313087597058662,-5.298412364217119,-11.135883613054842,27.28603792053607,19.593287835828654
17.54477363242919,11.787346558634717,-5.913413555504975,-11.229831079584928,27.398784685868925,19.76822434937789
17.677990619522024,12.261647898350152,-6.525033785644074,-11.324782604360164,27.507535738563742,19.944950971662657
17.814506089428956,12.740665398749536,-7.139226757428043,-11.421687971807124,27.613269270973632,20.12524314837329
17.953594711921497,13.221618774115932,-7.752333077908919,-11.520004671270515,27.715252728186403,20.308099249622
18.095355562875206,13.704670327679807,-8.364493311302434,-11.619777415263375,27.813434068782414,20.49361114293315
18.23814044445038,14.184131578978583,-8.968492655549941,-11.719848399387324,27.90661526917371,20.679634666485857
18.331882698533256,14.495168044268164,-9.358388946514996,-11.785291873897107,27.964806922703403,20.80127202802405
18.352766334673337,14.55931905762882,-9.41054537068749,-11.796668687865651,27.94881550421015,20.821546971668393
18.379126492787762,14.579919172973373,-9.055302856005051,-11.772229942770428,27.575535278281258,20.763832000132044
18.41788392884511,14.604728082290832,-8.530988387456633,-11.737870669518815,27.03007407114503,20.680409175278147
18.456873275977326,14.623227540382423,-8.001259909785038,-11.705174595243763,26.485405315252226,20.59817933076538
18.496002358987898,14.635425853902982,-7.467257037474904,-11.674100650378216,25.942663201639316,20.517220131092927
18.53540350469231,14.641399094101713,-6.927266457562427,-11.644549049694211,25.40007006302754,20.437247802232378
18.5749690971682,14.641163153284339,-6.382856329362021,-11.616607900914834,24.85916895210342,20.35847124506107
18.61443046142433,14.634838587651254,-5.837629168891051,-11.590335816104407,24.323431555337542,20.281299686284157
18.653556555434676,14.622693906217675,-5.295013501421599,-11.565883108837419,23.79599893263092,20.20616369060596
18.692660850865497,14.604832231740328,-4.750591866198665,-11.54290528725791,23.272387680565302,20.132323588749827
18.731521432897765,14.581533150619444,-4.207596068614474,-11.521508810501942,22.75553508973285,20.06016221630923
18.757482264984024,14.562943536930367,-3.8437775196831523,-11.50799144439865,22.41216035646304,20.012605910017072
18.794016978725534,14.67516522306532,-3.9624962633568557,-11.52982590791017,22.411358574472256,20.052056777820113
18.92371470716531,15.091933720144162,-4.476605784183728,-11.613478268067354,22.481155522497033,20.20828330682997
19.079841039738596,15.586422782395173,-5.083164894965373,-11.713809258277399,22.559884461451986,20.39552928323208
19.24001815152825,16.08580513312188,-5.691940786421177,-11.816326723649347,22.634863428696338,20.586721794283324
19.40291729138539,16.585687305508714,-6.297500399212423,-11.920154063712467,22.705325941520623,20.780230906928857
19.52927156849754,16.968023461568066,-6.75807054411021,-12.000415160154857,22.75608036957824,20.929712528652978
19.56778995961067,17.083665223303928,-6.896931613286235,-12.024822331760966,22.77090165587493,20.975164418647207
19.593317501595386,17.16307284864801,-7.002329874632626,-12.041927534371304,22.791083198107057,21.007694348514455
19.5108518486891,17.015631288617875,-7.168863746460894,-12.021677492556128,23.11508984012738,20.992519464557425
19.3755605904422,16.76653836608755,-7.4408895194481355,-11.989588238156106,23.652558157821353,20.968463675726316
19.240303879656583,16.50830177371838,-7.711238567742106,-11.958963051528112,24.197353357154913,20.94550253281108
19.107789509110013,16.24606705601948,-7.974400816440301,-11.93045582369081,24.73849562611136,20.924102116315147
18.97592233518432,15.975758822393518,-8.23442259996491,-11.903562191104097,25.28435958138461,20.903962874049032
18.846143582904816,15.700315258090088,-8.488365691990898,-11.87861718065723,25.828899303334314,20.885311129044556
18.718104994594373,15.419115919381845,-8.736832483114298,-11.855547452795522,26.373381178908765,20.868101268734016
18.592202028667764,15.133154246488076,-8.978992903421886,-11.834448095402069,26.915937799186704,20.852378879055433
18.468150259698277,14.84196438263271,-9.215309429728359,-11.81519473057324,27.457535676417866,20.838128051444052
18.387438749387325,14.647337260649575,-9.367770148441966,-11.803533546690375,27.813720018846865,20.829539504837783
18.35370668812547,14.564764871534814,-9.431172356865531,-11.79886732805068,27.96347932618527,20.82611449273616
18.182336195218816,14.60919786524869,-9.473476141524449,-11.694524748960562,27.996154797573112,20.63639991912631
17.698628535093793,14.753996345095501,-9.577018935296362,-11.395429411438187,28.052157648533797,20.09234963344831
17.15936525721645,14.910101604787096,-9.688333157115226,-11.060843360889235,28.112806645055958,19.485408739408914
16.615572964316286,15.06190722018375,-9.79626918704524,-10.722266359503923,28.172059935772804,18.87295232635688
16.07303822403486,15.20781857952341,-9.899720469397403,-10.383317609111177,28.229241031182905,18.26150104415039
15.529150168850618,15.348608281556228,-9.999274904682723,-10.04242124635608,28.28468934343411,17.64814087945643
14.981899549063217,15.484791258108906,-10.095320587643226,-9.69833145052597,28.338557232824293,17.030608107830474
14.435553751604367,15.615333261324963,-10.187152241043464,-9.353753199580252,28.390381636721166,16.41372317018752
13.886521102064842,15.741130195780809,-10.275435057002879,-9.006470667750484,28.440557579468276,15.793455967410704
13.33764342408345,15.861552689797525,-10.359749200894141,-8.658304115864468,28.488782892302297,15.173022156829028
12.80462268414254,15.973441315648465,-10.437915597611966,-8.319291909176114,28.533760567471766,14.570198313881484
12.497675863577662,16.035633325560596,-10.481290022313821,-8.123674108029357,28.558819651317464,14.222916653695037
12.467683691340035,16.047689605118833,-10.39726495455779,-8.097327232630846,28.467913332903862,14.173859852966565
12.490124333328462,16.06993323142107,-9.9654842330847,-8.077179874387076,28.01526458239073,14.126437733404897
12.517262634891756,16.090945363033722,-9.441331555455166,-8.05399755695477,27.471709160459287,14.07017766329391
12.544682644579419,16.105767853230663,-8.909591537936587,-8.031844061016466,26.926715179544278,14.014494887455076
12.572331116718939,16.114337598276567,-8.371398102151911,-8.010788244202486,26.3814688281245,13.959508649105388
12.600407557318114,16.116639550341844,-7.822656247589997,-7.990602243118623,25.831919807027074,13.904751010631841
12.628497805540515,16.1126330837207,-7.271569659527456,-7.971605993511303,25.286282770630752,13.851037120360651
12.656387236923765,16.10255386998952,-6.7224279713099815,-7.953890990382551,24.74860369404436,13.798720025982682
12.684191975632261,16.086593297927145,-6.17313476153374,-7.937362962875539,24.21659431000448,13.747549831728401
12.711955437367127,16.064893032137814,-5.622690784562845,-7.921879505948606,23.689137083659134,13.697343209895125
12.738507196622987,16.038872388571765,-5.094575116916128,-7.908027205497171,23.188233093719422,13.650146920583946
12.75721075309902,16.02371208028692,-4.845228081147233,-7.905634758510136,22.953748108566167,13.63489105946313
13.027761468398143,15.971099190521857,-4.80892060551806,-8.070281354137137,22.93302577448263,13.92278340813322
13.573878893521066,15.861218298805678,-4.73296699827527,-8.402038382995716,22.88984770423543,14.503771149182972
14.143320583681836,15.74135516816569,-4.649920933948213,-8.747099090169634,22.842918151601758,15.109375206358797
14.714649939025723,15.615606767954954,-4.5625896251798626,-9.092393468364317,22.793937977327506,15.716783125423332
15.289116184942904,15.483554344997332,-4.470646621365061,-9.43862062643929,22.74274198064905,16.327307702712275
15.859045422564332,15.346908152789945,-4.375249286866576,-9.781114668779685,22.689989621992005,16.93278104174561
16.430372024403564,15.20421881444179,-4.275363232274044,-10.123428919198862,22.635207781638105,17.53950843576549
17.00134908584889,15.055825740551974,-4.171187572737145,-10.464469924040205,22.578526005216226,18.145620751300207
17.574365242699688,14.900997147700519,-4.062167304317926,-10.805614104112625,22.519664948245605,18.753638181026325
18.144370278737206,14.741027695359834,-3.9491845894052426,-11.143838400664654,22.459206208434214,19.358201809430064
18.626034252326026,14.601153039241206,-3.8501049972563526,-11.42873251602465,22.406603662779112,19.868855510122483
18.752914034668766,14.550331027760024,-3.8354727395692145,-11.505718467557905,22.417294676851334,20.008793473300262
18.663969770355006,14.381726653952876,-4.028679170013867,-11.483794548383056,22.78927411422276,19.994077963938444
18.537297760037557,14.134070403347845,-4.302351584043242,-11.453687264984866,23.324989770898334,19.973909368851682
18.41207531407355,13.880293398678873,-4.571034392604692,-11.425257845071,23.861560145388978,19.954923151663873
18.29485943388833,13.634412446856036,-4.82072754425681,-11.399915198860054,24.370233277281944,19.93803342589809
18.241745169657676,13.52028338055749,-4.933251149142969,-11.388830360081926,24.602791072052177,19.930684744616546
18.212177835765285,13.45600435872631,-4.995716164573309,-11.382772474877285,24.73281321470364,19.92667629706876
18.125405347130222,13.264235240507752,-5.178290250067351,-11.365468059400193,25.116738733461183,19.915260258245954
18.004768904859187,12.989719793025692,-5.430177121977774,-11.342614315100507,25.656367197882144,19.900277612789157
17.885129586697463,12.708135776643099,-5.677600819240101,-11.321380968034415,26.19837940000114,19.886483909209613
17.76846598467551,12.424317014295843,-5.9164259099190355,-11.302127741897246,26.733586832126683,19.87408960361472
17.667335060537056,12.170708473474845,-6.121354430740865,-11.286596650001174,27.2029309801247,19.864250669326672
17.62541040765922,12.063461151109358,-6.205710181015782,-11.280489028070628,27.39898926994704,19.860423511490836
17.561496508309435,12.04807951264535,-6.241626586201867,-11.24682936304852,27.461721836137713,19.801456461274746
17.17185741570228,12.163964969431342,-6.328519506187528,-11.006538863424685,27.50810530692482,19.366421382945163
16.63799605395022,12.31789309734392,-6.443647165173437,-10.676283803524647,27.569870967573006,18.769935455672222
16.10803454794339,12.465217438368281,-6.5535371229995,-10.347334866430437,27.629248601945058,18.17736157399879
15.573283528230828,12.608408295167004,-6.660061023232348,-10.014322092488008,27.68718330199199,17.578991404827093
15.034915902153456,12.747089673350615,-6.7629646598805975,-9.677986467907932,27.74350742909078,16.97614368905235
14.49799197251811,12.879989068518082,-6.8613328669713844,-9.341518843701264,27.797683347297575,16.374498282015644
14.030568648326957,12.991334409595398,-6.943558537016319,-9.04778332662775,27.843190879532585,15.850399169412057
13.86581678882431,13.029808370327435,-6.968655059403459,-8.943807617511068,27.855607020322342,15.665020759690089
13.879858641319343,13.040734225955635,-6.711529345568264,-8.930681233021902,27.588641621439137,15.633553335287782
13.907662537591829,13.057909705886216,-6.2006979383373695,-8.9056679290458,27.062737069874814,15.57212506802759
13.936325947135582,13.069520107094181,-5.671753007351586,-8.8812028766231,26.524284357214135,15.509978475141319
13.965241450705898,13.075089182569686,-5.1359149094878624,-8.857873349920325,25.984929322551128,15.44847906796588
13.99422213959191,13.07460870768876,-4.59648262160909,-8.83573146119714,25.447978848056977,15.387931941869816
14.022972837710023,13.068256248306549,-4.0591126970335,-8.814987698685988,24.918889373847264,15.328928045545192
14.051804110543928,13.056128773372844,-3.5180681916444523,-8.795368381731477,24.391850988013914,15.270776507759807
14.08061733326082,13.038368826848616,-2.975336939100326,-8.776943195581921,23.868699436070703,15.213664588781207
14.10937019597912,13.015133038376431,-2.4315805071589467,-8.759624894770752,23.34995080757793,15.15757429036842
14.138198341964994,12.9864203664447,-1.8843714356571044,-8.74333534764543,22.83318382320576,15.102230796180542
14.163377484807958,12.956989718925305,-1.4047983621103208,-8.729961991222225,22.38451501693999,15.054594915581575
14.17513025097499,12.971970181352935,-1.3095411123306617,-8.730126274506771,22.273807326682995,15.048807028715297
14.24591960629526,13.28484235446964,-1.7011539564190954,-8.777421655582684,22.341078899042213,15.135831641049908
14.35712563386223,13.770200700540272,-2.305729517605239,-8.851528119001214,22.4421917800547,15.272044787705392
14.472195621451915,14.264732843230766,-2.9180484331337344,-8.927962286317616,22.541133524584758,15.412359715164666
14.589537563220228,14.761224264795995,-3.5290356658942024,-9.005646396890173,22.636295698733594,15.554794544843292
14.7045438364685,15.240399068977988,-4.115125659113279,-9.081558140006635,22.724136039728293,15.693788222147735
14.765182821416461,15.4901857246956,-4.419244377212124,-9.121467880952737,22.76837179177738,15.766816920099513
14.789164803406921,15.588434533001513,-4.538599850709796,-9.137232417597536,22.785476894027124,15.79565227523989
14.600607628699125,15.589031332632155,-4.518490388111933,-9.022910704155414,22.794248183014666,15.593898505861207
14.077675653645567,15.560932090888066,-4.428769767970305,-8.705059221137889,22.81244458243102,15.03359263362247
13.506514325914486,15.525478899570292,-4.327395764548741,-8.357146071518452,22.830366407083645,14.421768507487368
12.942615389402691,15.485602060865554,-4.223839466595761,-8.012939878242175,22.846095256295552,13.817894160364133
12.370194290633071,15.4401666362244,-4.115162875635524,-7.66283355459488,22.860009645825773,13.205073384479649
11.795709634866661,15.389542376074324,-4.002462148769313,-7.310789965454358,22.87183786000448,12.590233756311225
11.223029910294281,15.334062016738015,-3.8864730824479494,-6.95922871501407,22.881535375757895,11.97752528361769
10.648713615703734,15.2733845217982,-3.7664635483061377,-6.606070083556539,22.88910511072534,11.363274996095361
10.074624589879726,15.207674731862678,-3.642768856554943,-6.252492135342159,22.894457054030166,10.749487673387119
9.502687651265944,15.13717171427413,-3.5157973312059294,-5.899731795530091,22.897623780916838,10.138230058153015
8.929415182113205,15.061438280346964,-3.3847367771756605,-5.545673218299826,22.898572488021134,9.525785729021631
8.353784472139916,14.9802685518625,-3.2492664160796028,-5.189716064379596,22.897224422971753,8.911077448609628
7.779309867006393,14.894121226772146,-3.110161918598637,-4.834079144395209,22.893617905891148,8.297869759239914
7.203787717390413,14.802639900663621,-2.9668338647266803,-4.47743459531678,22.88768141213727,7.683824415880658
6.627035148753644,14.705734623556102,-2.8191536665631105,-4.119705646560206,22.879348730461235,7.068763130583528
6.055349828609534,14.604485615102364,-2.668721303308615,-3.7648448805369803,22.868745826614287,6.4594114828714
5.479839971437192,14.497299308045962,-2.5131459728056043,-3.407373392547897,22.85568018141933,5.846306147496361
4.931600442458203,14.390248935916969,-2.3610205556408985,-3.066656436505256,22.840967778808764,5.26256870315829
4.643106580220625,14.331967587456807,-2.2794096102264727,-2.887304430017315,22.83231503310566,4.955525020075302
4.624554450595179,14.236189307265432,-2.386539088842753,-2.8801115859312705,23.03587954205921,4.946927828482847
4.5936394673226095,13.998343975457555,-2.6525513525925692,-2.871758055765791,23.540621895514047,4.941525591479972
4.561454702847768,13.741729938263255,-2.9278226810127492,-2.8633937558660096,24.073421276312132,4.936133909928361
4.529734643738272,13.479539918985301,-3.197289381641864,-2.855494607298367,24.605971595030226,4.931063543146984
4.49834069600335,13.210669807502933,-3.4620243972218403,-2.84802641201441,25.140453923517494,4.926295149387465
4.467447632841934,12.936684128129961,-3.7204566187958514,-2.84103024255181,25.673727874636807,4.921857429221319
4.437004573111984,12.65726525180021,-3.9729309630083636,-2.834491749466203,26.206457578458256,4.917743473128889
4.406990731689547,12.37233415109756,-4.219536720403373,-2.828404601336333,26.73881207632375,4.913951477484544
4.377300950672854,12.08095392243611,-4.4610441881682545,-2.8227476705572165,27.27250154352493,4.910470612367261
4.358004855305745,11.886358864735211,-4.616618611067881,-2.8192721451641196,27.623188284586604,4.9083584342576
4.350067675252988,11.805097585653579,-4.68027975082677,-2.8178896502302773,27.768322582952607,4.907524978122273
4.4549825270102215,11.785879945761161,-4.683478381995008,-2.8862393669168154,27.785536843080887,5.026306362988839
4.902343437178174,11.751444580304929,-4.6575077763229995,-3.1752774785914712,27.77051564535798,5.527864139246153
5.443330231685002,11.705346875627425,-4.622716951864694,-3.524486959947571,27.7504353961154,6.13425327665487
5.98353453133987,11.65442930647804,-4.584254500752294,-3.8728054074747535,27.728283598558278,6.7395992451610285
6.5274368531221,11.598205831414438,-4.541738913997439,-4.223076825781608,27.70382716364073,7.348901196352228
7.068957492533048,11.537263753174772,-4.49561032703197,-4.571351966571631,27.67739390388673,7.955337684521663
7.612188631763594,11.471122474930082,-4.445488652536457,-4.920221948195609,27.64875412739362,8.563471491875452
8.153315310732543,11.400222715307695,-4.39169430919076,-5.267198968065573,27.618109553861796,9.169015151949283
8.696195866385187,11.32402966882588,-4.333802855349744,-5.6147141368559215,27.585208690121732,9.776264795804735
9.23865040980324,11.242798054870239,-4.271999389658627,-5.961340711450489,27.550238406579258,10.382772845100943
9.756838263570991,11.160405618394025,-4.209219960761458,-6.291846313223768,27.51484281090242,10.961881191825034
10.019707433017524,11.116806628961486,-4.175959816877622,-6.4592638493973755,27.49612800597367,11.255547139534093
10.071821077286648,11.13362330379399,-4.105606452925809,-6.487194600192735,27.403684571035726,11.302390550816513
10.107146666021908,11.254624784646802,-3.7771573412987176,-6.483461347693711,26.953152331249203,11.284462679689788
10.149759061067966,11.393994973462865,-3.3793308397751525,-6.4798062142916155,26.414623296977258,11.263544797006714
10.192964623322164,11.528125703230494,-2.974244723010404,-6.477014468340867,25.874026016352705,11.243092458650706
10.236454645540846,11.656028125905282,-2.5648385417854387,-6.47510032299292,25.33529914229608,11.22323999743176
10.280239933435087,11.77777900969032,-2.1510731790153645,-6.474048677353616,24.798327123168136,11.20396327493679
10.324708885269471,11.89439948058047,-1.729366806755971,-6.473880621124949,24.258487381252905,11.185089664610448
10.369536635612224,12.005005626706966,-1.3027483054631372,-6.47453050750496,23.71971804115793,11.166732438131895
10.414954439727712,12.11012401191899,-0.8691090860847464,-6.476031379095406,23.1793693186805,11.148794425719855
10.460227179817819,12.208138750326485,-0.4355369481519239,-6.478341885996274,22.646171450537935,11.131544559821952
10.489978350050475,12.26895860745476,-0.14993831824153667,-6.480289439940117,22.29868127559596,11.12053730594793
10.49790751760984,12.293931805358676,-0.11248548955028802,-6.482226028555484,22.235779277300246,11.12124534558056
10.546067613246464,12.586099052390278,-0.47968320303283263,-6.514992527893435,22.30499905624983,11.180970978323792
10.626500077379754,13.068153603973975,-1.0827047919253738,-6.569595963759836,22.41621621960233,11.280374990510664
10.693280056147128,13.462919868128138,-1.5739010854716282,-6.614816692937045,22.50450823613749,11.362583524677714
10.714483810802498,13.587249973296077,-1.7281091281281038,-6.629153291250888,22.53179406496551,11.388625553286122
10.707656735100601,13.579058717058485,-1.8138011061834218,-6.6295018635445775,22.625821019801478,11.393175653449843
10.645341368982633,13.372352337419638,-2.049622913876731,-6.612973661314992,23.072437282798436,11.382739488658753
10.57171124658675,13.119730197655771,-2.326612122635074,-6.594153117164996,23.606844856020032,11.37089658379585
10.499285457652109,12.862102538409237,-2.597168248325688,-6.576416347698183,24.139709598130935,11.35978771291106
10.42778569961108,12.598588187956231,-2.862245990013536,-6.559689983897638,24.672886190820865,11.349372575132328
10.356917828958247,12.328089977490697,-3.122847818826025,-6.54394224442634,25.208489857053138,11.339609274906113
10.287272974761486,12.05297654487769,-3.376674067574446,-6.529237105572895,25.7418226758733,11.330599500812593
10.218787987554045,11.773168705065304,-3.623914560759245,-6.515582971841518,26.273155026453125,11.32232450944636
10.150650946378446,11.485370511323936,-3.8674005861233822,-6.502821674153406,26.808665318557214,11.314694300375761
10.097366645489638,11.253578433810661,-4.055955091983188,-6.493434791134397,27.23229108378902,11.309164649691683
10.07663151663065,11.161748239605314,-4.12886729286258,-6.489926305425237,27.39830335586084,11.307119957399332
10.065079385999512,11.110185927250885,-4.169373179678707,-6.488007255375978,27.491077521753898,11.306007333570179
10.096252621185693,11.310131554046546,-4.428967077732523,-6.511294940408748,27.546839394728522,11.348290215855066
10.166848418568291,11.757575315005765,-5.003051006427256,-6.563630914592995,27.66467559491524,11.44314587265283
10.244131636603868,12.240604332798679,-5.6192962466062575,-6.620746128314717,27.78819940056724,11.546561123126756
10.322225416303246,12.721693349136142,-6.2294370755941495,-6.67826977790804,27.9073995626205,11.650613796573047
10.402554505999937,13.209401053072916,-6.844253183565712,-6.737269680733955,28.02430713209687,11.757187096401879
10.463573543508035,13.575200382919165,-7.302918632876738,-6.781926759572542,28.109389367997245,11.837826147670267
10.482431611134746,13.687448914388485,-7.443237891389881,-6.795704185780673,28.1350474125076,11.862693929699342
10.357059077101134,13.729682914556806,-7.484586349892349,-6.715811907951517,28.148838413382382,11.722221063462753
9.886418200779167,13.807222646246556,-7.540976325882631,-6.414384915673212,28.1813236578897,11.19228367694134
9.345596660798885,13.891660354633656,-7.602291002619158,-6.067364889208894,28.216789331534148,10.583071738216637
8.798075466141519,13.97210002594549,-7.660613156556426,-5.715379203167033,28.250661225777186,9.966052864537915
8.249105540489499,14.047693672183366,-7.71533841840833,-5.361822302165164,28.282537134930266,9.347150726942434
7.700601064712842,14.11820086994629,-7.766315744099627,-5.007975405373814,28.31236591365707,8.728545372052054
7.1500534735641486,14.183954200661187,-7.813795730879258,-4.652251517868245,28.340242897372896,8.107418546569344
6.60088315004718,14.24456528669197,-7.85750725550739,-4.296895132832505,28.365959519908767,7.487641582583988
6.053701370821804,14.300041723844004,-7.897475992767954,-3.942354225822966,28.389569635786025,6.8699271828574
5.504501972061556,14.350814179391522,-7.934019521752201,-3.5860681603796967,28.411214802851905,6.249765335556949
4.961497910545552,14.396200871513255,-7.966653553925422,-3.233405773660248,28.430562202110437,5.636445212127831
4.585256430091949,14.424854579827327,-7.987247111715461,-2.9888454076724655,28.44283372831508,5.211404551605193
4.536307852904168,14.44619853178007,-7.946506429301703,-2.95530943781997,28.383329773476053,5.152519180284745
4.551959111059323,14.566757832162828,-7.642512562719035,-2.953730138019856,27.958539879089574,5.145303041269252
4.572188607056885,14.715897194776995,-7.248289662654158,-2.9520902386627244,27.41486533032866,5.136324946648456
4.592678264230366,14.859466288035563,-6.84759216775306,-2.9508739193228264,26.870275465952158,5.127615256889571
4.613392622955851,14.997164726713532,-6.441167062479859,-2.9500813787964217,26.325818267849964,5.119184450392199
4.634275631660676,15.128619867566695,-6.030177502882034,-2.949710108675358,25.783030535979098,5.111048321504855
4.655466172355374,15.254668975491384,-5.611948012797181,-2.949755416716028,25.238397310230294,5.103147726039745
4.676942142410897,15.37508778123005,-5.186964769916509,-2.9502184898840635,24.692629418706787,5.095488673725796
4.698542033727139,15.488977401555639,-4.758489830144942,-2.951091678638904,24.14989064900273,5.088121934120521
4.720505598170763,15.597574198253001,-4.32182914762108,-2.952382714767929,23.604246505827195,5.080960634870665
4.736665985940265,15.672961090842314,-3.999971703226973,-2.9535832924952405,23.206713864576344,5.075894271226885
4.740919394834778,15.696273177158446,-3.932458805899263,-2.954223686196429,23.115794958046447,5.075327044604744
4.760364706201789,15.94582370075027,-4.231712497293011,-2.967402656891297,23.164448311244332,5.098795305371389
4.7988159431110935,16.433653031254284,-4.813871978024706,-2.9934077495363303,23.256692798100396,5.145048791619518
4.83401187855818,16.87378485786273,-5.335886943955608,-3.0171472736604934,23.336655513521013,5.1872109252285155
4.847143060434315,17.036461898753227,-5.528052644845233,-3.0259885797254444,23.365424918225315,5.2028986568498485
4.839686116899448,16.991132931928703,-5.619246190338821,-3.024468688662651,23.5021428750397,5.202797700307414
4.8081255934262135,16.763073751310255,-5.870588466191637,-3.0158821574871886,23.98250994502634,5.196612298234873
4.773275096643161,16.50222542258327,-6.1467937214064206,-3.006755976086705,24.520621287132766,5.190043520390178
4.738833541725302,16.23482512671224,-6.4182152780736,-2.9981180116832666,25.06047952588145,5.183834723890369
4.705033527382618,15.96279106775736,-6.682919525745585,-2.990024551280208,25.59822606720742,5.178028923649061
4.671553279017502,15.68361831118063,-6.943322980413345,-2.982397786303513,26.13879214667073,5.172572828320485
4.638842666862275,15.401210993768899,-7.195839565727383,-2.975336846702213,26.67467448984518,5.16753966315933
4.606340959329119,15.110797087904775,-7.444744205160792,-2.9687530659296377,27.21493359056088,5.16284147477612
4.574340843448016,14.815087752566889,-7.687604254475924,-2.9626412566739986,27.754423413397937,5.158531211655271
4.5480876839218665,14.564984064556755,-7.885114107423354,-2.957937835620202,28.202785548393294,5.155237086546085
4.537263771119733,14.459854605905262,-7.966063024863728,-2.956082639879485,28.389170817302027,5.153944689665151
4.535924993089946,14.454011441381654,-8.021237495222012,-2.9569159536532332,28.450175830457713,5.156012862354215
4.559613228628503,14.77658656854945,-8.417528671617703,-2.974381555514507,28.522575119479942,5.18709910661821
4.596091751823744,15.267412999913407,-9.01728322393071,-3.001201754239078,28.629465144403266,5.234794821707348
4.633778134977798,15.767156424519753,-9.6239017981214,-3.028813278293875,28.734221577669675,5.283848803805827
4.672443185758682,16.27236821418838,-10.233002438243155,-3.0570395189160617,28.8359228872856,5.333945865277423
4.710017869251104,16.756268812333357,-10.812473554850204,-3.084370413125267,28.929354228850404,5.382408756796223
4.730040455591853,17.011355129143535,-11.116383059254101,-3.0988943335872574,28.97703216160047,5.408145072075493
4.755283093348399,17.086598895298327,-11.206534231171645,-3.1158202649910973,28.990557502004833,5.437731115963085
5.087326597304187,17.06130200795894,-11.189251846046055,-3.3327576321836037,28.980002765380963,5.8152447897811
5.632999003335876,17.015968797469235,-11.158252002574747,-3.688969633961168,28.961046515364593,6.435537433589496
6.192504770185438,16.96461614407799,-11.123107302987705,-4.053801661352426,28.93964402531311,7.071414678996543
6.754278812054906,16.908068011418727,-11.084362810348477,-4.419647359384233,28.916089230274,7.709708310013537
7.317653934294566,16.846314563268127,-11.042007750343654,-4.786032444373653,28.890453886147498,8.34964880727652
7.87871633161426,16.779764335429736,-10.996306275487688,-5.150367634200823,28.862889112027485,8.986774192240775
8.439123020385361,16.708228304797252,-10.94711187507113,-5.513687126321139,28.833299353848474,9.622950244543928
9.002693794062791,16.631151449533018,-10.894035339852445,-5.87843062982113,28.801532487813393,10.262503270108313
9.564322950898786,16.54917741736751,-10.837496456200062,-6.241240442726608,28.76780857071728,10.899617794489798
10.126454861009487,16.461931190894056,-10.777227651925203,-6.6036674687860275,28.732053540090856,11.537060140816296
10.653442783835816,16.375377310245018,-10.717337295903826,-6.9427510540507695,28.696685637179776,12.13441370066697
10.910382692779224,16.331493919655617,-10.686932647871224,-7.107821748005799,28.67877781430363,12.42557266188492
10.948520157526882,16.33090475167641,-10.590306402108089,-7.125665036629019,28.578781325668402,12.454918492455624
10.968639408059529,16.353051456052015,-10.152146076272674,-7.107694247075658,28.119542085325108,12.412675956572565
10.992610969592866,16.373522066479698,-9.628127637433048,-7.0873325843916515,27.576282974191837,12.363314055001336
11.016787764605805,16.387791356747886,-9.09752207137065,-7.0679127916240825,27.032604064614404,12.314552609450056
11.041249663576911,16.395859118460137,-8.558574942464741,-7.049363372581806,26.48675586586445,12.266216175585448
11.065759270471883,16.39766301920787,-8.016650284414034,-7.031884300900905,25.94414782913216,12.21878048880411
11.090242385648255,16.39333326186961,-7.473216772706757,-7.015417010351594,25.406130550095057,12.17228721081473
11.114686325634757,16.383034878122515,-6.928734678796035,-6.999967651130219,24.872993951045576,12.126747324218258
11.139030262041542,16.36697770817607,-6.384629202312174,-6.985532642025633,24.34595289792775,12.08222885895131
11.163258808162183,16.345382757355754,-5.841440229499756,-6.972113192313364,23.82532072810733,12.038740565213711
11.186365513666026,16.319676198827192,-5.321677177945709,-6.960099462753858,23.33215862043894,11.997944051393013
11.196464178051263,16.306902380365386,-5.094033924140718,-6.955093719048872,23.117671314288675,11.980322885170741
11.150782995614506,16.295533350320103,-5.024229402123659,-6.924214123305822,23.06508091676321,11.924296867125543
10.749004389222215,16.226802531532545,-4.910348201590127,-6.676649933621545,23.066904185587077,11.493265708461275
10.177243302002934,16.124642933867165,-4.74493584546758,-6.323893700979261,23.067535363567977,10.880101117082006
9.605919319340511,16.017428739762558,-4.575660542394825,-5.970907971894572,23.065816806615768,10.267681511335331
9.034687135294611,15.905068563626516,-4.402356882841726,-5.61751677858778,23.061687690024094,9.655651456755638
8.460597493511168,15.786911179297721,-4.224041435291175,-5.261939590318256,23.055138928592672,9.040865399182717
7.888555517951117,15.663914750479256,-4.042151990563648,-4.907250467016968,23.04615507994607,8.428593418299666
7.317289046150264,15.535801145994835,-3.8562345579768995,-4.552701986120265,23.034669114560064,7.8174896704836465
6.742832231659322,15.401604950547862,-3.664900887854396,-4.195876745766911,23.02061497465762,7.203326985288169
6.169123861843102,15.262161387001091,-3.4693448756609735,-3.839258376528658,23.004004123678524,6.590338496181916
5.594157255341955,15.116923704249487,-3.2687877454516125,-3.4816413312762493,22.98473996800526,5.9763993076132484
5.024515459951532,14.967556109605956,-3.0654763763965907,-3.1271633595135016,22.963001452460965,5.368556975931705
4.461401616914154,14.814489765214953,-2.85989843354925,-2.7766210242554528,22.938943682755905,4.768096407229148
3.89964311152607,14.656372018752513,-2.6501603624823393,-2.426836276395249,22.912332577614123,4.169515967275303
3.365382997087899,14.500914791447391,-2.4462826317606834,-2.0941306835609006,22.88456835999951,3.600658620243205
3.0991539732748903,14.421581171276575,-2.343052744365077,-1.928334703067919,22.86981373489247,3.317350768371571
3.0854393957022612,14.312123701581285,-2.465738121468765,-1.9231128549194088,23.10227675793596,3.3112601926240117
3.0644457145934014,14.069801068890415,-2.7357671926453118,-1.9174322112778748,23.615029814090907,3.3075752630056634
3.0430134774957858,13.813375100017536,-3.0097728102088737,-1.911856037660816,24.145867955071832,3.303969749802964
3.021754424774585,13.54969498353797,-3.279735132701514,-1.9065562123003013,24.679910419879466,3.3005572230388798
3.0007441028624453,13.279668479473965,-3.5445754673158856,-1.9015535488344237,25.21516936132078,3.2973529438278235
2.980144061828845,13.005510337943786,-3.8021744414870513,-1.8968844198860997,25.747307724391053,3.294381724128986
2.9597635766248587,12.724811949789883,-4.054834540952993,-1.8925038207076754,26.281040210799585,3.2916163997395866
2.939723439729289,12.439329016162905,-4.30097006082651,-1.888436975035559,26.813023259592658,3.2890743958847266
2.9199636692748943,12.148352479587635,-4.541244656996078,-1.8846697099882703,27.344630752571305,3.2867481589302474
2.9077133144410725,11.963097357588964,-4.688919966156375,-1.8824592568972902,27.677780520881807,3.2853995436816326
2.902558696558978,11.884013237793296,-4.750749631865694,-1.8815584867467359,27.818786227690616,3.284854125193438
2.909044260930857,12.029421010040599,-4.944356511070841,-1.8865955964552983,27.866747641919858,3.2939205392725754
2.928757332414667,12.461861556580393,-5.491688300408554,-1.9013838313574325,27.98092935907443,3.3203487068371484
2.951272768523796,12.949069278749146,-6.104796854467634,-1.9182265201555027,28.106015201445626,3.350413642535424
2.9742676825593914,13.439487730613191,-6.718135887267617,-1.9353749915178295,28.22809839619855,3.380988029005457
2.9977435249529543,13.932922109295193,-7.331366554415805,-1.9528267093259968,28.347034552389303,3.412067078903272
3.021704724232594,14.429246717064563,-7.944241578132211,-1.9705812841006565,28.462701626980724,3.4436498900395898
3.0461651484161267,14.928528107951614,-8.556751491205784,-1.9886451788748472,28.57502277603008,3.4757477606486
3.0712198981540046,15.432446246335566,-9.1708439590527,-2.0070843495985513,28.68426181986847,3.5084775187854373
3.096855465182697,15.940438926038997,-9.785704962926486,-2.02588418544928,28.79016706240541,3.541812748248828
3.122883724330087,16.44858754079825,-10.39651868539875,-2.044902809285744,28.891848041810288,3.575501864699236
3.1479540075954797,16.930991261872688,-10.972447244052333,-2.063155491699446,28.98441900657225,3.607803402375858
3.1602243134615473,17.164641601272876,-11.250011862576935,-2.0720654289498546,29.02786430131619,3.6235606330917807
3.163006163118229,17.191096014091965,-11.143355413936485,-2.0712216253251636,28.894740468415804,3.6212202177272133
3.169223673062332,17.212659042080936,-10.683266039724774,-2.0657747189497777,28.41317901448714,3.608444029556475
3.1762233096436265,17.230993077727668,-10.1634297563171,-2.059952831526138,27.87510745901522,3.594348413539702
3.183290451407163,17.243260883105464,-9.636630377905087,-2.054396264666894,27.33613627088025,3.5804130856877006
3.1904433582388707,17.249437544340054,-9.101504954198303,-2.0490891321259106,26.79492771905152,3.5665985088500918
3.19759946981344,17.249480715567266,-8.564254297426794,-2.0440870575785706,26.25772398720773,3.553056802560523
3.204736311012802,17.24355288710629,-8.026630272800631,-2.0393937637948683,25.72611434402978,3.5398174134299687
3.212002188147466,17.231534837780288,-7.477476304600805,-2.0349078758864274,25.18906331940456,3.526599462788844
3.2191045680800237,17.214087017666703,-6.938968558977879,-2.0307981011524436,24.668083384806827,3.5139222449183856
3.2229634188313825,17.202298444721265,-6.645874065108349,-2.028691746422138,24.386814596235812,3.5071421919457957
3.2266573738863484,17.18951504476422,-6.3649296371842015,-2.0267528298678683,24.118686338556486,3.500717971221619
3.2332935396809295,17.16289244120243,-5.858709847032014,-2.023402718309634,23.639158686305468,3.4892995401610176
3.2364105379351717,17.14879715254568,-5.620471354292415,-2.0219036642073616,23.415047367010228,3.484000311541526
3.226694338578259,16.9661571972947,-5.397565536955172,-2.015228662864189,23.37514192904803,3.4720887976231887
3.2017453129451994,16.498862153318267,-4.84424652322681,-1.9983720800772542,23.29002683059707,3.442208541052024
3.1750472344572422,15.991172680849985,-4.23918466992638,-1.9802833732783782,23.19362099460234,3.4100939912468724
3.1487918879538963,15.483961697711662,-3.630640289129804,-1.962443697984836,23.0932320021316,3.3783689861859383
3.122807230860943,14.973974762983453,-3.0146979164475733,-1.9447381327144366,22.988205247273534,3.3468290524477755
3.101196334309979,14.543575592483814,-2.4917179701042933,-1.9299750028357683,22.896392289659634,3.320488591873938
3.0942129933844926,14.410873402805844,-2.352435291930881,-1.9255405790396283,22.890045339229076,3.3128390688357694
3.079437953950265,14.243737758943418,-2.5430738049031762,-1.9214587849517124,23.24810317190357,3.3101873262961012
3.0577619784193435,13.990837106987804,-2.8213918964895095,-1.9156600749274417,23.779735356480394,3.3064290152608398
3.0363310011272717,13.73151699704338,-3.0948222940261596,-1.910156210307194,24.31289137864536,3.3028744283266316
3.0152379877825974,13.466974519116265,-3.3620793689392787,-1.9049704448492504,24.845086824456537,3.2995402932343403
2.994428468277474,13.196632655940965,-3.6237624585166226,-1.9000880262844162,25.377499143865734,3.2964187305508474
2.9738285529386026,12.919561891140786,-3.880695418728896,-1.8954922569354031,25.911883129482458,3.2935007763404864
2.953518054233011,12.636877595170862,-4.131781059747613,-1.891201406771569,26.446024794348563,3.290799691959877
2.9334944977286965,12.34865058882094,-4.376964542736324,-1.8872139235292724,26.979798589831002,3.2883159696149353
2.914846193997085,12.071439674293622,-4.603041948037705,-1.8837253669717327,27.48342237031977,3.2861703556411843
2.906232097534231,11.940459628480987,-4.706689899255502,-1.882189465161664,27.718204365764983,3.2852358390082887
2.8912581175283476,11.880190158895806,-4.754520851400673,-1.8743640838399236,27.826734408389058,3.272459122675696
2.5796995919167887,11.894161253482158,-4.765037839939984,-1.672523976367619,27.832872168325924,2.922922181198761
2.054196155743532,11.914109813688555,-4.780046879151267,-1.3319470178606319,27.841615053945983,2.3333018989556877
1.5143538134821537,11.929881800923308,-4.791906254726152,-0.9819339506006736,27.848501926276256,1.7275309383450177
0.9709123555276455,11.940935506430668,-4.800218921169134,-0.6294788109473088,27.85335531824972,1.1176758710453378
0.43174058789445613,11.947123852352487,-4.804872607172991,-0.27972362417484664,27.85607693061217,0.5125826304784716
-0.1104106326607304,11.948549605102611,-4.80594584209536,0.07199520545568636,27.856711013322215,-0.09586759737462386
-0.6506137153603417,11.94518655771028,-4.803415380703069,0.42244066568967054,27.85521416117271,-0.7021280811645054
-1.1908114835744583,11.937047782376718,-4.797298005485656,0.7728382284697198,27.85165583267515,-1.308362847538543
-1.7316664986886487,11.924111209519564,-4.787571725811411,1.1235776369282549,27.845996291627987,-1.915299058405676
-2.272777570738917,11.906367140948948,-4.774224037647408,1.474357881139092,27.83821156952376,-2.522469316529042
-2.7412054713446645,11.8871234007918,-4.759744194733758,1.7778915607378565,27.829780752894184,-3.0480277974276575
-2.9025135607715646,11.880635593313073,-4.751596513932798,1.88232474129732,27.82302188040705,-3.2288656729331975
-2.908609824615653,11.953550296461728,-4.55837927178711,1.8816802642633295,27.556834832857508,-3.225821949512043
-2.9207623900677344,12.093689340130478,-4.172002146063225,1.8805924811004713,27.0302069412279,-3.219920957011819
-2.9333159294252913,12.23132299902697,-3.771268089714596,1.8797357273160447,26.491721282844413,-3.2140493257331406
-2.946003222583315,12.363254565558943,-3.364702285661966,1.8791353296465294,25.95310220619646,-3.208336036055956
-2.9588093883402786,12.489309106507246,-2.952832909889274,1.8787899946300166,25.415052997920164,-3.2027840979864117
-2.9717325549997557,12.609466046742268,-2.5357754094922913,1.8786972882311739,24.877709738698385,-3.197390190115701
-2.9848237849431594,12.724161086397924,-2.1119300639339538,1.8788558590307398,24.339036526054144,-3.192130039967626
-2.9981171338750037,12.833591352389252,-1.6802314659057132,1.8792674970843561,23.79777048686251,-3.186988830969219
-3.0114377899635176,12.936331969291087,-1.246415666402469,1.8799242078653868,23.261074395463513,-3.182029821288516
-3.0237703476194957,13.025448686967632,-0.8437593197059425,1.8807425995262192,22.769170124452334,-3.177602716509497
-3.0286740871557782,13.059314242004724,-0.6833960583689059,1.8811227106015984,22.57488864892735,-3.175884616409048
-3.0342463638128967,13.170198127636503,-0.8037170634453612,1.884707537801699,22.58414190059362,-3.1821117693982313
-3.054433385160731,13.589890791566246,-1.3226492487396664,1.8985980175040924,22.68267658302561,-3.20701621514842
-3.0782525581588494,14.078136940336043,-1.922926720492057,1.9149493194371883,22.79387158004912,-3.2362848133670497
-3.0925031344101157,14.366734026029873,-2.2760092303012422,1.924712096741953,22.857854234256855,-3.2537360584750954
-3.09347560294303,14.401477768425202,-2.3633056486936765,1.9260616059864915,22.91034532668416,-3.256684008369818
-3.0771089623794654,14.215772266715174,-2.5744469078317214,1.9215553054717824,23.30750617158608,-3.2537617852011222
-3.055411966105125,13.961507200979081,-2.8529167524133014,1.9157803599679515,23.840654598897718,-3.2500265965028263
-3.034029244096018,13.70163367266971,-3.1255957769741007,1.9103189166509307,24.373611427362835,-3.2465074314655875
-3.012928742589198,13.435843489258774,-3.3927946514186855,1.9051619582904384,24.906996192253587,-3.2432001766787963
-2.992050064925829,13.163403913341945,-3.6551706526259213,1.9002953318687446,25.442200086617795,-3.240097508505104
-2.9716159708852,12.887371038967066,-3.909845326660901,1.895768630397827,25.973284504433263,-3.237232498693
-2.9513272416846417,12.603808823753333,-4.1604609700300035,1.8915144331678464,26.50783337107495,-3.2345639798106607
-2.9313410356453145,12.314930465295333,-4.404970295514674,1.8875669159386268,27.041583363553297,-3.2321150843042323
-2.913293041858214,12.045678103872698,-4.623592194350741,1.8842175117156923,27.529782036613323,-3.230064141653925
-2.905393350178578,11.925259253087985,-4.718596207183098,1.8828176956611833,27.74534605853755,-3.2292161077046506
-2.9031908681074796,11.896555680024196,-4.775606552791839,1.882875745524391,27.83108551688688,-3.229930333187321
-2.9166265166750285,12.193056850149935,-5.1518202161862705,1.8929673952553816,27.910315680434824,-3.2479745953248718
-2.93845907943377,12.669351856348813,-5.753263254159468,1.909327429502125,28.03467620662431,-3.277198118742478
-2.961149262811821,13.157316432272182,-6.3657146882693665,1.9262791857772796,28.158339744550823,-3.3074424296676295
-2.9842852777555686,13.64770540399733,-6.97738713045309,1.9435103059950265,28.278778618635492,-3.338149102954345
-3.007529833728727,14.133332660877398,-7.5793233556597155,1.960767403450423,28.394233866404218,-3.3688672573873206
-3.0219532626265337,14.43120344665901,-7.946656671115034,1.9714478305555476,28.463164064886026,-3.3878619655149227
-3.0241231838042957,14.51943854822803,-8.055140750366323,1.9732390374131663,28.48332690930299,-3.3911058483625536
-2.7391232231888645,14.532494656308591,-8.064504436120346,1.7874890915355146,28.488945676980116,-3.0689483437198697
-2.2107751776079505,14.553269299576908,-8.07939433581754,1.4429985907919085,28.497852427458973,-2.4716608274596155
-1.6571293176220936,14.570269970453092,-8.091574519424443,1.0818549495226117,28.50514254879165,-1.8457132965503529
-1.1042441688499145,14.582385032003783,-8.100253698134757,0.7210850210071399,28.51035510243303,-1.220579023712369
-0.5498883815634608,14.589658299988908,-8.105459773103592,0.3592752705917945,28.51345774467605,-0.5937500471327452
0.0015060340676308036,14.592056550429431,-8.107177908767332,-0.0006435514181942538,28.51449734131072,0.02974573737950278
0.5558073721662445,14.589605958461474,-8.105423576207448,-0.36245992448266096,28.513453560061883,0.6565286524321047
1.1088505223127096,14.582301282687036,-8.100188733357848,-0.7234116109180512,28.510293008313496,1.28187273776022
1.6609662958008313,14.57016565377007,-8.091496087538477,-1.083679234393848,28.505089876593388,1.9061371700867036
2.21483529589437,14.553121651789288,-8.079280141939657,-1.4449650757489585,28.497749937984164,2.532335812909437
2.7387729917140726,14.532503769092026,-8.064501673914636,-1.7865800196389159,28.488910098830797,3.1246372855362994
3.000487231240207,14.520565880742945,-8.05594415452878,-1.9571580506155395,28.483810053063152,3.420475537414132
3.0277204415186594,14.524723719022411,-7.923033495268263,-1.9723393911797262,28.345867395013354,3.4458748808988697
3.033534277616127,14.540713875932294,-7.449850373378883,-1.9671318806230513,27.856784912084635,3.4333511588737737
3.040041110548457,14.55265989362702,-6.918166403610313,-1.9615964101467644,27.313253367863407,3.419599970960931
3.0466089645654257,14.558478384987016,-6.379306638269754,-1.956311757795256,26.768671231717484,3.405992092540553
3.0532012960069927,14.558151649259587,-5.836285079615028,-1.9513024396952132,26.226069764099563,3.3925966101677956
3.059760227564734,14.55182832937179,-5.293929905700717,-1.9466016035274236,25.690127835340675,3.3795192200015336
3.0663499756169825,14.539580225746944,-4.746986678724177,-1.9421533205542603,25.15552023186736,3.366620845381816
3.0728511369745837,14.521831317215142,-4.205443852164864,-1.9380255246220421,24.63181001317133,3.354121851558278
3.07938430971471,14.498446482066473,-3.659330036927776,-1.9341297000921605,24.109162626219938,3.341777748729426
3.0859032938251603,14.469686299754015,-3.1125465553869214,-1.9304862917959014,23.59121834858448,3.329667448685987
3.092146880087799,14.437165131065687,-2.5871660826890337,-1.927218141663005,23.098432593416845,3.318254430275902
3.0950274989122875,14.420546777206432,-2.3442212097687816,-1.9257815036945636,22.872139331457554,3.3130479265322466
2.8267613474047866,14.43227176524386,-2.349930028605061,-1.7589489053399883,22.87457950684576,3.028271682013284
2.2774410529721307,14.453292131727325,-2.364865844437136,-1.4172804448903908,22.8833961037053,2.4453020082603563
1.6997185762532656,14.470505190882868,-2.377088601596304,-1.0577965288886144,22.8905935953227,1.8321496732380782
1.1226122303158657,14.482701817248383,-2.385749973848868,-0.6985812470905549,22.895721319026855,1.2196204016204915
0.5428259907629126,14.489930353834554,-2.3908830873772757,-0.33762141700458026,22.898766377219424,0.604226026280344
-0.03451331634554763,14.492126149281383,-2.392439608739645,0.02185091008850184,22.89966797850634,-0.008580744969171142
-0.6127510810843977,14.489325675987587,-2.390453683879173,0.3818813226511126,22.89850434666062,-0.6223409124736818
-1.1882758045140005,14.481567593691118,-2.3849482630724474,0.7401815721078447,22.895260515474604,-1.2332103532843888
-1.7669001351349862,14.46876260993123,-2.375854510923111,1.1003290870857974,22.889869650352978,-1.847347105864292
-2.3437498414146347,14.450997644418717,-2.3632392111454426,1.4592548653183066,22.882433958435957,-2.4595690202756217
-2.922718690008261,14.428137500504326,-2.3469987324918056,1.819340527770939,22.872869211007,-3.073997159355884
-3.4995086436839604,14.40033897642118,-2.3272358350610514,2.1778707111137607,22.861214793833366,-3.6860581232839067
-4.079187021791656,14.367336675787943,-2.3037637533559745,2.5379618893492353,22.84742904904466,-4.301121368119998
-4.53911492284558,14.337527145593326,-2.2825484505427123,2.823468948980891,22.83498316668112,-4.7890710563807675
-4.634093115218717,14.307116114928911,-2.305092538513888,2.8834878032928626,22.88325543159041,-4.892617188264962
-4.608919445087935,14.116094140904728,-2.5222165933688845,2.8765893300923597,23.292124092508416,-4.888156136855712
-4.576352863513496,13.86075024197656,-2.8016226759158918,2.8679681245630078,23.827802424349755,-4.882596147058774
-4.544463590630831,13.601445964423597,-3.0734418180514274,2.8598695200273045,24.359827638918677,-4.877393372946069
-4.512898896236936,13.335442640269166,-3.340592409760584,2.8522009178907153,24.893866954755943,-4.872490761767533
-4.48185518131037,13.064467578954073,-3.6013153679675547,2.845009284877444,25.426428605411587,-4.867920822868376
-4.451180603581416,12.78729637353667,-3.8567969060760197,2.8382577774621063,25.95992758759283,-4.863662477957342
-4.4205732934029855,12.501099235473493,-4.109415674725073,2.8318861333433776,26.499580663056285,-4.859680760361926
-4.390408475168233,12.209322363376948,-4.355947416898358,2.8259773598529914,27.038707134332576,-4.856030476549718
-4.364236478033442,11.94811195718917,-4.567739392278378,2.8211601985772927,27.51241319069873,-4.8530938441221
-4.353283291469536,11.836519374289715,-4.655761758738225,2.8192320456256255,27.712320971313908,-4.851930674469525
-4.359991924514521,11.792773649339736,-4.688684912878888,2.825550169716331,27.78856984114818,-4.863708917653919
-4.666675842434408,11.770010939833389,-4.671524768402701,3.023755736622152,27.778659439155025,-5.207573189510638
-5.192727942337318,11.727320415512182,-4.639317236594549,3.3634813178785428,27.760046500425542,-5.79728851962177
-5.735242973619601,11.678452782216665,-4.602416919825365,3.713471287067892,27.73875212773003,-6.405300124938395
-6.276215033250804,11.624808913464822,-4.561875375500509,4.062059822297656,27.715434564406866,-7.011409223528581
-6.819398998729462,11.565982496287146,-4.517371614321788,4.411625198949381,27.689902559932097,-7.6198032472469555
-7.359868789618718,11.50248592786962,-4.469277567691879,4.758955502171152,27.662357101628736,-8.224944115396516
-7.903808415169273,11.433555720885716,-4.4170092384734305,5.107992771321862,27.632540172741365,-8.833746162041006
-8.445917368744839,11.35980799552355,-4.36101555651599,5.4552912531356,27.600699332094358,-9.440254942215347
-8.988634201160421,11.28089377467589,-4.3010125280863765,5.8023715198069965,27.56666469272536,-10.047177585753253
-9.53248715412552,11.19667716677263,-4.23688748238477,6.149539755623723,27.530454458632832,-10.655095644748558
-9.947213987529157,11.128974942399081,-4.185265327641557,6.413822203042309,27.50139459160661,-11.118476427315956
-10.065175588253922,11.1097392793537,-4.168730643190304,6.488802127793059,27.490930064210676,-11.249991658096278
-10.088597124118008,11.19117898131449,-3.95123989135068,6.486167945033249,27.191287491637212,-11.237967628780385
-10.130244027002686,11.330560577189448,-3.5631554951503377,6.482185527545473,26.66253238878313,-11.217174743491425
-10.173208559267652,11.467227167704136,-3.1610604141238343,6.478989063284113,26.122411270417107,-11.196482029861812
-10.21635170393311,11.59736743037465,-2.7556204874584598,6.476677614183333,25.5854370711047,-11.176443099023157
-10.260207424782203,11.72256105186595,-2.341863022148459,6.475217191981692,25.045040543852068,-11.156798330293654
-10.304206528059451,11.841163098557509,-1.9252056424040416,6.474620622897616,24.508303425985023,-11.13779036446437
-10.348951890177132,11.954762980769729,-1.5000316824624793,6.47490619942495,23.96798840963602,-11.119153799466915
-10.393972879334022,12.062140689943899,-1.0707661492975626,6.476006228870788,23.42977968588689,-11.101061672291294
-10.439461599546064,12.163759308719778,-0.6356778919648728,6.477948120719459,22.891465495041928,-11.083428724445804
-10.480231675680933,12.24911821288285,-0.24463082799383426,6.48037411135043,22.413598061393824,-11.068152443515123
-10.49475974627544,12.278255123209615,-0.10504750513048826,6.481391192445919,22.244352440010044,-11.062825132307069
-10.517435521222785,12.412066196874108,-0.261135914216582,6.4962108659232465,22.263982487742464,-11.089341885352184
-10.588175401250115,12.838724880295048,-0.7961662237028647,6.544289774270452,22.363800289322555,-11.176925444565857
-10.667526895628953,13.31062292983154,-1.3847072706559493,6.598083160104802,22.47079591466182,-11.274777539935391
-10.707455956177657,13.545463368383022,-1.6763304455587575,6.625096099013205,22.522703325352055,-11.32386058393383
-10.71918607143843,13.616252757666222,-1.7704656363044635,6.633355631663386,22.544568049563278,-11.339123587757562
-10.678149624253466,13.481609812013374,-1.9260560421509703,6.6223476045439975,22.83749970874032,-11.332169826492986
-10.605527235389907,13.2364949760655,-2.2000872161070926,6.6034437002242115,23.361392983770823,-11.320259698808465
-10.532696918475724,12.981660355645753,-2.4730738155269143,6.585249863075004,23.893938550909628,-11.308844966902445
-10.460752025061419,12.720766790804838,-2.7407770136193257,6.568057021334826,24.427165545395773,-11.298115373630274
-10.389602423101561,12.45351463801043,-3.0034304727968495,6.5518455622435665,24.961613558168658,-11.288064775295233
-10.319616276412996,12.181357625521626,-3.259606914898752,6.536729273194142,25.494373386468197,-11.278740889793912
-10.250279772550742,11.90240655655414,-3.511061461179739,6.522530016424738,26.029133304053996,-11.270096231665544
-10.182040327567115,11.618508116338754,-3.756100800111854,6.509371938598802,26.562320376688863,-11.26218363815652
-10.11773427109498,11.342216107102473,-3.984640208116496,6.49774147243316,27.07112263532173,-11.255292781398705
-10.086989450186836,11.207044326138409,-4.093043511363366,6.492452690056697,27.316584483364615,-11.252199465276814
-10.070821326176468,11.13514806257344,-4.149818402763125,6.4897434503477704,27.446244775816083,-11.250626321809023
-10.074823700775196,11.17210187047841,-4.251267324888212,6.4960732970321695,27.509877187983914,-11.263295747775022
-10.132333652831878,11.538569163333392,-4.722469688572567,6.5387588001722685,27.60745593078373,-11.340690882360935
-10.208589476326551,12.01834416807594,-5.336212660389358,6.595199126057922,27.73188620005723,-11.442931669809196
-10.285929364225748,12.497983277094706,-5.946191326405402,6.652255716279798,27.85249598472411,-11.546185796157648
-10.365536094259799,12.984586629745086,-6.561336163903785,6.710787811700283,27.970963379354043,-11.652008650864442
-10.446549386796088,13.472625359062192,-7.174540288099374,6.770148110437797,28.08581539328458,-11.759230039664246
-10.529054300538954,13.962451595027828,-7.786187175506465,6.830386866109094,28.197069538846215,-11.867942510732695
-10.613733381133692,14.457864592800766,-8.400913124771028,6.891987144297569,28.305471520354647,-11.97901853335776
-10.700012998200098,14.955220372653939,-9.014084714832627,6.954545177067931,28.410091098480628,-12.091691955221036
-10.788220865134202,15.456245682790854,-9.627744197131113,7.018224260909307,28.511218594702424,-12.20633606884571
-10.876189044742977,15.948614954076756,-10.226833800595735,7.081481269914702,28.606392407025623,-12.3201380835855
-10.933182592466553,16.263831605168495,-10.608299043714315,7.122331846748767,28.665122420908865,-12.393588961246827
-10.94577179466113,16.32732362316656,-10.653438204218475,7.129123084856175,28.64535752996962,-12.405160085911108
-10.962417701036372,16.346525492866355,-10.291136837357769,7.114091621128861,28.264744251976133,-12.370051353789014
-10.986412509448865,16.36871703402947,-9.76706291811574,7.093401168900365,27.719722203954415,-12.32034577574205
-11.010553948244361,16.384637174589415,-9.237671959327539,7.073710188428549,27.175617085665536,-12.271370469589874
-11.034869916327962,16.394321636636715,-8.702488442278804,7.055015751659607,26.631916916582146,-12.223075383733251
-11.059316749454787,16.397783139851807,-8.16226501738345,7.037254007267701,26.089367582159518,-12.17545829328833
-11.08392598832145,16.395054923346077,-7.616442767938818,7.020421916575793,25.547376252723005,-12.128464306289914
-11.108369757964763,16.386315080527474,-7.07235190901189,7.004706986255529,25.013082294554557,-12.082678541863501
-11.13269348838604,16.371790952528112,-6.529191102826973,6.990066177311298,24.485458120867005,-12.037991057492803
-11.157009872165286,16.351585187388046,-5.984268484240508,6.976315835779382,23.961722670901455,-11.994093099117276
-11.180944427698702,16.32627076613153,-5.44618823821662,6.963654072508381,23.44989107344336,-11.95163721346051
-11.19577775325378,16.307932339146546,-5.111882252602637,6.956229328163188,23.134487346277453,-11.925686235267436
-11.188846659124048,16.301102843374775,-5.033974335791677,6.948330585649627,23.064754838798233,-11.908996176856041
-10.877606551650665,16.224140187694644,-4.917517150492297,6.756378849526065,23.061976193149878,-11.574508428406123
-10.330724035249993,16.085026140877048,-4.709633120294666,6.418726488262151,23.055176734985874,-10.987018792931803
-9.765740425061153,15.936071137797674,-4.49043769185404,6.069435051318983,23.04556345987805,-10.380421568994194
-9.200522157389727,15.781680531428451,-4.2665625572614,5.719572371441307,23.033334906248093,-9.773929148488445
-8.633464430668065,15.621329559030896,-4.037243306347818,5.368181222791259,23.01836541286009,-9.165843147072417
-8.068656026073638,15.45612173474895,-3.8040358885897168,5.017837037263602,23.00072188835982,-8.560567979983432
-7.499324988075744,15.283978571081136,-3.5640011804022573,4.664378629162045,22.98009768204515,-7.950874038448645
-6.933266463921369,15.107175366205118,-3.3203062008231536,4.31268834062759,22.956784419249,-7.345125950812242
-6.375091218807402,14.92724854127965,-3.074963478196433,3.965678945675106,22.930975090931334,-6.748271020970815
-5.817551596217318,14.741918936983971,-2.824784157519359,3.6188907040864446,22.902353864015748,-6.1525721631395
-5.266428756873078,14.553140484431639,-2.5723340768844176,3.2759638424519633,22.87119808225317,-5.564224943694945
-4.787794179821636,14.384632185960404,-2.3488430564328024,2.9780670665463327,22.841832375800877,-5.053675380804345
-4.636932717380876,14.328331899624713,-2.280526901233233,2.8842741132119714,22.837377853889432,-4.893124340972523
-4.618467353137957,14.189198089277797,-2.439963515197052,2.8791777463997503,23.136479124701697,-4.889826998740313
-4.586567794065367,13.941866499518161,-2.714158932112543,2.870630395838321,23.658917657780425,-4.884309151179232
-4.554422811038944,13.683440921706321,-2.9887377221420968,2.8623571234670444,24.19283335290648,-4.87898719080178
-4.522766818884007,13.41962717209304,-3.257276870952456,2.8545559956683566,24.726076488034387,-4.873991675128494
-4.491394196633506,13.148745877119445,-3.5214143839063676,2.8471769756367213,25.261970332933895,-4.869293194887778
-4.460717721617506,12.874500820458477,-3.777593774224639,2.840313983569565,25.793243287372924,-4.864953786979936
-4.430341386659771,12.593507991514217,-4.029047029808914,2.8338747783843696,26.32652249362825,-4.860917217937662
-4.400291099986072,12.306001891528158,-4.275448703395659,2.82786745809259,26.861247356369645,-4.857191200796651
-4.371549377285532,12.02186961787302,-4.508759398054243,2.822472350065309,27.379465088227747,-4.853887893966007
-4.3568228215981515,11.872733665191994,-4.627351569203116,2.819845093038612,27.64758757951394,-4.852297864918049
-4.349625671804463,11.798956934295154,-4.685065743033139,2.8185956259298286,27.779270569552633,-4.851546722876449
-4.360204784763874,11.957564713988921,-4.897924120016208,2.826839287311162,27.83293852892194,-4.866420779925169
-4.390190038023914,12.39649087497676,-5.454238207195393,2.849302289680265,27.94870936214269,-4.906627020716937
-4.423805471598316,12.881832815848858,-6.065842026560217,2.874412382912965,28.073148047886125,-4.951520014359506
-4.4581697886571385,13.370858826537768,-6.678307524254138,2.9000023505570103,28.19471249057046,-4.9972177799556405
-4.493353957402201,13.864312926874593,-7.292449818339767,2.92611912550691,28.313469189364252,-5.043803509351159
-4.529126024927634,14.358734615649029,-7.903877138847281,2.9525851130848144,28.42849895617746,-5.09096026509734
-4.565784509014361,14.858029413136308,-8.517327859732374,2.9796154106251524,28.54061745987536,-5.139071095897299
-4.603250161147892,15.36083972017779,-9.13101142083088,3.00714491507368,28.64939532625754,-5.188019548054372
-4.64151305023613,15.86678804138342,-9.744363846506582,3.035159882168738,28.754645846429092,-5.237780877878615
-4.680815735006449,16.378779710120362,-10.360772692113027,3.0638304619180556,28.856836673681176,-5.288656662528803
-4.716486244055762,16.83689947039186,-10.90866454998591,3.0897586520907088,28.944575740430064,-5.334624433126574
-4.7325650641031105,17.04141064611582,-11.152131791900386,3.1014171602975957,28.98261154720954,-5.355281223594843
-4.794380443904482,17.08372017726169,-11.204579081153362,3.142075346366767,28.98939014836834,-5.4261030258293985
-5.192559537718015,17.052934037360902,-11.183541203531489,3.4021861178180783,28.97651754606758,-5.8787954117956005
-5.751548561252299,17.005513359185564,-11.151113055131546,3.7670142742112986,28.95672996663628,-6.514199756762989
-6.31229183312361,16.952991720585953,-11.115158431614882,4.132557254122469,28.93482341115522,-7.151448787193096
-6.873870384535037,16.895397717478765,-11.075692821861201,4.49817574437486,28.91087536232706,-7.789486445784587
-7.438805196425794,16.83238821350985,-11.032466405524449,4.865462048916874,28.88473395394746,-8.43115921210257
-7.999571173320854,16.764783043704877,-10.98602484123614,5.22947897488059,28.85671706996742,-9.067902569684051
-8.559975411789896,16.692153780732596,-10.936068619571511,5.592670630583548,28.826724900344896,-9.704033163715982
-9.123068893461912,16.61403649444119,-10.882255831265946,5.956960869160374,28.794519075754728,-10.342992484689464
-9.68495492686329,16.530916061359125,-10.824911854814648,6.3197936258490195,28.76037911101592,-10.980350132547654
-10.24730614029531,16.442513035337583,-10.763819406609011,6.682199391532077,28.724146149521683,-11.617982605877344
-10.747060324398484,16.35953968141384,-10.706387687053649,7.003627921930885,28.690259713659454,-12.1844196599916
-10.944503061409005,16.325726628930592,-10.681091324484726,7.130318363711969,28.67455358230806,-12.407880187666224
-10.954042400116156,16.337255513256455,-10.473640586915478,7.121610155968552,28.45608779638893,-12.387672962268423
-10.97648696413396,16.360314203174223,-9.984187535065843,7.10184790164,27.944755606658408,-12.340801510258808
-10.998305628101384,16.37735350336509,-9.506604132473385,7.083587387945468,27.451241371297684,-12.296112835375393
-11.006671284021618,16.38250388956518,-9.323034944844903,7.076827902559327,27.26293716014844,-12.279200092250974
-11.025551813417668,16.391355294411383,-8.907826956472098,7.062052772385983,26.839796197488365,-12.241467542146102
-11.04988937147512,16.39718548350588,-8.37090339247863,7.04400107720754,26.29817886252116,-12.193726854803584
-11.074379429368797,16.396845578953585,-7.828490177098983,7.02685140421281,25.757218272784954,-12.146603329866357
-11.098886214094248,16.390412644325945,-7.283742917730918,7.010709406471153,25.21997840474485,-12.100356757657487
-11.12324535344789,16.378115169778717,-6.740386745488279,6.995640217801075,24.68995086022732,-12.055250837461989
-11.145800494520522,16.361596074955795,-6.235636223034589,6.9825254814173965,24.202643017370583,-12.014219256582173
-11.154948900933984,16.353518069555815,-6.030587019392445,6.977465193678736,24.006027804825656,-11.997797837606754
-11.172087949408322,16.336261044369834,-5.645551993652931,6.968259014815661,23.638923829236656,-11.967276306859826
-11.193587864696045,16.31076936023389,-5.161338568269641,6.957324138009483,23.181025525994933,-11.92951431662622
-11.21328511801103,16.26395287324387,-4.992082714135989,6.963006405914567,23.057147333244277,-11.934235603454642
-11.341088601031348,15.9053349694098,-4.577746415180673,7.038022885713187,22.986572940182484,-12.062016079056145
-11.519350414928725,15.398193225156263,-3.9885789690546427,7.142265881113695,22.883607496945174,-12.239341190974919
-11.695150386647478,14.88992124006418,-3.394307254133778,7.244606787419919,22.776713521100493,-12.413134773837713
-11.866908581753293,14.385294236451585,-2.800551016006562,7.344133602460614,22.666942784259195,-12.581839184403455
-12.034561116666353,13.88482975958298,-2.2080142211802727,7.440824798908895,22.55451137091224,-12.745414406614767
-12.154024095210733,13.523324446341288,-1.7777283101690764,7.509438938783374,22.471099857999445,-12.861280889639323
-12.190333416280714,13.412626089832706,-1.6455873863609953,7.5302453483137475,22.44519038798968,-12.896379411580622
-12.20659894290594,13.346075859822985,-1.5853211789090624,7.540424171238248,22.44933235364567,-12.914352164630506
-12.150322690906023,13.183060046144236,-1.7736096446838843,7.525534271564729,22.804832039662465,-12.905037430777767
-12.067214446249881,12.934845659274242,-2.0501793753189292,7.504261685008428,23.335772844612777,-12.891771544948872
-11.98508895007255,12.680554118107201,-2.3215844223642454,7.484108356438102,23.867506677240666,-12.879262065464435
-11.903449645287726,12.418593761198027,-2.589354634352345,7.464973090489941,24.40318655748084,-12.86743351665539
-11.823249420779312,12.152066247061217,-2.8502582488068753,7.447063138316913,24.93641820497358,-12.856451688161302
-11.744142783283053,11.879971156709852,-3.1053495683007495,7.43029279945128,25.469282191864547,-12.846268397088762
-11.666154494856391,11.602493279504413,-3.3544728471066656,7.414668376615533,26.001434670553706,-12.836883916210223
-11.588818498309507,11.317995010791657,-3.599029320784329,7.400118694804104,26.535939814648785,-12.828232979021521
-11.519041947854236,11.053105318373426,-3.8173933330344663,7.387793388215482,27.024078441570854,-12.821044713312226
-11.488854719014443,10.936037338110832,-3.9111569038785756,7.382708979945933,27.237011296567342,-12.818117875881638
-11.47184295351023,10.86939702394276,-3.9638018427908004,7.379910968403934,27.357477477314227,-12.816518355614205
-11.484830507095381,10.94894752478464,-4.097579928774899,7.391700232928421,27.409598033900437,-12.838768932956503
-11.554552432489023,11.338847340110801,-4.601006347907574,7.443244774227115,27.513238668811272,-12.932653695894578
-11.641430301532678,11.81835270174956,-5.2169109460178085,7.507282198346045,27.63725473320992,-13.049190034899075
-11.72957554704214,12.29787655926124,-5.829269547697761,7.572036767528778,27.757452684134975,-13.166921741616841
-11.819555600463415,12.780354421157414,-6.441775658210507,7.637912484982957,27.874505635326187,-13.286585733258153
-11.911609223398049,13.266827779844984,-7.055651135835002,7.705068024614495,27.988554937454378,-13.408471480776003
-12.005468137302964,13.755650870670223,-7.668724774306917,7.77329135743792,28.09910946078922,-13.532195762232078
-12.101589934364728,14.248965845352533,-8.283582342616636,7.842897737908259,28.206541149715868,-13.658331952575711
-12.199319385573595,14.743197381665707,-8.895682189709193,7.913395827799648,28.309975159283802,-13.785991894447184
-12.299325913354995,15.241526643595085,-9.508883793204584,7.985251422963218,28.40998618011871,-13.916021577153336
-12.396362870354023,15.71810488318858,-10.091568835835805,8.054697180198776,28.5015857343109,-14.041611842302675
-12.447849796175023,15.968262262293683,-10.395947749270793,8.091433877920904,28.54807513301697,-14.108019654593853
-12.484085914800078,16.038375944432115,-10.483227462205242,8.115694399783584,28.559987686695596,-14.151423811271842
-12.819319071987193,15.970450833834047,-10.43585709348781,8.329345025133293,28.53263607882046,-14.530710363133384
-13.355998025038321,15.857640800254863,-10.357041173264397,8.670659884538361,28.487281639721157,-15.13766361337142
-13.90556350759809,15.736888439491047,-10.272492977754728,9.019240386795298,28.438952381534797,-15.758868369546796
-14.453618445975414,15.611136455897492,-10.184237841216266,9.365881148084867,28.388820721184317,-16.378024041873903
-15.002313695360682,15.479843310935202,-10.091865356596205,9.711899463819611,28.336663294378898,-16.99754392705369
-15.55115834515609,15.34305326525811,-9.995385176621236,10.056960558876593,28.282583981882624,-17.616865738949475
-16.099477347485035,15.200873603677563,-9.894838102439241,10.400593564455408,28.22660924181586,-18.235209378762868
-16.649106209775404,15.05274681644446,-9.789796460522304,10.74390612062248,28.168538059233388,-18.85462827983249
-17.079460165647458,14.932800177858459,-9.704524962606744,11.011900145654828,28.121717289277566,-19.339339491870547
-17.20041533880934,14.89870782171067,-9.67705466548825,11.086756682328529,28.105140091591647,-19.474813388744025
-17.221608299308432,14.916346273075522,-9.374609660112094,11.067098571038104,27.7869655737704,-19.42863621492345
-17.257601356670364,14.941277792310657,-8.859147928861935,11.03507655468823,27.24972844381329,-19.351460642284685
-17.29442791595654,14.960362906371483,-8.329453224084013,11.004035697453372,26.704070355298946,-19.274065457334988
-17.331651639308006,14.973192797500396,-7.791821520668405,10.974405716842277,26.156651832249533,-19.19740897927197
-17.36925197923714,14.979704941030079,-7.246392330117428,10.94611881285043,25.607689083660784,-19.121449866600607
-17.407024496323245,14.979863793347814,-6.696290663009911,10.919381754312568,25.060314978608744,-19.04662974704001
-17.444691446209305,14.973791561245303,-6.1454635954393755,10.894263740623357,24.51835193721547,-18.97337853103956
-17.482106127082897,14.96173440404476,-5.596218051782139,10.870824901530215,23.98384847426498,-18.901932393945792
-17.51939433538117,14.94387468481464,-5.046870528332499,10.848950856874566,23.454946032578555,-18.83200297377319
-17.556527149407284,14.920412541391768,-4.497763467700317,10.828521518074371,22.931804456518115,-18.763520299511217
-17.5833622386262,14.899999863772946,-4.099738047698265,10.81459654286241,22.555954201462537,-18.714735941890453
-17.610896328716226,14.98357498417812,-4.1654330898549095,10.829393704673393,22.53331475854508,-18.739862774645477
-17.727168207140306,15.38173318065149,-4.653626212668263,10.904799304061621,22.6002039955218,-18.87971666998524
-17.874920243190267,15.880561580856186,-5.261830946546237,11.00028806314504,22.680005823128013,-19.056681878258345
-18.02606148204076,16.382818028500257,-5.870353915338753,11.09758238873926,22.75583235343313,-19.23684637539204
-18.179739860096486,16.885456170999415,-6.4754446689508605,11.196111589429991,22.82714084920101,-19.419157259257755
-18.308653939842046,17.30102304252246,-6.972763641342747,11.278454290218727,22.882617958739846,-19.57141713009606
-18.3508648355523,17.43591556262086,-7.133616499765892,11.305354912909555,22.899945395036106,-19.621140239883587
-18.377800093079856,17.521692670114486,-7.235754655600765,11.322504769992815,22.910790091296878,-19.652835362297946
-18.377800093079856,17.521692670114486,-7.235754655600765,11.322504769992815,22.910790091296878,-19.652835362297946
-18.377800093079856,17.521692670114486,-7.235754655600765,11.322504769992815,22.910790091296878,-19.652835362297946
-18.377800093079856,17.521692670114486,-7.235754655600765,11.322504769992815,22.910790091296878,-19.652835362297946
-18.377800093079856,17.521692670114486,-7.235754655600765,11.322504769992815,22.910790091296878,-19.652835362297946
-18.377800093079856,17.521692670114486,-7.235754655600765,11.322504769992815,22.910790091296878,-19.652835362297946
-18.377762564145762,17.521676452215125,-7.235710772363562,11.322481642066808,22.910694658005898,-19.65279523265712
-18.046054390952282,17.378330793734975,-6.84783861990018,11.118060113176355,22.067185419688958,-19.298100110855195
-17.716580915298717,17.23595084613038,-6.462579538247101,10.915015759540037,21.22935885117666,-18.945794548250674
-17.362355240824762,17.082874387177927,-6.048377278793379,10.696717388260584,20.328589280167172,-18.56702149136967
-16.686452736650153,16.790787253488947,-5.258032691785926,10.280179496070419,18.609819432008212,-17.84427981534649
-16.008085408554223,16.497634961216036,-4.464805943176607,9.86212260882629,16.884781719755228,-17.118902506283057
-15.335045873363422,16.206785042064883,-3.67780907573691,9.44734907622727,15.173292189001788,-16.399222199301974
-14.657017410820954,15.913779188468558,-2.884978568529638,9.029501021385009,13.449116186673347,-15.674207238737834
-13.982734231064418,15.622391835923848,-2.096527485807981,8.61396106895052,11.734464160192788,-14.95319710422651
-13.305154091537633,15.329579722377025,-1.304221210522452,8.196389301772259,10.011428209982553,-14.228661534884846
-12.630400918618733,15.03798926516145,-0.5152205565985697,7.780559707029913,8.295581025810867,-13.50714883729114
-11.954930754881216,14.746088964748377,0.27461848719504256,7.364288252932913,6.577910587260293,-12.784869462339774
-11.277894094632186,14.45351171244778,1.066289262681903,6.947051415291687,4.856256664472553,-12.060915034688904
-10.601508728383557,14.161215912866462,1.8571984687344287,6.530215950079842,3.1362589339363054,-11.33765703487271
-9.927266527981075,13.869846269298998,2.6456016335826416,6.1147012519588895,1.4217111149083153,-10.616690719531826
-9.249714014382285,13.57704609412801,3.437875605388727,5.697146509789036,-0.3012545846196569,-9.892184690559338
-8.571326811450195,13.283885213066192,4.231125593990622,5.279077374295621,-2.026342837104292,-9.166786129359227
-7.898837243940069,12.993272959084912,5.017479374628938,4.864642769836487,-3.7364338409086844,-8.447693902109824
-7.221407018183503,12.70052562985709,5.809610353128204,4.447163389896728,-5.459088571539937,-7.723318635369316
-6.546453048004763,12.408848399333651,6.598845802790256,4.031210049988692,-7.175446368224037,-7.001591225524627
-5.870669597710018,12.116812714050779,7.389051178019482,3.614745527037241,-8.893913471212269,-6.278976853661648
-5.195700528057743,11.825128958382196,8.178304283759301,3.198782881788803,-10.610309664735668,-5.557233297969382
-4.519697522609393,11.532998393682387,8.968766388659047,2.782183053759569,-12.329335080166437,-4.834384156063809
-3.843807818587362,11.240916791501064,9.75909600822483,2.365653049909133,-14.048072378488447,-4.1116561672272764
-3.1672534144901987,10.948547943247254,10.55020287318195,1.9487134118784346,-15.768499959713905,-3.3882174154576474
-2.4918695982119536,10.656684957360644,11.339940949385394,1.5324951710606527,-17.485950823091223,-2.6660303717331155
-1.8160162668704274,10.364619073410763,12.130228037741464,1.1159875825727517,-19.20459562838922,-1.9433412761569364
-1.1385133974961943,10.071840351687818,12.922443959689897,0.6984634346092069,-20.927435086342737,-1.2188883316897448
-0.7205946010063558,9.891239299572275,13.411123697631927,0.44091295429384464,-21.99017153420186,-0.7720083015802175
-0.3917514730387182,9.749131752865255,13.79564570274153,0.2382570645185434,-22.826395175384047,-0.42037676894332154
-0.060840887569229264,9.606130767042371,14.182585221967976,0.034327064372745034,-23.66787620738012,-0.06653450666603236
3.542299365522899e-05,9.579823441722446,14.253768953694365,-0.003189130536375998,-23.822680141995548,-0.001439546291451062
3.542299365522899e-05,9.579823441722446,14.253768953694365,-0.003189130536375998,-23.822680141995548,-0.001439546291451062
3.542299365522899e-05,9.579823441722446,14.253768953694365,-0.003189130536375998,-23.822680141995548,-0.001439546291451062
3.542299365522899e-05,9.579823441722446,14.253768953694365,-0.003189130536375998,-23.822680141995548,-0.001439546291451062
3.542299365522899e-05,9.579823441722446,14.253768953694365,-0.003189130536375998,-23.822680141995548,-0.001439546291451062
3.542299365522899e-05,9.579823441722446,14.253768953694365,-0.003189130536375998,-23.822680141995548,-0.001439546291451062
3.542299365522899e-05,9.579823441722446,14.253768953694365,-0.003189130536375998,-23.822680141995548,-0.001439546291451062
3.542299365522899e-05,9.579823441722446,14.253768953694365,-0.003189130536375998,-23.822680141995548,-0.001439546291451062
3.542299365522899e-05,9.579823441722446,14.253768953694365,-0.003189130536375998,-23.822680141995548,-0.001439546291451062
3.542299365522899e-05,9.579823441722446,14.253768953694365,-0.003189130536375998,-23.822680141995548,-0.001439546291451062
3.542299365522899e-05,9.579823441722446,14.253768953694365,-0.003189130536375998,-23.822680141995548,-0.001439546291451062
3.542299365522899e-05,9.579823441722446,14.253768953694365,-0.003189130536375998,-23.822680141995548,-0.001439546291451062
3.542299365522899e-05,9.579823441722446,14.253768953694365,-0.003189130536375998,-23.822680141995548,-0.001439546291451062
