RAMEL-ESPOL/ARCHIE/matlab/data/joint_goals_square_t35_h35_p12.txt
Joint0,Joint1,Joint2,Joint3,Joint4,Joint5 
0.0018558019163175603,9.58138982727823,14.24890425045308,0.004845621265411876,-23.82816929458801,0.0013058089398313248
0.0018558019163175603,9.58138982727823,14.24890425045308,0.004845621265411876,-23.82816929458801,0.0013058089398313248
0.0018558019163175603,9.58138982727823,14.24890425045308,0.004845621265411876,-23.82816929458801,0.0013058089398313248
0.0018558019163175603,9.58138982727823,14.24890425045308,0.004845621265411876,-23.82816929458801,0.0013058089398313248
0.0018558019163175603,9.58138982727823,14.24890425045308,0.004845621265411876,-23.82816929458801,0.0013058089398313248
0.0018558019163175603,9.58138982727823,14.24890425045308,0.004845621265411876,-23.82816929458801,0.0013058089398313248
0.0018558019163175603,9.58138982727823,14.24890425045308,0.004845621265411876,-23.82816929458801,0.0013058089398313248
0.0018558019163175603,9.58138982727823,14.24890425045308,0.004845621265411876,-23.82816929458801,0.0013058089398313248
0.0018558019163175603,9.58138982727823,14.24890425045308,0.004845621265411876,-23.82816929458801,0.0013058089398313248
0.0018558019163175603,9.58138982727823,14.24890425045308,0.004845621265411876,-23.82816929458801,0.0013058089398313248
0.0018558019163175603,9.58138982727823,14.24890425045308,0.004845621265411876,-23.82816929458801,0.0013058089398313248
0.0018558019163175603,9.58138982727823,14.24890425045308,0.004845621265411876,-23.82816929458801,0.0013058089398313248
0.0018558019163175603,9.58138982727823,14.24890425045308,0.004845621265411876,-23.82816929458801,0.0013058089398313248
0.0018558019163175603,9.58138982727823,14.24890425045308,0.004845621265411876,-23.82816929458801,0.0013058089398313248
0.0018558019163175603,9.58138982727823,14.24890425045308,0.004845621265411876,-23.82816929458801,0.0013058089398313248
0.0018558019163175603,9.58138982727823,14.24890425045308,0.004845621265411876,-23.82816929458801,0.0013058089398313248
0.0018558019163175603,9.58138982727823,14.24890425045308,0.004845621265411876,-23.82816929458801,0.0013058089398313248
0.0018558019163175603,9.58138982727823,14.24890425045308,0.004845621265411876,-23.82816929458801,0.0013058089398313248
0.00185616837093318,9.58139058997845,14.248902388244739,0.004845621549846682,-23.82816461043675,0.0013061783210189365
0.019932150551008103,9.618929740879397,14.157151938624123,0.004798682721490323,-23.597267583672526,0.019501883561923124
0.060875139352429844,9.703350931684081,13.950111970817195,0.004243950964560884,-23.075418757515287,0.06053821133745674
0.10355319336262739,9.790462719820805,13.735430314503002,0.0030129054060672347,-22.533102625894166,0.10306310395752716
0.14697218980318824,9.878168725018446,13.518184601805066,0.001087938110311261,-21.98304413827529,0.14607920680837738
0.19045110756454137,9.965078445255855,13.301792106531646,-0.00150857329339661,-21.433865116237474,0.1889201523449135
0.23406749527104057,10.05135108682136,13.085852646916083,-0.004775346471026942,-20.88454589433525,0.23167567980614182
0.27789555020752055,10.1371325162408,12.86999109624822,-0.008715939772336978,-20.334121084405126,0.27443048590485625
0.3217215428704483,10.222007421951348,12.655247601845861,-0.013306535374112171,-19.785237592686588,0.31698879590476203
0.3657385645770036,10.306353276150254,12.440662980227202,-0.01856259866566529,-19.2354393060096,0.35955082208554157
0.40984070233481795,10.38996762406008,12.226744315971654,-0.024469115417638115,-18.68601672884847,0.40202609164910147
0.4542055979943727,10.473185293540194,12.01262371206185,-0.031049470204601547,-18.134728437255703,0.44459714279688883
0.49841234182716343,10.555221875881458,11.8003180261472,-0.038235986392851924,-17.58676569010431,0.4868726202931153
0.542859150291235,10.636821894741042,11.58789980853903,-0.04608806585127612,-17.03715308663718,0.5292458186768345
0.5874800834965538,10.717859667771418,11.375681285209316,-0.0545961464737272,-16.486682294023947,0.5716647220689144
0.6322102645831643,10.798216391633474,11.163963843676681,-0.06374755304565738,-15.936124602314438,0.6140790213725116
0.676859368419067,10.877556381511294,10.953632915969987,-0.0734981448018836,-15.387783614356287,0.6563203743032239
0.7217588320107272,10.956470499343318,10.743116844714852,-0.08391835660395702,-14.83755631807745,0.6987138923904234
0.7667049902598927,11.034598752002365,10.53336479395132,-0.09496196316688545,-14.287911662207602,0.7410783585924444
0.8116289698110691,11.111827002185834,10.324683891001756,-0.1066079026247724,-13.73965514689882,0.7833605093627249
0.8567411756074176,11.188518219065163,10.11608743275708,-0.11890982397802785,-13.190188187906385,0.8257696269578504
0.9020310593508868,11.26464982688264,9.907621487950017,-0.13186832045531832,-12.63961606805567,0.8683067012245359
0.9473369798831132,11.339950176407523,9.700022194673625,-0.14543748522965497,-12.089874887711106,0.9108310614564675
0.9927401642278407,11.414556416628267,9.492907260822049,-0.1596407166885274,-11.539947860953502,0.953430135225234
1.038133111664376,11.488294556134633,9.286756537376109,-0.17444329055953128,-10.991105672079549,0.9960141687559638
1.0837497739289752,11.561543560221594,9.08050107998001,-0.1899232397589099,-10.440492642623683,1.0388137204651813
1.1292813519842961,11.633808354184975,8.875528766728433,-0.20597639351289634,-9.891807387268559,1.081550090030879
1.1750686582575212,11.705629605796188,8.670298104798372,-0.22272446573160512,-9.340915341275963,1.1245542633751844
1.2207380228835651,11.776421601413292,8.466476143224584,-0.24003204449961338,-8.792284436299928,1.16748630475587
1.2665966265405293,11.846662622566544,8.262682371788703,-0.2580158003177524,-8.242195026817008,1.2106459592878684
1.3125032382132484,11.916133673104031,8.05953988692596,-0.27662423428342453,-7.6923166713397855,1.2539115537325582
1.3583557291472375,11.984684061949597,7.857489461264713,-0.2958153377645653,-7.143842260021872,1.2971976182962153
1.4043914027699462,12.05266850760997,7.655478306507439,-0.3156908425917641,-6.593906589474681,1.3407392945608585
1.4504417351309429,12.119836030851117,7.454240957919081,-0.33618208888236095,-6.044498163620205,1.3843885380524437
1.496489062697625,12.186163665918633,7.253844788684804,-0.357281956880359,-5.495799140983015,1.4281394471250035
1.5428827531358569,12.252148320748978,7.052768607835045,-0.37915816556337684,-4.943625261906189,1.4723360669053327
1.5888785062724127,12.316735547497538,6.854227347808975,-0.40145988522514997,-4.396806137082305,1.5162799801875038
1.635259553341901,12.381028134980399,6.654830412417589,-0.42456809794128436,-3.846002366303794,1.5607303730508113
1.6815575606887285,12.444371140431532,6.456589976815987,-0.4482573507578478,-3.296754290838705,1.6052507383308567
1.7278148016597539,12.50682803493435,6.2593129242993815,-0.47254889610318573,-2.748531326236197,1.6498921243632936
1.7742724558924838,12.568722329203291,6.061966026484263,-0.4975750452490465,-2.1984513623820257,1.694899218638636
1.820885841198413,12.629986852477687,5.864739626632793,-0.5233218105322031,-1.6470230998483404,1.7402419925904276
1.867392373462869,12.6902769593051,5.668737722378174,-0.5496483214826318,-1.0973277287625227,1.7856766505813926
1.9139533546065886,12.749804883498163,5.473271095348443,-0.5766482453697129,-0.5474323115325718,1.8313718562057686
1.9604887641335407,12.808469089881047,5.278668534572646,-0.6042795536061162,0.0017428625710674123,1.8772607582806735
2.0069045573545043,12.866156158603005,5.085312307327623,-0.6324875815215925,0.5491145420964207,1.9232611642072157
2.053716892676138,12.923501510022243,4.891051374695272,-0.6615962456980794,1.1007908728024913,1.969898444232854
2.100405634544093,12.979861715333302,4.698043509175533,-0.6912927785834685,1.6506632218693553,2.0166684934031225
2.146945548529496,13.035214506713134,4.506379575622716,-0.7215605196997922,2.198461325019263,2.063555816624505
2.1937086235213523,13.090001177036873,4.314522483837814,-0.7526485089450687,2.748586643390316,2.1109480209098512
2.2405909774210784,13.144091477377948,4.122899775643324,-0.7845011201937512,3.2998373761408613,2.158755399335215
2.2873318000762173,13.19718570807651,3.932570379595357,-0.8169469076609545,3.8491703578426977,2.2067243739422624
2.3340361426070313,13.24940823173048,3.743096255034967,-0.850061615181236,4.39784454982595,2.2549738157955694
2.3808581438850998,13.30092962368158,3.553847688346494,-0.8839632918466614,4.947692888932612,2.3036767390942905
2.427711651602723,13.351651101602341,3.365170404909673,-0.9186005006074793,5.497725145445973,2.3527584196395357
2.4744988844306928,13.401467869403877,3.1774515010017144,-0.9539079025240095,6.046815899592403,2.4021294437203284
2.5212710966220264,13.450436462161385,2.9904780000174487,-0.9899306118999911,6.595589041287733,2.4518566700444455
2.5681295529947006,13.498660784607859,2.8038411768476643,-1.0267569190274126,7.1452541761953166,2.502062556749981
2.6150585219204237,13.546120113716736,2.617601775669206,-1.064387260136332,7.695647827944526,2.5527464630375727
2.661908425059866,13.592662844878744,2.4323481296519605,-1.1027110997042928,8.245037145826213,2.603761319313603
2.7088533067994653,13.638460936966558,2.2473872942134783,-1.1418811210809723,8.795484315677692,2.655311697374401
2.7561293099279753,13.683732468873805,2.0617931598074235,-1.182115557602418,9.349778802411508,2.7076782792073955
2.8034943664727785,13.728233482299295,1.8765201272470575,-1.2232300680351633,9.905103359987622,2.7606148608362417
2.8509370071856392,13.771947673429157,1.691611916039883,-1.2652307358648756,10.461344780712706,2.8141275106459442
2.8981527724197895,13.814597466713272,1.508247487254425,-1.307856364354665,11.014954397649495,2.867887160485272
2.9455337124893872,13.856537429894974,1.3248986376538827,-1.3514720635782003,11.570549872682234,2.922356330638538
2.9929038862207116,13.897606227439057,1.14224521518942,-1.3959333697732803,12.126089072698452,2.9773528877713313
3.0401482411464062,13.93770642924961,0.9607239035428726,-1.4411423886247887,12.680242884387491,3.0327588105647125
3.087455332520507,13.976998246904188,0.7796049890844214,-1.4872922187231516,13.235243110729089,3.088812484063605
3.1347616478782228,14.015425528360574,0.5991291118843006,-1.5343376752103577,13.790365021223257,3.145458665818585
3.1821952265167965,14.053086960209619,0.41880671089055094,-1.5824254613201123,14.347131767665433,3.202872572289328
3.2293422503893687,14.089656485818681,0.2402041832760352,-1.6311476273934555,14.900705059666471,3.260570035848015
3.2766289030696227,14.1254667354965,0.061700690683746916,-1.680957134440611,15.456107776434488,3.3190900589697643
3.323877839136537,14.160378392868704,-0.11603547196386871,-1.7316878861602392,16.011277072070932,3.3782363237481454
3.371147148085964,14.194432677920002,-0.29322633955074956,-1.7834199626658338,16.56691476860723,3.4381027556483725
3.418203302248487,14.227464388292132,-0.4690033322487246,-1.8359106456340941,17.120293519293345,3.49841140017178
3.465547651113718,14.259820834290489,-0.6452405760404707,-1.8897414486606983,17.67732892436619,3.559829499517571
3.5126020522361485,14.291104488987983,-0.8197887900267068,-1.9442752920043553,18.231237602278018,3.6216303808572246
3.5597017223366096,14.321542371799191,-0.9938988086602732,-1.9999138644164063,18.78598210990747,3.6842725562497134
3.606739893750206,14.35106320705892,-1.16717875161963,-2.0565524714788253,19.34032329081155,3.7476384267240515
3.6538390584664,14.379741077535117,-1.3400822606540106,-2.114361436087056,19.895723115322134,3.8119186007533052
3.7010602782302557,14.407605006029845,-1.5128322176408655,-2.1734461100102735,20.452922047934496,3.877227944374817
3.748029068229243,14.434434741147093,-1.684063321674139,-2.233357870721911,21.00751789486928,3.943072173322993
3.795039808398796,14.460401174328748,-1.8548547376933964,-2.294490296808396,21.563002141682805,4.009886270852356
3.841206487921102,14.485034432379146,-2.022004523245298,-2.3556872261263844,22.1089128445418,4.07641587688509
3.8685393484762165,14.499212310543394,-2.120697211841117,-2.392472162168763,22.432311532260307,4.116243582006669
3.8798496719392523,14.504990546988836,-2.161478017916578,-2.407815837337676,22.56617693102896,4.132821598024146
3.8723023866465076,14.42906977516061,-2.2556406180400694,-2.4068973381883905,22.746370904390982,4.132887137117171
3.8468420529683485,14.19939770034353,-2.5189799020895567,-2.3998463514158863,23.239993143662826,4.12831204964906
3.819690953256827,13.945563037493967,-2.7982314147288125,-2.392600924940555,23.773725842010602,4.123623502790182
3.792962752111375,13.686399495792488,-3.071380489040204,-2.3857548714999437,24.306669841897175,4.119209383442791
3.7718003494316417,13.474464753549379,-3.2863009169380266,-2.380543396873725,24.73402127907805,4.115862818708416
3.763586467080923,13.390563425578474,-3.369376636123453,-2.378571749427092,24.901190065452916,4.114600450729355
3.7553200921029535,13.3051842752693,-3.452781465567967,-2.37661689300527,25.070166507909846,4.11335113545497
3.731881330935044,13.057875471333684,-3.688119606984882,-2.371237509183596,25.553356400606226,4.109926849720143
3.7063592775585197,12.779593237951461,-3.9423153609136934,-2.365662797613673,26.08642086349101,4.106403882414476
3.6811104962223644,12.494777452355757,-4.191503134258786,-2.3604488572124485,26.62099966152742,4.103139544905938
3.6569771596391107,12.213421098325648,-4.427385994884886,-2.3557559708805247,27.138783992038316,4.100234562650357
3.644619888571766,12.06581367175555,-4.547243320793598,-2.353466534875618,27.40652605133318,4.098831678000274
3.6386162601057,11.993219567151147,-4.605238889743329,-2.3523825974335737,27.53725000166694,4.098171331407163
3.6502873183377895,12.198851054588198,-4.866204193606217,-2.3611024897919313,27.592060972790406,4.1137837813749165
3.676459626318769,12.655288638368594,-5.44239581317184,-2.3806016079033387,27.710638385436617,4.14865996101434
3.704896267278751,13.14427956183105,-6.056029485797403,-2.4017258149855834,27.833995256405366,4.186397755212373
3.73381065666749,13.634300950021709,-6.667145150852553,-2.423138492118573,27.95377412071947,4.224605189142349
3.763504869730172,14.130230040352405,-7.2817227665368796,-2.4450586680112134,28.07106347059065,4.263672640922815
3.7936523247697447,14.626385770123841,-7.892628085687118,-2.467240600444073,28.1844245876877,4.303161808513785
3.8246937729963757,15.129761951376098,-8.508361207002876,-2.4900034173226238,28.295342920416477,4.343640325840441
3.856199983665843,15.633143019170285,-9.119987736274384,-2.513027100281763,28.40211898365763,4.384538669805242
3.8885196413039966,16.141881447625828,-9.733923877012717,-2.536561407477537,28.505799722519047,4.426300299918861
3.921591978114433,16.65470925903246,-10.348501367573505,-2.560555860074287,28.605987047926778,4.4688349249991095
3.955259319230046,17.168955265731608,-10.96042925795718,-2.5848906273547323,28.702068079669427,4.5119299027342725
3.9895865836933235,17.685425158484314,-11.570600086461608,-2.6096075362495585,28.794126049080685,4.555659307678358
4.024129474611614,18.197383157222287,-12.171066537412205,-2.6343831625579814,28.880970331734037,4.599451632373999
4.0495653719990665,18.569533328200166,-12.604810776141937,-2.6525650557936813,28.941332030672942,4.631564060524152
4.039949501658096,18.65144183244941,-12.69950058656743,-2.646609272100867,28.954542869965643,4.6213214780563225
3.6975733566339217,18.671489708407982,-12.712780070952103,-2.4226660569334775,28.962868362490894,4.232172413191355
3.1395465435706305,18.700338422655655,-12.731873215919656,-2.057453667765262,28.97480395306215,3.5978428116221255
2.5687447871592273,18.72495472914157,-12.748160270678673,-1.6836462208815395,28.98502896587359,2.9489185513700207
1.9963756860039257,18.744680415580035,-12.761202329372294,-1.3086157596837753,28.993200091337542,2.2981499880212928
1.4216564980979107,18.759502648487942,-12.771002528820572,-0.9318925019622399,28.999372487811883,1.6446618399210378
0.8496336351000577,18.76930136652946,-12.777476611205824,-0.556827935311358,29.003428211553775,0.994204971444207
0.27892264339875505,18.774158781816727,-12.780688537479739,-0.18255849519455614,29.00546314625651,0.34521969378781836
-0.29488672653315057,18.774089768697017,-12.780641406373615,0.19376327440072316,29.005418548929082,-0.3072955079477146
-0.8661832773992763,18.769089356375005,-12.777339600712619,0.5684158361075802,29.00335622602607,-0.9569464420106711
-1.4393302617146695,18.7591236304436,-12.770752043902066,0.9442139645549823,28.999199330651376,-1.608680176374479
-2.012807182735091,18.744187601059924,-12.760881203254344,1.3201200861919657,28.993012173016748,-2.2607551039404803
-2.5843761975154833,18.724351245429002,-12.74776276203473,1.6946196767364272,28.984763552710803,-2.910611328941815
-3.156044780142965,18.699560228393185,-12.731364667948176,2.0689904813684903,28.974499573755978,-3.5605200527411855
-3.706593158547704,18.670992686217282,-12.71245786979879,2.429303608998692,28.962678569525494,-4.186346781573591
-4.018213803059875,18.652776930078925,-12.700395135760076,2.6331328401046212,28.955135900577773,-4.540540137756256
-4.056890263766338,18.65533561985285,-12.609228815921863,2.6560050300451055,28.859739055291627,-4.579492978152244
-4.064778721214144,18.67633813779027,-12.164893014979139,2.6493861349515306,28.39453629605278,-4.563881179108872
-4.0741634901125225,18.69523667460968,-11.634486143086065,2.641918160512775,27.845386014158425,-4.545688248708081
-4.083621349541012,18.707744399037114,-11.09804722133855,2.634822589049859,27.296589252396508,-4.527753843038742
-4.093195383007934,18.713884896995946,-10.553142633382665,2.628063373173879,26.745689614045446,-4.509990000957995
-4.102798123942324,18.713614632288152,-10.004773414989367,2.6216958992531514,26.197730505710336,-4.492550244122041
-4.11241543520979,18.707050275803788,-9.45379861334484,2.6157169451474656,25.65345435294837,-4.475445756234115
-4.121988806457489,18.694413494462804,-8.903639208763156,2.6101466933469997,25.11605995747343,-4.458762917711833
-4.13150339137711,18.675969299881523,-8.355233520492362,2.604974198342905,24.58622077856379,-4.442507002617964
-4.141017929539269,18.651800063255997,-7.805265902534391,2.600151535900198,24.06053985041908,-4.426560411599446
-4.150097480354647,18.62352405022925,-7.279031337950733,2.595864543516414,23.56268906790578,-4.411618761889088
-4.154320603188894,18.608944438427667,-7.03495504871612,2.5939896268179945,23.333240244583603,-4.40480057977517
-4.170563013587666,18.837080567308046,-7.297841814439907,2.604786665246773,23.36723365442851,-4.423831541375431
-4.205982306011393,19.329003764791025,-7.861854686482514,2.628279837400707,23.437664211149457,-4.465195929745814
-4.244801106167554,19.85960395085758,-8.465851046363097,2.6539471549546785,23.509229680120093,-4.510319666571621
-4.284180484393721,20.3890307975019,-9.063987156156974,2.679899541396321,23.576068654987047,-4.555873659505968
-4.324710152738765,20.92492822515406,-9.664817285195381,2.706520743336196,23.639062658662276,-4.602529546614331
-4.354097267148997,21.307956055869067,-10.091402517826921,2.7257669983324924,23.68120564570426,-4.6362158432229155
-4.338338059285693,21.36332347817434,-10.152288519807568,2.716043974215444,23.687452907983726,-4.619640593724837
-3.9946573786707824,21.121110686869876,-9.87397206020366,2.5007305401693425,23.66674437452558,-4.250140175518114
-3.476338566276825,20.74940542165766,-9.446586627290417,2.175975786865854,23.63184619806349,-3.693205003338767
-2.953299333444149,20.366314730592464,-9.005698402146978,1.8482660076164383,23.592086643382522,-3.1316348086376005
-2.4307936907545593,19.975373770288936,-8.555267747115346,1.5209420206245203,23.547676106052432,-2.571133057090796
-1.9149313657549358,19.58110202639427,-8.100405383820465,1.1978790618778843,23.499092211135263,-2.018302457737763
-1.4044620543022888,19.182608149886725,-7.6399939603104645,0.8783390375492227,23.446241283749607,-1.471844241942617
-0.8993839505271047,18.77992471560695,-7.1739803583246,0.5623639611326611,23.389130310391195,-0.9317988991608153
-0.3972828815898987,18.371102651036807,-6.7000123796084905,0.24848644315744334,23.327458571708878,-0.3956320438885601
0.10254178599209923,17.955464424634513,-6.217198158692046,-0.06368752282306457,23.261064727079702,0.13735059490482207
0.519290453116955,17.602115086898827,-5.8059440409820935,-0.3237250366738891,23.201769550350505,0.5811206764585429
0.7183280938895764,17.431130907135373,-5.606667507223515,-0.4478317995363585,23.172174290719393,0.7928551972044123
1.1636107478635078,17.043283213363736,-5.153951485933553,-0.7252469040900997,23.102837614502654,1.266005091018294
1.6580264426854798,16.603823364964633,-4.639791095205699,-1.0328674141156144,23.020715265060264,1.7904542458094186
2.148705829774537,16.158243370450514,-4.117109131125849,-1.3376936383128928,22.93369220445792,2.3099199548369804
2.6270511971975563,15.714533441294721,-3.5952009496957325,-1.6343592990569693,22.84337930606919,2.815273330515874
3.0964250132725546,15.269920632692568,-3.070758651944162,-1.9249451397013457,22.749355868962606,3.3100739979938765
3.551161893645056,14.830188902512306,-2.550567963019805,-2.205923722332029,22.65292078971453,3.788332469211929
3.8312973261803287,14.554780521247686,-2.2239843912695445,-2.3787319045100555,22.590821124832974,4.08238158150969
3.8793566544743663,14.491296275521835,-2.1824610493662493,-2.4088972665103907,22.610803519122104,4.134190146985827
3.859795717013978,14.317231744748309,-2.3851849675310524,-2.403406807585774,22.988062634944985,4.130624560276157
3.832477786797807,14.066260012926811,-2.666945869013146,-2.39598082400695,23.521448202499762,4.125812316924982
3.8055405565575406,13.809513199112047,-2.943082938713825,-2.3889439023113277,24.05497082822446,4.121266821032704
3.7796855043253235,13.554129938164197,-3.206379588270534,-2.382466679585931,24.574258962331612,4.117099738730929
3.7661911111633066,13.417259578355642,-3.3430662714048593,-2.3791973079700344,24.84813152816792,4.115004162512585
3.7596572209667807,13.350089518610506,-3.4090584767961096,-2.3776423128139412,24.981446087458853,4.11400959021097
3.7436727093165714,13.183253902407404,-3.5699556869329805,-2.3739166643275564,25.309550151994703,4.1116330217034305
3.7182977693395878,12.91094265555399,-3.8236971784785774,-2.3682365414959152,25.836188278721785,4.108030060039469
3.6928595542418496,12.628500331227123,-4.075850713082013,-2.3628404862759043,26.37136603842203,4.104636018744302
3.6678279445516306,12.341039174035037,-4.32162432240536,-2.3578334939157304,26.905168461925552,4.101519446068908
3.648015030261385,12.106605664469065,-4.51438298764675,-2.354091111528605,27.332806397023386,4.099216636668316
3.6402602709329956,12.01315107299594,-4.5893785639711195,-2.3526809048428365,27.501430167593725,4.098356091133766
3.5488644496819046,11.998339618468622,-4.609318038124182,-2.29444957797228,27.53983344712752,3.9978319021671225
3.113277100887324,12.022038320604077,-4.627105009395166,-2.0131469334839007,27.55016369519922,3.510733498586371
2.5722325325956303,12.047140517111675,-4.645937944827558,-1.6635446370451583,27.561120818893436,2.905625233743525
2.028953205272228,12.067524903836837,-4.661225307810311,-1.3123160099857567,27.57002636605589,2.2979410486118548
1.4858365377884957,12.083083358711894,-4.672889921829675,-0.9610483867817712,27.576828841480772,1.6903782698143637
0.9430097814590515,12.093823646348394,-4.680936896542285,-0.609862718617772,27.581497411582983,1.0830942011843283
0.4007668358506009,12.099758929207242,-4.685385884831751,-0.2589882086202954,27.58409941632443,0.47643669650963155
-0.14335152690551398,12.10090019940261,-4.6862424775935665,0.09312848375958657,27.584606952206997,-0.13233104373617346
-0.6846935321118548,12.097250235797917,-4.683508083537249,0.44343836546860577,27.583013611428623,-0.7379885677466348
-1.2266154189583778,12.088813521564603,-4.67718409967537,0.7940743255264189,27.579311682302436,-1.3442747872225778
-1.770299704312805,12.075537973936106,-4.667234967337397,1.145764554159642,27.573522521287472,-1.952495824392411
-2.3135289662899687,12.057454008320429,-4.65367782398664,1.4970349395326386,27.56563668423098,-2.5601551920468024
-2.854978229597235,12.034625766983803,-4.636553389657273,1.8469885124930827,27.555653742647777,-3.165754624780538
-3.3680651033113973,12.00856092058815,-4.616996201953872,2.178427741355929,27.544296051233232,-3.739553781435035
-3.6178701187333893,11.994306594053649,-4.606298637445107,2.3397209649653155,27.538103294469945,-4.018886378230569
-3.643180313995959,12.034506703521917,-4.49317775383065,2.3527785594842077,27.383885066207842,-4.040071930055551
-3.6574262791071517,12.16405343674425,-4.130812650458651,2.351588428229012,26.89180828199735,-4.0332345917301895
-3.6731805207504418,12.3004221990058,-3.7285431732204257,2.3505940918717134,26.35298381137148,-4.025942953063716
-3.6891192665255126,12.431210473987674,-3.3200140504392377,2.3499196528507578,25.813474088845602,-4.018841257926792
-3.7051534050515875,12.555691663132132,-2.9075659605772017,2.349565293553995,25.276347534064993,-4.01196368122851
-3.7214450839173026,12.67508563702101,-2.4870760831323717,2.349526030376944,24.736259504276433,-4.005236873814286
-3.7378052768344534,12.787989306308905,-2.0634755855966715,2.349800179447076,24.19954667865186,-3.9987344365264876
-3.7544549628280834,12.895894731607688,-1.6310931912805686,2.3503901536191223,23.659042946943135,-3.9923646859052497
-3.7711672173879722,12.997305209485997,-1.1958735830932186,2.3512865244404515,23.122192686277824,-3.9862104569911145
-3.787578143706407,13.090345889928162,-0.7674054141514944,2.3524528582076183,22.600464418105016,-3.980389635346673
-3.7959633665223693,13.135441334762259,-0.5480853569943906,2.353155061200132,22.33593562023567,-3.977497180291177
-3.7996371274056084,13.17335329109411,-0.5280639317217029,2.354450794405505,22.277903886116874,-3.978797378676132
-3.819432160714114,13.502295918838714,-0.9349304959988615,2.368011182920074,22.354966056925022,-4.003130859683761
-3.849717572080675,13.999100428252468,-1.5462688971607566,2.3887140511493032,22.468174763629047,-4.040225104985751
-3.872711523872831,14.371207897214784,-2.001666634690308,2.4043970807510724,22.55045347421294,-4.06828126137503
-3.880520781324834,14.496605921015448,-2.1546500223640277,2.4097164218401854,22.577694227805313,-4.077788919947641
-3.8709563493026495,14.416239495973294,-2.27064166335411,2.4072330140959406,22.77427164292759,-4.076610622868377
-3.8450891568152223,14.182322434634537,-2.538156047256018,2.4000885604167483,23.27632349083335,-4.071981516046604
-3.818017409773544,13.928549782553116,-2.816536073366038,2.3928869777195487,23.809120514418,-4.067328658665917
-3.791359878164213,13.669403084419605,-3.0889011878556123,2.3860814937602752,24.341261765000077,-4.062948197894681
-3.769946239159067,13.45437168543409,-3.306309107567445,2.3808276968710107,24.774203001258225,-4.059580802717595
-3.7615781871279856,13.368640418293527,-3.3909117062208445,2.3788276001715905,24.944732096919836,-4.058302827344659
-3.75350510323999,13.285011474577272,-3.4723341930639386,2.3769267324180476,25.109971386116534,-4.057090566621426
-3.7302699221273414,13.039191274539194,-3.705542235425321,2.371616482646032,25.589537590900438,-4.053717700576971
-3.7046998927849315,12.759664886693715,-3.9601147739039675,2.3660560268526063,26.12422380714424,-4.0502122365948185
-3.6794542850336613,12.474139523202489,-4.2091557379487625,2.3608684635992976,26.65936500525235,-4.04697330600182
-3.6557397134061476,12.197019568062347,-4.440844060881145,2.3562796634790923,27.168708695017482,-4.044141292341073
-3.644269645946091,12.059752529153757,-4.552115587737673,2.3541936217765995,27.417481251193106,-4.042845349838648
-3.6389316151746574,11.996138832626167,-4.609263936371002,2.353330051405619,27.538358802746032,-4.042474307606255
-3.6519680383784356,12.225646815234624,-4.9001293093670695,2.3630615068683682,27.59913244038392,-4.059894354482068
-3.678507210132352,12.688068658823422,-5.483658150314088,2.382830768546074,27.719045991191003,-4.095251159751124
-3.7069520365554927,13.176722914504456,-6.0966167815280485,2.403957184799131,27.842063713646528,-4.132989991812365
-3.7359914501623597,13.668374551553438,-6.709505140876803,2.425458307208587,27.961978905211836,-4.171352320036855
-3.765681847221725,14.163740502913559,-7.323116694803733,2.4473712481219647,28.07886505051171,-4.210403945643778
-3.796003088293988,14.662241395711884,-7.936631000492894,2.4696762938109416,28.192481497760316,-4.2501093172380715
-3.826969309862312,15.163876586554151,-8.549950620257814,2.4923789409849735,28.30273029346786,-4.2904778905465895
-3.8585842816002733,15.66847577085922,-9.162772196900967,2.5154769186490857,28.40947768849479,-4.331505329880539
-3.89093702582631,16.177202869910175,-9.776400775105271,2.5390297992475706,28.51286008228767,-4.373297024551065
-3.9239742694338546,16.68896026956562,-10.389402960165256,2.5629931357745237,28.61254360305376,-4.415773685040267
-3.9577399714602146,17.204180590772484,-11.002194861943899,2.587393115204067,28.708509065702813,-4.458981386352797
-3.99217690041452,17.721755199570243,-11.613363944146876,2.612182683926824,28.800454692674993,-4.502836538960411
-4.026595956527383,18.231350686299344,-12.21076100565495,2.6368631948558936,28.8865974363753,-4.546458080758455
-4.0511545372281175,18.590375783962084,-12.629043629552132,2.654414477924738,28.944664765712563,-4.577455315687093
-4.055907158276811,18.652390241149895,-12.664371817944154,2.656835488497161,28.917788198555034,-4.581437476832438
-4.062460335547275,18.67065910084748,-12.295491961144242,2.6512818048829123,28.53075293141987,-4.56841659122749
-4.071646670325016,18.690811346287813,-11.77678494505152,2.643861998050821,27.99204716760135,-4.550506013541224
-4.079788175979348,18.70345676415285,-11.315553064832212,2.637631013911563,27.518300725423682,-4.534953809293822
-4.082962714593441,18.70708317196757,-11.13533177623759,2.6352868126811084,27.334502778740777,-4.528968823346061
-4.088465603593472,18.711660994042084,-10.82243651145912,2.631334196997145,27.01711428616349,-4.518696545542753
-4.091406888215524,18.71322792731165,-10.654942449080547,2.6292783522576344,26.848097667629126,-4.5132583076415305
-4.093358208190824,18.713932497752218,-10.543727199729084,2.627935981434575,26.73620697239577,-4.509670197749478
-4.095655607972581,18.71442144028676,-10.412690222455321,2.6263773477110055,26.60471502297422,-4.505465687922069
-4.102633780225757,18.713670215596455,-10.014041643382383,2.621785642994506,26.20691877265456,-4.492824914039527
-4.112085330135094,18.707374821050397,-9.472607891867286,2.6159000493216173,25.67191252945706,-4.47600658319533
-4.121456095689594,18.69526924642572,-8.934165866373085,2.610431396312128,25.145701820484287,-4.459662321498694
-4.130887205118604,18.677332603847784,-8.390667483993788,2.6052831342968155,24.620261615163415,-4.443530349687353
-4.14028126023553,18.65388109054779,-7.848097724682946,2.600534568044546,24.10125610870495,-4.427799883708171
-4.149439109295028,18.625753590424313,-7.317433856070726,2.596186988237758,23.598828761391008,-4.412708767313959
-4.154240243572289,18.608975474948735,-7.038679821611213,2.5940296728777414,23.33690834877601,-4.404902955013002
-4.168201793549992,18.803965862638684,-7.259731965343729,2.603235733291811,23.362323326207,-4.421072846660137
-4.203004296707994,19.28788278262465,-7.814853568892172,2.626325015421851,23.43189856920709,-4.461730662148427
-4.24143208000648,19.813851026884063,-8.41394518305461,2.6517405942874137,23.50321070516033,-4.506417612108878
-4.280930523536579,20.34561789911688,-9.015107658286388,2.677778680547002,23.57073146548027,-4.552128011835698
-4.321378245430128,20.88116056119459,-9.61591805298039,2.7043533588600255,23.63406553721244,-4.598708250982632
-4.352651298384967,21.28916808136239,-10.070530909139283,2.724838823601686,23.67916631000219,-4.634566738870932
-4.344916813304992,21.372199092134597,-10.162304528038375,2.7201926333634185,23.688260244190054,-4.626744802838548
-4.0100849438230854,21.234907307507353,-10.000773860578763,2.510633441265139,23.679052947687275,-4.267274368968964
-3.455997375757741,21.00311045094136,-9.72920343061776,2.1637630439838933,23.661449274231337,-3.6726490821020725
-2.882710228373629,20.757153533692673,-9.4425021890317,1.8048005827857185,23.640200296617657,-3.057743231948605
-2.3102377255879776,20.505212029356105,-9.150225076798305,1.4463199032243401,23.61580797869181,-2.4440728177717657
-1.7389316151402319,20.247354484746175,-8.852401362499888,1.0885886269621259,23.588240038064615,-1.8320455290174622
-1.1723698807240752,19.9851718369748,-8.550802402633874,0.7338945259269896,23.557639256125096,-1.225523703749146
-0.6141169341212236,19.720413481272416,-8.247359457271388,0.384510702489968,23.524298703546204,-0.6283359647856113
-0.057553691013224745,19.44998513451668,-7.938446910278011,0.036337585043090447,23.487819451155904,-0.03342698770470145
0.4971501266875234,19.173900370447065,-7.624021560220368,-0.3104750926187989,23.448179756939187,0.5589911539737118
1.0500010623674818,18.89208522640507,-7.303935171837945,-0.6558854883489451,23.405314846953043,1.1488888617731512
1.59877964231763,18.605642034541013,-6.979379072231465,-0.998471383693409,23.359445476035113,1.7338793489888802
2.146135005271857,18.31314424373903,-6.648666155310954,-1.3398436113954841,23.31029912843437,2.316751476194773
2.689358459259719,18.01599635867607,-6.313315865436703,-1.6782735310927763,23.258099987333548,2.8945904774815867
3.23132631794918,17.712575253039187,-5.971426499304352,-2.015514111595648,23.20254773778422,3.47042425366124
3.756802747264677,17.41160133807763,-5.632737636828289,-2.34206233806444,23.145299449015805,4.0280570446757125
4.0513480918274505,17.239917246265556,-5.439701778173204,-2.5248993173323897,23.111710549285448,4.340316152060982
4.048557071517571,17.149830681013995,-5.5333997628561935,-2.526634286512104,23.295437463409282,4.346158928424226
4.020920869127454,16.914120837209662,-5.79752436252735,-2.5189788365280443,23.795979997493312,4.340635577307688
3.9916665547122365,16.65543130901622,-6.075808303517428,-2.511176445288721,24.33369693845216,4.335009700044303
3.963087175150417,16.393278852928518,-6.3462146250209,-2.5038653481377366,24.866975874086663,4.329743983311824
3.946449214923951,16.236240696487194,-6.502905722004092,-2.499755773263203,25.18112152381151,4.326787893944159
3.9389613320336854,16.164481675159216,-6.573236970813574,-2.4979423813552897,25.32339849754828,4.325484600195129
3.9244520549249073,16.02348894565175,-6.709171121899571,-2.4944935554766263,25.600685914456538,4.323008144346719
3.8972713360495432,15.75231792976254,-6.962515435232677,-2.488269051700056,26.125872191490892,4.318547749733992
3.8697242645740846,15.467857454100649,-7.217392717033694,-2.4822857708737667,26.665883902642353,4.314274977471308
3.8426114982899127,15.178095195597951,-7.4662252961534685,-2.476729573997966,27.20513600207346,4.31032511519417
3.816359122361505,14.887972542691113,-7.705071957165044,-2.4716772028490492,27.73473585748878,4.306753999158083
3.8013652097821824,14.717935539950382,-7.840497612419961,-2.4689412038812737,28.040556008187973,4.304830862017544
3.7944321958331937,14.638226089389969,-7.902861195181108,-2.467713804166909,28.182793684691156,4.303971092905722
3.5783812564925745,14.648690107330596,-7.913546088613132,-2.3274940850615087,28.192006614474955,4.060766878204863
3.069054594695455,14.675490729861794,-7.932705570985157,-1.9965725086302066,28.2034632755919,3.4869286856111787
2.513043515641089,14.700038294152082,-7.950242632324468,-1.6351026760870662,28.213938000850415,2.860410050834149
1.9575140776969462,14.719667866585699,-7.9642638200069715,-1.2737624617392933,28.222347960036576,2.234366327076659
1.4024666651163429,14.734400599519065,-7.974784297056853,-0.9125919220258945,28.22866641986556,1.6088114773334776
0.8484548823287039,14.74424735080026,-7.981810926947328,-0.551992555817591,28.232863515803647,0.9843838619323713
0.29197645406695516,14.749258047487833,-7.9853888764699406,-0.1897253217820899,28.235021633507817,0.3571537438804037
-0.26273635915821764,14.749387046613746,-7.985482715111038,0.1714142156745991,28.235088409190315,-0.2680945216958954
-0.8178862034141743,14.744651061957494,-7.982100567166271,0.5328179524650553,28.233039185181415,-0.8938286680407789
-1.3716401881535831,14.735078120789995,-7.975269235581752,0.893254406082383,28.228951028747566,-1.5179664383114526
-1.926673734843155,14.720618475665686,-7.96494747397006,1.2544234907946985,28.22277256414682,-2.143508626426283
-2.482173436187081,14.701262068362848,-7.951121387209796,1.6157522432297153,28.2144704673375,-2.7695226501105963
-3.0371141156757853,14.677039092218061,-7.933816434133133,1.9765377264772148,28.204125439549056,-3.3948382005529383
-3.550726418074333,14.650258096293133,-7.914674232738231,2.3102568643188754,28.192692938724218,-3.9735098577426506
-3.7859246286197226,14.63659086696989,-7.904899465606352,2.4630024875218988,28.186844753859045,-4.238472886012748
-3.7973268537643015,14.642542220812544,-7.714645784578091,2.4658919454654993,27.990335129053012,-4.241731047944067
-3.8049387932533665,14.655551828827864,-7.219111396868936,2.4593200182931194,27.481936096802343,-4.22556928195322
-3.813063605234961,14.663478960863799,-6.6881035306381404,2.4526688493006845,26.9431509268353,-4.208646667733274
-3.8212443265140377,14.665375124076213,-6.15132220723452,2.4463381020170747,26.404619420583586,-4.19193543074948
-3.82944554871123,14.661279657308908,-5.611117419137463,2.440347447726641,25.868651764318056,-4.175498229605534
-3.837564420507926,14.651438320388866,-5.074340462853605,2.4347560245186917,25.341851989633376,-4.159524268390367
-3.8457516549197233,14.635808931028965,-4.53108403615772,2.4294476486048606,24.814357721304628,-4.143703331430028
-3.8539010278643944,14.614683562962947,-3.988435039164637,2.424482194887427,24.29296224068671,-4.128230044350904
-3.8620749737467652,14.588032638951239,-3.442288519243695,2.419810495582818,23.77359135756322,-4.112973428524885
-3.870265438388798,14.555957159098158,-2.893214612310437,2.415429616155422,23.25671424236456,-4.097939209212923
-3.877979998075702,14.520930499513938,-2.37441482872104,2.4115697162387346,22.773052198277476,-4.0840006367237
-3.881380074565087,14.510389716881363,-2.171448558533471,2.4102951344887207,22.580657199538216,-4.078826247134923
-3.896813086375399,14.756666965813473,-2.4711399794205757,2.420796307920299,22.633388638542463,-4.097582658019667
-3.927505872907556,15.240894036118606,-3.0576357529657465,2.441639747313006,22.734293302862927,-4.134764479215706
-3.960161251767319,15.748170426660403,-3.6681224569393023,2.4637561175976668,22.8360432650699,-4.174150410159782
-3.993866881286917,16.263470426971235,-4.284133862979834,2.486519137078922,22.935237548468447,-4.2146186756821695
-4.02778904176433,16.773847205619962,-4.890139354633336,2.509362237729292,23.029329369258868,-4.255161051308277
-4.051812561463838,17.130439463105574,-5.311103635264336,2.5254995780554164,23.092606906326782,-4.283761907602549
-4.058825121793908,17.233786717332507,-5.432730878487109,2.5302038877372945,23.110566464388853,-4.292093438341152
-4.058942560749212,17.235514879573522,-5.434763402112272,2.5302826486283494,23.110865456211894,-4.292232905967025
-4.058942560749212,17.235514879573522,-5.434763402112272,2.5302826486283494,23.110865456211894,-4.292232905967025
-4.058942560749212,17.235514879573522,-5.434763402112272,2.5302826486283494,23.110865456211894,-4.292232905967025
-4.058942560749212,17.235514879573522,-5.434763402112272,2.5302826486283494,23.110865456211894,-4.292232905967025
-4.058942560749212,17.235514879573522,-5.434763402112272,2.5302826486283494,23.110865456211894,-4.292232905967025
-4.058942560749212,17.235514879573522,-5.434763402112272,2.5302826486283494,23.110865456211894,-4.292232905967025
-4.058922253016515,17.235476586778866,-5.434664932831573,2.5302699622971083,23.11063066291067,-4.292211451514064
-3.971917967820202,17.071419019302756,-5.012793643270207,2.475917997069879,22.104707271711433,-4.200294280260139
-3.885269404023234,16.90803220944903,-4.592647195710905,2.4217882525882617,21.10289664892979,-4.108752916987492
-3.7985973174277947,16.7446010443881,-4.172386689478482,2.367643813309466,20.10081406100119,-4.0171867026504335
-3.6866356985556434,16.533483272413914,-3.629500871516792,2.2977008903604097,18.806339759121595,-3.898902927632714
-3.5382244835196635,16.25363518366703,-2.9098761940503124,2.2049877420279382,17.090443669818168,-3.742111350784686
-3.3893753186606705,15.972961285220336,-2.1881279607591897,2.1120010044866366,15.369484106110631,-3.584857094325055
-3.2411631041493654,15.69348843709443,-1.469468208270586,2.0194121726699885,13.655888814775727,-3.4282757549988325
-3.092446848990897,15.413065156673191,-0.7483644350382841,1.9265084644117263,11.936465922237577,-3.2711619132748293
-2.9436849608865727,15.132555829569576,-0.02703939420208357,1.8335762490485474,10.216515432150164,-3.113999861841506
-2.7951017042759876,14.852383334706706,0.6934194881633048,1.7407556255766676,8.498630238013993,-2.9570265287174498
-2.645891698115986,14.571029024416447,1.4169173891247049,1.6475434688643364,6.7734987107718245,-2.7993910552685
-2.4974632553479084,14.29114845060501,2.1366256013911076,1.5548195582907425,5.057403438420635,-2.642581277887039
-2.348787853010476,14.010802203337125,2.857531285158572,1.461941370972092,3.3384528767358983,-2.4855105958274013
-2.200486877322336,13.731161984802679,3.576621427852092,1.3692970896521697,1.623831349235647,-2.3288354832315825
-2.051763979786654,13.450726179340341,4.297757409017998,1.2763892318712204,-0.09566834092916092,-2.1717146240541005
-1.9030312210543017,13.170271779346315,5.0189412057109895,1.1834752137567055,-1.815282043965547,-2.0145833468460466
-1.7541452354116653,12.889528450661981,5.740867977696423,1.0904654741075452,-3.536667321044168,-1.8572901904371972
-1.6056466001907688,12.609515520116176,6.460916543090505,0.997697713995435,-5.253574142275012,-1.7004062570335134
-1.4568908884936385,12.329017839408339,7.182211635414839,0.9047693570613926,-6.973453222173196,-1.543250730771639
-1.3072411663261458,12.04683438905439,7.907841656175881,0.8112825077969064,-8.703668644035284,-1.3851507117951625
-1.1591324772829652,11.76755675127282,8.625999428530502,0.718758348802188,-10.416066997889054,-1.2286787437276236
-1.0106427146117027,11.487560551039861,9.346004972205051,0.6259961314114288,-12.132871236756321,-1.0718041838813728
-0.8623550548290735,11.207945441326917,10.065030547984234,0.5333601685971027,-13.847338808841643,-0.91514313910261
-0.7136454029689562,10.927534612258649,10.78610230277072,0.44046058544878885,-15.566685355573881,-0.7580362735465517
-0.5648596121886665,10.64698021364084,11.50754324425148,0.347513437977266,-17.28691220286384,-0.6008489697207136
-0.41593189672101716,10.366158198101397,12.22967235816814,0.2544776295201967,-19.00877995051269,-0.4435117271215866
-0.2860470992462457,10.12124400936048,12.859465096324223,0.1733380169141538,-20.51047789155371,-0.3062927022674405
-0.19915869691974175,9.957404953670197,13.280774486484725,0.1190584442328327,-21.515061471856075,-0.21449795746142558
-0.11231276000071336,9.793645971868651,13.701877967980238,0.06480539988106762,-22.51915407695418,-0.12274807596441306
-0.025917355530483462,9.630736525896888,14.12079688230489,0.01083380516061188,-23.518037730243556,-0.031474167210101954
0.00040592221091633536,9.58110066135863,14.24843467739957,-0.00561046391463008,-23.822381369793746,-0.003664488380358052
0.00040592221091633536,9.58110066135863,14.24843467739957,-0.00561046391463008,-23.822381369793746,-0.003664488380358052
0.00040592221091633536,9.58110066135863,14.24843467739957,-0.00561046391463008,-23.822381369793746,-0.003664488380358052
0.00040592221091633536,9.58110066135863,14.24843467739957,-0.00561046391463008,-23.822381369793746,-0.003664488380358052
0.00040592221091633536,9.58110066135863,14.24843467739957,-0.00561046391463008,-23.822381369793746,-0.003664488380358052
0.00040592221091633536,9.58110066135863,14.24843467739957,-0.00561046391463008,-23.822381369793746,-0.003664488380358052
0.00040592221091633536,9.58110066135863,14.24843467739957,-0.00561046391463008,-23.822381369793746,-0.003664488380358052
0.00040592221091633536,9.58110066135863,14.24843467739957,-0.00561046391463008,-23.822381369793746,-0.003664488380358052
0.00040592221091633536,9.58110066135863,14.24843467739957,-0.00561046391463008,-23.822381369793746,-0.003664488380358052
0.00040592221091633536,9.58110066135863,14.24843467739957,-0.00561046391463008,-23.822381369793746,-0.003664488380358052
0.00040592221091633536,9.58110066135863,14.24843467739957,-0.00561046391463008,-23.822381369793746,-0.003664488380358052
0.00040592221091633536,9.58110066135863,14.24843467739957,-0.00561046391463008,-23.822381369793746,-0.003664488380358052
0.00040592221091633536,9.58110066135863,14.24843467739957,-0.00561046391463008,-23.822381369793746,-0.003664488380358052
