RAMEL-ESPOL/ARCHIE/matlab/data/joint_goals_square_t35_h45_p12.txt
Joint0,Joint1,Joint2,Joint3,Joint4,Joint5 
-0.0013654219459290839,9.5752142305036,14.248767880560969,-0.0041472379608937125,-23.825727523304074,0.005141364916870915
-0.0013654219459290839,9.5752142305036,14.248767880560969,-0.0041472379608937125,-23.825727523304074,0.005141364916870915
-0.0013654219459290839,9.5752142305036,14.248767880560969,-0.0041472379608937125,-23.825727523304074,0.005141364916870915
-0.0013654219459290839,9.5752142305036,14.248767880560969,-0.0041472379608937125,-23.825727523304074,0.005141364916870915
-0.0013654219459290839,9.5752142305036,14.248767880560969,-0.0041472379608937125,-23.825727523304074,0.005141364916870915
-0.0013654219459290839,9.5752142305036,14.248767880560969,-0.0041472379608937125,-23.825727523304074,0.005141364916870915
-0.0013654219459290839,9.5752142305036,14.248767880560969,-0.0041472379608937125,-23.825727523304074,0.005141364916870915
-0.0013654219459290839,9.5752142305036,14.248767880560969,-0.0041472379608937125,-23.825727523304074,0.005141364916870915
-0.0013654219459290839,9.5752142305036,14.248767880560969,-0.0041472379608937125,-23.825727523304074,0.005141364916870915
-0.0013654219459290839,9.5752142305036,14.248767880560969,-0.0041472379608937125,-23.825727523304074,0.005141364916870915
-0.0013654219459290839,9.5752142305036,14.248767880560969,-0.0041472379608937125,-23.825727523304074,0.005141364916870915
-0.0013654219459290839,9.5752142305036,14.248767880560969,-0.0041472379608937125,-23.825727523304074,0.005141364916870915
-0.0013654219459290839,9.5752142305036,14.248767880560969,-0.0041472379608937125,-23.825727523304074,0.005141364916870915
-0.0013654219459290839,9.5752142305036,14.248767880560969,-0.0041472379608937125,-23.825727523304074,0.005141364916870915
-0.0013654219459290839,9.5752142305036,14.248767880560969,-0.0041472379608937125,-23.825727523304074,0.005141364916870915
-0.0013654219459290839,9.5752142305036,14.248767880560969,-0.0041472379608937125,-23.825727523304074,0.005141364916870915
-0.0013634138344654535,9.575202119545352,14.248777984178538,-0.0041472305206215355,-23.825705884301584,0.005143387617021312
0.021503290057801983,9.436991148452607,14.364187372502975,-0.00416022557765724,-23.578968544335638,0.02813699300059114
0.06670897741668606,9.161959471240948,14.594480657391038,-0.004761607236776204,-23.089222954090133,0.0733661999475891
0.11288800886173712,8.8784864898994,14.832731375899286,-0.006164737100988949,-22.586195892205232,0.11926634072386418
0.15884173323813158,8.593803479256339,15.072913159117237,-0.008352392602538993,-22.082825724068705,0.164649084013186
0.20448335882667024,8.30842705456446,15.31460498717193,-0.011306989647455308,-21.58006055504717,0.20944415637404915
0.24967008675167374,8.023249399130858,15.557059352412406,-0.015000483917863601,-21.079493452936262,0.2535284104374071
0.2947836149698601,7.735840407910296,15.802358022141199,-0.019451829562784018,-20.576895258292303,0.29728868313046697
0.339647412583282,7.447285614862182,16.04959694023891,-0.024636906001084043,-20.074213987641848,0.34056613311788353
0.38426694970524217,7.157525438762991,16.298844918925685,-0.030545882060183344,-19.571386304279432,0.38337947381011694
0.42863098468452293,6.866609760318362,16.55007681113188,-0.037166882344452604,-19.068539235228215,0.4257311100157179
0.47281723416425403,6.573999077470771,16.803779112123554,-0.04450326790713813,-18.5647864262173,0.46770760870931244
0.5166549312394292,6.280803601943982,17.05900702183206,-0.05251644572142215,-18.062079759171993,0.5091594523386302
0.5601534873804747,5.986956092466487,17.3158315517515,-0.061194202244491215,-17.56033380363212,0.5501089510452418
0.6034360719373155,5.691607270476347,17.575012394261496,-0.07055085243904059,-17.05813824460812,0.590684265438769
0.6464936409588626,5.3947900896473335,17.836542531332302,-0.08057734266266403,-16.555598049601187,0.6308881638474286
0.6892182279034956,5.097232379795179,18.099798668212387,-0.09123881367348667,-16.05398657247572,0.6706314557720738
0.731742236241184,4.797992816906982,18.36563304341891,-0.10255955336487721,-15.551760951758702,0.7100485105193967
0.7741131903406072,4.496698483895258,18.634403643245324,-0.11454815324648157,-15.048354165002666,0.7491934935068357
0.8162561652866794,4.193845747481456,18.905694163593814,-0.12717905234848412,-14.544654045468562,0.7880072346867163
0.8579013550757935,3.89137650200076,19.177778051926193,-0.1403585916047538,-14.043921204666285,0.8262524900338762
0.8995827391966633,3.585385276342497,19.45419258822759,-0.1542498103975437,-13.539744039888465,0.8644296173188746
0.9408052117821147,3.2794748599294143,19.73170941631166,-0.16868304933805572,-13.038116903140534,0.9020946933651751
0.9818089766620359,2.9718613238988425,20.011962763049866,-0.18373150973117378,-12.536151484615202,0.9394774077542939
1.0225812691187364,2.6626114479764387,20.294917897616223,-0.19938563217718883,-12.034014827569342,0.9765753735656612
1.0633199576678494,2.3501720435901934,20.582031018804333,-0.21572137769194089,-11.529261679310457,1.013577278301232
1.1035104855185212,2.0384766193501647,20.869708812391163,-0.2325246185879084,-11.028295115093714,1.0500249615711186
1.1437266432595625,1.7230545602411271,21.162102161636522,-0.2500291326942372,-10.52398538580779,1.0864476992670193
1.183499310825357,1.4075510619779943,21.45586200539663,-0.26802750545299103,-10.022227100044924,1.1224291039260241
1.222990124134268,1.0906909371210487,21.75219132278324,-0.28658186720299883,-9.521029133996239,1.1581241535844753
1.2623655793292272,0.7711006508226664,22.05240692339033,-0.3057681190641813,-9.0182903606107,1.1936914730983283
1.30143851322272,0.45026393643051904,22.3551470088439,-0.32549241661151773,-8.516415817743164,1.2289699951786424
1.34037393068628,0.12679321583195516,22.66175253789662,-0.34583496445533524,-8.013305432862895,1.264116591188164
1.3791764124469228,-0.1994080401917914,22.972356689261535,-0.36679980946029617,-7.508900694854284,1.2991431275065233
1.4174741889473075,-0.5252186909955653,23.28400991267849,-0.3881780602740962,-7.008079132995857,1.3337215660797819
1.455692845872698,-0.8542715935144635,23.600213092693156,-0.41020080846411916,-6.505315342861988,1.3682435367794783
1.4936450805557393,-1.1850032095441854,23.91950364441899,-0.43276023823122955,-6.003086703130029,1.4025471705264168
1.5314263788941591,-1.5182817124491343,24.242755527626443,-0.45591094578118524,-5.500154944707912,1.4367259147992104
1.5689650553053274,-1.8535145529866894,24.5694318357882,-0.47960751845747557,-4.997498747743346,1.4707219364413395
1.6062789100335628,-2.190893024196961,24.899754680550277,-0.503858452374238,-4.494911547926272,1.5045581588925472
1.643417464691049,-2.5309090935734666,25.23424653917475,-0.5286951854302347,-3.9917517450587403,1.5382862688602026
1.6802627653978217,-2.8725158992202493,25.571914826230426,-0.5540362447875486,-3.489652552245292,1.5718056271288694
1.7168256642601847,-3.2158287448578182,25.912904516010975,-0.5798835290913779,-2.9885155074370666,1.6051321488074601
1.7532827430405913,-3.5625542712602623,26.258955121232255,-0.6063617879877322,-2.4859491791619166,1.6384331548844366
1.7896301188398636,-3.9127374976176656,26.6101694117816,-0.6334733485261491,-1.982016959338837,1.6717118895799545
1.825604007503069,-4.26387040575142,26.964072238313207,-0.6610188168908527,-1.4804195841050845,1.7047326415094834
1.861579598910817,-4.619671510276676,27.32446135772803,-0.6892863268406708,-0.9759576534232137,1.7378458824133494
1.8971641702744768,-4.976310179991738,27.687506174575905,-0.7179676311792176,-0.47417419110181785,1.7706959614847266
1.9325005584879673,-5.335223193186423,28.05470112708136,-0.7471707207197644,0.026877663225749276,1.8034193733266217
1.9677243982623203,-5.697849996738354,28.42757309217912,-0.7770090612347048,0.5290844569800228,1.8361473482092732
2.0028460104709542,-6.064391421481157,28.806396391489063,-0.807497466942098,1.0325716466623678,1.8688956711075535
2.0376574035597095,-6.432731951529347,29.18903823168128,-0.838455397883924,1.534310658807418,1.9014754971368184
2.0724523236146823,-6.806055591208516,29.578868991227612,-0.8701468855901038,2.0384956708190907,1.9341671351269638
2.1069089804031,-7.180981419422174,29.972420232408858,-0.9022808283903054,2.5404188019251297,1.9666732969940117
2.141173112181441,-7.559128661557941,30.371439806843213,-0.9349894086005042,3.0421351016061364,1.999135308127637
2.1753570027610967,-7.941832247714023,30.777409804629432,-0.9683846675746998,3.545247653774678,2.0316647271660213
2.2093792615424586,-8.328287279597085,31.18955524442098,-1.002393056932078,4.048517797964777,2.0641893050443585
2.2431111018225636,-8.717088733788769,31.606438712758564,-1.0368847455946757,4.549973291795256,2.09658953569416
2.2771151249503587,-9.114893880473735,32.035306168893165,-1.0724490931916495,5.057954740615805,2.1294122506422433
2.3105762928055587,-9.512279108420108,32.46608301229303,-1.108238992802937,5.560232244428597,2.161875148631914
2.343577414998828,-9.910146194368464,32.899756397291306,-1.1443222497602585,6.0579131279638725,2.194057263626118
2.3760580429668576,-10.30768625358878,33.33545471823821,-1.1806123262275683,6.54995174089059,2.2258979521845577
2.40795698703448,-10.704033167170097,33.77222382061181,-1.2170157195428655,7.035274874467533,2.2573340766470658
2.4395003828375486,-11.101920812128808,34.21308786033616,-1.253770777978502,7.51719256650667,2.2885860817189823
2.47053145459794,-11.499312271695134,34.655807797187094,-1.2906772577183232,7.993185591401163,2.3194962891295883
2.5011495528747796,-11.897400160372039,35.101722116422366,-1.3278331825843395,8.464647685103168,2.3501603476082544
2.5313282542176054,-12.295779631079055,35.55039445059632,-1.3651886362429955,8.93104803823411,2.380548597579196
2.561000396058851,-12.693470555874642,36.00072498205212,-1.4026387130213862,9.391216499442299,2.4105889530395785
2.590560899793227,-13.095770624732078,36.458756554764136,-1.4406717194055263,9.851170774103869,2.4406790213445237
2.619616434223831,-13.497330082321245,36.918441819861066,-1.4787710820753803,10.304682402880934,2.4704157551223993
2.6479452980720968,-13.89489004623542,37.37601346829748,-1.5166124695224916,10.748138266231077,2.4995640428210915
2.6750474887711655,-14.28100026543354,37.82276141561373,-1.553467799114804,11.173517566883625,2.5275950030921166
2.6874218728373886,-14.459214930636632,38.0297485680453,-1.5705101738247618,11.368086313065874,2.5404407979103274
2.6868602569727806,-14.502913598625538,38.005576030120224,-1.57176531027265,11.462880858441311,2.54206928079075
2.674735123792576,-14.637665523929451,37.7167198251797,-1.567067383797668,11.88663504306993,2.5425504576084133
2.660543973701204,-14.802740899898673,37.38349655770869,-1.5616743772526767,12.38510495869514,2.543094284526239
2.646419198600789,-14.975087622617492,37.05717054200082,-1.556420482172437,12.883948498244148,2.543616421637093
2.632427785299517,-15.153885280942202,36.73933029987179,-1.5513292672148724,13.380755886807506,2.544116388087154
2.6185293744823164,-15.339623597724989,36.42908678910512,-1.5463843961197479,13.876906347454927,2.5445975756810313
2.6046554880917023,-15.533285911605965,36.12500532983626,-1.5415611676022183,14.374818703433334,2.545064044097277
2.5910404960531745,-15.731519460447332,35.83221672763271,-1.536938702029799,14.866006510561355,2.5455097472299495
2.5793463409559543,-15.908389589117125,35.585307816101185,-1.5330568044812696,15.289927993684998,2.5458840687572244
2.5744641528667414,-15.984064922811239,35.483504317136585,-1.531460506435917,15.467466334867744,2.546038234565458
2.5715131345698343,-16.03033561017075,35.42234006726713,-1.5305026191473867,15.574937252662638,2.546130856096676
2.570732287777309,-16.030867907107815,35.36792847807311,-1.530447809304467,15.62988120301995,2.5468901256820664
2.57661587572618,-15.771861285030386,34.94774699103951,-1.5351624453073374,15.790849753236033,2.5571365601281677
2.586717352343493,-15.332995393334215,34.23722436937972,-1.5432635392339604,16.062151859691326,2.574651104011491
2.5977752559001197,-14.86071204514935,33.47464050002722,-1.5521404884897771,16.352063555120083,2.5937160527087957
2.6091570866126244,-14.383109471770531,32.70564203943347,-1.561286244146882,16.643058493420646,2.6132269599079616
2.6206198164461174,-13.910477673985751,31.946821299147068,-1.5705051232720273,16.928842837021996,2.632766399412672
2.6322398264557525,-13.439577516666294,31.19295404905233,-1.5798579634006393,17.211398913298165,2.652466100236525
2.6439537830338704,-12.972903873980432,30.44801487612562,-1.5892932139405838,17.489249177797863,2.672219930859031
2.6557849176698514,-12.509423210185957,29.710324044679336,-1.5988289820517898,17.76303894059546,2.6920687329571567
2.6678183648563487,-12.045804742200165,28.97458082473164,-1.608533362570093,18.034735043712516,2.712155487232646
2.68003739750609,-11.58276022949091,28.241933045653717,-1.618392373359096,18.303901924069507,2.7324515628117787
2.6924321806815206,-11.120702902534743,27.513045252646613,-1.6283975498651093,18.57028853168755,2.7529402222689017
2.705024796329061,-10.658858646069039,26.786709490388652,-1.6385661733655597,18.834327826763374,2.7736574138537833
2.7178277632525365,-10.196847188865878,26.062349781313106,-1.6489078019649368,19.096214970353362,2.794622751685154
2.7307972694214944,-9.736294920305518,25.342528185212746,-1.6593864597628685,19.355015778699777,2.8157639026390036
2.7439097148353517,-9.278028845561272,24.628532164723858,-1.6699824575097368,19.610270565597908,2.8370424974392265
2.754737195636793,-8.9050089533788,24.04902686320401,-1.6787329223330767,19.81636247825688,2.8545430944240042
2.759843252687395,-8.730745671331144,23.778818522098057,-1.6828596664648665,19.91212160896103,2.862774670907552
2.7645121202208403,-8.572309470452502,23.53343921796528,-1.6866331241097225,19.998894498633568,2.8702896514876692
2.661620361916331,-8.536094197531627,23.48048559979037,-1.6240765878063135,20.018502876830727,2.7650555734463804
2.217703957050306,-8.512393647835108,23.455715705232343,-1.3533446041374682,20.03073829825143,2.308741299967801
1.7130386382130103,-8.490703357961847,23.433057279449095,-1.0454337603876707,20.041911152495373,1.7898670634407725
1.2105475976830125,-8.47464905004675,23.416290973570597,-0.7387420182828224,20.05018056701125,1.2731341206073643
0.706640763934276,-8.4640954008618,23.405271511035266,-0.43111018376374705,20.055615058700358,0.7548787391524019
0.20385410597454026,-8.459095394341572,23.400051581162966,-0.1241179560676579,20.058187106559114,0.23773671962301152
-0.30095968198545264,-8.459628792729085,23.400604895762278,0.18412724272207853,20.057938532763323,-0.28150317666161473
-0.80268130552085,-8.465675691257632,23.406918645837383,0.49046322269151255,20.054816316137103,-0.7975445364894017
-1.3062985292457667,-8.477278090182685,23.4190342306623,0.7979060359348323,20.04883098194173,-1.3154913174369058
-1.810425017084752,-8.49444941054225,23.43696856041913,1.1055772901591427,20.039976076612373,-1.833889613361437
-2.3140937196765807,-8.517165869741254,23.460701075564593,1.4128550387232437,20.028264523852915,-2.3517170878575677
-2.715267330128908,-8.539242433272198,23.4837692723919,1.657503274789586,20.016910152053352,-2.7640805848052143
-2.7664542880671754,-8.557395672526471,23.614459388354387,1.6875085821085796,19.902980872494812,-2.813166360534668
-2.7699186401346614,-8.618373487887771,24.11017414907625,1.685038746701236,19.468333731718875,-2.8031284845373525
-2.7739808776189934,-8.694629514533439,24.695134373402748,1.6822933230190389,18.959734138148338,-2.7914405474719692
-2.778024123869499,-8.775595641848707,25.281324276920774,1.6797193599670124,18.45461378292909,-2.7798911203677528
-2.7820681577315227,-8.8616034166713,25.87159108263512,1.6773003072170858,17.95045755752845,-2.7684186731238762
-2.7861112156882757,-8.952587131051075,26.465686117136354,1.675034489219653,17.44744843845447,-2.757023854797286
-2.7901310414654827,-9.047974892244348,27.060314011663795,1.672930442100741,16.948309398705995,-2.745764503074704
-2.794184780693111,-9.149117019454177,27.66395602337481,1.670956367722932,16.445910989553834,-2.7344766514208403
-2.7982077591898067,-9.254383070151617,28.26700112430417,1.6691416257880127,15.948232229755243,-2.7233364105356594
-2.802237402565635,-9.364686830862018,28.875040043681548,1.6674658311294586,15.450597165496266,-2.712235597614976
-2.806263259733739,-9.479727677608293,29.4865185317278,1.6659314006206458,14.95425921396261,-2.7011991567907514
-2.8102045714212256,-9.597022103061326,30.089058718676114,1.6645626473073487,14.469110796815551,-2.6904430176179948
-2.8125924925221883,-9.6703281326398,30.45600709822918,1.6637968467885624,14.175527323706309,-2.6839480421792197
-2.8138999030626564,-9.652653337876423,30.47435834015113,1.664305314065295,14.139480989577924,-2.684129067022456
-2.8221811711423843,-9.360762216048807,30.024066549176478,1.6703670792604997,14.297589399025647,-2.6968680934067577
-2.835303373543214,-8.904385018655727,29.321915700845565,1.6799761829510198,14.542899021582324,-2.7169666655813134
-2.849302491670016,-8.425532716428428,28.587680768148402,1.6902318246307662,14.79778532845859,-2.73829449113263
-2.8636066389895354,-7.944474450734133,27.852657705228086,1.700714665456374,15.051241574199087,-2.759970289694977
-2.878144787687406,-7.4637366500284585,27.1207436378876,1.7113719183681637,15.301899464966464,-2.7818844634205684
-2.8913964786808077,-7.032464461721439,26.46638652843757,1.7210879316210763,15.524510526059649,-2.8017611596702303
-2.8980185530474856,-6.819352629500831,26.143827612022317,1.725943607148843,15.633720322128305,-2.8116597342268905
-2.9025169117164067,-6.6754796874615785,25.926362928371393,1.729242166066028,15.707150684969326,-2.8183711116063805
-2.8200151287026074,-6.761320156400326,26.058414182172953,1.67976275650416,15.663279045956104,-2.7360861240114507
-2.535813577743945,-7.098567752229217,26.576374086918264,1.5093081976311555,15.490104319102212,-2.4526547032236534
-2.2146882638301424,-7.48631438891392,27.1724230882056,1.3170166501282423,15.289310159323188,-2.133635626084052
-1.8975485195974215,-7.876405450522857,27.772678229070575,1.127424326767132,15.085567356803065,-1.8198415559044665
-1.584263552148222,-8.268961301106058,28.377376780889346,0.9404705313706486,14.878755684244988,-1.5111996344787295
-1.276692499188217,-8.661536263415933,28.98278631454024,0.7572409680306301,14.670228292346847,-1.209463777400905
-0.9717851055115951,-9.057960505936379,29.594861301913348,0.5759334829322782,14.457901308017004,-0.9116931495001352
-0.6728632449049612,-9.453826025840197,30.206831089888237,0.39849958047825584,14.244190904988427,-0.6210580169407951
-0.37674848402625927,-9.853258844309861,30.825117420711294,0.22306529358872682,14.026827168003893,-0.3345152410942805
-0.08591440567319354,-10.252849040816795,31.44447711812961,0.05107195242987686,13.807714481537278,-0.054386358547677635
0.20274460337158606,-10.65682598105437,32.07151196100482,-0.11930383952658118,13.58448311601188,0.22226549759494715
0.4874295070185257,-11.062671078211308,32.702355320732735,-0.2870219275166957,13.358553846177164,0.4937751975819672
0.7664133673756095,-11.467793779018942,33.3330138016784,-0.4510571155993095,13.1313409455319,0.7584590447733682
1.0434113063370094,-11.877524826271614,33.97181951574108,-0.6136191510455402,12.899895891911356,1.0199139913941748
1.315864272201654,-12.288072064563734,34.61290701720316,-0.7731945991144589,12.666307784454737,1.2756662594038213
1.5827883492643784,-12.697784900909673,35.253717047816124,-0.9292370965393413,12.43157675398189,1.5248838061101593
1.8477758200616434,-13.112128320780323,35.90283667225025,-1.0838382796641959,12.192530223166079,1.7708711120698513
2.108373189961696,-13.527251909986207,36.55427149119194,-1.2355905150323916,11.951414505818917,2.0114138782153055
2.36008037771529,-13.93567337001904,37.19627905901242,-1.38187627218446,11.71259205097654,2.242358095164204
2.5154950489900654,-14.191622394617763,37.59916867848223,-1.4720651017696946,11.5621464190515,2.384283138731256
2.5887118128229982,-14.313222181508332,37.79073116374556,-1.514516608277889,11.490458428924583,2.4509588799015547
2.650699692045464,-14.416691903937592,37.95381017348391,-1.5504389447515885,11.42935146431552,2.507314389845652
2.688571575464183,-14.484366953431383,38.04661273893891,-1.572440953750133,11.40328804789005,2.542023273544049
2.6788835367671844,-14.590927399089777,37.81509012630954,-1.5686713486104529,11.741487752515187,2.5424107935390174
2.6647220172167128,-14.753318440664833,37.48101952836535,-1.5632562340557803,12.238120205175067,2.5429594336695986
2.650623710162632,-14.922947942107173,37.153713532506984,-1.5579784287214578,12.735226089529409,2.5434860711440113
2.636583842341063,-15.099936826192696,36.8331455445557,-1.5528357399937562,13.232952950612521,2.5439927400243723
2.6226120582650028,-15.28422374212678,36.51962076097776,-1.54783124825927,13.73093409604692,2.544480891665381
2.6087139947575513,-15.475782103411818,36.21334515531916,-1.5429663465790882,14.228936870074419,2.544952085486156
2.5950412860319454,-15.672428040717191,35.91764548415332,-1.538291568455073,14.72144877529937,2.545403076453222
2.5820712063130102,-15.866636105977296,35.64243772481362,-1.5339599853309278,15.191022540125799,2.5458206357377167
2.5760362092407454,-15.959589375986807,35.51618382391142,-1.531978938822385,15.410303258869048,2.5460118538303123
2.5725471757412843,-16.01408720269411,35.44372264624484,-1.530843662758221,15.537304799570272,2.546121578277541
2.5644132946199307,-16.048797236001764,35.39721591241806,-1.5266102790903515,15.618686721788922,2.5403811472723667
2.2758879589003675,-16.03119801804519,35.376794210414054,-1.3549374918923371,15.628366837097735,2.257869520100263
1.7935438149673462,-16.00648013714694,35.34812358335876,-1.0678430425295282,15.641935165427029,1.7854602813646492
1.3119542850164536,-15.987657021733009,35.326292857992776,-0.7810998162176636,15.652296903858531,1.3136735252645901
0.8277223452047328,-15.97462450299529,35.311184085317215,-0.4927093076397403,15.659446949828302,0.8392099904567143
0.34456627524330985,-15.967502293351336,35.30292863982414,-0.20491371358774887,15.663350577812094,0.3657461496287878
-0.1368246558697321,-15.966242693790088,35.30146538599426,0.0818493769813015,15.664064900497479,-0.10601021908453748
-0.6207647533767608,-15.97085218153693,35.306809367580975,0.3701234462599981,15.661524185718765,-0.580255995519445
-1.103686765585121,-15.98132531875497,35.318951630528716,0.6577563956595469,15.655762148457487,-1.0534628598799447
-1.5871031534724682,-15.997688707997629,35.33792175870578,0.9456232771594142,15.64679636559941,-1.5270818380077087
-2.0686547318846498,-16.01985013004553,35.36362520758563,1.2322911636814478,15.634614322106549,-1.9987687023601874
-2.4894118453253062,-16.044010581949316,35.39165605065857,1.4826752204835734,15.621331564744915,-2.4107957625989265
-2.5718015258057565,-16.04598835453845,35.48260878931101,1.531035664481642,15.530347569762606,-2.4890176001249293
-2.578662825950673,-16.032396123696884,35.92436898558916,1.5317815874545857,15.074985013865167,-2.483099147074294
-2.5868006943423083,-16.022562516924832,36.453337221485974,1.532796102570394,14.536171450414239,-2.4760976352205293
-2.594979918181124,-16.019503072500918,36.990474465174096,1.5339560102523773,13.99596334936855,-2.4690764785497725
-2.6030901583671744,-16.023174727707154,37.5285065283515,1.5352432892046988,13.461592038412407,-2.4621263247295953
-2.611216280606704,-16.033503719867138,38.07301473845332,1.5366685150321915,12.927402359609713,-2.455170367702802
-2.619308093736443,-16.050361578965727,38.620627492631215,1.5382210107615109,12.396637559229681,-2.448247627812291
-2.6273705695103517,-16.073642667165338,39.17163230672244,1.5398988614459752,11.868904521937134,-2.441349931935536
-2.6354458520693953,-16.103413480552195,39.72891250474246,1.5417092403512755,11.341386420380925,-2.434437356808269
-2.643533885116581,-16.13967329421184,40.29251537920363,1.5436516726570013,10.814035291962828,-2.42750604663281
-2.6495689093406503,-16.17091225909127,40.71662382816411,1.5451846909858327,10.421160251779375,-2.422326705370618
-2.651490965910287,-16.123796937273642,40.6891520627546,1.546207021296173,10.401476696097374,-2.4235647953019583
-2.6585695478361813,-15.805693663847054,40.17703915809274,1.5513035001504385,10.59524145217805,-2.435446310584236
-2.6692202892614083,-15.334490978534868,39.420285566389914,1.5589842656712385,10.880423791083064,-2.453213795005207
-2.6793634200606307,-14.893713208169151,38.714389963230175,1.56631179775672,11.14519043617713,-2.470017053457565
-2.684717629612342,-14.664063156408629,38.3473803192396,1.570184452968705,11.282364556551226,-2.4788425496267457
-2.688392010722482,-14.50763874667313,38.09769760229213,1.5728438855404134,11.3754955399115,-2.484881923859002
-2.6858946479402928,-14.51473129532731,37.97957695063212,1.57207871303618,11.500724442536349,-2.486051935235901
-2.673227400889367,-14.656222764071387,37.67815780024999,1.5671816747329546,11.943787725613594,-2.4865589986419483
-2.6590926151154446,-14.821596007827504,37.34675686030079,1.5618244296591284,12.440732593406818,-2.4871054075288828
-2.645032398787185,-14.994092390889108,37.022415623878175,1.5566085512144203,12.937740320654129,-2.487630202735083
-2.6310189726363507,-15.174117606867409,36.704579636789276,1.5515233486999138,13.435771362276705,-2.4881362487458945
-2.6170982475871356,-15.36113053587585,36.3943685301785,1.5465848720716673,13.933164382712771,-2.4886236803162025
-2.6032452549508127,-15.555497748682164,36.09129518527348,1.541783411840679,14.430773347382093,-2.4890951258106733
-2.5896309175967533,-15.75471952484763,35.7990795108856,1.5371755743496127,14.922376520124052,-2.489546626966833
-2.57870288669365,-15.920631794755716,35.568679858552535,1.5335572087817542,15.318821606925122,-2.4899014823898127
-2.5742714504107047,-15.989456381725898,35.47632815617504,1.5321104370183045,15.480051929425304,-2.490043635639774
-2.5714714065902022,-16.033408044834363,35.418300027558125,1.531202413249533,15.582065871997017,-2.4901329692282177
-2.5712221043779393,-16.016000035664298,35.343785308998726,1.5314803132355324,15.639158489307148,-2.4914731492487223
-2.5777408644611395,-15.729343595427231,34.87882515002862,1.53670458497245,15.817233653083298,-2.5028227056290726
-2.5880943588307432,-15.280333600298315,34.15208112771402,1.5450091597750863,16.094604234868974,-2.520765242899654
-2.599215454026823,-14.806300664458933,33.38691446019055,1.5539383491556729,16.385346930635908,-2.5399283889275144
-2.610531105991508,-14.33239900279475,32.624114864270204,1.5630323651214326,16.673846253063886,-2.559315472233151
-2.6220693327569022,-13.857560799113138,31.861991257409084,1.5723133342364985,16.960724391878653,-2.57897349065668
-2.6337039493680554,-13.386977174919876,31.108874995030348,1.5816792489964318,17.2428454869717,-2.598687825774705
-2.6454199716842326,-12.921104406069482,30.36545571355944,1.5911174024474128,17.519976644426333,-2.618435346634407
-2.657274131770257,-12.457589793513513,29.627952143533026,1.6006729002769728,17.79354435590467,-2.63831318989341
-2.669318595504883,-11.99440381116322,28.893137362195382,1.6103872738656684,18.064744083921376,-2.6584089012524132
-2.681591664069745,-11.53017226818283,28.15885851741751,1.6202909394712788,18.33435303149539,-2.6787852617836574
-2.694034370696657,-11.06719934504186,27.42878042740507,1.6303358004137438,18.60101257497497,-2.699343534242606
-2.7066091653870363,-10.606865084157105,26.70507315858394,1.6404909615477559,18.863933956582265,-2.7200219787650752
-2.7194346832606726,-10.14488050060509,25.9810085402717,1.6508516656808225,19.125552009717396,-2.741015019468629
-2.7324231973798376,-9.68462121860661,25.261900057326866,1.661374882591065,19.383922503284907,-2.7621900951608747
-2.745546387870737,-9.226796638074635,24.548845208332153,1.6719803233429507,19.63867713781998,-2.7834773100241055
-2.756903699586604,-8.836331584617657,23.94249199107748,1.6811595894702513,19.854152445126818,-2.8018252946963234
-2.7621378157809664,-8.658130746570738,23.666315501285094,1.6853900940841717,19.951937440944405,-2.8102583764876554
-2.7655013207638612,-8.54418875186555,23.489909803190475,1.688108692552351,20.014278496476575,-2.8156701271810918
-2.7672183029440793,-8.57054611269338,23.72372870841507,1.6869416076333008,19.80685804476341,-2.8109355737676522
-2.7710214257153445,-8.638594816393848,24.268776899740477,1.6842655530915065,19.329956974628946,-2.799935693191903
-2.775063242253283,-8.715837441284847,24.851865417610274,1.6815770584146774,18.824214964822357,-2.788329692058875
-2.779124691434522,-8.798535139778355,25.441769174967224,1.679034007218755,18.317112612325772,-2.776750315203355
-2.783151254042345,-8.885519448685415,26.03055401426524,1.6766668088016459,17.815414279654526,-2.7653481177443133
-2.7871978806690283,-8.97792231771779,26.62624271604671,1.6744396215409163,17.3122305896563,-2.7539627412204224
-2.791226872195513,-9.074861410317386,27.223300418174137,1.6723707865428314,16.812213170166185,-2.7426961104481506
-2.795257156014638,-9.176737873295005,27.824521005070185,1.6704472695351342,16.312969815474307,-2.731490756688078
-2.7993059954345245,-9.284001288843294,28.432524075470106,1.6686595956594479,15.812330990427219,-2.720295086516885
-2.8033231012122175,-9.39527487226762,29.039755614111044,1.6670271101081184,15.316472727009133,-2.709243904587346
-2.807355619016628,-9.511815076501138,29.653336472063096,1.665527721031616,14.819531850583639,-2.6982032589347065
-2.811092103356872,-9.624113215661795,30.22548700134407,1.6642613554391468,14.359771691572778,-2.6880171253813305
-2.812851514958318,-9.678424291221887,30.496106510087188,1.6637055743135878,14.143506625660924,-2.6832345107492706
-2.8153558065877236,-9.601069798053464,30.394716277393922,1.665361181826949,14.167464257089355,-2.686367519665717
-2.8253700868218163,-9.249125071556064,29.852098556620824,1.6726921430867228,14.357783681989083,-2.701757758153785
-2.839024885804828,-8.77624755960634,29.125191025852452,1.682692408629696,14.61133052656434,-2.7226433132329975
-2.853178720570537,-8.294321355333983,28.386943002639974,1.6930624572056578,14.867150168849479,-2.744175322870477
-2.867487749603537,-7.8152990773207165,27.655735213369944,1.7035497180521606,15.118826564304099,-2.7658272499232157
-2.882127612007692,-7.333391670166601,26.922752770316897,1.7142821545959936,15.369379181385991,-2.7878635525297875
-2.894034448952369,-6.947338252930135,26.337482249132595,1.7230124099634183,15.568170224440719,-2.8057024041235303
-2.899578951160711,-6.769322697659026,26.06818264732312,1.7270779979668807,15.65925550886377,-2.8139842832420126
-2.9028472983858595,-6.664899398656294,25.910382916144062,1.729474619783516,15.712514666297642,-2.8188589608151275
-2.6678003214902004,-6.827360937458356,26.162483665311402,1.5888816956450702,15.629344395003034,-2.5858381562299315
-2.219854514728867,-7.144306358878882,26.653374143999347,1.3211920742660246,15.466197533417303,-2.1428816048520054
-1.767002697046194,-7.472471030715213,27.160562515830595,1.0509397534056395,15.296028826146072,-1.6966813377243661
-1.3211159754731319,-7.803395341210468,27.671034452172037,0.7852213827177081,15.123212793037323,-1.2589540588026495
-0.8820374183466625,-8.137034547114112,28.18481955907306,0.5239381034375694,14.947807766079942,-0.8294987718278733
-0.4495963723886179,-8.473373381177623,28.70199794044947,0.2670105005379553,14.769759613043032,-0.4081820854387529
-0.02176977243806145,-8.813884603375971,29.22491718563048,0.013221014918003378,14.588346599664227,0.007029878643332916
0.39929709079960585,-9.156766937212577,29.750904729185137,-0.2361347282087918,14.404458807209343,0.41400967317088505
0.8128997790919449,-9.50126423371645,30.278887825428328,-0.4806526185605807,14.218539863327807,0.8121309829141425
1.2222985236215085,-9.849976146408515,30.81293087801474,-0.7222727530427253,14.029215609114914,1.204578301980306
1.6257324981916943,-10.201339133309789,31.350724770547426,-0.9599330498707522,13.83726129595118,1.5896078274166467
2.0221954468185994,-10.554317096640727,31.890757516677436,-1.193069644813101,13.643308679356634,1.9663466369635008
2.4127922321586364,-10.909747857924797,32.434394430876324,-1.4223157982308168,13.44683818925505,2.3358064671580516
2.678088032807245,-11.155614028749005,32.81039980339123,-1.5777792476613968,13.310293390300128,2.585791084268701
2.7657557525675616,-11.237668700020338,32.93588287074766,-1.629107316635376,13.26460482586267,2.6682218391888655
2.7636246758813225,-11.316690277002454,32.800688011788246,-1.629299892520317,13.478791157363808,2.672447463134153
2.749076514171495,-11.487735253131332,32.49040471858138,-1.6240547638359495,13.960310302720742,2.672562667703602
2.7341205769471943,-11.671356444596213,32.17603859221201,-1.618782581020161,14.458493882867339,2.6726797060298075
2.7193353656066015,-11.86081212702595,31.87001605312207,-1.6136917176526926,14.954166137727976,2.6727958040368973
2.704471834926456,-12.05940136310273,31.56730319800265,-1.6086969370354527,15.45566327717313,2.672914719015132
2.6899328719482294,-12.26172039125315,31.276149559695245,-1.6039322183692104,15.949326697280592,2.673034909005091
2.675324580123901,-12.473221484081629,30.98870874171565,-1.599266947978111,16.44846021386966,2.6731612487847203
2.6609512265056727,-12.689543575100005,30.711055685529935,-1.5947978899649444,16.942623808171835,2.6732926746141543
2.6503521226820057,-12.854394702163662,30.509696770155266,-1.5915803160439956,17.308972753189522,2.673395069424883
2.6460947311461327,-12.921904736743134,30.42964410348667,-1.590306702280295,17.456591231511474,2.6734376763618717
2.617383723246715,-12.942946561778378,30.401087156710023,-1.5734907790510013,17.506928355552752,2.6461737318596446
2.2457330922639964,-12.921539872380185,30.377281366290646,-1.3501818987957364,17.518389589775712,2.2745965284508327
1.7519200825591825,-12.898175644325592,30.35130988661826,-1.0533549975404235,17.530872423802478,1.7807571768611263
1.2531945735641972,-12.880448249616567,30.33160985842463,-0.7534702281054619,17.54034263146763,1.281895788001863
0.756440127647565,-12.868643387265488,30.31849026860925,-0.45469595488773284,17.546678224907197,0.7849313967563207
0.25941084521072394,-12.862675142012698,30.31186040921444,-0.15571042600459264,17.549861844802475,0.28764115263036527
-0.2373504349018451,-12.86254537936888,30.311716815342027,0.14312927666679043,17.54992394555266,-0.2093969372883377
-0.7349008265120737,-12.868262665532537,30.318068976787245,0.4424292521766828,17.54685988389143,-0.7072095890457806
-1.2331599738935133,-12.879855609524308,30.33095017466612,0.7421111307067108,17.54065466870824,-1.20568517393319
-1.7304142490859102,-12.897283572640996,30.35031438789998,1.041115613915954,17.53136169016647,-1.7030763130524795
-2.2273102725210423,-12.920557690220022,30.376186514917475,1.3397998334495036,17.518912278624462,-2.200003189808277
-2.6070351428345786,-12.942298086805046,30.40036197033369,1.5679634778972293,17.507277436013204,-2.5796596593205017
-2.645761021219955,-12.96922411213352,30.55755783843639,1.5900938798650726,17.37604138591382,-2.6145911610694412
-2.64888332876182,-13.053847407112054,31.07638548840709,1.588247386043642,16.94192148038211,-2.605099917777539
-2.652500912030451,-13.156670873015996,31.68172730755233,1.5862369423981366,16.439500656859114,-2.594154834412718
-2.656127742476786,-13.264894233734084,32.29318542162303,1.584358401009246,15.936363388548545,-2.583233810114505
-2.659739408971658,-13.377767946843779,32.90666375307781,1.5826221936562732,15.435855602667223,-2.5724064424530955
-2.663342295346591,-13.495433584922292,33.52323358864297,1.5810221406868046,14.937047805498771,-2.5616494045149736
-2.6669521621701002,-13.618397298282389,34.14562412552813,1.5795494861581938,14.437717418497813,-2.550911943517653
-2.67055000228983,-13.745998148432028,34.77058646065276,1.5782101594712148,13.94045194480938,-2.5402469043702873
-2.67416207801966,-13.879171290475613,35.40272754139342,1.5769930407845454,13.441580338944643,-2.5295728805941833
-2.6777595865125727,-14.016855309368067,36.037049422280376,1.5759064614421112,12.94503840883717,-2.5189714405284254
-2.681346567053684,-14.1591556889526,36.67426118374521,1.5749466443399631,12.450222710984177,-2.5084268829410923
-2.68494810763054,-14.307080882384776,37.318875976609036,1.5741059017295247,11.95362926236698,-2.497862014841599
-2.6878941368358893,-14.431849004450438,37.84979109814203,1.5735090673678434,11.547561003638437,-2.4892343775030454
-2.6889762206970516,-14.4785288978934,38.04562334605862,1.5733102661923064,11.398437596630368,-2.4860682521160364
-2.6921130767536656,-14.350172656567114,37.84660160507559,1.5755365456678052,11.468997454164985,-2.4909816506163405
-2.701340609703547,-13.963791703864416,37.231539973833776,1.5822247010339512,11.697358112296785,-2.5060542334492153
-2.713062095365416,-13.481084473525524,36.465277380267594,1.5907318799472356,11.980506555132816,-2.5250826576555765
-2.725142924035272,-12.992671462744685,35.692391668565456,1.599512029847775,12.26455932242441,-2.5445626373456403
-2.7374364813924252,-12.504718116803293,34.922700349458424,1.6084582314110643,12.545869341956447,-2.564254791486981
-2.7500055636246987,-12.014864842987452,34.15251405513652,1.6176156503199655,12.82576410253797,-2.5842582283206865
-2.7599438398154263,-11.633750775350546,33.55504417795227,1.6248632558139413,13.04177283289766,-2.5999856744201533
-2.764766183774934,-11.450738650491916,33.26868466570075,1.6283820258560755,13.144951623020345,-2.607589655072051
-2.769260482748808,-11.281277354018394,33.003845787395335,1.631662542973502,13.240171964838822,-2.6146606136408392
-2.770310536332679,-11.241835483724172,32.942248815052885,1.6324291568821732,13.262290313353756,-2.6163105185379236
-2.770310536332679,-11.241835483724172,32.942248815052885,1.6324291568821732,13.262290313353756,-2.6163105185379236
-2.770310536332679,-11.241835483724172,32.942248815052885,1.6324291568821732,13.262290313353756,-2.6163105185379236
-2.770310536332679,-11.241835483724172,32.942248815052885,1.6324291568821732,13.262290313353756,-2.6163105185379236
-2.770310536332679,-11.241835483724172,32.942248815052885,1.6324291568821732,13.262290313353756,-2.6163105185379236
-2.770310536332679,-11.241835483724172,32.942248815052885,1.6324291568821732,13.262290313353756,-2.6163105185379236
-2.77030439457112,-11.241789371324248,32.94220743376005,1.6324255339831437,13.262208170772498,-2.616304718494249
-2.702454731590068,-10.732373503592834,32.485057356333066,1.5924024110078188,12.35475736838335,-2.5522301032821324
-2.6349522108023846,-10.22556398250915,32.030246215808695,1.5525840600841834,11.451949396158335,-2.4884833158216457
-2.567623079835911,-9.720056273731487,31.576603322357464,1.512867988255714,10.551460414558635,-2.4249002710473806
-2.448833725187237,-8.82818475194502,30.776237332473194,1.4427965871554445,8.962720095814047,-2.312720167919453
-2.320267182016636,-7.8629060125536245,29.90999566548991,1.3669578233097577,7.243215419819663,-2.1913068635511053
-2.1913603652602145,-6.895072496080505,29.04146134016066,1.2909183390629348,5.5191597773957115,-2.0695722178802307
-2.062853386721556,-5.9302409684707795,28.175621001274056,1.2151147111705385,3.8004517446074413,-1.948215164062059
-1.9343752662839082,-4.965626107737812,27.309975099360766,1.139328106079359,2.0821296725707255,-1.8268853627258712
-1.8062607360603722,-4.003741085537308,26.446778956034787,1.0637559753895642,0.3686704136570281,-1.7058989220202383
-1.677154554451617,-3.0344107359955417,25.576901371893683,0.9875988899100846,-1.3580516207174436,-1.5839760038416044
-1.5491279443097592,-2.0731858185432617,24.71429760692863,0.912078621471131,-3.0703349983494985,-1.4630725914835776
-1.4207296318129397,-1.10917015653351,23.84918942627624,0.8363390934454789,-4.787589684392537,-1.3418181577008124
-1.291888291296884,-0.1418282362502068,22.981096259635738,0.7603382322883662,-6.510769619196926,-1.2201453452760098
-1.1633509003092162,0.8232316282947583,22.115051011058963,0.6845166647167845,-8.22988440126064,-1.0987595711093159
-1.0348915011115607,1.787705929792843,21.2495312470797,0.6087411029006566,-9.947956087318907,-0.9774474493929831
-0.9067005923562121,2.7501644026834406,20.385820488791783,0.533123918083294,-11.662436865823608,-0.8563888797360582
-0.777400035184175,3.72095412566768,19.514633262127784,0.45685217445031967,-13.391758563234207,-0.7342824007425763
-0.6495554341340769,4.680812517254685,18.653255818219236,0.38143926943724127,-15.101607672380569,-0.6135508707787607
-0.5208403098931488,5.647206804631781,17.7860130578654,0.3055128606691157,-16.823099536012506,-0.49199725215547385
-0.3925384922884877,6.610497982140639,16.921555029999087,0.229830252998933,-18.539063657541753,-0.3708339444419233
-0.26403896952486117,7.57527353172571,16.055764925822327,0.1540310231151314,-20.257671973563024,-0.24948393157127116
-0.17095062427401983,8.274181648408355,15.428564400878567,0.09912011971706446,-21.502675852425988,-0.16157487439075027
-0.10335355263008919,8.781701058154168,14.97311620588178,0.059245995184825775,-22.406748388785857,-0.09773879673388217
-0.0357811715832752,9.28903509067919,14.517834368503992,0.019386435128832303,-23.310490702397654,-0.033926035928419036
0.003207614552688321,9.581763240659733,14.255139967121076,-0.0036122492215099355,-23.831943628009675,0.0028934759083168973
0.003207614552688321,9.581763240659733,14.255139967121076,-0.0036122492215099355,-23.831943628009675,0.0028934759083168973
0.003207614552688321,9.581763240659733,14.255139967121076,-0.0036122492215099355,-23.831943628009675,0.0028934759083168973
0.003207614552688321,9.581763240659733,14.255139967121076,-0.0036122492215099355,-23.831943628009675,0.0028934759083168973
0.003207614552688321,9.581763240659733,14.255139967121076,-0.0036122492215099355,-23.831943628009675,0.0028934759083168973
0.003207614552688321,9.581763240659733,14.255139967121076,-0.0036122492215099355,-23.831943628009675,0.0028934759083168973
0.003207614552688321,9.581763240659733,14.255139967121076,-0.0036122492215099355,-23.831943628009675,0.0028934759083168973
0.003207614552688321,9.581763240659733,14.255139967121076,-0.0036122492215099355,-23.831943628009675,0.0028934759083168973
0.003207614552688321,9.581763240659733,14.255139967121076,-0.0036122492215099355,-23.831943628009675,0.0028934759083168973
0.003207614552688321,9.581763240659733,14.255139967121076,-0.0036122492215099355,-23.831943628009675,0.0028934759083168973
0.003207614552688321,9.581763240659733,14.255139967121076,-0.0036122492215099355,-23.831943628009675,0.0028934759083168973
0.003207614552688321,9.581763240659733,14.255139967121076,-0.0036122492215099355,-23.831943628009675,0.0028934759083168973
0.003207614552688321,9.581763240659733,14.255139967121076,-0.0036122492215099355,-23.831943628009675,0.0028934759083168973
