RAMEL-ESPOL/ARCHIE/matlab/data/joint_goals_espol_t5_h20_p21.txt
Joint0,Joint1,Joint2,Joint3,Joint4,Joint5 
0.004218551988550632,0.0019152803350826683,0.002773325237463687,0.00428563991551141,0.0018212124191844834,-0.003939792270363566
0.004218551988550632,0.0019152803350826683,0.002773325237463687,0.00428563991551141,0.0018212124191844834,-0.003939792270363566
0.004218551988550632,0.0019152803350826683,0.002773325237463687,0.00428563991551141,0.0018212124191844834,-0.003939792270363566
0.004218551988550632,0.0019152803350826683,0.002773325237463687,0.00428563991551141,0.0018212124191844834,-0.003939792270363566
0.004218551988550632,0.0019152803350826683,0.002773325237463687,0.00428563991551141,0.0018212124191844834,-0.003939792270363566
0.004218551988550632,0.0019152803350826683,0.002773325237463687,0.00428563991551141,0.0018212124191844834,-0.003939792270363566
0.004218551988550632,0.0019152803350826683,0.002773325237463687,0.00428563991551141,0.0018212124191844834,-0.003939792270363566
0.004218551988550632,0.0019152803350826683,0.002773325237463687,0.00428563991551141,0.0018212124191844834,-0.003939792270363566
0.004218551988550632,0.0019152803350826683,0.002773325237463687,0.00428563991551141,0.0018212124191844834,-0.003939792270363566
0.004218551988550632,0.0019152803350826683,0.002773325237463687,0.00428563991551141,0.0018212124191844834,-0.003939792270363566
0.004218551988550632,0.0019152803350826683,0.002773325237463687,0.00428563991551141,0.0018212124191844834,-0.003939792270363566
0.004218551988550632,0.0019152803350826683,0.002773325237463687,0.00428563991551141,0.0018212124191844834,-0.003939792270363566
0.004218551988550632,0.0019152803350826683,0.002773325237463687,0.00428563991551141,0.0018212124191844834,-0.003939792270363566
0.004218551988550632,0.0019152803350826683,0.002773325237463687,0.00428563991551141,0.0018212124191844834,-0.003939792270363566
0.004218551988550632,0.0019152803350826683,0.002773325237463687,0.00428563991551141,0.0018212124191844834,-0.003939792270363566
0.004218551988550632,0.0019152803350826683,0.002773325237463687,0.00428563991551141,0.0018212124191844834,-0.003939792270363566
0.004218551988550632,0.0019152803350826683,0.002773325237463687,0.00428563991551141,0.0018212124191844834,-0.003939792270363566
0.004218551988550632,0.0019152803350826683,0.002773325237463687,0.00428563991551141,0.0018212124191844834,-0.003939792270363566
0.004218551988550632,0.0019152803350826683,0.002773325237463687,0.00428563991551141,0.0018212124191844834,-0.003939792270363566
0.004218551988550632,0.0019152803350826683,0.002773325237463687,0.00428563991551141,0.0018212124191844834,-0.003939792270363566
0.004218551988550632,0.0019152803350826683,0.002773325237463687,0.00428563991551141,0.0018212124191844834,-0.003939792270363566
0.004218551988550632,0.0019152803350826683,0.002773325237463687,0.00428563991551141,0.0018212124191844834,-0.003939792270363566
0.004226479747887638,0.0019304705653772573,0.0027552502582271834,0.004285637053632,0.0018276085834895252,-0.003931839260541529
0.11746149286241123,0.21813332381261613,-0.25419226352950636,0.004146002483165944,0.09257639054390052,0.10966293378718268
0.35996911581198743,0.6760742945130963,-0.7963567716091164,0.003187526879664388,0.28288236977494374,0.35293732900731356
0.618239118412789,1.1563314430270781,-1.3619103891734732,0.0011945118369066851,0.4796688255922136,0.6120242121860844
0.8829061203239587,1.6407319928914577,-1.9291995983234358,-0.0018678102721739955,0.6752464890725604,0.8775357289714197
1.1526209787152952,2.1265252155636327,-2.494950140613315,-0.006029154704064351,0.8684459003964056,1.1481258258825355
1.4283922504893254,2.6152685918099583,-3.06093519933758,-0.01134777213210104,1.0598385097583631,1.4248138434186346
1.7102769976890366,3.106764545953899,-3.6268722403829026,-0.017873055631829365,1.2492864067250684,1.7076647686312958
1.9983368307396794,3.600824209601423,-4.19249438914366,-0.025654730701006025,1.4366598276047464,1.996748275245675
2.293864476782675,4.099319629494179,-4.759879654021294,-0.034783015354224595,1.622596412287109,2.2933698904660234
2.595065405341599,4.598907126973877,-5.325172131555024,-0.045254202138217695,1.8057902661423373,2.5957365840340922
2.9032560103916305,5.101481954501639,-5.890481500123359,-0.05716214930233867,1.9868915322626144,2.905177867932999
3.219434125823028,5.608294858211774,-6.457149199677209,-0.07060603981312913,2.166276465241288,3.2227042722455232
3.5425305221977887,6.117266786571007,-7.022794269933328,-0.08559977730150285,2.343142626615919,3.5472506032336564
3.874420771407032,6.6309636278725455,-7.590208120968985,-0.10229341441175269,2.5183106136870967,3.880709659211765
4.214260154657601,7.147655785433259,-8.157412570476167,-0.1207125116639537,2.691111479381289,4.222241806674675
4.561375668929694,7.665969954201393,-8.722865314167844,-0.14087862573828505,2.861037648723074,4.5711790225629105
4.917638671327922,8.188311438246807,-9.289146600059206,-0.16296428089007037,3.028819697909102,4.929411065181434
5.2830505051156,8.71422638915751,-9.855701796297284,-0.18704319472098657,3.1942345165288586,5.296948401160345
5.657122725312591,9.242587513178822,-10.42127225396112,-0.21315243556761013,3.3568669231093655,5.67330833568117
6.041154710200448,9.774783351299957,-10.987298926209636,-0.24145536291762884,3.517081295669117,6.059806796436562
6.435425635817671,10.310701650823853,-11.553605794949144,-0.27205299902819985,3.674768255129477,6.456733677225563
6.841179053222758,10.851486432755069,-12.12133723769958,-0.30512935940927943,3.8301792331004503,6.865350077114229
7.256697049339687,11.394331399768108,-12.68750176277885,-0.3406275699799804,3.982439835459834,7.283934392800257
7.682414595490362,11.939350958758759,-13.25220369063325,-0.3786585611024302,4.131542834507657,7.712932011320691
8.122697193573924,12.491505588494194,-13.820518873851208,-0.4197120076482936,4.278754459172968,8.156750938122846
8.572834284985353,13.044285538785255,-14.385702330478797,-0.4634442966358421,4.422265184330048,8.610650753729367
9.039044967498544,13.604680336289467,-14.954854198738154,-0.510561872402951,4.563810942371757,9.08091044852424
9.508814285821789,14.157257591448726,-15.512344696561243,-0.5598627789637942,4.69950594226218,9.554910361902456
9.984525592424058,14.70482904692438,-16.061182829418264,-0.6115994116831588,4.83018544804262,10.035053679419667
10.460862867673248,15.241389841892254,-16.595550974515735,-0.6651789959973751,4.954592327517809,10.515971369298107
10.941761383437651,15.771533674143498,-17.120235960401175,-0.7210216301731915,5.0739799215592285,11.001632010078657
11.427538435223763,16.295611962908712,-17.63574825280076,-0.7791648944352237,5.188563659536814,11.492352981080927
11.923520205923067,16.819177740001557,-18.147659747592108,-0.8402757420298207,5.299635818770433,11.993513396943642
12.429712036879968,17.34186384535644,-18.65567679635474,-0.9044107048518812,5.407146313525862,12.50511887016005
12.945758245462232,17.862952042743288,-19.15917934789757,-0.9715764000543764,5.5109866799725635,13.026809287914075
13.464164669292492,18.374796171360224,-19.650929337552693,-1.0408070212648148,5.609752399224092,13.55100455776584
13.980843054969833,18.873666203384722,-20.127583882198067,-1.1115071849089924,5.7029479918135575,14.073562718818158
14.497944302390371,19.361991892100672,-20.591707475620552,-1.1839141679929635,5.7912575060844365,14.596650725248939
15.013500067536517,19.83824368785937,-21.04207389233589,-1.2576983955035042,5.8746201196389585,15.11826943952445
15.505757639381446,20.283340361155613,-21.46099615240366,-1.3295900413631594,5.950076906291866,15.61639688067383
15.70053843727757,20.45547165196102,-21.636312356123902,-1.358478757377562,5.992855625649851,15.813855731578489
15.690067397760012,20.409400034347055,-21.93202169222538,-1.3584699113456844,6.334788678759847,15.811480876880152
15.673539793943396,20.33104706698594,-22.396419890961507,-1.358563778507953,6.877778916008858,15.807811319489673
15.656840042627055,20.244750962383492,-22.86268105211902,-1.3587956662991267,7.4305764484595604,15.804205864314667
15.640118216665114,20.151018492496956,-23.326505156970896,-1.3591694681114521,7.9883722492196,15.800703649526433
15.626893456023648,20.07160286941144,-23.691125731291375,-1.3595679252709383,8.432596643336472,15.798013771667797
15.622624943178145,20.044959769305095,-23.808392038834036,-1.359716283281632,8.576566600872155,15.797161118350733
15.626684983744271,20.027109990170704,-23.87593309354661,-1.3603677774163618,8.661837206236743,15.80330752238357
15.928176915497314,19.935396675653624,-23.819550853184367,-1.3860580782340113,8.68994981050091,16.108364085920687
16.493204396418808,19.758302041733213,-23.710366726546678,-1.4341176548465782,8.743968629222948,16.680176237642407
17.07351280023916,19.5692775946109,-23.593372878916334,-1.4833558218349485,8.801239382825115,17.267597393512414
17.655530112332293,19.37234834460819,-23.47098626937094,-1.5326115330325931,8.860478744898783,17.856899299606795
18.237804206018478,19.167883583380792,-23.343375420333423,-1.5817570793495546,8.921522950729436,18.446616005444955
18.819597609117597,18.956057697585017,-23.21058781280516,-1.6307261226146195,8.98426678807981,19.03600392450905
19.392647521355233,18.739964524945247,-23.074509994456786,-1.6788163710122037,9.04771990079027,19.616696780758524
19.917507206239023,18.535482022996817,-22.94517622481582,-1.722745142757061,9.107303471608878,20.148691657177157
20.155913738544665,18.440506573045994,-22.884915964757933,-1.7426592983841693,9.134815836328865,20.390383869802488
20.586702717364634,18.265544323735323,-22.773591300312884,-1.7785793142034112,9.185228557740507,20.827181430186457
21.154649757117895,18.02822891856498,-22.621940785349473,-1.8258076429713443,9.253046259621922,21.403192269083135
21.72456845379515,17.782396147044718,-22.464054502254484,-1.8730497888550315,9.322614367339899,21.981367176495304
22.292516982272844,17.529637130637276,-22.300873432031327,-1.9199680676317363,9.393383830353617,22.557714778530503
22.742276289315644,17.323901756345897,-22.167420832750985,-1.9570167672592147,9.450465045392638,23.014239101356065
22.810129716908563,17.275219907786614,-22.067358431712666,-1.9622425268277586,9.396802597614748,23.080956224128574
22.765075598782513,17.194152279446346,-21.616457589387007,-1.9565290617835294,9.028721615728678,23.022674884851043
22.70970623935023,17.089809927935455,-21.057313824313617,-1.9496307249908067,8.576067039056863,22.95114052431126
22.653970797747387,16.979526160845953,-20.488827362763327,-1.9428224413644088,8.12001813623291,22.87922981410006
22.599100563470564,16.865804936453234,-19.92355968501871,-1.9362512412144999,7.670585028937042,22.808525623348224
22.544601596575315,16.747790926108493,-19.356536658140243,-1.9298521464800837,7.223668253141782,22.73838412081916
22.490633673563003,16.625948684240395,-18.789483870120435,-1.9236395045104429,6.780522953613582,22.66900469350459
22.436555827487577,16.49888053162883,-18.215654173444864,-1.9175369418362946,6.335824342810762,22.599558309247676
22.38338385679006,16.369072270776513,-17.645872327004497,-1.9116553927993836,5.897872841953642,22.531343860258485
22.330457764106793,16.235058127566713,-17.073167336850368,-1.905917127335863,5.4611886034002035,22.463508559376468
22.28201742544346,16.108187283588467,-16.54407250587434,-1.9007660692465618,5.060795855247737,22.4014751181127
22.260341897652808,16.050108949119014,-16.305776325062762,-1.898492197275378,4.8813958049908,22.3737325448398
22.247567789047803,16.01550194538607,-16.164890005249593,-1.8971611022890467,4.775597975098726,22.35738724222102
22.28199779304697,16.106759677262687,-16.20552740656853,-1.8998067153173912,4.723864687159025,22.390234007360455
22.462083196647814,16.58112656786504,-16.552401559680963,-1.914015257068641,4.590449341657361,22.566559754433296
22.684400973781663,17.15783628143689,-16.969835658133622,-1.9315318903022338,4.42380321178885,22.7840810020817
22.899102240947453,17.705674602926752,-17.362041795618605,-1.948424245689362,4.260991260301697,22.993991379471726
23.00368124108657,17.969346753462343,-17.549310348259297,-1.9566440592904188,4.181068520613379,23.096181567988417
23.04013745370229,18.06143409896675,-17.647667209337918,-1.9595903878430374,4.186088587339986,23.132927879498727
23.02330946219789,18.024840713157353,-17.998103419254193,-1.9592498570104169,4.573467233646823,23.129334001750244
22.999781237631453,17.967945266871624,-18.485447790661997,-1.9589326624743548,5.118193228869385,23.12440947216856
22.976370647929233,17.904589332845774,-18.967278633169204,-1.9588045827949883,5.663861520230855,23.119631202626863
22.952977114433672,17.83443436585739,-19.445643626811595,-1.9588676169592878,6.212860319839238,23.11498391371369
22.929675691152514,17.75762716570332,-19.918979372620864,-1.9591245886902506,6.7634778058096545,23.110488059659605
22.906550719089704,17.67443864877733,-20.385575406916654,-1.9595757414085886,7.313730817748416,23.106164142535548
22.88357675116248,17.58479871064005,-20.845959972891812,-1.9602220752364647,7.864218166307832,23.102011074876753
22.860587068096866,17.487989660494822,-21.303447829062566,-1.9610714421049635,8.418975574093974,23.09800424620291
22.838628859958444,17.388766141371068,-21.7373591371664,-1.962076627313132,8.952547655679162,23.094322839996053
22.827413510713107,17.335501097529356,-21.95781672641257,-1.9626646842885094,9.226492612757212,23.092499498237437
22.822430818122715,17.31127038211374,-22.05550495636183,-1.9629423663371595,9.348510107564069,23.091702098912204
22.818147474250473,17.290132012338876,-22.139463622861516,-1.9632174177735866,9.453683355754,23.09103709256773
22.898395798100253,17.49978763469662,-22.295044741846567,-1.9694307010823664,9.396896623170088,23.17016739476816
23.105852776753906,18.03796026861147,-22.675973874078682,-1.9853764189980103,9.23261178814914,23.37406219343238
23.336465958662487,18.627219608773324,-23.088414670781063,-2.003061705431327,9.047899677628434,23.600532841494147
23.571409675472015,19.21804963415623,-23.497101095972024,-2.02103724333562,8.857642642584352,23.831063430722043
23.809573591153743,19.807437028885094,-23.899973264529763,-2.0392178696383327,8.66282911608511,24.06456041923359
24.05379333136801,20.402081082582903,-24.301590344736578,-2.057819462439585,8.461215972343952,24.30379794496587
24.301795144971518,20.996101286715973,-24.69795172920267,-2.0766681847996975,8.2547585261426,24.546542302397665
24.554083750141228,21.5904737152501,-25.08973976610983,-2.0958022505839033,8.04314139708814,24.79328353056063
24.811183341856637,22.18614648769873,-25.477587662866256,-2.1152610787855424,7.826026601998443,25.044529350600108
25.07295370234018,22.782492529478475,-25.861092080351558,-2.1350336877702802,7.603638386803182,25.300137607694023
25.338980760783656,23.378305133494482,-26.23950424139826,-2.155088606099183,7.376445439826735,25.559699749404086
25.60806520259732,23.970734179816894,-26.61108987680856,-2.1753356118285154,7.145604200750895,25.82204346268015
25.875379389145124,24.549328041299333,-26.96952342352236,-2.195412886632206,6.915419641199601,26.082466685005944
26.021541979329612,24.861591406340303,-27.161140519151548,-2.2063759619022094,6.789253515877484,26.224781541298004
26.09672062848834,25.021090540614384,-27.258522776576566,-2.212010839701443,6.724286834159546,26.297959512856085
25.85806511399851,25.146634372373114,-27.327632553783157,-2.192957063374402,6.677063297196459,26.05583382264712
25.30471867752935,25.41915439137944,-27.47637456936867,-2.148683009489582,6.574328985080395,25.49482476929123
24.713891344927355,25.701863601408505,-27.629703482965425,-2.1012275668603597,6.466941387249559,24.89608768782571
24.116214338616846,25.97930268338533,-27.779212307785226,-2.0530337491246464,6.360756329372104,24.290690863597995
23.516304938898813,26.24927446201721,-27.923785099928814,-2.0044732756032735,6.256673612200651,23.683313180876784
22.916029828582335,26.51101693137239,-28.063091557096786,-1.9556905252549446,6.155026778377479,23.07584307743336
22.309722189866456,26.767009103921875,-28.198527156092972,-1.9062448799781206,6.054971745031969,22.462542254577265
21.70412155300418,27.014421630326463,-28.328661324624793,-1.8566779701372411,5.957644157765214,21.85022763839392
21.092189909333005,27.256142592672965,-28.4550801295204,-1.8064153767215583,5.861964672687071,21.23178125874772
20.4813930998101,27.48923752713698,-28.576310626709926,-1.7560638113571656,5.769119603029786,20.61474735087314
19.867894184905488,27.715266968854547,-28.693239113421097,-1.7053278453636453,5.678604784151216,19.995241785102895
19.247084146862292,27.935843716219125,-28.806749923008063,-1.6538178321780694,5.589789134991942,19.368611653261006
18.628346115789043,28.14764558321119,-28.915191538945837,-1.6023147287990254,5.504058794830767,18.744324542462795
18.144561528148138,28.307727884946466,-28.99679079108903,-1.5619257180599493,5.4389429073562745,18.256372867805517
18.027317210794696,28.323257908492703,-28.974813534955782,-1.5520766019003625,5.404636959632894,18.137628979665802
17.96036863613085,28.117634947278475,-28.56903442676665,-1.5460028242694812,5.206364329325749,18.064984653184794
17.86525046551325,27.82196324411432,-27.98604045704606,-1.5374013452355366,4.921706080072817,17.961767187986176
17.770140675660393,27.522095154293154,-27.39533930709962,-1.528834033845478,4.633522704562897,17.858549705755983
17.67663915536551,27.223092910578895,-26.80688954409381,-1.5204448691827757,4.346666327248887,17.75706767263688
17.584079061247795,26.92290520165841,-26.216633188308506,-1.5121733918135498,4.0591493209641305,17.656596686570946
17.49317899598273,26.623950297025743,-25.629304479699574,-1.5040831437587106,3.7732684134910275,17.557916180588883
17.403197186367983,26.323875761246043,-25.040261918783216,-1.4961074419538885,3.4867554366973526,17.46022033259786
17.314216736842486,26.02300214950891,-24.450120682200243,-1.4882533407022207,3.1999031524655632,17.363598712402016
17.226135002542964,25.72102540139663,-23.858270885497053,-1.4805114770369627,2.9124089222840452,17.267939215852426
17.138886883947954,25.41775483155535,-23.264326944157844,-1.4728759157793747,2.6240799667876322,17.173170476902786
17.052600417486193,25.113673414562268,-22.669222775838204,-1.4653576113836408,2.3353641592476366,17.079430934286588
16.980822222283262,24.85750743933162,-22.1682125675933,-1.4591290851674907,2.0924301692254734,17.001440398481876
16.94976683708238,24.74575617778143,-21.94973851019249,-1.4564416114101464,1.9865313759228336,16.9676935180248
16.932259468837092,24.682509557293525,-21.82611482340684,-1.4549285349272536,1.9266181785659529,16.94866781788538
17.074338777480396,24.627546736492977,-21.779356037839747,-1.4667851614335363,1.9312021656130656,17.09081430235805
17.594699142776328,24.468918295860128,-21.69121423155259,-1.5101697054176655,1.9881654370936588,17.61250720949048
18.201308287475747,24.277128086133548,-21.58421554979362,-1.5605965022382624,2.056692367262559,18.220857198980774
18.80431307837808,24.079053310060903,-21.47321534416982,-1.6105603750179855,2.12706720811124,18.825797952899272
19.359835881297975,23.889931388804868,-21.366758579635448,-1.656437247795791,2.1938513166989235,19.38330466436909
19.574823706853557,23.81447101154054,-21.332374346979968,-1.6741638329045034,2.228668705615391,19.59935085296435
19.56186507784996,23.797700666972087,-21.627416240342473,-1.673477259439138,2.5407260932395372,19.59551425477185
19.539756279503447,23.76382102710068,-22.12874199710263,-1.6724246201270392,3.0763484422255174,19.589046377112602
19.51745829258656,23.72279668985162,-22.631699509059803,-1.6715175587086768,3.620749087251428,19.582627237750284
19.495385434649474,23.675257350582257,-23.12689772350202,-1.670776105861359,4.163899425894039,19.576381481150396
19.473285741418437,23.620600382479033,-23.619971189044968,-1.6701934567597605,4.712041290341145,19.57024215403836
19.451297198263102,23.559052390804556,-24.107801157847973,-1.6697762687722963,5.261826688487287,19.56425286711057
19.429434763718152,23.490614061363114,-24.59004321730369,-1.669526308041778,5.812910193565226,19.558421824899412
19.407819950340013,23.415694295235692,-25.064030490720256,-1.669444980123395,6.362213755251272,19.55278437344161
19.386244785562038,23.333558423278674,-25.534319895545746,-1.6695326102647552,6.915032731411561,19.547289965804843
19.372072649197026,23.275530523614943,-25.841673168945377,-1.6696841625129868,7.280671334020268,19.543756068345516
19.36783767555991,23.257554729100974,-25.93327326791989,-1.669744164143968,7.3903239672904775,19.542711973938058
19.363978145352345,23.240915955540505,-26.016654075805988,-1.6698047984869393,7.490413409607437,19.541765294232285
19.606450935685142,23.150037156472315,-25.970155709068532,-1.6900530336956745,7.527675226688229,19.787251010641185
20.166878942815607,22.937523911896577,-25.84804710940972,-1.736702758567896,7.6013045320618025,20.354366069300866
20.761966581672155,22.70419254844109,-25.713314082536815,-1.7860862630992809,7.681589988301694,20.956758615514442
21.35419199330729,22.464027447961,-25.573909153203065,-1.8350735259678683,7.763615575104728,21.55646683981664
21.94111638584207,22.218070463867083,-25.43037727447808,-1.8834620897331606,7.846973710454915,22.151020639889285
22.437950449251325,22.00360314220912,-25.304588372936507,-1.92429564452899,7.919124037643802,22.654481892331262
22.662682827239713,21.904683536151953,-25.246367770806675,-1.942724923690028,7.952200753332655,22.882271287897225
23.147455585885293,21.68722258994159,-25.117942324358076,-1.9823982862963547,8.024611627480178,23.37373155117456
23.72490287568863,21.42082067926461,-24.959782625925843,-2.029503200236613,8.112612668833679,23.959343367647527
24.223094932037842,21.184456101532955,-24.81868751794165,-2.0700066921984854,8.190037343922484,24.464754772591625
24.348615456403405,21.109304429519963,-24.74454365818355,-2.080069705133124,8.18650892138028,24.591266599772737
24.28425536084393,20.979208463552887,-24.347150684079644,-2.073544018064227,7.921716181402704,24.516644273641997
24.19189354849653,20.788576256878464,-23.77142525827375,-2.0642593099274245,7.540204230505136,24.40960641717138
24.100302114803224,20.594917879623733,-23.194072077010123,-2.0551450708121406,7.160046261379257,24.303518017888777
24.009392533101426,20.39811275904389,-22.614568615282728,-2.046190050286062,6.780844138156412,24.19827216895759
23.920055487788385,20.200216227935535,-22.038716240604447,-2.0374784320043444,6.406310222588374,24.094895136418174
23.830060919296074,19.996311857858693,-21.452118892865208,-2.0287913060835105,6.027050564236108,23.990802725205434
23.74199778914406,19.792316088984954,-20.87167131896167,-2.020376684861922,5.653945040602448,23.888985667838035
23.65420924538444,19.58451091057253,-20.286574196035225,-2.0120730751270153,5.279975844709708,23.78752399766484
23.567802405998695,19.37559462786308,-19.70426946290278,-2.0039829123123254,4.909845120794165,23.687693483932996
23.482183646809677,19.164247139656194,-19.12087714306859,-1.996047691083146,4.541015893663114,23.588804340605343
23.40381078896582,18.966959582372887,-18.581171082528716,-1.9888550249200523,4.2015300684377275,23.49830882926436
23.36832759433736,18.87642385072582,-18.33500566969724,-1.9856209366647386,4.047224769741147,23.45734430114176
23.34591261211084,18.818839395068416,-18.178912644875002,-1.9835851427778575,3.9495517378432816,23.43146890104426
23.36531172955342,18.865493426045468,-18.178533726511994,-1.9850285258884213,3.9018752930479152,23.449268168015028
23.546038870524903,19.30448325149675,-18.482695417488166,-1.9991911591315517,3.760846081905183,23.625578011936568
23.78966936924111,19.887185760718566,-18.882315749956742,-2.0182607787177886,3.569336907217184,23.86309689264448
24.03706856599222,20.468489960749817,-19.276319685942823,-2.0376001296486703,3.3734000023007744,24.10411059443845
24.290825605228097,21.0541212273647,-19.668574745911236,-2.0574112259398487,3.1710823638850743,24.351135898152144
24.50032226966736,21.52970935296092,-19.983680799348583,-2.073748402646976,3.0031553212128697,24.554939922634745
24.589452734260583,21.72992424544131,-20.115415723401625,-2.0806941621542645,2.9314906036570196,24.641612231463156
24.512024323988967,21.7918373039389,-20.153446041471085,-2.074505262683673,2.910430904632833,24.563298261705672
24.02875824297457,21.89180213056903,-20.20604899806374,-2.0359820472415464,2.8804315234076316,24.07822785341995
23.430076145630586,22.009500128704303,-20.267453875954406,-1.9880659393843798,2.8451928493430145,23.477455631999945
22.830583345205202,22.12060355969832,-20.324831430035168,-1.9398758768983406,2.8120439343941768,22.8760258262721
22.230324961426316,22.225132937520335,-20.378220983258647,-1.8914194830434492,2.7809980376938737,22.273978903373145
21.62831115890718,22.323268918055945,-20.427737046024777,-1.8426127514174082,2.7519899951952937,21.670321952036208
21.024439782139865,22.41502399744426,-20.473414293375416,-1.7934663411014502,2.7250928386152977,21.06493917435386
20.416873076289484,22.50062891767519,-20.515381134676712,-1.7438250228763532,2.7002265495051017,20.455988781032616
19.810090889411377,22.57944890577172,-20.553345667574828,-1.6940585934010617,2.6775900076130386,19.847955816501972
19.205770214582284,22.651357448210877,-20.587271750054956,-1.6443045311344333,2.657198311080367,19.24251743752125
18.593405071327204,22.71755703350743,-20.617743648734404,-1.59371450836856,2.638785169461436,18.629136133695372
17.981707369710687,22.777017623156055,-20.64428784146479,-1.5430033290813003,2.6226220156141764,18.016537870018585
17.369460067011218,22.82989136241015,-20.66699001388641,-1.49207557333355,2.6086742033370056,17.403497347300572
16.75633071719051,22.87621218996699,-20.6858769495686,-1.440908455068923,2.596939832378143,16.78967555913115
16.143215073567678,22.915921363172433,-20.70093285531418,-1.3895765036898082,2.5874083784383686,16.175965952237558
15.531119164058873,22.94899870862795,-20.712173246683324,-1.3381809516603194,2.580146172701726,15.563362595816319
14.917525441026132,22.975588521421273,-20.719652345281286,-1.2865100999875838,2.5750931844040497,14.949342316210137
14.306206377026575,22.995555426671537,-20.723344999179623,-1.2348874702414678,2.572272835476556,14.337673368426406
13.691434184465379,23.00907790729017,-20.723280717184608,-1.1828303391806871,2.571631297930969,13.722620379193021
13.079738618370076,23.01602128822245,-20.719472848598794,-1.1309058943308692,2.5732328923408745,13.110704900882103
12.464939025371784,23.016458941118415,-20.711881305465152,-1.0785905879307531,2.5770597514007547,12.495739452837054
11.851915282001565,23.010369310071212,-20.700553935441427,-1.0263049264170345,2.583084149331521,11.882598549051282
11.240620825354473,22.99780503982122,-20.6855136843759,-0.9740485211411225,2.591252748300918,11.271229828222756
10.626307063333327,22.978650027167735,-20.666634033102653,-0.9214273294577184,2.601691388907929,10.656874431358903
10.0108502986064,22.952887450193003,-20.643919018278314,-0.8686032956583705,2.6143550335021195,10.041403627230139
9.40164010973563,22.920898056710023,-20.617674111832493,-0.8162176274223553,2.6290589276514975,9.432199958806574
8.78817331323207,22.882147281928223,-20.587443247759104,-0.7633714222404999,2.6460096313755015,8.818754015056896
8.175811547320205,22.836912850790263,-20.553449538991025,-0.7105357116128266,2.6651298465628592,8.206419146721254
7.561714476861195,22.784952859334474,-20.515499778837317,-0.6574688025675175,2.686474870984177,7.592348862771418
6.94685755265389,22.726286482705653,-20.47360171301121,-0.6042602648255914,2.7100173237463707,6.977511604140072
6.356966853733336,22.663729492997966,-20.429702102482757,-0.5531456021379763,2.7346152989324506,6.387626482757601
6.033293907474492,22.62678661756424,-20.404064647274538,-0.5250736930577564,2.74896267553503,6.063948885697127
6.027983041898748,22.612621607322293,-20.608246446525854,-0.5247125439436797,2.9673490037266625,6.060638842122213
6.0214430013464915,22.575610153490203,-21.087499892518565,-0.5244108409865957,3.483652110123309,6.058827689306487
6.014585184192516,22.530098495682473,-21.58739521051685,-0.5241425084239123,4.029098984316213,6.056960322218671
6.007817502698892,22.478316330033827,-22.07801450408558,-0.5239270018540315,4.571539644967497,6.055151115072983
6.001038894253356,22.419463135662024,-22.566677748579888,-0.5237614094205851,5.119095169114785,6.053374246010983
5.994291096824355,22.353782310295884,-23.050332706367534,-0.5236477546682399,5.668469673748407,6.051642325567753
5.9875841353709465,22.281332955298254,-23.528248285730513,-0.5235866700284911,6.218872903303879,6.049959202193041
5.98094827407164,22.202470165777314,-23.99828074086542,-0.5235784493240004,6.767805840901218,6.048333390378363
5.974301702959651,22.116166282236602,-24.46620402236621,-0.5236236573437183,7.3220705558363415,6.046746237344984
5.968490345070617,22.034587146000835,-24.87292800939362,-0.5237081456049894,7.810406336649967,6.045393943858323
5.966471109959173,22.00488400168819,-25.013717490750604,-0.5237475183140866,7.980910270547549,6.044932072645766
6.008617647991372,21.990348974434802,-25.056600873274594,-0.5275105739764087,8.037940233921782,6.087964352721445
6.4377342531400155,21.940964574061198,-25.027513677940902,-0.5650837269656088,8.054151991293576,6.520898502007485
7.036711724282102,21.866238920613945,-24.98344089898257,-0.6174847172477296,8.078632369098257,7.125262484597728
7.637888838913047,21.7844224532325,-24.935103516797,-0.6700209659837012,8.105366291458557,7.731919137727278
8.241808030106208,21.695321929259265,-24.88236456360095,-0.7227342929182587,8.13439778865613,8.341422811723186
8.840536931428385,21.600108281152078,-24.825890895579388,-0.7749255058745045,8.16529485116177,8.945775312423642
9.44293878183923,21.497362439317783,-24.764821817765043,-0.8273671258627756,8.198559400859024,9.553924513850186
10.044981559535433,21.38766686107988,-24.699471459940607,-0.8797006602442392,8.233947382289642,10.161808631567995
10.64566950093077,21.271185119246866,-24.629907903343856,-0.9318350892342624,8.2713812724992,10.768427569553262
11.247112064679571,21.147467518888398,-24.555830638787675,-0.9839488406749927,8.31097861625194,11.375917120531625
11.847251038979465,21.01689080077776,-24.477428025779336,-1.0358552698229555,8.352559057111392,11.982206558036173
12.449730053228953,20.87859104105708,-24.39415022009401,-1.0878716228238805,8.39642815906982,12.590976969785864
13.015432858342873,20.742096668594403,-24.31171578002446,-1.1366211494234246,8.439518889935039,13.162701197494311
13.300559114545026,20.67084710633735,-24.268589007904502,-1.1611570240326938,8.461930762865757,13.450905667140386
13.656666997886205,20.579536527035803,-24.21322280340581,-1.1917671890977974,8.490571216673693,13.810899915572206
13.802985905021764,20.537617476383993,-24.160665432777694,-1.2042527037038633,8.476882435917574,13.95828372873079
13.787057901538455,20.492679498787265,-23.77929345572451,-1.201858522417972,8.140856616896931,13.935079299086613
13.76414063141974,20.423197451473484,-23.226355655193768,-1.1984947705887303,7.657986553725028,13.901754645281104
13.741295013829333,20.348295772626,-22.670152130670647,-1.195235282621916,7.177266721530754,13.868603848781927
13.718763018646673,20.268939445548273,-22.116653411180096,-1.1921108171417616,6.70369658554193,13.835972967957895
13.696153576461729,20.1838647427992,-21.556282151811097,-1.1890644230295675,6.228972524751123,13.803291403601929
13.673720964707615,20.09408931344376,-20.995323719936952,-1.1861285800180277,5.75835586555489,13.770923168627757
13.651506739749374,19.99994246202596,-20.434896850882687,-1.1833053677986929,5.292635067374562,13.738923689281792
13.629351580622647,19.900866544319655,-19.871021708460198,-1.1805719849304126,4.828392011779966,13.707059526424233
13.607291572680369,19.797094185142896,-19.304614026587593,-1.1779311327776343,4.366308950085276,13.6753791905746
13.587773334787114,19.701028633986954,-18.799300610945103,-1.175661136275344,3.95754847529546,13.647385912036208
13.580216678402321,19.662766406803176,-18.602604066596104,-1.1747989579090043,3.7993025475828768,13.636556918807663
13.58231342677129,19.669227559435008,-18.533419262246138,-1.1748748487753582,3.7236295240751422,13.63710271354021
13.670009470997323,20.046013191322686,-18.789259528495897,-1.1821581076833592,3.600906006222727,13.722447887962353
13.809737931451883,20.638072409030485,-19.187303763124696,-1.1937625653946975,3.4040359458559726,13.858338863423722
13.91803245055336,21.090083140786284,-19.48793948230128,-1.2027567705825104,3.250429647446209,13.963583207032805
13.949322602445603,21.220037013684294,-19.58313869578005,-1.2053663962050747,3.215025262382211,13.994172387612874
13.94007727670179,21.19581912841384,-19.88447579631544,-1.2049866736555097,3.540702613308923,13.991776576869777
13.924884899073449,21.15069517017587,-20.377438664141618,-1.204451311594586,4.078989846291149,13.987896679441628
13.90963491097875,21.09861871424752,-20.869464858909957,-1.2040268821465,4.623292793382087,13.98407674035613
13.894431973943254,21.039801422851202,-21.357123258259065,-1.203718993991037,5.1699672553715015,13.980347025380318
13.879259908603048,20.974092083235373,-21.84090142187249,-1.2035291528956011,5.719652183102714,13.976707047493957
13.86414187433487,20.901506190582648,-22.32003025747266,-1.2034595103528227,6.271562654710827,13.973165855904258
13.849245057898774,20.822897223150072,-22.789235487530085,-1.2035105037594451,6.819568735339326,13.969764472521923
13.834334294835926,20.73702735540273,-23.25592792412086,-1.2036834962485203,7.372322070590289,13.966451662387446
13.819536871103152,20.64455723204615,-23.7160956046767,-1.203978938147388,7.925148390421194,13.96325914086247
13.809903034363499,20.580401801125333,-24.014064731285625,-1.2042391117713003,8.287395091178464,13.96123370031146
13.806691828056861,20.55831553331993,-24.11309761448978,-1.2043379234350566,8.408554849701913,13.960568135162298
13.804357830056663,20.542041027400433,-24.184986666883276,-1.2044135695448017,8.496747889041952,13.960087430505075
13.853687466590529,20.7565333247737,-24.333129317286776,-1.2084240742541303,8.429376155514555,14.008437920533115
13.983044646021686,21.314478764169785,-24.701132503218485,-1.2188887453499293,8.236741055283996,14.13483900286739
14.126968868407074,21.925907812300963,-25.099530895565604,-1.2305236073426962,8.020687230586137,14.27535341739465
14.273998084024416,22.540605711401025,-25.49494434504572,-1.2424018007912045,7.798284970374963,14.418771062319035
14.422437586352883,23.151275647305628,-25.882718275297854,-1.2543873814083937,7.572211108616529,14.56343621661583
14.575890893751382,23.772348407238223,-26.271968303163035,-1.2667722454821884,7.337071376939355,14.712855822631216
14.72128186980844,24.351433574736564,-26.630271001884882,-1.2785024271903254,7.1131163772872865,14.85430449359115
14.793047408614928,24.633982723095055,-26.803480785635347,-1.2842914046014047,7.002200357276529,14.92408177524743
14.707598765534211,24.72176912318634,-26.855533084876793,-1.2769413799628884,6.968385169417599,14.837271494653473
14.224983098912492,24.849914439969133,-26.926350460368557,-1.2357774570158682,6.921653957497402,14.350265871049894
13.61087396700476,25.00629822249971,-27.01249557287735,-1.1832908494980354,6.8643964849986014,13.730720825253046
12.996525512390871,25.155331504646984,-27.09430789493016,-1.1306682730014765,6.809597381289518,13.111096478843512
12.380262774905017,25.297449030417354,-27.17206305909377,-1.0777706326849008,6.7570985793595275,12.489701163912953
11.761085358639972,25.432869391375643,-27.245923575693602,-1.024516095958538,6.706912853190485,11.86551413320366
11.140413196503063,25.561264247785566,-27.315742056144735,-0.9710304853855379,6.6591591457579336,11.239964862033913
10.518333141298772,25.682626708445614,-27.381548639640563,-0.91732579764467,6.613867970578118,10.61313469659745
9.898341991807516,25.79634103989955,-27.44303952957602,-0.8637103074653996,6.571264859756754,9.988542698679318
9.278023525491978,25.902941133404855,-27.500541229778403,-0.8099790113430925,6.531238948131655,9.363740822700509
8.654966652327712,26.002836385194293,-27.554298886146498,-0.7559284405287849,6.493627427586567,8.736297005218109
8.033867116956365,26.095305198636524,-27.603947198224674,-0.7019728754028345,6.4586918266278746,8.110935228712657
7.40563045776447,26.181661927921162,-27.65022165929347,-0.6473236133258654,6.426018281379797,7.478487385714995
6.794847632845649,26.258738784970905,-27.69144596187661,-0.5941282375646375,6.396793546877853,6.863701744750155
6.427556366716304,26.30183772347018,-27.714465447824466,-0.562111063801655,6.3804264989492,6.494043708724873
6.41185255065155,26.272015219394003,-27.534304638719636,-0.5605798676733454,6.230249494941707,6.476766877097986
6.401048920448871,26.180788708052557,-27.02033047649156,-0.5592029347040703,5.807627709443358,6.461750031241337
6.389331984519566,26.07667781366798,-26.458277370335985,-0.5577467838632416,5.349821589518483,6.44549181612122
6.377764802495502,25.968650176090343,-25.89863634027632,-0.5563466760381937,4.898342134732818,6.4294686700815245
6.366256106620669,25.85602341218804,-25.33707009578225,-0.5549900777248804,4.449535513075651,6.413552034687642
6.354763809056513,25.738463246512445,-24.77152096398838,-0.5536712263440052,4.001678824224719,6.397682085035403
6.343298057957444,25.616125530527057,-24.202461629955916,-0.5523906884140057,3.5550887941874025,6.3818713671043055
6.332043652949746,25.49115905265624,-23.63915952054865,-0.551167659601052,3.1168819590808687,6.366372740904189
6.32080404720025,25.36154624433115,-23.07186460171839,-0.5499794492968965,2.6793281201684453,6.350913684668641
6.30958745396967,25.227421666767356,-22.500958823890954,-0.5488264809404266,2.242674580988632,6.335504191294762
6.301157284729479,25.123482902169844,-22.06870363242852,-0.5479813588993684,1.9144538766213213,6.323933778892125
6.298696204639594,25.09250774602824,-21.94043171345216,-0.5477376493029078,1.8171850886135572,6.320543896737802
6.323798719400579,25.31457439947266,-22.07479877651254,-0.5498872535887652,1.7292493042578372,6.344777657904083
6.387589541712589,25.872292523130668,-22.409367266441336,-0.5553542729071508,1.5054954720807856,6.4063283388742365
6.455001844329079,26.45159327282041,-22.752521564222594,-0.561138833357101,1.268704314573497,6.471323713896429
6.489209056738408,26.741671757989927,-22.922689210179193,-0.5640770386444492,1.1484638923275947,6.504285411755119
6.488134019065777,26.750786654852067,-23.112093279897987,-0.5640221440955366,1.3287548798463367,6.504988411290051
6.4804450160427995,26.731846110907153,-23.61042361845284,-0.5634966618948289,1.8460762451498054,6.502403728048761
6.472338106721132,26.70495273664731,-24.13343720937717,-0.5629939152768932,2.3960362338789603,6.499713227651595
6.464294646470089,26.671075714794178,-24.649864989288574,-0.5625483689466577,2.9463934289567977,6.49708096076414
6.4563187475741435,26.630232448452663,-25.159445247351325,-0.5621602539841103,3.496868685383102,6.494509443056166
6.448454241854105,26.582715791216263,-25.65940267823052,-0.5618312420448098,4.04439355783297,6.492013591433242
6.440632948406995,26.528152082198254,-26.154085506902078,-0.5615582836898785,4.593690369475512,6.489572701160816
6.432848764635288,26.466434564363595,-26.64385735389753,-0.5613417713765398,5.1452295309117675,6.487186375892363
6.425591373885468,26.402073826196112,-27.09812432496826,-0.5611908050924195,5.6639034433478335,6.48500211608462
6.422229115234993,26.369983097950094,-27.30779365700468,-0.5611378775186647,5.905684833526802,6.484003973195407
6.417540772694347,26.322793619424907,-27.599311332866325,-0.5610824035248412,6.244421648412413,6.482627228116513
6.416009997566476,26.30676413225197,-27.694278352006823,-0.5610689666718299,6.355427818063919,6.482181587518503
6.428646125171543,26.420469512183782,-27.784060920272182,-0.5621439194656801,6.331382258512264,6.494655374648104
6.485376350985979,26.928997979718094,-28.08063008975455,-0.5668578119831127,6.1188741300735074,6.5496046375569374
6.556638236910254,27.558037912439914,-28.442856846416745,-0.5727835808572778,5.851365140222347,6.618573877881925
6.630292315182718,28.197051455906536,-28.80562361692076,-0.5789140314993738,5.5743917105224945,6.689795018686132
6.7050246635665465,28.83413580940254,-29.162110419372798,-0.5851408722460151,5.293049091908419,6.7619947742732815
6.781356778400652,29.473420966143635,-29.51465989644743,-0.591508576229405,5.005544315222285,6.835675286915845
6.858788308848932,30.11040653502358,-29.860827294168107,-0.5979764574692512,4.713937631095658,6.910351953883584
6.92366926580176,30.635435121752867,-30.14233877046619,-0.6034030017974596,4.469753349599929,6.972875412374671
6.983694186808845,30.753794426205893,-30.205599700042157,-0.6085662267890547,4.41402333003455,7.032490724651267
7.412612787164652,30.701471569567214,-30.180484403551574,-0.6457871958098543,4.436536115634838,7.462945605558853
8.051623266922036,30.617597018427936,-30.140156982364694,-0.7011792708984487,4.472571793102168,8.104336348428266
8.698872240986084,30.525375820404925,-30.09572097152195,-0.7572063302829595,4.5121185344541646,8.754116277749954
9.348098153876165,30.42547479715725,-30.047468423021847,-0.8133168847971258,4.554838860141697,9.406013628387884
9.997436604618336,30.318098438713587,-29.99547755970794,-0.8693455000394477,4.600686299637564,10.0581627692252
10.642813228422511,30.203926457985492,-29.940047173160952,-0.9249342718951391,4.6493181368433705,10.706481773102832
11.292451695812863,30.081433460556745,-29.88040265592527,-0.980783106801078,4.70132855510144,11.359243856936871
11.939822390303844,29.95175681907701,-29.81707033700273,-1.03632818529362,4.756269921649681,12.009893085625436
12.586538656094488,29.814552116637838,-29.749844709413658,-1.0917007903147824,4.81422981794727,12.66006161910902
13.232844766147418,29.669709376059416,-29.67863143548205,-1.1469131651483189,4.875193807119349,13.310006857471558
13.877274287434291,29.517526103720975,-29.603544117595554,-1.201840554129497,4.939067717658618,13.958255933940626
14.512563633940063,29.359833062402796,-29.52544777104541,-1.255858787095886,5.005023693462028,14.597509064536368
15.079762510530896,29.212540084898933,-29.452234465800526,-1.303973700431985,5.066417107685177,15.168420264792136
15.337507321981882,29.14356061959369,-29.417855514861856,-1.3257975377987548,5.095066675672744,15.427911412058076
15.773234910716857,29.024026167724358,-29.358151188794704,-1.362644707648715,5.144660016498253,15.86666629525432
15.96552629943755,28.963399862982673,-29.318958763086393,-1.3788721563406523,5.161488437083648,16.060193715199677
15.914639667727679,28.785127222825917,-28.975216732555737,-1.3742385785179896,4.997289736367609,16.00512994786691
15.829954464714483,28.485222955772223,-28.39711980796694,-1.3665495582040712,4.721202763374876,15.913484669595855
15.744962273488484,28.18010327410969,-27.809183844024087,-1.3588610534900967,4.440488509329955,15.821495760413839
15.660947100986537,27.874334597819516,-27.220204634803608,-1.3512895491203283,4.1593447271510735,15.730552216155203
15.577888034667492,27.567892173310632,-26.630126751488035,-1.3438328462220175,3.877741642246493,15.640630957130362
15.495977016087592,27.261548965720113,-26.040430586926806,-1.3365077728943506,3.596382397797945,15.551939395484732
15.41522831737133,26.9554412816741,-25.45137008439033,-1.3293150796299666,3.3153847309796274,15.464492672694398
15.335357934868558,26.648556582454205,-24.86098952432319,-1.322229076191136,3.033812728168944,15.377982869067917
15.256006153197804,26.339528268909003,-24.266654959829864,-1.3152177964592093,2.750407971921084,15.292019847707708
15.177742227417147,26.03060634401764,-23.672688299745218,-1.3083313672825936,2.467229029244021,15.207219840850795
15.100383049803654,25.721132873727846,-23.0778181647909,-1.301553288950014,2.1836671898047726,15.123384124869599
15.02848692124675,25.429757258199466,-22.517873636138034,-1.2952801250788082,1.9167951544883877,15.045453727982888
14.99460709234885,25.29117422414014,-22.25160022695419,-1.2923329450406928,1.7899016093133706,15.008725081299238
14.968585243587484,25.212469146677478,-22.101441692054646,-1.2900914967719923,1.7190520978720354,14.981123818872275
14.670411395954067,25.17482929652474,-22.07453350853089,-1.2649631522044715,1.7364243274064812,14.683566408458509
14.079433382514862,25.09567255768383,-22.0186209743534,-1.2150589932146743,1.7724438962300104,14.093812708956127
13.4608000176846,25.006297782343367,-21.956381850435665,-1.1626817963485852,1.8124016631280249,13.47645852002346
12.843864445539689,24.910493498457306,-21.89048630143384,-1.110313814204436,1.854534578967102,12.860788699772385
12.224662613441511,24.807588661610588,-21.82044841069267,-1.0576195291798542,1.899076468768653,12.2428391361114
11.60323708747464,24.697473903553078,-21.74618201886272,-1.0046168416618673,1.946097604648562,11.622645688689074
10.985660560278086,24.581198749898082,-21.66836307427786,-0.9518250568334394,1.995088569647945,11.00626093262311
10.365952469259293,24.45761097059127,-21.586189289588773,-0.8987393335351582,2.0465025005159867,10.387708413384637
9.747149177419171,24.327234085151673,-21.499976609319326,-0.8456217857709117,2.1000519751886224,9.770009783260578
9.126457309467128,24.189405856091042,-21.409260607546404,-0.7922456816292136,2.1560307844386895,9.150371793939458
8.50777178773597,24.044923265237294,-21.314527508375683,-0.7389480206285107,2.214043641592514,8.532673871645693
7.894369447408345,23.894608066868102,-21.216272836580316,-0.6860185220785744,2.273729750681554,7.920181409688856
7.287743022295404,23.738961418195778,-21.114777256666052,-0.6335941248034204,2.3348657432043547,7.314379873821688
6.681076211424411,23.576273924455823,-21.00887885699023,-0.5810905730837626,2.3980578558665426,6.708454387984279
6.081430353843496,23.408489212295663,-20.89980354383763,-0.5291299479528591,2.462578584968416,6.109456608200176
5.481766665005685,23.23367720495491,-20.786247400265193,-0.477106456863645,2.5291029482201934,5.510348104328495
4.882106042934287,23.051760828367648,-20.668113952141134,-0.4250271723609824,2.5976106957271847,4.9111432308206915
4.32244172390105,22.875487321582245,-20.553631281016273,-0.3763746617891138,2.663291900958393,4.3518059964117795
4.082979937463077,22.797771030285602,-20.509388939239297,-0.35554774789284865,2.6982974513421754,4.112495532140479
4.08046974689064,22.779415960344547,-20.78105773947931,-0.35541851724784523,2.9883313010923565,4.111786759583375
4.075889782581668,22.740874927453202,-21.274746349361674,-0.35520720399133177,3.5205790958696657,4.110509435948767
4.071240606269177,22.694955880001626,-21.773230805277823,-0.35502565394861657,4.065000948443453,4.109234751946112
4.066613890154458,22.642315349714746,-22.26658917926166,-0.3548787058762166,4.611018032703016,4.107989361019561
4.0620145943767065,22.582972513104494,-22.754281922957322,-0.3547667749116775,5.158071602063369,4.106775443263078
4.057416343247271,22.51650031170856,-23.239075049419945,-0.3546897440587289,5.709354828363782,4.105587064493118
4.052866494555966,22.44354596942846,-23.715963319569447,-0.3546487168852414,6.259215062026675,4.104437324496532
4.048352086650851,22.363946911720607,-24.186324393604767,-0.35464350755796786,6.8091925867537295,4.103323510466676
4.0438220302693875,22.276694406171604,-24.65543986432161,-0.3546747699512954,7.365577921394457,4.102234162554302
4.040287944348507,22.2033914812437,-25.019376050969807,-0.3547251805099924,7.80283050643593,4.10140489991632
4.039245989717609,22.180891241033006,-25.126328978124956,-0.3547444781395818,7.932287634403955,4.1011639621772655
4.043268056659017,22.23851231385857,-25.205999104580243,-0.3551165658405682,7.954311354271939,4.105357533393715
4.0737042074965855,22.690660100835338,-25.49484480520521,-0.3576471234082607,7.790823160380685,4.1350179415287975
4.1161685402582915,23.312895043575462,-25.887836491210134,-0.361177973474294,7.561318063505967,4.176366660199081
4.159441343199817,23.93690203099915,-26.276729888246173,-0.36477670782783433,7.325935031591687,4.218463576135967
4.203614059506597,24.563654200742864,-26.662107259508105,-0.3684513995127437,7.084282465312484,4.261396301068628
4.248861819019136,25.19520491535848,-27.045169200481286,-0.3722171317014034,6.835506312273928,4.305333378169239
4.295024272577601,25.828890572954585,-27.42424799766821,-0.37606111167809847,6.58060329065236,4.3501174655820956
4.3417817645047965,26.460068871980013,-27.796605021615843,-0.37995727113942396,6.32147897730713,4.395437488001257
4.389504356216556,27.093472038025567,-28.16506996526567,-0.38393702499410925,6.056228287837251,4.441651141156645
4.438387943064903,27.731252574528476,-28.530848373212603,-0.3880173755350662,5.783902767369677,4.488946434851076
4.488046966954032,28.36800584022461,-28.890834646967427,-0.3921668174055376,5.506803811342598,4.536948940722333
4.538825648922383,29.007793539101478,-29.247335511066694,-0.39641481881157364,5.22317394110237,4.58599009660262
4.590517433533526,29.64762552016154,-29.598683192916504,-0.4007448536551622,4.934336714454494,4.635868987649743
4.643318728863182,30.289557554290937,-29.94601620138498,-0.40517415899171033,4.639373308804491,4.686773765032843
4.688104257557007,30.82504632373183,-30.231821538187877,-0.4089363873589979,4.389377742435271,4.72991618819101
4.700447743815984,30.970910687419245,-30.298821643314085,-0.40996874785466886,4.310427220698436,4.741728889540395
4.684544112563384,30.775046837624703,-29.94804164781141,-0.4085015444226512,4.155628744327256,4.724673314831527
4.658664150118591,30.45320433825821,-29.37094978971254,-0.40611996586594296,3.900570008788627,4.696913338336616
4.632642100633528,30.125620333169493,-28.782701282219257,-0.40373299990367834,3.640096102342495,4.668993984150298
4.606815983766365,29.796461095414458,-28.190773344219835,-0.4013718577684775,3.3775154985530973,4.641277753440346
4.581557157870959,29.470536754451686,-27.60384615006409,-0.3990703733205332,3.1166955845332924,4.614163304167418
4.556318275271674,29.140822661538614,-27.00929100691199,-0.3967786326799876,2.8520363163917763,4.587063124857636
4.5314124039543024,28.81139129482684,-26.414461362633535,-0.39452512925722805,2.586816430297064,4.56031331498845
4.506897743343284,28.483088076005156,-25.820910728176493,-0.3923150121677028,2.321743641971607,4.5339764857126
4.482648672847232,28.154291660206336,-25.22573118087594,-0.3901368674209354,2.0555323071618927,4.507917751475684
4.45868023195755,27.82524168324206,-24.62937453852268,-0.3879920068369412,1.7883945331660855,4.482153297056877
4.435108651798475,27.49760510839938,-24.034885474831857,-0.3858907212131731,1.5217072503204196,4.456808145994621
4.411992543933948,27.172316069917176,-23.443989723341247,-0.3838380278849521,1.2562616952963854,4.431945487213851
4.396834559374764,26.956824475115436,-23.052187075373833,-0.382496415541697,1.0800558587649427,4.415638222473837
4.380096136122271,26.746206371111644,-22.91464146626269,-0.38105101597046226,1.1532381375335805,4.399422519577684
4.336466014525297,26.194795739750948,-22.59034215104363,-0.3772916133389258,1.38063294023193,4.357379092585728
4.288415738972421,25.576636943342617,-22.22200910260825,-0.37315708646099616,1.630767792956924,4.311039832182616
4.240986846553234,24.95498190316005,-21.84647513715352,-0.3690816466614515,1.8771907861629515,4.265261387714889
4.1947632605057565,24.337833502326475,-21.468560738562182,-0.36511485785843073,2.1167159847084163,4.220608549253831
4.149051952881039,23.716257753786177,-21.08276985695435,-0.3611966702578934,2.352785859398469,4.176412928668117
4.106228541052519,23.12350807032449,-20.710017239958308,-0.35752993360156266,2.573047255179085,4.134974574853688
4.083345792067976,22.802535616484363,-20.506187110979468,-0.35557206519436296,2.6903297646803446,4.11281779950626
4.081183459298539,22.78483562779079,-20.7038276227277,-0.3554490819299701,2.9056795283178163,4.11199305714239
4.076758782470296,22.748698318157967,-21.181201384665176,-0.35523961485971095,3.419208148731501,4.110755476866
4.072109386932531,22.704069670910364,-21.680208912696337,-0.35505178213082417,3.962862688898846,4.109476412126595
4.0674893532223075,22.65282241890807,-22.173363159257903,-0.35489864019995404,4.50728235663509,4.1082282825334175
4.062854289624039,22.594346152072653,-22.665360552481054,-0.3547793632646822,5.05777416155243,4.107000214035879
4.058269420573059,22.52939206297146,-23.14925298468017,-0.3546960762072262,5.606638545410365,4.105810460021855
4.053725427153698,22.45788801971192,-23.626049798804754,-0.3546484397538725,6.1549570182846916,4.104657115567116
4.049185913030203,22.379215474689186,-24.099553752138068,-0.35463644536875455,6.707151023787806,4.103531838504598
4.044668848431361,22.293595108095516,-24.567855808638626,-0.35466076267940233,7.261090773417644,4.10244015846169
4.04071813811875,22.212586954618633,-24.97505463929909,-0.3547124459920185,7.749312831739057,4.101509338630659
4.039330209354593,22.182750374629652,-25.11757103683166,-0.3547374757328458,7.9216710867586055,4.101187827811944
3.9964436510515697,22.176033851777234,-25.16569008801231,-0.3510200062636919,7.976770105768955,4.058285014657571
3.5666662362049433,22.20594571503275,-25.183222262183413,-0.31327089644491474,7.966886097122761,3.6248363801908035
2.9621076069523773,22.24224229021068,-25.204481386222024,-0.2601450791644492,7.9548804420957735,3.0151456041962668
2.355449577317533,22.271887288104097,-25.221832250619844,-0.2068099921538173,7.9450657326545295,2.4033694641693284
1.7467344624762686,22.29482177736412,-25.23524798095662,-0.15327417906114024,7.937467826661428,1.7895444218653984
1.1379702455622691,22.31094215293684,-25.244670780333294,-0.09972162604514836,7.9320948922933665,1.1756878010343565
0.5313591193542376,22.320237588406805,-25.250104842782026,-0.04634675948410844,7.929016265084002,0.5640157233451586
-0.07719006914659599,22.322775840983414,-25.251589059138052,0.007203212056083826,7.928180378836617,-0.04960480207782108
-0.6864642059714375,22.31850836103556,-25.249095710798393,0.060816450699678504,7.92960388082839,-0.6639571328889821
-1.2947445202963856,22.307449837005773,-25.242632265957962,0.11433659936607218,7.9332809461178115,-1.277314784425822
-1.9010169319264896,22.2896615292521,-25.232228523974236,0.16766563754970906,7.939157845390366,-1.8886635089048465
-2.5109374001965907,22.264947446899118,-25.217771485650164,0.221303171115647,7.947357799407259,-2.5037096382206303
-3.1187706284103838,22.23350046772006,-25.199364358518263,0.27473621187706654,7.95778037195442,-3.1166781626128865
-3.7044751222640424,22.1967471539799,-25.17783499927984,0.3261994458426331,7.969946863374809,-3.70736277967103
-4.0342309551800275,22.17326003694633,-25.164064438811227,0.35515656517260935,7.977682784540035,-4.039941043037728
-4.036486895490288,22.14393682723555,-24.9504311276476,0.35519631262165086,7.793362341143641,-4.041062741198298
-4.029968445760178,22.070138339967066,-24.429212744253697,0.3542564973138289,7.345991257414802,-4.031700924450198
-4.023071249824945,21.98668415712873,-23.872923523173295,0.3532880394284623,6.873207707325407,-4.021814667480159
-4.016191256335616,21.897969420577848,-23.313072127368045,0.35234819957823715,6.402122246684564,-4.011972104889335
-4.0093704402749255,21.804653882073172,-22.753107323867063,0.3514419081181262,5.935523584228014,-4.002232029749185
-4.0025881186084336,21.706594104320853,-22.191385910764897,0.35056553667492824,5.471912115150739,-3.9925636165341207
-3.9958712531970098,21.60432292176596,-21.630202171826777,0.34972169667663716,5.013049095708268,-3.9830040430774245
-3.9891567416582427,21.496976548829597,-21.064303899387298,0.3489018228630455,4.554546574196503,-3.9734624138907897
-3.982475538509766,21.38510774928038,-20.496283960118724,0.34810925611798477,4.098444429751791,-3.963981767030903
-3.9758831464962303,21.269797982828766,-19.93093930800738,0.3473497263989432,3.6484577560048193,-3.9546396879675414
-3.971317540861664,21.187077035179737,-19.53653764382873,0.34683670371604414,3.3368103534118934,-3.948176658010483
-3.971655716574443,21.1882525368156,-19.45976320053578,0.34683894650415253,3.2588597886797834,-3.948042870540894
-3.9968409564737497,21.557992279106546,-19.702588499086694,0.34898906339849495,3.131795022247839,-3.9724833031218485
-4.037849085372026,22.151826540961373,-20.088663878251367,0.35249208743022264,2.923789460019357,-4.012251427165446
-4.0739595313871755,22.666509225693776,-20.419384040865364,0.3555790488752471,2.7396077561992076,-4.047242569578429
-4.082938197186968,22.795757191785228,-20.540668906938414,0.35635810633999315,2.7315891419743346,-4.056174934325501
-4.079522488923137,22.769969860836024,-20.910394496560112,0.3561863275121031,3.127115643681379,-4.05521815047739
-4.074865769660718,22.728929974981185,-21.412140828759217,0.35598068497557,3.66992031161403,-4.053932383127676
-4.07021390410439,22.681021957235878,-21.91065599793227,0.3558088236874275,4.216361850460711,-4.052670509144684
-4.065622064295844,22.626810251108417,-22.40003055168231,0.3556728588914675,4.7599661448361195,-4.0514482228109445
-4.0610062195128025,22.5652340985974,-22.889196902286486,0.35557072108020277,5.310726692446731,-4.0502441150218305
-4.056430300717941,22.49703032808501,-23.37133748516344,0.3555045007172903,5.861088847220453,-4.049075995552928
-4.051908793302457,22.422483730598774,-23.844954954804976,0.3554742046927908,6.409270415317443,-4.047948041146228
-4.047385367550104,22.34063719146262,-24.315939840470445,0.35547975624122796,6.962119256545881,-4.046847036053699
-4.042910685994348,22.252365862898028,-24.77900127672995,0.35552148480709705,7.513469155860624,-4.045786200668248
-4.040145032588127,22.194106867244376,-25.063761367892617,0.35556572502394906,7.8564987843972,-4.0451451954140465
-4.039285736530671,22.175422411668812,-25.152009697101025,0.3555823885340276,7.963434836786729,-4.044948378822713
-4.049566335987606,22.328179984452625,-25.26350221644507,0.3564490236504459,7.92210686516272,-4.05505589152833
-4.085408776823428,22.85890308107511,-25.601618846477308,0.35942890567453584,7.729280793396904,-4.089976603795746
-4.1284375602295995,23.48666279515428,-25.996656522423446,0.3630065974106717,7.496292725542772,-4.1318625431971645
-4.172016663987059,24.112270995284554,-26.385087985686507,0.3666308418677926,7.258843894728533,-4.174244732960359
-4.216334797848745,24.73824094224344,-26.768529475877166,0.370317799229007,7.016035983790704,-4.2173059368933705
-4.261736645376722,25.36906512763088,-27.149700488711886,0.374096660721925,6.7660936529415245,-4.261379611035012
-4.307763449840217,25.998041259062703,-27.52454746503945,0.37792978172141956,6.511668394880251,-4.30601916205294
-4.340362598518581,26.437250838084566,-27.783235136524347,0.380646244776945,6.330934963089876,-4.337611484348764
-4.253753270082186,26.507329650258853,-27.823904767549802,0.37305189512781023,6.302096204323309,-4.2503040308168
-3.769963518582102,26.541585680650194,-27.842098476824948,0.33072570896277714,6.28900620664611,-3.7636155678340715
-3.1415739353785295,26.579881274664423,-27.862420669802372,0.27571854312729777,6.274359838733061,-3.131503647741142
-2.514408162400413,26.61113407717061,-27.87899225931387,0.22078982169482259,6.262397566520438,-2.5006635117178244
-1.8849290274825121,26.635516920805294,-27.891912905546512,0.16563539659923693,6.253059702591411,-1.867529224527427
-1.257652960502825,26.652861990137307,-27.90109675094606,0.11065793528713812,6.246384336596107,-1.2366359816970962
-0.629138691067257,26.66329445684706,-27.906620863847213,0.055559421588136586,6.242389499399039,-0.6045131600795346
-0.0012511810076912832,26.6667754382135,-27.908464155265342,0.0005099774222381253,6.241061016541461,0.026971074047910295
0.626390756979958,26.66332311919461,-27.90663714176438,-0.05451808662075369,6.242392628116438,0.6582082596485991
1.2562726884644548,26.652886280501274,-27.901108664195785,-0.10973456829835188,6.246372068565074,1.2917066912637651
1.8829226113629858,26.63557266648125,-27.89193943410277,-0.16465849088832427,6.253018286935811,1.921970453200481
2.512918043399539,26.611187841700676,-27.879018859840755,-0.21985854924606907,6.262371067277104,2.555623515113671
3.140105770830031,26.579948639436047,-27.862455602917866,-0.2747898667244283,6.274342209591019,3.1864851060706125
3.7670584276292214,26.541760309215174,-27.84218833582076,-0.3296687393309276,6.288930539728436,3.8171520598993944
4.255143630960803,26.507205304266986,-27.823836700956562,-0.3723713960109185,6.302145709902351,4.30816106527666
4.34210854463521,26.465422570001966,-27.75080730879373,-0.37995248870888054,6.270329274253997,4.395421042511333
4.324851638455772,26.239566110662633,-27.302722723509486,-0.37828521748898364,6.048220325839568,4.376587983995543
4.302400285430728,25.94207814729842,-26.712911715232686,-0.3761244611429316,5.756051599392975,4.352084308586056
4.280245698107794,25.644396510228205,-26.123143294949024,-0.3740017074686608,5.464116283680164,4.327902376112473
4.2583501666376495,25.346078769586047,-25.532529643825224,-0.37191316288945075,5.171969278549668,4.304000860802759
4.2366170469857645,25.045835967217204,-24.93851158183925,-0.36984951432998203,4.878341042809801,4.28027408259913
4.2151193199145585,24.744698034816448,-24.343120363926175,-0.3678176133273005,4.584232427844747,4.256801534001441
4.193863759957799,24.442805930700104,-23.74662621260076,-0.36581796912152065,4.289772678153442,4.233590447608709
4.1729746931650755,24.142011764889883,-23.15267678585735,-0.3638620586725598,3.9967565417554507,4.210776458032746
4.152278771188004,23.839892706843347,-22.556477671315626,-0.3619334636663867,3.702813620695829,4.188170109486855
4.131873393639361,23.53792376297288,-21.960931483374708,-0.3600411213130186,3.4093709027483623,4.165877648862559
4.111558753476267,23.23317092035332,-21.360246436654673,-0.3581664330695067,3.113571952455034,4.143680623520293
4.094060593140004,22.967297145776897,-20.83647519621643,-0.3565591960244913,2.855788726971102,4.124557893285562
4.086343335642983,22.849029596583815,-20.60357056093394,-0.3558526041192742,2.7412018663275037,4.1161231674732415
4.062584514519993,22.799602254545384,-20.504232564837146,-0.35377011794822566,2.691439531968453,4.092047110173368
3.6882512832717707,22.824823837159627,-20.518824214941272,-0.32118093941686465,2.683019301474658,3.717547626618289
3.0918828444592847,22.859947300511028,-20.53913081642628,-0.2692351728130194,2.6712831558805687,3.1209456215628837
2.480039017593889,22.88953695364632,-20.556225758282856,-0.21591265870442292,2.6613873617735746,2.508896339782693
1.8653059105484298,22.912707152892942,-20.569604202269126,-0.16231472582996875,2.6536336332189885,1.8939848300202509
1.2527850131591132,22.929262801952053,-20.579156208888246,-0.10889158828817501,2.6480607898931594,1.2813089833578035
0.636901548218743,22.939350595129028,-20.58497697872946,-0.05516376617501229,2.6446854232889923,0.6652821970328547
0.027674105167756584,22.942860464117217,-20.587002395020527,-0.0020104676241549323,2.643515210062818,0.0559201710682402
-0.5845876128818782,22.939908113567956,-20.585300113772966,0.0514079432348632,2.6445121732497032,-0.5564764634379833
-1.1981736131210803,22.930430730236218,-20.579833147758645,0.1049364926207564,2.64769675395935,-1.1702042311391456
-1.8117609739985232,22.9144199882732,-20.570591126150266,0.15845279492384412,2.653038617863111,-1.7839459087668945
-2.425573807753971,22.89186445604028,-20.557569689262305,0.21197258673127423,2.6606007099882025,-2.397934449799885
-3.038644644589364,22.86279407137851,-20.540777230209592,0.2654048903703915,2.6703372073385747,-3.011208057573295
-3.650003614177838,22.827279877113646,-20.520247456206924,0.3186595614034521,2.682218446813544,-3.6228032173803344
-4.264926334186963,22.784965709715763,-20.49576213866282,0.3721879145061396,2.6963251416429608,-4.238004512661484
-4.877361132034165,22.736235327235672,-20.467538734821485,0.4254616231550487,2.7125824926035036,-4.8507646486392275
-5.488954571372847,22.680984736718596,-20.435501561156048,0.47861649996041955,2.730984227473323,-5.462737364505363
-5.9558412570332715,22.634359663024377,-20.408434977226,0.5191603734665933,2.746487814216542,-5.929954337364192
-6.0299896296086075,22.621523395910298,-20.47903401564149,0.5256321693972544,2.829245411771328,-6.004894784197103
-6.024351831383324,22.591388773989827,-20.89315545559904,0.5253595745510866,3.27353446988072,-6.003331078001611
-6.017490717877109,22.54849772792972,-21.394679674698466,0.5250724103169319,3.8179897396741738,-6.001457273788289
-6.01069552731405,22.499154231515288,-21.888679543036158,0.5248372816148219,4.36137255400705,-5.999634708123554
-6.003913070241958,22.442943816445755,-22.379015269614662,0.5246526477192744,4.90795789436178,-5.997850313829563
-5.997161203506016,22.379932072948765,-22.864367188047158,0.5245197213279267,5.456360394906562,-5.9961102678564435
-5.990444699275633,22.3101160982933,-23.3443764921042,0.5244391100618563,6.006224119527289,-5.99441711741059
-5.983782467485296,22.233683907622513,-23.81769042003621,0.5244113114617424,6.5560081789366444,-5.992776748082094
-5.977139706213432,22.150203032963052,-24.28676963381988,0.5244366696122063,7.108605896426092,-5.991181854178833
-5.97069043037101,22.0620587662355,-24.739404224204897,0.5245133476478016,7.649421086756505,-5.989674150655856
-5.967275163179148,22.012500667491132,-24.977971145343254,0.5245751934677793,7.937565264780546,-5.988892627761175
-5.966148904298793,21.995715123085333,-25.056470192026758,0.52459886419098,8.032856160886995,-5.988637536191394
-6.234571343165311,21.964811726639727,-25.041567623434652,0.5481110573149808,8.04635178181583,-6.259474923838754
-6.804329747365397,21.896070919978396,-25.001048601025694,0.5979746453214063,8.068891800245005,-6.834333412104593
-7.4063271381970175,21.816789158350332,-24.954240683399746,0.6506055604634753,8.094824523777577,-7.441788888998604
-8.007573350901877,21.73074986036402,-24.903351459228368,0.703110499627701,8.122890487649142,-8.04856354196986
-8.610369763682465,21.63757112244741,-24.848128700626322,0.755682659572883,8.153163832479985,-8.656987739586157
-9.212415722517516,21.53755847532134,-24.788734475260323,0.8081216954147158,8.185585934918493,-9.26474211610919
-9.813041242670538,21.430815498515656,-24.725200785244194,0.8603623264002086,8.220070035955656,-9.871157407433895
-10.414400136107577,21.316924639349658,-24.65725019764502,0.9125872166031267,8.256726679582917,-10.478413802759645
-11.015253838626334,21.196063990479054,-24.58495445271633,0.9646800647854301,8.295441053439703,-11.085268444754492
-11.617348789044348,21.06782170684119,-24.508039558144507,1.0167949064099935,8.336378596722225,-11.693486738219399
-12.218178713505859,20.932672432139473,-24.42675116066523,1.0687064431043973,8.379326350933487,-12.300544578926159
-12.817140376275287,20.790746377238147,-24.341128132058103,1.1203538873547623,8.424181118320284,-12.905839491068651
-13.240465183357687,20.686073781484808,-24.277814317523223,1.1567980474318782,8.457143356934456,-13.333714930033283
-13.491130429625759,20.622377924357757,-24.239216473140658,1.1783530929179316,8.477142687827447,-13.587105440027168
-13.803080601020525,20.541318371269845,-24.190020293943384,1.2051517328522126,8.502529268099295,-13.902479709124904
-13.795075395271958,20.514819139361446,-23.96457268135106,1.203849125328253,8.303792727727098,-13.890177959688005
-13.773300996832264,20.450769479313472,-23.441017914809017,1.2006201372081349,7.844844653607386,-13.858488682057088
-13.750428844397632,20.37797525595187,-22.886208119547575,1.19732047234858,7.363412380994184,-13.825271076306286
-13.727758426835754,20.300276974177457,-22.331332802690692,1.1941416094772048,6.88681170206077,-13.792413193444231
-13.705119202644221,20.217204140574232,-21.772246635304285,1.1910568718020549,6.411372181770998,-13.759663548535489
-13.682596095372428,20.12914777455109,-21.211046043021266,1.1880757144416625,5.93879712677678,-13.727141191774964
-13.660309751126578,20.036729196019643,-20.650803137371085,1.185210929154045,5.471534353970945,-13.69501587892137
-13.638137829262458,19.93958612348108,-20.088506989667525,1.1824437675979549,5.006938370353676,-13.663106994069949
-13.61610190394192,19.83791831340137,-19.524734180985927,1.1797746100381075,4.545385516877012,-13.631441846518715
-13.594643912973455,19.73402662316679,-18.970976143276545,1.1772522823914002,4.096055398109549,-13.600650484728785
-13.582198746764469,19.671565610951514,-18.647630123714805,1.1758238419248714,3.8354807540047555,-13.58281072044561
-13.577461330808799,19.647364050865143,-18.524121091630153,1.175286698446967,3.736291304329447,-13.576023222620178
-13.626519482553693,19.8585770712777,-18.662238574417316,1.1793536068403332,3.6622038672696244,-13.623658891890297
-13.755139217427917,20.406856892124694,-19.0324359871605,1.1900353888758572,3.481502108453119,-13.748781309468638
-13.88546203356546,20.953712509694167,-19.39753803662646,1.2008588114988132,3.2970712601046372,-13.87546425317388
-13.944247234851783,21.19757956078272,-19.559026503606088,1.205741219375314,3.213477370618439,-13.932576508053772
-13.945151105214945,21.208752384782198,-19.727439986939924,1.2060077944754288,3.3706642470924444,-13.936795418649508
-13.931095970425075,21.16917733287903,-20.184541242224945,1.2054766098172471,3.867526278591528,-13.933189069888359
-13.91574236212254,21.11939550763272,-20.681158757826225,1.2050054350619315,4.414127668849679,-13.929320875847774
-13.900574237799441,21.063364049929742,-21.168945755694434,1.2046542691366244,4.958144841144002,-13.925576382834953
-13.88529273797947,20.99988518219607,-21.65747996270376,1.2044180825355735,5.510357181407599,-13.921885360804236
-13.870265894191428,20.930443501364266,-22.134982159486068,1.2043037072108607,6.05749604707312,-13.918339683498639
-13.85524404053165,20.85392346012592,-22.60940536647761,1.204309092880314,6.608633229261559,-13.914882472328562
-13.840379468790637,20.771072149092152,-23.075930944671974,1.2044352419333595,7.158201006884261,-13.911551607404709
-13.825446614281894,20.68055121596028,-23.54160697341772,1.2046861150353836,7.714588674895281,-13.908300103123722
-13.812731309646974,20.597601706903202,-23.935719935469148,1.205000306227529,8.191812662200913,-13.90560964090483
-13.808273738694332,20.567225472526772,-24.073350915821106,1.2051327721831802,8.359876304316858,-13.90468404840816
-13.805497284138001,20.547961590200583,-24.15893509416078,1.2052212137236624,8.464759459380977,-13.9041122479284
-13.821780952615573,20.616388516949204,-24.240027246032604,1.2066534385519243,8.47708001407173,-13.920808637128546
-13.92788894593356,21.07630062921693,-24.544562388312354,1.215239252782614,8.31950058513115,-14.024519639418443
-14.071685194894645,21.69095724319551,-24.947045827889266,1.2268667333443353,8.10431791992468,-14.164956197088003
-14.216837050726117,22.301585788814812,-25.34180220441551,1.238595806100427,7.885379031918999,-14.306589738388572
-14.364945889495173,22.914731250865668,-25.73311178252716,1.2505568383097019,7.660384096921722,-14.450980423396258
-14.517390843641179,23.535618124404355,-26.12421210863863,1.262862048631083,7.427314543780189,-14.599466620147101
-14.671924150205495,24.15470137922157,-26.509048372392513,1.2753309923538791,7.189707020135739,-14.749854063974052
-14.82875161555268,24.772627553175184,-26.888091382753547,1.2879814413440411,6.9473799590914185,-14.902340950408393
-14.988719424858662,25.39245434674053,-27.26323977369684,1.3008828381609712,6.699153988023469,-15.05774673388516
-15.152236215229635,26.015373149869106,-27.635186059031664,1.314069373948452,6.444519001636837,-15.216463654565507
-15.3189942712411,26.63981795496803,-28.002971580066106,1.3275175556921435,6.18408699690392,-15.378188319554393
-15.489022951046008,27.265542197834442,-28.366450795072808,1.3412311566495894,5.917956145087889,-15.542945025072342
-15.661947054202452,27.89085069286636,-28.7246625935445,1.3551813844023046,5.646866992615815,-15.710366621284503
-15.832856281582439,28.49817657041519,-29.06779468542594,1.3689734276529628,5.378687212873546,-15.875701906844652
-15.936477784434604,28.8613293181546,-29.270735211214635,1.3773381054335574,5.216038925477288,-15.975879947981904
-15.963958097493046,28.95695946895283,-29.3065487363412,1.3795190637815182,5.155578841495472,-16.00202023594745
-15.907771915698357,28.759987879996743,-28.926759091332137,1.3744037816115984,4.974163349124571,-15.941220453895317
-15.82249224465333,28.457630892262067,-28.343952768500507,1.366663095147539,4.695833386676712,-15.848929230611718
-15.737706704795688,28.152890244197394,-27.75676569779163,1.3589957096856902,4.415482768224935,-15.757161260050932
-15.653663073912359,27.84665503617455,-27.16690565278499,1.351424078402915,4.1339242915093,-15.666184125730595
-15.57085932537956,27.54079434909267,-26.577964937167117,1.3439927283290363,3.8528693290781817,-15.57653645317834
-15.488797368166248,27.23352424897762,-25.986500974057815,1.3366566156803492,3.570671808534612,-15.487678567519422
-15.408339536206185,26.928159618338547,-25.398886047727338,1.329492283870369,3.290368607544734,-15.400543917787145
-15.328436513004663,26.62079101972074,-24.807589603417018,1.3224058425123808,3.008364415142869,-15.313995782111249
-15.249398323127853,26.31262875136621,-24.214934986683573,1.3154247195300757,2.7257650842369636,-15.2283694598657
-15.170715645314324,26.001689436122955,-23.617103629749177,1.3085039718437301,2.4407478534334524,-15.143112609299438
-15.093531534144699,25.692544162469265,-23.022878270061966,1.3017438279061162,2.1574974796536215,-15.059463425825934
-15.023611477406384,25.408885829796624,-22.477774777829172,1.2956451253040535,1.897701805988087,-14.983672186999911
-14.992056753345288,25.279728634009125,-22.229615174825636,1.2929008038189491,1.7794413095009542,-14.949463081469009
-14.964196687744405,25.21095029972993,-22.100466449525246,1.2905122583402144,1.7197132942574191,-14.920275930234705
-14.623025300916588,25.140064874464574,-22.052900680570353,1.2617641669700728,1.7506151053248167,-14.580051924672953
-14.027135708121234,25.01119685108741,-21.966827356814207,1.2114464612986646,1.8062429717539075,-13.985792268336416
-13.41538161618839,24.872152367271745,-21.874438578438042,1.1596531569983448,1.865530045064966,-13.375672542717732
-12.801054103557549,24.725580403516172,-21.7774809822063,1.10750896622131,1.9272734130752716,-12.762939122098715
-12.189069569118239,24.57257815525659,-21.676640860021127,1.0554372370325973,1.9909342183392365,-12.152482574647093
-11.576476290548007,24.41237030195874,-21.571372438856585,1.0031923852855982,2.056857117389555,-11.541362624008027
-10.961502545266214,24.24436151355036,-21.461241900291053,0.9506282488747487,2.125200836152294,-10.927798306381069
-10.347668845789128,24.069409065314165,-21.346767466852985,0.8980510324800716,2.1955634141550378,-10.3152944491171
-9.734227333654571,23.88723858937913,-21.227718696317073,0.8454046381596034,2.2679725526134145,-9.70309139158828
-9.126872406190886,23.699574119164915,-21.10517686657576,0.7931814684441888,2.3417652835651794,-9.096878916408041
-8.52405004281525,23.506032294824838,-20.978835525078576,0.7412574126959992,2.417024878498531,-8.495094944926185
-7.929604312163101,23.3079880183815,-20.8495391698381,0.6899716545472552,2.4931860641545716,-7.901573335532246
-7.33429835276218,23.10240069844262,-20.7152458054152,0.6385373384568327,2.571342457427467,-7.307079807466109
-6.7391723720534875,22.889524928832888,-20.57607072168115,0.5870428122442338,2.6513996646898557,-6.712660875744673
-6.207321499821203,22.692976214898913,-20.44741983612804,0.5409659265301061,2.724526412469561,-6.181341689737905
-6.030786466123995,22.625426910568798,-20.42017435895753,0.5256681516403491,2.7664708027275084,-6.005120695861282
-6.026310471807137,22.60238768701765,-20.749313174605195,0.5254453838206616,3.1186750593569252,-6.003875174325261
-6.019485051136794,22.56169008514276,-21.249016618277317,0.5251455791555,3.6591159490737963,-6.002001822760998
-6.012684936316867,22.514331327544834,-21.74418100354323,0.5248957638376888,4.2016786201304255,-6.000168093414751
-6.005879991865503,22.45998544515773,-22.236959718549656,0.5246957504449681,4.748842598131142,-5.9983674791931465
-5.999091390789866,22.39868935878349,-22.725771483853823,0.5245472355963242,5.2989895530097195,-5.996607312512267
-5.99236235904354,22.33080128846811,-23.207494349066113,0.5244515574827482,5.848639060567623,-5.99490004157379
-5.985696539349842,22.256401406958698,-23.681886857555373,0.5244086517255802,6.397469467770564,-5.99324743397743
-5.9790437356027075,22.174899775491067,-24.152511160954642,0.5244186472516742,6.949633146556082,-5.991638284934499
-5.9724255243016104,22.086485264416453,-24.617811950610676,0.5244823382677402,7.5033857894594576,-5.990079321595605
-5.967781502669688,22.019991822705347,-24.942569317314117,0.5245598205961282,7.894662674119627,-5.9890113673023375
-5.966381567568785,21.999217216246333,-25.040180705339164,0.5245885766321148,8.013056508197316,-5.9886937628383174
-5.976643890647126,22.101694236673055,-25.128113962376503,0.5254680580970303,7.998419534334995,-5.998907679123804
-6.026191282559441,22.59908868515415,-25.446699991900864,0.5295749738991165,7.819163513402115,-6.047202023576399
-6.089400262465676,23.22457440926659,-25.842587435280073,0.5348142644793595,7.588989199923358,-6.10876078084686
-6.153781185807775,23.85146146842052,-26.234090825202017,0.5401512655826876,7.353013040575379,-6.171402678775057
-6.218944453390414,24.47574588856629,-26.618756851695448,0.5455543372592144,7.112789022011215,-6.234747437591461
-6.2856404733098845,25.10433002546514,-27.00085068128801,0.5510864043004935,6.865672664363094,-6.299522897988433
-6.35395020458736,25.73750324198729,-27.38047116665911,0.5567549691498377,6.61147225801195,-6.365805010622042
-6.422985393251002,26.366752560700697,-27.752539393961932,0.5624871080763767,6.353629955355349,-6.432730332852877
-6.493467083545296,26.998418572650774,-28.12085748850326,0.568343502346599,6.089600070714762,-6.500996606743906
-6.565437316535394,27.632478232725312,-28.48538717645071,0.5743285613974557,5.819366535797999,-6.570642344185366
-6.639170461809289,28.270886778000012,-28.847204997498274,0.5804661053810307,5.542047481336247,-6.641930509594693
-6.714061608953006,28.90802811547839,-29.203125389552234,0.5867067946683866,5.260078964577608,-6.714274199213576
-6.7904329822291265,29.54633996043498,-29.554547249983234,0.5930784967445114,4.972418539208081,-6.787983066838966
-6.868214641375674,30.18488278721859,-29.900970775680005,0.5995764686927967,4.679506171237787,-6.8629877260968675
-6.928794953488257,30.67432616058162,-30.163056740721764,0.60464383758008,4.451525214071681,-6.921360673897992
-7.01407121058613,30.75022592050402,-30.203889351452904,0.6120142705989811,4.415556160776314,-7.006511121620301
-7.483702191591957,30.69252598747943,-30.176188927545443,0.6527641053833613,4.4403794048526235,-7.477830511024185
-8.128142678273639,30.607114134872678,-30.135112811589142,0.7086181357901493,4.477068205986427,-8.124684884868186
-8.776820661512438,30.51381477828438,-30.09014540218292,0.7647589472960958,4.517068093807955,-8.775914667562088
-9.425647190291876,30.41308875954936,-30.04148039601526,0.8208233956851559,4.56013051981707,-9.427425360969135
-10.074421554291586,30.304918374131628,-29.989088981935424,0.8767919183361321,4.606304510939344,-10.079025530187906
-10.721728254756647,30.18950356966098,-29.93303659620135,0.9325346905941753,4.655451257860741,-10.72930225389518
-11.369553736515892,30.06644305437002,-29.87309456100027,0.9882138353216552,4.707686065252878,-11.380260527785225
-12.018645540649953,29.93550271814326,-29.809121079563614,1.043892863651735,4.763144089955928,-12.032660743733892
-12.666062742140987,29.797209361949164,-29.741334727331225,1.0993108531210365,4.821542465931819,-12.683556534095164
-13.310626234497871,29.65182130464849,-29.669826315022217,1.1543621958163377,4.882743516647113,-13.331769704402186
-13.952274611482093,29.499374740628422,-29.59457349036045,1.2090333304533434,4.946671245471268,-13.977245916824684
-14.416601171125624,29.384214488775434,-29.537545620776285,1.2485164127802149,4.9948412958690716,-14.44446723191438
-14.675808996024816,29.318143638366365,-29.504755762936377,1.270526670846041,5.0224212415784235,-14.705338280082016
-15.243877561335074,29.168843705036906,-29.430469083565562,1.3186836705452674,5.084590996139313,-15.277173573028001
-15.794936390929388,29.018054861938573,-29.35516965635876,1.3652881579673068,5.1471469448719755,-15.83205157015748
-15.964802823272406,28.959885899740474,-29.312188511971396,1.3796123762709744,5.158253572446025,-16.002920640130466
-15.911153061257163,28.771869718151127,-28.94966300196784,1.3747275942109245,4.985083686113529,-15.944865676664
-15.826061502914534,28.47034747505461,-28.368457286520332,1.3670028550731803,4.707515400440787,-15.852778424617922
-15.74094807287275,28.164596425692004,-27.779315253524633,1.35930468692287,4.4262288058273365,-15.760655976345637
-15.656858071733234,27.858352990919286,-27.18943196442529,1.3517277966121313,4.1446569015991575,-15.669629063362013
-15.574191532727106,27.55316274228966,-26.601774950793523,1.3443076574477264,3.864212294281942,-15.580130389788795
-15.492365407770155,27.24695093055931,-26.01234061007697,1.3369914421209257,3.582980837422689,-15.491528376006407
-15.411435189517869,26.93996456592142,-25.421597959918664,1.3297838878402297,3.301183525115495,-15.403882657512032
-15.331907312927012,26.634208536887396,-24.83339700449168,1.3227295675454684,3.020653652993182,-15.317741404175457
-15.252528422163593,26.324891855438487,-24.238515637216874,1.3157171686437845,2.7369905787162754,-15.231746557415667
-15.173963821400726,26.014589263246542,-23.64190229009716,1.308805647704375,2.4525522367640233,-15.146618233601135
-15.096609401962926,25.704931719910157,-23.04668631464559,1.302029427208196,2.1688279600375604,-15.062785082503956
-15.028094083447915,25.427156291723957,-22.512881666513824,1.2960519865791356,1.9144155125120477,-14.98851723120249
-14.997804796910918,25.303290230244833,-22.2748845646625,1.2934169488252545,1.8009968811137764,-14.955680451503076
-14.980186195335433,25.230935692030982,-22.135872655913836,1.2918863408558037,1.7347532446817162,-14.936578750570305
-15.003635339569295,25.0685732709354,-22.015123377396083,1.2938902707182218,1.7758277103039137,-14.960938122927406
-15.103468039511291,24.5420211016258,-21.696521590417863,1.3024520235589987,1.9814669486767065,-15.065378741099304
-15.216341285583574,23.936604913195122,-21.325638957004323,1.3121496770084848,2.2133683171871525,-15.183522901364984
-15.327832806457796,23.327824763964504,-20.947750187116647,1.3217469628705079,2.4416398162645065,-15.300280458190882
-15.437229447224826,22.719798193457677,-20.56535485914026,1.3311816391014721,2.664681214055785,-15.414897443214889
-15.544116141847999,22.115228420493033,-20.18018015100305,1.3404167187131435,2.88152754363802,-15.526931184212017
-15.649517396846367,21.508636387378257,-19.78872891350461,1.349539616392092,3.0941373554172205,-15.637448306564606
-15.743462693002058,20.95902667981532,-19.42971514589338,1.3576842800367732,3.2824626590874604,-15.735983204932856
-15.782238581498618,20.729667624459882,-19.27867102347091,1.3610495918602397,3.3598363475069464,-15.776660717721947
-15.77624087092423,20.708824391312273,-19.47267598110255,1.3608543752268714,3.5747663571554242,-15.775766788606985
-15.759987683066196,20.665586627703835,-19.94365413738157,1.3603048760158536,4.08922317865085,-15.77171940932753
-15.742950060229068,20.61367736299331,-20.434592630248826,1.3598531227329775,4.632322400579943,-15.767557939807398
-15.725903593458249,20.554861814126173,-20.922897764910513,1.3595312657536889,5.179693540388213,-15.76348192278475
-15.708950126353928,20.48940417113467,-21.405621309054094,1.3593432791986857,5.728122637415489,-15.759519610464444
-15.692046789759734,20.41708668240885,-21.88396689757805,1.35929017788332,6.279031668479213,-15.755664483846372
-15.675354686787827,20.338621953001894,-22.353389224063495,1.3593726122090732,6.827160354557107,-15.751955762867498
-15.658629819163002,20.25283436428226,-22.820741259415318,1.3595930277136745,7.380540784377843,-15.748342465790325
-15.641943959298018,20.15995287967786,-23.283961614563708,1.3599539547471735,7.936881518659554,-15.744844969817478
-15.628741459149108,20.081201832292308,-23.648287194442567,1.3603418269378689,8.380146176422977,-15.742156978454991
-15.624503392853201,20.05492359807338,-23.76482122271723,1.3604858511758253,8.52301860657469,-15.741309460909642
-15.62131826843057,20.034852278620097,-23.8522683893945,1.3606004008085542,8.630582249705938,-15.740677504680026
-15.645029180979076,20.12393679392468,-23.94100447393453,1.3626105120819647,8.629671973255022,-15.764591779192735
-15.770553044037745,20.603971371256332,-24.262251472383603,1.3726831828962247,8.467941218934142,-15.88738885563763
-15.930802953542713,21.208222356221516,-24.662128140380677,1.385530621168585,8.259778205172069,-16.04403298262646
-16.096088423612542,21.821604853650275,-25.062947590661395,1.3987692302109491,8.04327067347054,-16.205456347871376
-16.26391510081592,22.4344296257022,-25.458301289041238,1.412199834673226,7.821756343007734,-16.369216729927423
-16.434248675706847,23.04637145802682,-25.848027803388515,1.4258206522267534,7.595398131094262,-16.535277926082333
-16.607914411996955,23.66013143959075,-26.233866523260296,1.439698631383172,7.363212273471287,-16.704440905110385
-16.784160291935343,24.272787632667512,-26.614002610127045,1.4537746912093952,7.1263222871623055,-16.87596960075586
-16.96495331000413,24.890816244596415,-26.992433747572267,1.4682069443950727,6.882198356664532,-17.051773474495825
-17.150154105820125,25.513229898213705,-27.368468427268056,1.4829852796422605,6.6311365974400935,-17.231710039959243
-17.336765872139434,26.12972253713865,-27.735930721173972,1.4978718028842077,6.377340778548641,-17.412864738762337
-17.5281848075996,26.75125603054559,-28.101398550297837,1.5131387330090185,6.116337912382498,-17.598531253561983
-17.722117549565223,27.370037199748023,-28.460294352183432,1.5286044752597798,5.851399989803606,-17.786480733288677
-17.9152599227025,27.975652749831802,-28.806800279232277,1.544006922448676,5.587207935391152,-17.9735133556277
-18.030509532231648,28.332076200402764,-29.008543563946745,1.5531981111535709,5.429471068837237,-18.085047274703616
-18.224090414593256,28.281833454730986,-28.98361989627618,1.5693635330130669,5.449510126809414,-18.280110019488056
-18.76969513998188,28.10005428326119,-28.890878252113843,1.6148834194748964,5.523364671724305,-18.83045123261462
-19.390949336870378,27.8855492974573,-28.78092723602234,1.6665621886750346,5.610100416296089,-19.457331630427163
-20.009496749470628,27.66391544652023,-28.666737441674396,1.717849973758976,5.699244695861796,-20.08173382795826
-20.63037499530219,27.4332348701118,-28.547250757609035,1.7691576886057474,5.791481731053876,-20.708755193407487
-21.24743122503594,27.19570992871821,-28.423546132282823,1.8199773002467325,5.8859357899955835,-21.33217678659972
-21.82074516113454,26.967527758505206,-28.304059930098134,1.867034983797125,5.976146258211562,-21.91164729459849
-22.104323136566933,26.851960998463273,-28.243301581508405,1.8902532245052537,6.021636135163435,-22.19835842984288
-22.498307933185348,26.688400601264483,-28.157031668923434,1.9224465247376072,6.085788138473947,-22.59679427841705
-23.095809089249194,26.433623786629738,-28.02199662420031,1.9711239311138526,6.185179870347163,-23.201266348196448
-23.69682561681586,26.169049472065087,-27.880921498363,2.019903771321967,6.287664642247617,-23.809573927617578
-24.269524428047458,25.909079426480492,-27.741464765368328,2.06621630194654,6.387703261914365,-24.38947343040742
-24.56155530923018,25.773158310949412,-27.667576848370228,2.0897643874976746,6.439117032483332,-24.68525733699609
-24.518102287403426,25.68172489495612,-27.421021627752914,2.085671623077883,6.285680064382513,-24.6359000218389
-24.422633142524983,25.477911916926388,-26.875084079266337,2.0767312544358933,5.947246231494502,-24.52748800980119
-24.322249869994362,25.25923420553765,-26.29466898463424,2.0674073820586694,5.589373346225259,-24.41353695817104
-24.223893652988508,25.04057870270753,-25.71951700323314,2.0583481050629224,5.236647252238589,-24.301925399660664
-24.12617145380809,24.81897832827981,-25.14162150183126,2.0494221784401847,4.884082486682473,-24.19106842367909
-24.028633600404728,24.593418981016722,-24.558281130986458,2.0405877880043155,4.530009204420831,-24.080452911391326
-23.932125750632203,24.365887454868574,-23.974550894905963,2.031920392484184,4.177463798927175,-23.97103477026465
-23.83693062235891,24.13715677147902,-23.392253649614368,2.0234430228558096,3.827485992930446,-23.863131006312962
-23.742496421237576,23.90598901387255,-22.80810152935433,2.0151045472252043,3.478047160082137,-23.756112880639975
-23.648930687697334,23.672704624484577,-22.222802622545533,2.0069130296577824,3.1295313194781875,-23.650099271208205
-23.55772030991655,23.441175324944222,-21.64586907142541,1.9989954910374723,2.787524054443777,-23.546771544013968
-23.501028045264942,23.295195412227105,-21.28405083517657,1.9941082300519593,2.5737903851482944,-23.482555220389013
-23.47731553318791,23.23366183079345,-21.13197249310458,1.992071800021742,2.484124397551438,-23.45569719197661
-23.461902087334757,23.192687245687754,-21.018634394358568,1.9907308297281594,2.412339720189214,-23.437772901075796
-23.58752099686401,23.482952455441705,-21.202719929656055,2.0006255688418944,2.301854501586629,-23.559627400098147
-23.835558007128,24.048308740558728,-21.558032626555192,2.0201516875387133,2.0832490394141217,-23.800106801160624
-24.097996199871048,24.635497828446365,-21.922560423997833,2.0407960828046194,1.8514414542837165,-24.054373047065585
-24.366555779470385,25.224996856244093,-22.283927380336557,2.061906583626755,1.6138569965863876,-24.31438922742106
-24.62942714562513,25.791157047396933,-22.62667603731843,2.0825557344183543,1.381102606071876,-24.56872679306756
-24.767026794923236,26.083327740314527,-22.8019082132361,2.0933591624100627,1.2592378731282445,-24.701793705977902
-24.838081096021817,26.23309244101561,-22.891298269594717,2.098936493793255,1.1963098164595503,-24.77049004301702
-24.838435428983818,26.23383754993444,-22.89174232536986,2.098964304617502,1.1959960148508668,-24.770832590184146
-24.838435428983818,26.23383754993444,-22.89174232536986,2.098964304617502,1.1959960148508668,-24.770832590184146
-24.838435428983818,26.23383754993444,-22.89174232536986,2.098964304617502,1.1959960148508668,-24.770832590184146
-24.838435428983818,26.23383754993444,-22.89174232536986,2.098964304617502,1.1959960148508668,-24.770832590184146
-24.838435428983818,26.23383754993444,-22.89174232536986,2.098964304617502,1.1959960148508668,-24.770832590184146
-24.838435428983818,26.23383754993444,-22.89174232536986,2.098964304617502,1.1959960148508668,-24.770832590184146
-24.838259869163625,26.233652136802935,-22.89158051799939,2.0989494992749536,1.1959875447227148,-24.770657487702636
-24.20439353790435,25.564209998468293,-22.30736800186142,2.045494169041106,1.1654057803355564,-24.138442397567907
-23.57222021742005,24.896555891296583,-21.724715874776972,1.9921816140985193,1.1349056976122947,-23.507915907863445
-22.428404429708422,23.68854333561253,-20.67050070923916,1.895721133956999,1.0797207111300255,-22.367079795162827
-20.8304515948548,22.000905248577503,-19.19772324768033,1.7609622861167693,1.0026252500093809,-20.773289676178255
-19.202617827975157,20.2817091594142,-17.69740557200603,1.6236835141058192,0.9240881416867573,-19.149696465906892
-17.574677432246972,18.56240045684826,-16.196989620236554,1.486395749851505,0.8455458889067586,-17.5259969045584
-15.946527183031662,16.84287012274861,-14.696380253818457,1.3490902881949118,0.7669935114528611,-15.902088036397508
-14.318864789019411,15.123855024770895,-13.196220526546083,1.2118259684316484,0.6884646712530178,-14.278665752561995
-12.690169086377754,13.403748623620382,-11.695108434706354,1.0744745074979296,0.6098859776385264,-12.654212851897572
-11.058399637585328,11.680395962029156,-10.191163378116558,0.9368638308472028,0.5311589868580032,-11.026694212284847
-9.436973456059967,9.967967084546911,-8.69675135064849,0.800125424484692,0.4529310214191893,-9.409491895412502
-7.810282270085112,8.24997770374844,-7.197486751991157,0.6629430088135133,0.3744490385044009,-7.787038289587833
-6.180432962319798,6.528652951278905,-5.695311422495972,0.525494261843601,0.29581468760327395,-6.161434788976278
-4.554146786262158,4.811091311617104,-4.1964201073704,0.38834600154210364,0.21735224495628638,-4.5393851380056365
-2.933737818913237,3.099736739552007,-2.7029456107730607,0.25169337906972644,0.13917335643281106,-2.923197385435781
-1.486246763545271,1.5710051134366054,-1.3688435298757717,0.12962330126402347,0.06933713351836933,-1.4794770884125346
-0.8549277671324814,0.9042532793547527,-0.7869788035267815,0.0763827933337437,0.03887826885036111,-0.8498026972393228
-0.22010761335425508,0.2338037851231526,-0.2018871824004758,0.02284702516650152,0.008250485966710408,-0.21663626932238933
-0.0039986491950525,0.005565685155599311,-0.0027070785123322182,0.004622084866115719,-0.002175992137497706,-0.0010902756056977265
-0.0039986491950525,0.005565685155599311,-0.0027070785123322182,0.004622084866115719,-0.002175992137497706,-0.0010902756056977265
-0.0039986491950525,0.005565685155599311,-0.0027070785123322182,0.004622084866115719,-0.002175992137497706,-0.0010902756056977265
-0.0039986491950525,0.005565685155599311,-0.0027070785123322182,0.004622084866115719,-0.002175992137497706,-0.0010902756056977265
-0.0039986491950525,0.005565685155599311,-0.0027070785123322182,0.004622084866115719,-0.002175992137497706,-0.0010902756056977265
-0.0039986491950525,0.005565685155599311,-0.0027070785123322182,0.004622084866115719,-0.002175992137497706,-0.0010902756056977265
-0.0039986491950525,0.005565685155599311,-0.0027070785123322182,0.004622084866115719,-0.002175992137497706,-0.0010902756056977265
-0.0039986491950525,0.005565685155599311,-0.0027070785123322182,0.004622084866115719,-0.002175992137497706,-0.0010902756056977265
-0.0039986491950525,0.005565685155599311,-0.0027070785123322182,0.004622084866115719,-0.002175992137497706,-0.0010902756056977265
-0.0039986491950525,0.005565685155599311,-0.0027070785123322182,0.004622084866115719,-0.002175992137497706,-0.0010902756056977265
-0.0039986491950525,0.005565685155599311,-0.0027070785123322182,0.004622084866115719,-0.002175992137497706,-0.0010902756056977265
-0.0039986491950525,0.005565685155599311,-0.0027070785123322182,0.004622084866115719,-0.002175992137497706,-0.0010902756056977265
-0.0039986491950525,0.005565685155599311,-0.0027070785123322182,0.004622084866115719,-0.002175992137497706,-0.0010902756056977265
