RAMEL-ESPOL/ARCHIE/matlab/data/joint_goals_espol_t35_h35_p12.txt
Joint0,Joint1,Joint2,Joint3,Joint4,Joint5 
0.0050931940369488135,9.576912056273132,14.247599780216397,-0.005312051887911251,-23.82457574360847,0.001805337826328182
0.0050931940369488135,9.576912056273132,14.247599780216397,-0.005312051887911251,-23.82457574360847,0.001805337826328182
0.0050931940369488135,9.576912056273132,14.247599780216397,-0.005312051887911251,-23.82457574360847,0.001805337826328182
0.0050931940369488135,9.576912056273132,14.247599780216397,-0.005312051887911251,-23.82457574360847,0.001805337826328182
0.0050931940369488135,9.576912056273132,14.247599780216397,-0.005312051887911251,-23.82457574360847,0.001805337826328182
0.0050931940369488135,9.576912056273132,14.247599780216397,-0.005312051887911251,-23.82457574360847,0.001805337826328182
0.0050931940369488135,9.576912056273132,14.247599780216397,-0.005312051887911251,-23.82457574360847,0.001805337826328182
0.0050931940369488135,9.576912056273132,14.247599780216397,-0.005312051887911251,-23.82457574360847,0.001805337826328182
0.0050931940369488135,9.576912056273132,14.247599780216397,-0.005312051887911251,-23.82457574360847,0.001805337826328182
0.0050931940369488135,9.576912056273132,14.247599780216397,-0.005312051887911251,-23.82457574360847,0.001805337826328182
0.0050931940369488135,9.576912056273132,14.247599780216397,-0.005312051887911251,-23.82457574360847,0.001805337826328182
0.0050931940369488135,9.576912056273132,14.247599780216397,-0.005312051887911251,-23.82457574360847,0.001805337826328182
0.0050931940369488135,9.576912056273132,14.247599780216397,-0.005312051887911251,-23.82457574360847,0.001805337826328182
0.0050931940369488135,9.576912056273132,14.247599780216397,-0.005312051887911251,-23.82457574360847,0.001805337826328182
0.0050931940369488135,9.576912056273132,14.247599780216397,-0.005312051887911251,-23.82457574360847,0.001805337826328182
0.0050931940369488135,9.576912056273132,14.247599780216397,-0.005312051887911251,-23.82457574360847,0.001805337826328182
0.0050931940369488135,9.576912056273132,14.247599780216397,-0.005312051887911251,-23.82457574360847,0.001805337826328182
0.0050931940369488135,9.576912056273132,14.247599780216397,-0.005312051887911251,-23.82457574360847,0.001805337826328182
0.0050931940369488135,9.576912056273132,14.247599780216397,-0.005312051887911251,-23.82457574360847,0.001805337826328182
0.0050931940369488135,9.576912056273132,14.247599780216397,-0.005312051887911251,-23.82457574360847,0.001805337826328182
0.0050931940369488135,9.576912056273132,14.247599780216397,-0.005312051887911251,-23.82457574360847,0.001805337826328182
0.0050931940369488135,9.576912056273132,14.247599780216397,-0.005312051887911251,-23.82457574360847,0.001805337826328182
0.0050931940369488135,9.576912056273132,14.247599780216397,-0.005312051887911251,-23.82457574360847,0.001805337826328182
0.0050931940369488135,9.576912056273132,14.247599780216397,-0.005312051887911251,-23.82457574360847,0.001805337826328182
0.0050931940369488135,9.576912056273132,14.247599780216397,-0.005312051887911251,-23.82457574360847,0.001805337826328182
0.0050931940369488135,9.576912056273132,14.247599780216397,-0.005312051887911251,-23.82457574360847,0.001805337826328182
0.0050931940369488135,9.576912056273132,14.247599780216397,-0.005312051887911251,-23.82457574360847,0.001805337826328182
0.0050931940369488135,9.576912056273132,14.247599780216397,-0.005312051887911251,-23.82457574360847,0.001805337826328182
0.0050931940369488135,9.576912056273132,14.247599780216397,-0.005312051887911251,-23.82457574360847,0.001805337826328182
0.0050931940369488135,9.576912056273132,14.247599780216397,-0.005312051887911251,-23.82457574360847,0.001805337826328182
0.0050931940369488135,9.576912056273132,14.247599780216397,-0.005312051887911251,-23.82457574360847,0.001805337826328182
0.0050931940369488135,9.576912056273132,14.247599780216397,-0.005312051887911251,-23.82457574360847,0.001805337826328182
0.0050931940369488135,9.576912056273132,14.247599780216397,-0.005312051887911251,-23.82457574360847,0.001805337826328182
0.0050931940369488135,9.576912056273132,14.247599780216397,-0.005312051887911251,-23.82457574360847,0.001805337826328182
0.0050931940369488135,9.576912056273132,14.247599780216397,-0.005312051887911251,-23.82457574360847,0.001805337826328182
0.0050931940369488135,9.576912056273132,14.247599780216397,-0.005312051887911251,-23.82457574360847,0.001805337826328182
0.005096282666687394,9.576913449508519,14.24759516783993,-0.005312048913088465,-23.824564973533047,0.0018084343623904651
0.07397647058377677,9.607859288871966,14.14486767591814,-0.005466430717539467,-23.58446806712424,0.07077610305281526
0.2296521491193841,9.676879324000199,13.913675905351303,-0.007434320552469808,-23.04246778626251,0.22601106075050306
0.39412848488252017,9.748424031750032,13.670869484781798,-0.011919791648524745,-22.47075242976073,0.38910706565921144
0.559063981485796,9.81875741558885,13.428858192706885,-0.01886374525479231,-21.898345918766225,0.5517724560121594
0.7238813719455215,9.887638462123888,13.188465705517903,-0.028214035335923014,-21.327205126070847,0.7134924949897656
0.8890955801323724,9.955287659990661,12.948917760887424,-0.03997279587660457,-20.755499803161555,0.874826276345619
1.054545354451811,10.02163920896484,12.710430364676466,-0.05411110429234652,-20.18374571963871,1.0356665717501456
1.2197173359731077,10.086495496426192,12.473717919463352,-0.07055501841498193,-19.613671066495222,1.1955678774396652
1.3857494549027147,10.150303193136505,12.237132634330358,-0.08940282416692681,-19.04130752870805,1.3556806735061862
1.5524592431050457,10.212979491622924,12.000929895943752,-0.1106405356043257,-18.467249661736084,1.5158720817734723
1.718339557668328,10.273965805795399,11.767220588146579,-0.13404928513557804,-17.89664371238369,1.6747451033998595
1.8848615088174523,10.333810754454706,11.533908100917163,-0.1598111846244209,-17.324386587838124,1.8337591079880367
2.051013582443899,10.39215258707165,11.302391752830275,-0.187755085197009,-16.75391511968056,1.9919955421855196
2.2189594701848376,10.44973802642512,11.069652515633878,-0.21825506627852306,-16.177766694259113,2.15155805416761
2.3851492455857612,10.505353517494699,10.840590658494225,-0.2506503810423947,-15.608080733344956,2.309120945359709
2.5514523956179467,10.559648379328152,10.612592342009282,-0.2852578350528492,-15.0384044154176,2.4665077497581698
2.718980043492612,10.612972269348058,10.38413053344268,-0.32232125238855663,-14.464898869117834,2.6248126470376154
2.886265462361336,10.664848986395889,10.15719844564946,-0.36152340919741704,-13.892551663842568,2.7826931112710755
3.052980693717446,10.71518895991974,9.93221537769074,-0.4027611484733906,-13.322446699108342,2.939885834784052
3.2204166468709583,10.76438213946725,9.707424297995965,-0.44634741356782526,-12.750134692986327,3.097652323352796
3.3879514613481616,10.81223723273462,9.483652788535265,-0.49212864123403793,-12.17770850679827,3.255450094777727
3.555674641057542,10.858777208950997,9.260769031708698,-0.540128837470614,-11.60482886215981,3.4134073445268824
3.7227138341001518,10.903766888848251,9.03991241002552,-0.590083690050917,-11.034441339860981,3.5707460568163634
3.8903898722864514,10.947562731060247,8.819321982618133,-0.6423840902869119,-10.46200297553198,3.7287537275315343
4.058053688366414,10.989987480294946,8.599844138663586,-0.6968375565440319,-9.8896982231626,3.8868623489299723
4.225589677330204,11.031013182527738,8.381615614978665,-0.7534030550205065,-9.317890045036265,4.045005841870031
4.393040963537545,11.070651922973155,8.164565711256111,-0.8120920796494032,-8.746400232653992,4.203267572249233
4.560874573551964,11.109009595916035,7.948079561268151,-0.8730757692275841,-8.173604481611608,4.362132463906499
4.728144797971488,11.145870535770655,7.733363773856065,-0.936010638834561,-7.602700564750068,4.520747831850405
4.895916689258592,11.181468368022752,7.519039302467658,-1.0013007853400153,-7.030023994013207,4.68016649571121
5.063786276365401,11.215707682624117,7.305616976216861,-1.068806760665539,-6.4569243715980305,4.840049629231949
5.230734901780761,11.248388167754625,7.094374089560978,-1.1381103892072562,-5.8868517239972045,4.999467381582095
5.398384418231328,11.279827161462562,6.883246522676174,-1.2098892014801634,-5.314240304599998,5.160011001052048
5.565435252742204,11.309776327470585,6.673862434871401,-1.2835989455950854,-4.743501359827467,5.320479893411508
5.732707204628009,11.338383804657141,6.465181821588039,-1.3596051379650556,-4.171807666190658,5.481703616157601
5.9005993587255965,11.36570337773507,6.256705575205031,-1.4381186476015497,-3.597767047182275,5.644115390167786
6.067970632028148,11.391543989483665,6.04984310749607,-1.5186217623879894,-3.025254586407372,5.80665659244685
6.234339508145434,11.41584561043162,5.845168675780953,-1.6008680218510973,-2.4558952824446743,5.968895691271036
6.401445545569736,11.438861002279964,5.640532339686197,-1.685728479326248,-1.883711438195976,6.132572592834877
6.568880398309818,11.460515177920067,5.436436223098834,-1.7730358788822829,-1.3100734172925927,6.297340357842169
6.735511237847211,11.480662368598281,5.234250312902976,-1.8622090011165802,-0.7388393951902352,6.462127179166237
6.902456810648394,11.49943811625171,5.032606765107274,-1.9538576854671155,-0.16615164490255926,6.628082960759563
7.068730347024637,11.516730062356315,4.83268840695855,-2.0474548950801865,0.40462706611096083,6.794271336306452
7.235279603896523,11.532635422364049,4.633346826217372,-2.143549706130143,0.9767718824435382,6.961684544440686
7.40204889869589,11.547135975909216,4.434647357132987,-2.2421456940819615,1.5501161813467372,7.130319895955883
7.568122439301137,11.560151380807934,4.237672236203392,-2.3427178598463327,2.1215319014241203,7.29929665779122
7.733748228717116,11.57170850259363,4.0421135504198356,-2.4454200569485827,2.6918893969145974,7.468906659232145
7.900068972984901,11.581876666704536,3.8466196067052825,-2.5509956321792977,3.265146252683035,7.640373699248435
8.065839649185442,11.590569993155508,3.6526510871187936,-2.6586890737977247,3.8370330450560313,7.812468063856513
8.231494702635114,11.597812173717836,3.4596905617429994,-2.768800296801661,4.409065955770336,7.985686548657566
8.396484118199448,11.603581128193433,3.2683692446100525,-2.880980475640073,4.979361962800864,8.159499086682812
8.562346704472892,11.607919469023996,3.0769012866872236,-2.9963167774351565,5.553260937711603,8.33558450839347
8.727169145351402,11.610770745019842,2.8874912743774015,-3.1135123863243983,6.124161013292947,8.511965558692479
8.89248898916181,11.612159615485764,2.6983656954415998,-3.233687672753699,6.697403886181717,8.690338412931185
9.057035640920414,11.612069993126674,2.5109737615592387,-3.355953401126178,7.268600604990421,8.869386894134603
9.22095301550654,11.610511287564533,2.325138857781951,-3.4804251631504517,7.838260435265137,9.049307608011805
9.385739957233122,11.607456171155988,2.1391620989622733,-3.6082921162926946,8.41161128688262,9.231810505523658
9.549610856244756,11.602928598020863,1.955057013343463,-3.73821390654242,8.982457037062298,9.414979549690585
9.713595284348091,11.596900952022589,1.7716597400848733,-3.87103500798336,9.55439569025373,9.600017095106036
9.877580384795785,11.58936535349604,1.5890966972274756,-4.006717750787106,10.1270504328044,9.786863289418259
10.041021687645177,11.580343677517861,1.4079694802477405,-4.14485009988124,10.698531879480418,9.974955866728129
10.204282383645678,11.569815211374465,1.227869869133582,-4.28577418139842,11.270120022644937,10.164768895120316
10.367949855885325,11.557727806900319,1.0481517474087607,-4.430060326014755,11.843887372031658,10.357060121301869
10.530573955004195,11.54418625688892,0.870403026440369,-4.5764715723414655,12.414759594574576,10.55018625917671
10.693337076440836,11.52909338739859,0.6933251432459867,-4.726108450457715,12.986894273071282,10.745608449586676
10.855587745508261,11.512503294529418,0.5176249456192563,-4.878424826022077,13.558011344877062,10.942612984820304
11.017719301673175,11.494372890769123,0.34287290730392794,-5.03383761121232,14.1295028213735,11.141742613843551
11.180438723588765,11.47460420279364,0.16831204294266358,-5.193107551368687,14.703875651464593,11.343956324770295
11.341762106797422,11.453437824775994,-0.003933861588852054,-5.354339112052708,15.274131621225017,11.546853241586735
11.503398107331527,11.43065278517662,-0.17569535470592362,-5.5192805619965055,15.846312540399577,11.752642938553326
11.665128832219692,11.406261183685407,-0.3467355949329688,-5.687799232124401,16.41965953350833,11.961144924491494
11.825723729688134,11.380451219615312,-0.515758675507108,-5.858658483117243,16.98981074166211,12.170837132249847
11.986759955660446,11.352966705544153,-0.684427081973715,-6.033595890056755,17.562367895819857,12.38385405051915
12.146969155118287,11.324016765956173,-0.8514123333694763,-6.211305683561408,18.132825379015262,12.598602631556794
12.307684580237462,11.29335192445065,-1.0181032948576145,-6.393344542133717,18.705934173540378,12.816959630966863
12.468232033748906,11.261082093612554,-1.183794614731171,-6.579053142232111,19.279298119902098,13.03811975650104
12.627581002634496,11.227421737562375,-1.3474296312096514,-6.7672849926757515,19.84923038221821,13.260728230141112
12.787240028569173,11.19205192641129,-1.510560310961835,-6.959888242024753,20.421122853191292,13.486973744710971
12.946730825224678,11.155062595243155,-1.6726927483802438,-7.156393311171828,20.993265836534384,13.71629305712603
13.10634308686444,11.116373011860729,-1.8341173025020274,-7.357262314511396,21.566699639182197,13.949216080585979
13.264741003227256,11.076310095788408,-1.9934869564966133,-7.560880220012308,22.13661660319259,14.183875197841344
13.42341400272838,11.034497398229275,-2.152302629832671,-7.769238149220305,22.708367478975465,14.422567447158507
13.582273698161398,10.99093654877033,-2.310467187779411,-7.982357449583107,23.281635340909414,14.665301133572322
13.740519781648514,10.945839185284704,-2.467181818821476,-8.199269418901807,23.853525511049185,14.910968215330588
13.898843608056046,10.899002159874847,-2.6231298343951455,-8.421026287055756,24.426527663315312,15.160756917839313
14.056647419046923,10.850594695347008,-2.77772017192974,-8.646903326242457,24.998468954963606,15.413846106937546
14.211956827219034,10.80125705297788,-2.9290368562430253,-8.874069999739394,25.562162865727245,15.66709143078514
14.310162346044612,10.769185305420502,-3.0242900214369746,-9.02026253373754,25.919001099139255,15.829416541557222
14.349640871887807,10.756100558718899,-3.0624879032834764,-9.079598439857934,26.062536888305782,15.895160065541898
14.388933867278848,10.742967681404478,-3.100452719297301,-9.138981576674848,26.205447493924,15.960876624742902
14.358940641457254,10.642790821340391,-3.1868718921750046,-9.137347319726947,26.401210145912515,15.962156907777455
14.325113191336094,10.538927728319084,-3.273192271438418,-9.131550009957424,26.594307575268992,15.958883449329711
14.307307723366987,10.48376551431364,-3.318482475648842,-9.128559255067511,26.696290181872854,15.957204779309208
14.47260902704643,10.435750705431971,-3.292123587795246,-9.232301297823938,26.69150958658928,16.142302788323732
14.953539863979818,10.314215780142401,-3.198194418856785,-9.53071624858946,26.640953849664346,16.674207330423023
15.487750874477356,10.174005248154984,-3.0895783353820296,-9.861228822049716,26.58281374048076,17.26461807014642
16.01987328941818,10.028826535251588,-2.976827018917915,-10.18940693918945,26.522814953450894,17.852261864024243
16.55378105808667,9.877558526894022,-2.8590362146617654,-10.51760506247169,26.46051393327838,18.44139888092893
17.088588518368496,9.720337220088084,-2.7362736777377425,-10.84523436756648,26.39598755374314,19.031029087962455
17.62267542301981,9.55755921001847,-2.6088075436212748,-11.171254773551947,26.32938985725444,19.619339223478956
18.14670601507236,9.392169562875697,-2.478923674848784,-11.48998904737689,26.261997124447937,20.19605640530118
18.667885576566178,9.222024189927284,-2.3449087554116694,-11.805817565341748,26.19291699531331,20.769103187423386
19.185948524794846,9.047227941357223,-2.206811828876221,-12.118566464418349,26.122207772215994,21.338177526120102
19.54325256923579,8.923336423929356,-2.1086735697158105,-12.33355392662198,26.07223723872754,21.730333869323157
19.653770459806992,8.884459284644606,-2.0778349673401615,-12.399936336457513,26.056591875773186,21.851579123291025
19.680232311179058,8.917355795197661,-1.90017357955968,-12.393603847624552,25.845304282759614,21.82983943278748
19.738905982445146,8.995167494257354,-1.4684780624158915,-12.375910083955311,25.335171597025866,21.771702383498553
19.801518353589437,9.071834707747536,-1.005640249324826,-12.358689337607297,24.79490057073396,21.711027914845943
19.86423705127306,9.142176491322605,-0.5398845481311018,-12.343138288980528,24.25793566057767,21.6516209273057
19.927718672459093,9.20694873459702,-0.06628704271747939,-12.32900054668484,23.71859665308439,21.592789193423698
19.99172129439238,9.265846177272358,0.41330696376042875,-12.316361974821955,23.17903670750815,21.534756105715548
20.056177131581894,9.318799472711508,0.8983311043493071,-12.305255643469284,22.639892462970924,21.477569978785993
20.121084631023464,9.365823820095285,1.388826690738288,-12.295592619989359,22.101115713853805,21.421168382430707
20.18642051948501,9.406910973957977,1.8845561664131194,-12.287394325846208,21.562952655755915,21.365556734758187
20.2514257177156,9.441705539365612,2.379662094708437,-12.280747189306412,21.031633279531604,21.311343905706234
20.29080620790035,9.459891961485964,2.680532415032898,-12.277395392389353,20.711683123550216,21.279006690748453
20.335545742235507,9.601131071306947,2.5035071522281553,-12.305843909570894,20.73733741402438,21.332846849485854
20.46508197655853,10.015429348222337,1.9587180804313273,-12.390436700457418,20.837719039503412,21.495064992006885
20.615172049235454,10.48862636503985,1.3394616539503525,-12.48814513861226,20.948716484555675,21.682246891557
20.75453895319382,10.921631376734611,0.775603663663307,-12.57857635614356,21.04684447295327,21.855321384803865
20.818628459258058,11.118739712482656,0.5198197333519649,-12.620066034619498,21.09041691938499,21.93467741729926
20.853617587803736,11.22582277737762,0.38109389313725445,-12.642691362706046,21.113799886120734,21.977939444326285
20.839617734641063,11.217003472593216,0.28839277502478255,-12.643306789240606,21.215860854272282,21.987416712091374
20.723072916633953,11.018459270747995,0.047050663465816045,-12.614462565618819,21.670092248466705,21.970930365458546
20.587546084620868,10.779591896351201,-0.231659023735374,-12.58218551339604,22.204242967085097,21.95258204912101
20.454208331328324,10.535957298080529,-0.503682875535456,-12.55180181976361,22.736091705820222,21.93543444755333
20.321856379327183,10.285394814155426,-0.7714054592006767,-12.52306945812755,23.27032705532469,21.919336813709076
20.191405973427194,10.029684632876576,-1.0328683410638868,-12.496123652485254,23.80310960202151,21.904428526765994
20.061983090305958,9.767140439838828,-1.289751293828736,-12.470818852827408,24.337907022563954,21.890614787754764
19.934205402430646,9.499022460666012,-1.5407506554357238,-12.447315187822888,24.872078635034953,21.87797274088154
19.80911107080445,9.227728095773262,-1.7837751326849607,-12.425712865688865,25.40102540726852,21.86660693063103
19.728176423212982,9.047437923993074,-1.9395100928350555,-12.412519599286352,25.746453053022893,21.85980562103743
19.694685497284087,8.971718686792114,-2.00359562284277,-12.407244184882897,25.8901342384022,21.85712176199202
19.66514245334374,8.904377269126456,-2.0599487451718947,-12.402681298679079,26.017241202433766,21.854818836734015
19.66710001716216,8.920188500665672,-2.1262546123357207,-12.40914141778148,26.066139295244092,21.86900561239267
19.76450966292339,9.241727314566958,-2.5571160062870186,-12.478413509916685,26.152049997161935,22.000434996251954
19.904508846032584,9.6982513024041,-3.166277089703134,-12.57765968914705,26.27088817264893,22.188652696792662
20.04843118870514,10.160871432348118,-3.7804655982150304,-12.679299649938036,26.387525805443456,22.38132321886761
20.194644563217505,10.624112315015665,-4.392324502173893,-12.78215288418503,26.5004662799353,22.57621781024472
20.34431530989312,11.091478392545167,-5.006413150956442,-12.887013190089952,26.61046954983511,22.77485086793504
20.496563882083073,11.56001985801202,-5.618780483524186,-12.993236036514437,26.716739155439125,22.97601220861227
20.65231234009439,12.032361835122181,-6.232783132066498,-13.101459524552318,26.819746017627573,23.180901927199148
20.81072637004667,12.505802640669767,-6.844840093345272,-13.21102629174311,26.918850122320453,23.388327259705434
20.97276914158501,12.983008196698831,-7.458323866697874,-13.322595373761128,27.01448412835525,23.59952877876536
21.135722452260097,13.455893363814186,-8.062826553934773,-13.434272115341894,27.104998883328207,23.81093335117482
21.24217820341804,13.761133638051877,-8.451203105176532,-13.506947488543723,27.161159165286698,23.948514156742057
21.274453398343102,13.852892877848918,-8.566409310316951,-13.528778155880424,27.176445017728177,23.989796018537593
21.29553660881135,13.865996712185126,-8.316131295295966,-13.509745792986044,26.915455241874223,23.943572987791825
21.338101438344495,13.887951255368101,-7.809142284410697,-13.472772682271563,26.391229870820215,23.851564284865205
21.382336992807375,13.90449850809889,-7.279950842382802,-13.436385590268953,25.850236558474425,23.757771293817264
21.427101396813946,13.9148769591318,-6.741976322003829,-13.401526610187537,25.306542220906127,23.664603743786643
21.472039394493365,13.918986002132547,-6.199613629420468,-13.368528322617715,24.764596160188347,23.572833426692405
21.51708192120518,13.916895346494597,-5.6536055973628345,-13.33731635882834,24.225082872263336,23.482476542414055
21.561666325842324,13.908831542026599,-5.110980483213798,-13.308273090070289,23.6947443978208,23.39463727607792
21.60629404625125,13.89491008544213,-4.5655881209954385,-13.280911358086097,23.1673834443473,23.30817473117563
21.650750065254126,13.875345620685128,-4.020244069920527,-13.255375874447779,22.645574830406417,23.22349822982474
21.694682222166232,13.850535558898923,-3.4792330826809983,-13.231704348471519,22.13319525542791,23.141125634518044
21.731866953055743,13.82536503693776,-3.0197707659439024,-13.212875649538455,21.70205704692162,23.072400856682385
21.753294026825508,13.859456956498866,-2.9783720090701196,-13.21818718879655,21.623754899402293,23.0758738095593
21.8752322767642,14.199814005764331,-3.4051097576797895,-13.29525664421562,21.68037209413342,23.222604726308536
22.050474065332292,14.68251368714348,-4.007370886884681,-13.405625098142739,21.756948801058908,23.43264111162313
22.230827823249687,15.171585997787146,-4.61404681754025,-13.518731822115184,21.830055556049523,23.647789558598546
22.415348490112844,15.664116259504784,-5.221399746687089,-13.633946666274229,21.899083459436238,23.866859719780994
22.580255370025927,16.097767721807507,-5.753133204684894,-13.73650601424713,21.955987612814127,24.061782271733648
22.646525511535337,16.270351846972627,-5.96396560113197,-13.777596813519995,21.977635502902142,24.13987283585821
22.683520583691653,16.366280673789316,-6.08096000491471,-13.800506996802456,21.989418814194565,24.183409022393146
22.648978532132066,16.32051887995002,-6.172918250187647,-13.794309740079001,22.13127217940408,24.18322934905462
22.509848070058464,16.105555241121376,-6.422542082292412,-13.761096825867893,22.615131071746376,24.15894384830471
22.356018284007675,15.859438946552487,-6.6970107630143705,-13.725884884435343,23.15686340794433,24.13319355529839
22.20324516784979,15.60595505101629,-6.96786768165636,-13.69257278206944,23.7020349609337,24.108806382257686
22.052610483531023,15.346908741382475,-7.233076284094599,-13.661351306453627,24.24666066354536,24.08600279616291
21.90414959522816,15.08245733681816,-7.492505160669537,-13.632249868956675,24.790449098958767,24.064781064835376
21.757487737136596,14.812015831715463,-7.746728229073979,-13.60519299736978,25.334612369132916,24.04509726371597
21.612363077113226,14.535121562992737,-7.996116543475791,-13.580173609277207,25.880019225069812,24.02692332014663
21.469338377368672,14.252934302639227,-8.239602699680505,-13.55722601068196,26.424374020203285,24.01036291624471
21.344906125587702,13.999692122896262,-8.44946065160252,-13.5387217738679,26.90358847536054,23.99708695566214
21.2915518887378,13.888851145506228,-8.538850214233634,-13.531216124991548,27.110688332992364,23.991728450073598
21.233126046237363,13.867833736391052,-8.578477090745862,-13.504064178575376,27.18325307384924,23.944094962239763
20.858379802289733,14.002586335971875,-8.676124877901872,-13.278364023830376,27.233600852356208,23.526281055230978
20.327301857996066,14.188532075125432,-8.81046065568341,-12.957340144254676,27.303325470860806,22.933747869081948
19.789791787241704,14.370820612844577,-8.941706720884401,-12.631101357461597,27.372063420844327,22.3335798501884
19.251095298865703,14.547636103400754,-9.068585750222265,-12.30282692159728,27.43908056516177,21.73163049321534
18.713186557109413,14.718409567516602,-9.190730911486698,-11.973753729320306,27.504136316346628,21.130120392179528
18.170591771150914,14.884900333222305,-9.309436499185392,-11.640554727771509,27.567877456100856,20.522938323907987
17.628003954278455,15.045674315228199,-9.423710002215655,-11.30612223497492,27.62970266001008,19.915337165505452
17.086600521961206,15.200481272964668,-9.533419188038236,-10.971240804199496,27.689549650750873,19.30866647994559
16.539476226148874,15.351299742305951,-9.639993762502039,-10.631651086383238,27.748130902433097,18.69518962172181
15.995345735105126,15.495758676725176,-9.741789632849253,-10.292789826017552,27.804501972151346,18.08468887813584
15.605727966129342,15.595844167342063,-9.812152570296192,-10.049478356856591,27.84370099766095,17.647319882097783
15.535329380536766,15.615839910711962,-9.791830952084238,-10.002245423646139,27.81619776590033,17.5613948124031
15.559554361028379,15.633091350896931,-9.412070439837608,-9.981151819045362,27.42102813848691,17.510423910320096
15.5931499410859,15.65146114067628,-8.883494723077503,-9.953253248381314,26.876561134857948,17.440974105152947
15.626939182065783,15.663556675180875,-8.349680237050107,-9.926729472031978,26.333058102577265,17.372517223897784
15.661025587623774,15.669418545361436,-7.809086487331261,-9.90151438746905,25.788938833918557,17.304842327713597
15.695100554741057,15.669057119924021,-7.266478342562521,-9.877728049885828,25.248957021722273,17.238460377765435
15.729266439512365,15.66258687289486,-6.72035672844543,-9.855290773627571,24.711500685079436,17.17314991768151
15.763079944148823,15.650296413646876,-6.177969884560018,-9.834466586796623,24.183496457412083,17.10971846651338
15.796958571600213,15.632234513838833,-5.63252913024198,-9.814863233853284,23.658155123676234,17.047261128878528
15.83055534657141,15.608765395383065,-5.089771801983813,-9.796664045118588,23.14082378539512,16.986387347122285
15.864141758169694,15.57989620732819,-4.5454697254459875,-9.779701655446381,22.62727766380388,16.926571327943314
15.886623484855955,15.557603612806023,-4.1800905862851945,-9.768973280283337,22.285427968722566,16.8870599835365
15.859226830491961,15.494317748345109,-4.2305906764357415,-9.760643965331408,22.402121522952115,16.879303423090853
15.759636981174431,15.276000946544226,-4.48393569966045,-9.734712416843253,22.883523606630373,16.86145086321511
15.649768674580418,15.026529055117145,-4.7619190865017575,-9.70718699485652,23.42164395826944,16.842526314647202
15.541261089478356,14.77098008668223,-5.034751487476268,-9.681159330482334,23.960473716940818,16.824668238256578
15.441432969635619,14.527555296087444,-5.2841287560907375,-9.658294666982025,24.46281231459054,16.808990447989448
15.396851178855734,14.41621140007858,-5.3949467278462295,-9.648408353618542,24.689209271834546,16.802241845159422
15.371519066126586,14.352206232211818,-5.4577583859787335,-9.642885218122052,24.818425898861744,16.798476664004312
15.294384532329628,14.153970832811831,-5.648286477200408,-9.6264970678811,25.214466621491614,16.787329294808785
15.190405985165402,13.878612698804984,-5.903287648188448,-9.605454921442153,25.754563233929222,16.773082569964757
15.088272050470485,13.598783693196594,-6.151560772065048,-9.586001187987277,26.29214718981714,16.759999108186822
14.98964301169086,13.319469386700288,-6.389087966055764,-9.568434046873465,26.81806509929846,16.74825108953075
14.937861489442042,13.1691706455638,-6.512850712441589,-9.559677215421985,27.096860143005806,16.74245602142028
14.912552902327912,13.094777710652936,-6.573096159316601,-9.555520826818542,27.233803985935246,16.739718038533937
14.900559881966709,13.037430213805036,-6.61649579479971,-9.556733747276715,27.335131534220665,16.745315970490683
15.175378807824334,12.968514321733934,-6.565700636879679,-9.728093637581894,27.307267031697425,17.051782689205808
15.694289117572461,12.834534286162251,-6.46676065397719,-10.050908853037388,27.253216778579514,17.6301595311826
16.23294349380476,12.690075811997575,-6.359809292115006,-10.384960741779613,27.195162328477586,18.230137462892493
16.77426679461522,12.539310002638867,-6.247881440575804,-10.71954723085778,27.134783564761552,18.832648585753
17.31510285748005,12.383011277066403,-6.131523014476284,-11.052694904712933,27.07247560635826,19.43417468799188
17.856806954898175,12.220704907956073,-6.010339545670587,-11.385190415020372,27.008041814431866,20.036198787630074
18.395927442834605,12.053373358354781,-5.885027758885477,-11.714884493639445,26.941894852477976,20.634869986901002
18.928838664644857,11.88220283288676,-5.7564452366396,-12.039553571010842,26.874519235638466,21.226156399054005
19.456449570151108,11.707004712494728,-5.624418622350797,-12.35974457625112,26.80582551642249,21.811057308874414
19.982304187162246,11.526636538639279,-5.488061120787971,-12.677622975234963,26.73544202089455,22.39350999036029
20.359791590555176,11.393568610936532,-5.387179503186461,-12.905028897333153,26.683732544768876,22.811309251097192
20.435643858266122,11.368204361758016,-5.341224330318316,-12.947578679576107,26.646766044872372,22.888421153947768
20.46463838726528,11.38130536596343,-4.965311436335199,-12.921361691601064,26.261171949112445,22.822533248563378
20.505305824517123,11.394364182428399,-4.435864076447943,-12.886210520648028,25.723347504929766,22.731543485854598
20.546309709435896,11.401356218302807,-3.899556392683473,-12.852666362451373,25.184634755586885,22.641452273825276
20.58743270522515,11.402263747734382,-3.359109715578162,-12.820797338430355,24.647759329767904,22.5526303019926
20.628135439117937,11.397256828536008,-2.8217560416742558,-12.790984112121459,24.119728097595885,22.46619311624516
20.668777902580242,11.38650975461421,-2.282901933979882,-12.762916873422029,23.59581583618933,22.381318580601153
20.709525816697557,11.370075992513122,-1.7402560066063053,-12.736354957531661,23.073706458460066,22.29754300209012
20.750118752021354,11.348181235332392,-1.1974724153153855,-12.711493721475971,22.556800998595165,22.21540243012793
20.790889866611145,11.320740130918027,-0.6499964847273382,-12.688006578941314,22.0406740071797,22.13411112312215
20.831627646805835,11.287970229713984,-0.10076675430905992,-12.666017701653782,21.528027190774207,22.0540743931075
20.861105166916456,11.260979143873211,0.29800129610589804,-12.651004599932124,21.15895475252124,21.996872520769752
20.890229678222244,11.33748454496604,0.2366144220594305,-12.666331271277153,21.13795133638577,22.023168966775017
21.014974983201924,11.714925601503541,-0.2504337881364084,-12.746781002076789,21.21798984878462,22.17689623879826
21.175666027615264,12.194453234415407,-0.8662407648367202,-12.850071723908375,21.31599092531831,22.374121462205988
21.33896610585105,12.674289558317115,-1.4790981474596958,-12.954645209145212,21.40989456579516,22.573640893830007
21.505887766706103,13.15720332997438,-2.0924893404234886,-13.061151893819318,21.500145670320595,22.77667712907765
21.650365541711604,13.569218684663698,-2.613121915684007,-13.152978735220486,21.57377494888846,22.951645155200865
21.704295495631943,13.721623465778933,-2.8050711248272,-13.187175224918528,21.60021569687836,23.016780347464817
21.738821007450166,13.818800800860007,-2.9272842471993656,-13.209044650880639,21.616850216368967,23.058429509334566
21.529313636165195,13.853453292393773,-2.9336133769971,-13.087432498995145,21.636079587872537,22.83600019905379
21.00842567886157,13.933362534137327,-2.9434758124745586,-12.784279649828287,21.682301144899075,22.282848707018992
20.44147029008465,14.015111077330813,-2.9505391989869154,-12.453157543306078,21.731004132594844,21.68079720884526
19.874513606560125,14.091464725609473,-2.953818265727433,-12.120848343339729,21.777985150783678,21.0787646228577
19.309850165560547,14.16220276347154,-2.953376621377978,-11.788758214629247,21.82310902917058,20.47919633196382
18.74311867429086,14.227924275779579,-2.9492502727405148,-11.454345896964686,21.866680489263334,19.87746076935883
18.17595458236558,14.288451035514267,-2.9414604941245597,-11.118593548530592,21.90851716604447,19.275294725172657
17.604434249053842,14.344183302559811,-2.92995198496391,-10.779218117320003,21.948930481093587,18.668541762547697
17.034683153547242,14.39452912209448,-2.9148508550938024,-10.439874591220295,21.987428911699382,18.063705747679805
16.461859678658264,14.439937384929012,-2.896041286282191,-10.097702340982252,22.024286546613236,17.455648461851833
15.889280654420078,14.480146664232759,-2.8736413734202646,-9.754728008659528,22.059321711925747,16.84790015988846
15.318039718464401,14.515134722794635,-2.8477273816551225,-9.411637049784055,22.09242789463505,16.24162331372271
14.745709850323582,14.545085245006982,-2.818211865782033,-9.067007972608886,22.12373089718026,15.634246782974369
14.173894858466891,14.569934064276476,-2.7851846465074788,-8.721833607769595,22.15309295615985,15.027475960695224
13.602311882336775,14.589732131591115,-2.7486600616392924,-8.375995504068872,22.180578366637672,14.421019731032555
13.028564490511783,14.60455949169851,-2.7084740141796053,-8.02806811336318,22.206245117334376,13.812339582937016
12.457110484463346,14.61432179935112,-2.664943355728579,-7.680784736411386,22.229846427313415,13.20616948230503
11.883839810551432,14.619116496877787,-2.6177746159760384,-7.331697952745845,22.251601297278327,12.598158844763542
11.308844916895737,14.618910955789548,-2.5669409585929635,-6.980887728775239,22.271440297984025,11.988411889104075
10.731385195728794,14.61366140678078,-2.5123331064368823,-6.627926970602469,22.289319219133603,11.376150779028396
10.152157632606306,14.603332155434915,-2.4539844364975716,-6.273283439366763,22.305240629609692,10.762125094183485
9.574444118414286,14.58798482557582,-2.392212225214134,-5.918998548788254,22.31906448515516,10.149821106514676
8.996372810123999,14.567588915497502,-2.326813445270317,-5.563960159096034,22.33079386836418,9.537262775228507
8.416195164191661,14.54205538921986,-2.2575646278125427,-5.2071382939090824,22.340497310115136,8.922607633760736
7.836577631194924,14.511479826353535,-2.184749724224473,-4.850205155452519,22.34807351608637,8.308690008303236
7.258634881988134,14.47594608377382,-2.1085069476393223,-4.493885376972026,22.35347159528916,7.696699647907651
6.680926763899317,14.435387400249724,-2.028652640656981,-4.137338467760411,22.356761512002496,7.0851203697926195
6.265042760695422,14.403065078728632,-1.9688946453261331,-3.8804541696489347,22.35778887193643,6.64495970601037
6.20168457006237,14.365831028182761,-1.999547098795826,-3.84329284601431,22.429693262915652,6.583130219639497
6.165845663299224,14.166826072609593,-2.233293099758804,-3.833249518267261,22.863818773385898,6.576644454651261
6.122601542682958,13.918438034230043,-2.513898919716326,-3.8215345849961353,23.394459590942464,6.569096616437958
6.079744715012313,13.663073698474141,-2.7902843696040542,-3.8103757855308986,23.927828806125145,6.561930638325908
6.037765017890042,13.403756546450273,-3.059198790435766,-3.7998976812494543,24.45763406441388,6.555229853285896
6.012695330282625,13.244438212184853,-3.218863399765463,-3.7938609504787433,24.777550731526418,6.551385054605491
6.001794928552538,13.174105045409425,-3.288057739693495,-3.791288846108507,24.917482792611516,6.549751006264385
5.98076456902079,13.03656616831047,-3.421148748099136,-3.7864182444083667,25.188890715560742,6.54666436915176
5.940737709915987,12.767951788712459,-3.6729032463757476,-3.7774897858818,25.710731290667628,6.541036512908308
5.900456094196593,12.488335663459246,-3.9240560302628813,-3.7689712601579597,26.242968954073856,6.535712738767538
5.8607740170421225,12.20347847585831,-4.169133489783486,-3.7610549543708927,26.77433815367177,6.530817517523998
5.834020524412787,12.006014037706374,-4.33296292046021,-3.7559933189347214,27.136592140545254,6.527721158407754
5.823346356467066,11.925987438754355,-4.397997628133126,-3.754037297279992,27.282034908961215,6.526533019852458
5.897340356234343,11.899832090647916,-4.407653352740102,-3.802704765090952,27.312938076957018,6.611562216599311
6.319067440071655,11.857582612753475,-4.375874964136662,-4.073373769873045,27.29466348106462,7.081817088255938
6.86477113251575,11.79849069494825,-4.331388438948765,-4.423212372734486,27.269149103563514,7.690148280365822
7.410018356676697,11.734440421903006,-4.283114836946616,-4.772271311900235,27.24153946250828,8.297766953491992
7.953544939941027,11.66557945031814,-4.2311487704711785,-5.119702075346877,27.211877885599417,8.903244792497912
8.4999966965239,11.591272815229997,-4.1750042336901725,-5.4684415072939245,27.179966982500083,9.511748667690155
9.044947920375796,11.512067069508888,-4.1150744570368465,-5.815621010566082,27.14602213214379,10.11832849648361
9.591117631663021,11.4275337877525,-4.051018535243056,-6.162934770945443,27.109873260133032,10.725994251213086
10.136649709605642,11.337911691082656,-3.9829952202280205,-6.509157592709118,27.0716042672607,11.332658019962107
10.682312170486918,11.243041776901876,-3.9108724909191555,-6.854749797418316,27.031226161977433,11.939168018293547
11.202128853786828,11.147762087560906,-3.8383133850827056,-7.183269183868083,26.990772803574806,12.516651502121006
11.471006189310797,11.096586627524756,-3.7992878923011397,-7.35291383471667,26.969071261170857,12.815235125640953
11.533643952384308,11.104335206735124,-3.739558619868615,-7.387810144502482,26.89418434726019,12.87463322249521
11.57265888406819,11.217382389737146,-3.419529484546435,-7.384249216289326,26.45973009835886,12.85524682682169
11.621376076587376,11.352114458509556,-3.018337570387499,-7.380735535275211,25.922051171945277,12.83181143420651
11.670817991972418,11.481726923138648,-2.609477254336298,-7.37819303774793,25.38175990588198,12.808866985016605
11.720538058264761,11.6050190338786,-2.1966857638946924,-7.376638631946035,24.84381120773988,12.786607540775796
11.7709299356345,11.722952766571968,-1.776743234672017,-7.376052266501654,24.304009053639753,12.76484207816159
11.82167539872901,11.834745415133469,-1.3523885661215427,-7.376465625091658,23.7658815182528,12.74370269043199
11.872974317561454,11.940860947065454,-0.9219195181365615,-7.3778048485112775,23.227267678033247,12.723074704952008
11.92490167177017,12.041392690234819,-0.4847891271496497,-7.380104420139222,22.687518453881864,12.702925912702986
11.976979122646464,12.135447278223205,-0.04508188125217577,-7.383331454321999,22.151631707966708,12.68342340621726
12.01160224516659,12.194318163254923,0.24793826958937115,-7.385971698771148,21.7983110552081,12.670831268691746
12.021630825822925,12.215312231569767,0.31444180571697145,-7.387524695217444,21.71028080137786,12.669173896162588
12.067290864761073,12.457195315680789,0.0097762979482614,-7.418257748909771,21.766796459709887,12.725472041764412
12.15721356380764,12.928219860775942,-0.5809781242864424,-7.478658858012198,21.874131682209338,12.835990629121182
12.238088174432065,13.345947922813478,-1.1020843186343885,-7.532841125550423,21.9663024895918,12.93499221916198
12.267439761835586,13.496200963010482,-1.2888747528125928,-7.552472202434653,21.998758456043607,12.970830799800632
12.269714393809338,13.524462954378725,-1.3728681841059036,-7.556837114081972,22.053705026775823,12.981117032132374
12.205582687315703,13.343484720741898,-1.5883347467544926,-7.539409495069854,22.454955911283157,12.970186412912179
12.121431191061893,13.09813851970982,-1.8695543341231695,-7.517294163639219,22.987786637529478,12.95635383435524
12.038294436749306,12.846709635763032,-2.1455518245295067,-7.496313278551963,23.521355280098632,12.943282971299995
11.95849156984389,12.59663428803602,-2.408612191505637,-7.477015495728657,24.04034192803413,12.931320039076759
11.917488224981605,12.46472924958973,-2.543010833413267,-7.467430772884521,24.309634400623022,12.92540481153829
11.897338733240453,12.399044655384932,-2.6088565514393167,-7.462804759131788,24.44262903848848,12.922557181184892
11.847375384114931,12.233663543916977,-2.77155409689566,-7.451601123368782,24.774326414613764,12.91565273271844
11.768148145589075,11.964002736375363,-3.0277214446200564,-7.434523830102326,25.305854794823233,12.905246353760916
11.689775304623915,11.688033457960055,-3.2787992582294625,-7.418536399190906,25.83849458881814,12.895602804507522
11.61245146382213,11.40649517577568,-3.5240747305479982,-7.403679122827014,26.370780290411627,12.886752667422497
11.560147996436127,11.210696997568407,-3.6885184647223523,-7.394162730660369,26.734697170596032,12.881156136276559
11.53932440350057,11.131516266532682,-3.7536440295683664,-7.39049669565729,26.880460571834266,12.879018207058001
11.528482631077384,11.091993670796853,-3.7991062948239196,-7.389247339989606,26.966122550885363,12.879318469490737
11.573401443815102,11.342572882689456,-4.122042265451033,-7.422186538260116,27.032132510720945,12.939376304110793
11.656722561490655,11.802403549327613,-4.712137811172888,-7.483140176873093,27.15057416623906,13.05042837747209
11.745135893498414,12.283447614255135,-5.325955294848165,-7.547610380975391,27.27073044830514,13.167774070744054
11.835329425447794,12.767088423711368,-5.939456277695849,-7.613156145403784,27.387644102862396,13.286965177975299
11.927010128036446,13.251589739750983,-6.550377976469531,-7.679551205145901,27.50082687928047,13.407592344367531
11.993140676005051,13.596737533322953,-6.9833322994122895,-7.727297450744488,27.579036573921552,13.49427459940967
12.00949479728531,13.67945459856497,-7.076516201281194,-7.738324639666195,27.58722243669116,13.514024994764474
12.024987461436238,13.689623873645418,-6.751214896423961,-7.724640618746259,27.25273226298075,13.48035210958093
12.049932580814076,13.701049537542108,-6.225610369627804,-7.703542915577113,26.7172408949614,13.42697368979542
12.075235397864292,13.706516005178711,-5.6902133442280185,-7.683285837537063,26.177890227955363,13.373848013568892
12.100528383398178,13.705946338999253,-5.152916933469505,-7.6641860920756475,25.642626429399275,13.321752445067384
12.125903205367061,13.699439634789277,-4.61160371161628,-7.64606462817847,25.109246686195473,13.270402766690061
12.151026906876286,13.687261005028605,-4.073555530331865,-7.629151786412969,24.58474830367216,13.220452582590669
12.1762515336653,13.66941492820601,-3.5314131725953577,-7.613205247400079,24.061786006112534,13.17118253360276
12.201454696346138,13.6460689143441,-2.9876217871400765,-7.5982002061891505,23.54263897593123,13.12274600187545
12.226792712169285,13.617158055850526,-2.4389518764693783,-7.584057382247357,23.02414908035596,13.074840044035607
12.252080510531302,13.582984752223961,-1.8895606341305413,-7.570892524630853,22.51016032218001,13.027809654346624
12.272917685095711,13.550897537293215,-1.435352412689325,-7.560680116283848,22.08903014739219,12.989580542153252
12.285264003120762,13.5870844446863,-1.401691349673165,-7.564400687138359,22.018201392792175,12.992570664128785
12.3545565022871,13.937995959367385,-1.836112410422098,-7.610649809350424,22.092035437700147,13.07691663904432
12.4535921516563,14.432886832820527,-2.4455829449580775,-7.67657981365422,22.19271473753157,13.197006031125076
12.555714530602808,14.935244163488102,-3.0604101073010392,-7.74435370385104,22.290762799852658,13.320278389659606
12.6595299694787,15.437907507113621,-3.6717239587190256,-7.813031580941829,22.38466098596486,13.445021302250401
12.756957207467826,15.902508439426361,-4.233275357605872,-7.877282138350671,22.467683305561835,13.561571092697113
12.801624167749946,16.11326031104731,-4.486902549705299,-7.906673675374816,22.504146077500373,13.61483983659742
12.823141671258155,16.214288805909717,-4.608239359047996,-7.920817913756618,22.52135921281507,13.64046429628533
12.78786373761367,16.124022717660463,-4.731348186923762,-7.9117600614927035,22.73746178773907,13.635209213297017
12.701146060118974,15.888634042639667,-5.0006072276639175,-7.8886721005421085,23.249014100174577,13.61901530579472
12.61096916672644,15.634797082693616,-5.279131842714057,-7.865588513708866,23.788498960283277,13.602841974637482
12.522375892531473,15.376119923574242,-5.551140305448508,-7.84386536187737,24.326125234821788,13.587647648930757
12.448859220115056,15.154243045154834,-5.77551560522663,-7.826584942708145,24.77809272899069,13.5755869522865
12.41871547076462,15.06132798627603,-5.867137809122503,-7.819700834627196,24.964961645045342,13.57079063993573
12.394924317154757,14.987168957364414,-5.939305077072559,-7.814384933327086,25.11311922303602,13.567062774362983
12.32060718507396,14.750893511633608,-6.16372333382611,-7.798164169572946,25.579518115739045,13.555797891002237
12.235776947612823,14.47233955131164,-6.4179910551367145,-7.780578561196829,26.118799252852718,13.54363757069568
12.152398453856858,14.189070059048472,-6.665772216434933,-7.764296791655087,26.656142781627256,13.532444387165057
12.07206334092786,13.906965505772272,-6.902340988967688,-7.749587226656752,27.18082555424672,13.522405745686767
12.029843561844265,13.754984107530632,-7.025773577230996,-7.7422883932168425,27.459372072527668,13.51743555954924
12.009077827033185,13.679288291379486,-7.086236361407629,-7.7387844775902765,27.59706793809618,13.51507010159253
11.752374715227463,13.728866123350322,-7.122584468162029,-7.576195696987467,27.617954012958,13.227883378699335
11.236411046136348,13.825419812485588,-7.1927408642211885,-7.2487979830893705,27.657909068652884,12.650337749570888
10.687169257955652,13.923140187628832,-7.263613130286479,-6.899505568924788,27.698437001811705,12.035246307364746
10.139150067838512,14.015488892280576,-7.330474605219659,-6.550242217820459,27.73687754724637,11.421243471163061
9.593778164866919,14.10232206344365,-7.393237723848977,-6.201954402407025,27.77312178711743,10.809938648366956
9.04569651119801,14.184532455869302,-7.452565766166346,-5.8512591705216295,27.80752674825528,10.195341952768178
8.493535484980239,14.26226929436852,-7.5085777581794995,-5.497300748980196,27.840109537036565,9.575924187423732
7.940051602560563,14.335107899617006,-7.560990122117082,-5.141887706464231,27.87074140543769,8.954796432912401
7.389677538052474,14.402522772346185,-7.609436171531214,-4.78790272706473,27.899156337822145,8.336945463470629
6.8372515712144954,14.46519131500115,-7.654412756260837,-4.432062366417176,27.925594640445418,7.716589361004427
6.326194098579898,14.518735247302285,-7.692801852947641,-4.102433765624481,27.94825046492146,7.1425269456325635
6.085487106907316,14.542485423723761,-7.709819358299107,-3.9470441849656854,27.95832727573269,6.872094726930226
6.0732166741753675,14.549120405383507,-7.54963164475725,-3.9330743305863605,27.792737393788833,6.845378377850613
6.085159703822294,14.560879798037146,-7.061840976813429,-3.9228940017856804,27.293549551916822,6.820110296697353
6.0981349613763935,14.567756122451577,-6.529814626761193,-3.9124048635682174,26.75502812799824,6.793172229260781
6.111265125610729,14.568592331674274,-5.989292071384081,-3.9023751201365147,26.21404275223646,6.766434403194165
6.124292370788874,14.563466430675549,-5.45092977894916,-3.892985091636224,25.68116506644618,6.740402596594859
6.137295163084565,14.55256210111842,-4.91156869907957,-3.884150995554202,25.153055227587334,6.714891498126168
6.150339474365532,14.535936213130313,-4.3685193574088395,-3.8758110693408647,24.626969161044055,6.68975234303234
6.163336071586055,14.513827242870601,-3.8255471301187165,-3.8680049059722297,24.106431974614903,6.665137448708951
6.176352806544755,14.486254247195284,-3.2798703155662854,-3.860673982283946,23.588645130047258,6.640898499484067
6.189433877682154,14.453199625665734,-2.72988260515078,-3.853817652960146,23.071999538973717,6.616966111229171
6.201917418419578,14.416737728523172,-2.2031377339756064,-3.8476719844009426,22.582003586478972,6.594458951753811
6.207716890791706,14.39901809223136,-1.9612536381102728,-3.8450269040638108,22.357964116570994,6.584302414727023
6.229764391079021,14.61913488711631,-2.2297703607840624,-3.85995213456616,22.404807942787855,6.611052317090038
6.277613897906563,15.091690550476747,-2.8036946988318054,-3.8922827955763153,22.50278478200488,6.668928841628086
6.329633899431434,15.597620234045882,-3.414302306648922,-3.927336044513588,22.603752538076566,6.731576438909352
6.383111115732336,16.109500498735475,-4.028023399427247,-3.9632678495321447,22.70175468160515,6.795687076400853
6.437633382666816,16.623074408980994,-4.639645772785495,-3.999794142664686,22.795863862033304,6.860751114444395
6.478313739271843,17.000957748259896,-5.087021742601017,-4.026976624607986,22.862400523828505,6.9091030701682055
6.490479610576949,17.113104418692483,-5.219358374854527,-4.035094108442893,22.88170369231792,6.923531364412554
6.473573841858537,17.029121004662784,-5.336028444371426,-4.030621837148026,23.0830241505463,6.920930269024969
6.428834476837169,16.791764534353653,-5.605319365138985,-4.018214942009807,23.591499641391575,6.912020256063078
6.382075981196862,16.534461897835055,-5.885442373056095,-4.00573023976304,24.130820402726943,6.903059810256747
6.336203366483266,16.27254348867712,-6.158782910203815,-3.99398030045396,24.667922858309208,6.894636114728976
6.297105647867646,16.04164033037309,-6.390471468776666,-3.9843705186001306,25.132073289665335,6.887757392693096
6.280826475085939,15.943365375427105,-6.486563792866773,-3.9804824535235754,25.327086119175547,6.88497797364033
6.269339945665985,15.873255176576741,-6.5542262620096965,-3.977779906241841,25.46531305005199,6.883047531070151
6.231812253552383,15.639698694719556,-6.774440051295865,-3.969190654585118,25.92056024739591,6.876921888426628
6.187987091900102,15.358022533354644,-7.02985330664259,-3.9596391504039348,26.459360262547428,6.8701319980547115
6.144857085059942,15.071127269607912,-7.279203296511413,-3.9507627590856083,26.997273763154336,6.863850316817436
6.103574899473604,14.78722902221576,-7.515833070032686,-3.9427729923550716,27.51938410376099,6.858227999620039
6.0821783714753135,14.636375943019827,-7.637665977138717,-3.9388672802095317,27.792877245258605,6.855468303730052
6.071638683712302,14.561146461380215,-7.6974448964817865,-3.936978443075069,27.928285394687776,6.854150189870521
6.077462337233326,14.62773332317662,-7.813779137047676,-3.942546676746348,27.97751790325857,6.864550101748175
6.1166595837293505,15.024583026201384,-8.29995023420977,-3.9711118749338636,28.063940356369955,6.915518713704937
6.166572067379157,15.523261979648053,-8.907258390595278,-4.0073718285710065,28.16885740023004,6.980157256054446
6.217684613266469,16.026425382181053,-9.51593209508832,-4.044371023285493,28.270542318007937,7.046047696419156
6.269647863483103,16.53041902586132,-10.121466075027527,-4.081848409386289,28.368168861489963,7.112725019026042
6.317945365377234,16.992242382043926,-10.672675313134919,-4.116557512743227,28.4538947922566,7.17442171293912
6.339157548032947,17.193108309851514,-10.911323408611732,-4.131763820317079,28.49006276657687,7.201435271302555
6.344577983393304,17.21138422272244,-10.76854435334187,-4.12899447703117,28.329038208864254,7.194354080035248
6.3576242938628456,17.229165616804806,-10.284011421154807,-4.118135807998017,27.827092844253208,7.168059285390756
6.371896807311904,17.242468813790943,-9.75200926659775,-4.106887570583821,27.282176501682766,7.139874697163129
6.383040057623894,17.248482018057576,-9.335287492979935,-4.098548629316864,26.859735068714492,7.118275336707858
6.387985391257671,17.24994263171942,-9.149973913151578,-4.094969055343265,26.67308838890136,7.108800007014341
6.40078248439779,17.250327745143405,-8.6693906643893,-4.086043753388193,26.192442368851466,7.084586377257152
6.415062784283259,17.24507811722237,-8.131368172576762,-4.076643475728032,25.660016685634066,7.0580699578817585
6.4279647629811505,17.235294692978496,-7.643742950270858,-4.068641363902586,25.18247770661796,7.034551141442565
6.432961701731438,17.230248513418886,-7.454709168608692,-4.065701679699374,24.998602375478026,7.02558240393022
6.44381434377982,17.216886050028982,-7.042990971932287,-4.059464177305665,24.600490616767622,7.006235548214335
6.458183464292949,17.194236029643193,-6.496384130702708,-4.051676737786388,24.076846720051236,6.981032177921281
6.4724691752412555,17.16623588999735,-5.95132067676022,-4.044450318555386,23.56008361067727,6.956422211239616
6.485970947298113,17.13486034693903,-5.434717667798302,-4.038078051066236,23.075130359681896,6.9335551857263
6.491886456228217,17.1260597179131,-5.2346314722935,-4.036024501071705,22.883911873613325,6.925200475567781
6.519653984913025,17.38045889248658,-5.534042458911954,-4.054530395429923,22.926894540291745,6.958073592108572
6.574367841526714,17.875880885021612,-6.114178338748803,-4.090913032309093,23.00759070915636,7.022628173474912
6.633119551917581,18.399447451614275,-6.723033239681465,-4.129860282878661,23.088536177404546,7.091627339765119
6.693125139737478,18.925475183884622,-7.330349913934546,-4.169510728596318,23.165359057912433,7.161763372376663
6.753811904159303,19.448806041942014,-7.930161784012017,-4.209480506976254,23.237292061605668,7.23235648178605
6.794441510902626,19.794440625294307,-8.323899862946524,-4.236167090874897,23.28233317094291,7.279430677237041
6.802019002694408,19.861712091818603,-8.410125275386493,-4.241464124809463,23.300686354629637,7.289019077981374
6.77136925655951,19.71221658647467,-8.580715144848698,-4.232716353337423,23.622117504786992,7.282126867362618
6.7209930097490975,19.458932897936403,-8.86033458256801,-4.218757603084806,24.157217279522282,7.2711169340936985
6.670404061441366,19.194803885862164,-9.140038229139288,-4.20528403411062,24.703236398454376,7.26047669861352
6.620997666991686,18.92704577889943,-9.411978602124721,-4.1926746520625375,25.24505100462622,7.250508868560949
6.571926237353903,18.651165783225395,-9.680707763374166,-4.180711451447058,25.79174273439419,7.241044675532362
6.523877726561872,18.37109772211373,-9.942343981572268,-4.169562665066945,26.33546722526261,7.2322206115444425
6.476452114839473,18.084641344617182,-10.198997134927074,-4.159164728964791,26.880549528001357,7.223963557759749
6.430021842647923,17.794285215464875,-10.448501994349469,-4.1495265982072205,27.422325803562632,7.216336323442128
6.384495134931395,17.49970073228218,-10.691313396484611,-4.140652092271799,27.961581539890968,7.209318577236214
6.356031855861483,17.310410545471864,-10.842115153589372,-4.135404515966093,28.302826942367414,7.205173139709243
6.343718234696299,17.227275711589147,-10.907100766165348,-4.133207986453408,28.45144413760406,7.203439265106547
6.3954873609392955,17.199055086131295,-10.921112514042754,-4.168377997976538,28.489844446248686,7.265299476992682
6.804577389831439,17.157381958679167,-10.892717498094326,-4.433607254360134,28.47258573075659,7.72776220881154
7.367557939548802,17.09570592711523,-10.850652416440695,-4.798174588229765,28.447102897600992,8.364050005236763
7.932345966719554,17.028769076580836,-10.804942357917168,-5.163366711154988,28.419509886824155,9.002200564862726
8.496640831031131,16.956793425371274,-10.755721499688141,-5.5276479943078565,28.38988210065732,9.639596796388501
9.063549897712887,16.87932040897756,-10.70266875351253,-5.892988450068679,28.35810954559017,10.27974016642849
9.626509331093656,16.797225512029794,-10.646360302466595,-6.255108795789697,28.32450351572483,10.915198866945088
10.193414334127928,16.709319014045594,-10.585970943162215,-6.619057086245121,28.288659996754884,11.554878729354803
10.75725496731145,16.61663177922598,-10.522186466170584,-6.980284811511752,28.25098607100489,12.19085199191022
11.322918627817598,16.518330989268744,-10.454410750010924,-7.341877799479545,28.211132035013012,12.828613991981099
11.890511253243654,16.414298098284522,-10.382547241521062,-7.703866816380609,28.169132565478055,13.468276038993494
12.366942374718548,16.3227613817921,-10.319196407347068,-8.007032868695816,28.132296331054032,14.00497475643936
12.533449994943135,16.290019720290964,-10.2936686704323,-8.112611826030061,28.11620346897908,14.192029655743566
12.545057347911817,16.300262693819313,-10.071621205929665,-8.102499717802734,27.884607421942977,14.167863963686237
12.571478785560815,16.31927506903938,-9.564748045030454,-8.080344348426728,27.36026292931077,14.113649868755262
12.599013234837669,16.33284232803464,-9.034453785621377,-8.058493777499757,26.81795105078642,14.058284379901513
12.626899366164773,16.34023043681991,-8.495295677496886,-8.037606047501844,26.272918409782644,14.003338983936235
12.654855380742417,16.34136621876061,-7.952838223952365,-8.017913701405813,25.73078491121737,13.949375440799743
12.682897560277132,16.336341641785822,-7.4066032633595755,-7.999295784647324,25.190991234605125,13.896261745006322
12.710753703957552,16.32537587759541,-6.8620618458057425,-7.981924813929518,24.65877430711264,13.84449368384397
12.738425092513143,16.308719889068428,-6.319280825599209,-7.965739938506215,24.13395335414603,13.79400660347467
12.766045449512829,16.286499237459644,-5.7758193945051195,-7.95065110785815,23.61396716576757,13.744532400227566
12.793671555717118,16.25879700169175,-5.23039863461218,-7.936516592308856,23.097466355938966,13.695872583973255
12.816786873826684,16.231499325342593,-4.772731305728852,-7.925431475125681,22.668085474538994,13.65578695958296
12.823875459174774,16.222387904303194,-4.63214883335937,-7.922164455731143,22.53691233350151,13.643605590950594
12.670036743545738,16.207129942755962,-4.585388432434841,-7.82749765070381,22.52636455970049,13.477324821516987
12.169252609824705,16.15853678421359,-4.482081966670981,-7.521686664814874,22.537650913131454,12.943168595262627
11.592632794856529,16.097900950259913,-4.359753021408403,-7.168953260048718,22.5486656758375,12.328310599428447
11.017836763752323,16.03245504573653,-4.2341728236255465,-6.81671446243248,22.557473320861824,11.715605745788853
10.443622457289873,15.96207775817151,-4.1050639490561665,-6.464260581253692,22.564142337824965,11.103737966117274
9.868082078339624,15.886507875083453,-3.9719443302399324,-6.110453260129036,22.568632286281762,10.490684824928493
9.292440865097081,15.805867865529397,-3.8350347249787538,-5.756079127097254,22.570865856059186,9.877763721432457
8.714485135399968,15.719795411557378,-3.6937459138089865,-5.399819059805034,22.570875072954443,9.262629113396054
8.138644693009514,15.628922003185902,-3.54910318702694,-5.0444391389634085,22.568598931202306,8.650008465778901
7.561704651864395,15.532724732760379,-3.4002498195606226,-4.687993962172241,22.56397176264804,8.036494899974995
6.98299299215765,15.431024379548575,-3.2469336034420557,-4.330110707177437,22.557005076838813,7.421386617008405
6.407532829375284,15.324688939398413,-3.090434454420967,-3.973934662936089,22.547709081546962,6.810036639795992
5.829419181831818,15.21259739216854,-2.9290824574086707,-3.6158508787926533,22.535931799887955,6.1961879475573705
5.251020766037207,15.095130666382834,-2.763446476656465,-3.257368255502282,22.521736793434563,5.582369537868439
4.67546079784416,14.972914854624133,-2.594371560535355,-2.900463320601528,22.505156342991448,4.9719114031831
4.096808646559893,14.844638650439082,-2.4200297790857657,-2.541499554077744,22.485956049249452,4.358543064979123
3.5250967712949266,14.712533497556915,-2.243416238382567,-2.1867432523185126,22.464526096663008,3.7529070323862674
3.14611587950774,14.621996291998924,-2.123906556169301,-1.951545741109799,22.4489304759553,3.3516550404116927
3.1075184326209304,14.557826707245919,-2.18017653040438,-1.92931126305357,22.570579709727625,3.3152935493931928
3.087988439201531,14.340962546730974,-2.432848620204586,-1.9238162693499206,23.040492382286505,3.311719732510352
3.0660708992025243,14.08886831316726,-2.7149184643064825,-1.9178636767832011,23.575075790664584,3.3078573361273
3.0445440423656636,13.831995841355702,-2.9902635660111465,-1.912245926471062,24.107701953620836,3.3042239493000487
3.0246007901651106,13.585548151804664,-3.2437011914295817,-1.9072514404172447,24.60796285087582,3.301006470442548
3.0156623479991804,13.472377432762224,-3.356735283889494,-1.905080504648649,24.834335059548224,3.299612625976837
3.010604436698963,13.407581113366268,-3.420537065995806,-1.9038709674155316,24.96302762472042,3.298837470734165
2.9953299080590314,13.208526721976575,-3.6124835703558076,-1.9003027109508073,25.354312642662475,3.2965574305616774
2.9746367993564875,12.93059954163094,-3.8706704295257595,-1.8956761871510097,25.890808797077835,3.293619101182792
2.9544200859175618,12.64962120252201,-4.1206937692330285,-1.8913950297807736,26.4221806211392,3.2909231311447313
2.9346558994207252,12.36561569191414,-4.36282513914207,-1.8874467744050571,26.948676263305636,3.2884624502578945
2.9230298009604088,12.194132576978957,-4.504124493235081,-1.8852373946921892,27.261668312091718,3.2870990770376225
2.9179054629573256,12.117490125681304,-4.5661251309653155,-1.8842908256035473,27.4004034281124,3.2865185034891695
2.9250908313158304,12.27670057371149,-4.774038657116567,-1.8897585451536154,27.448845477593384,3.296346206919259
2.9452390800057864,12.715136876151952,-5.326717898410083,-1.904735660320576,27.562364231561236,3.323122160166544
2.968091170980498,13.205570721544886,-5.94134507881677,-1.9216743344104728,27.68573148776231,3.3533687936738423
2.991396970498616,13.698477053022655,-6.555221457497074,-1.9388961614365383,27.80585391992028,3.3840833394796226
3.015116282528792,14.192827757611033,-7.166999106337758,-1.956368217862902,27.92241290838536,3.415207009284547
3.039471260690548,14.692999284575894,-7.781986480691264,-1.9742502365006198,28.036331999123462,3.447023905833211
3.0642498449996918,15.194385785346336,-8.394414757456744,-1.9923825141022007,28.146455687018907,3.4792494695511915
3.0895711157268275,15.69919680827042,-9.006905626847077,-2.010848476903701,28.25319139144544,3.5120318311865355
3.1155299391430185,16.209034928635752,-9.621278269869306,-2.0297127266509607,28.356751789718423,3.5454851267063305
3.141903315420799,16.719298382292386,-10.23189969963371,-2.048809087146965,28.456113678959255,3.5793144376552406
3.1670036175538847,17.19792806098825,-10.800770910953547,-2.066918923472506,28.54540123989351,3.6113643969283804
3.1788904044229622,17.42226916113432,-11.066107130650074,-2.0754732112105096,28.58594256313098,3.6264930027251125
3.181677921047589,17.442275147046853,-10.929162413651863,-2.0742018439172254,28.428994524415728,3.6231756464822813
3.188194454381973,17.4596208737539,-10.44914398359692,-2.0687989754847402,27.93172165272413,3.6101135392196415
3.1953890371287,17.47265493198398,-9.917288850224027,-2.0631504120900632,27.386929558490774,3.5959844953733264
3.2026529056834288,17.479451097015364,-9.3783613122251,-2.05777223818967,26.841300144785222,3.5820171277974717
3.209925212529954,17.48000078179211,-8.836906864024948,-2.0527027350693405,26.299386823078745,3.5683200007798765
3.217224562621627,17.474408060187667,-8.291587103141989,-2.047919753744581,25.759747496654015,3.5548474408905895
3.2244735135499023,17.462904727941368,-7.748254279811368,-2.04346180730499,25.228001869855348,3.5417290638328125
3.2317317650706094,17.445585542222087,-7.202504273705106,-2.0392795166730493,24.699651939654373,3.528843199624715
3.2388717596169063,17.423015816188467,-6.664018348893459,-2.0354307233187345,24.18381244909628,3.5164001745667868
3.243363293092603,17.406062897951085,-6.3244696277282095,-2.033140473765431,23.86126350687808,3.5086865536290373
3.246560076804264,17.39274521406984,-6.082851266855065,-2.0316075268648084,23.632989100429096,3.5032713504886925
3.2530351139965146,17.362524288269856,-5.591680748921476,-2.028577569760824,23.17210422276191,3.492384910572241
3.2554331243869177,17.34161816103454,-5.373712368027833,-2.0270984103089313,22.9750824035651,3.487353687115179
3.2401900611291636,17.061212819615633,-5.043945661325432,-2.0168832147260107,22.926278052904408,3.4692797703768963
3.2134679658275167,16.563633039942786,-4.4557115664183415,-1.9989357210668495,22.8365953449945,3.4374846450720327
3.1864379943298977,16.052321681756762,-3.847176882576682,-1.9807300305505964,22.740348486325896,3.4051781683396034
3.160124119795942,15.546579899413315,-3.241231281032662,-1.962956851032645,22.641089127164296,3.3735850582851175
3.134051833192778,15.037467157565263,-2.627205720771092,-1.945298288725038,22.53710610832921,3.3421409104242916
3.1153499256859636,14.6672162224972,-2.1781202080891133,-1.9326018224885744,22.45893480346427,3.3194978262868076
3.109448531128358,14.578878393357959,-2.155130335845943,-1.9298560103981302,22.524439865550796,3.315648368670225
3.091198774921631,14.377115881962032,-2.391384643358255,-1.9246994866713139,22.9628087491285,3.3122937902844654
3.0692466579297153,14.125987947338995,-2.6741388747043517,-1.9187039057517512,23.49711139120001,3.308401845969682
3.0476293592820727,13.869398446023881,-2.950896675283725,-1.9130288442424672,24.03086947642918,3.3047293979568066
3.026295757209216,13.606828462273237,-3.2222136739261478,-1.9076598286504363,24.565158591821373,3.3012688145867384
3.005351512632704,13.339713849796532,-3.486659485148064,-1.9026213147757742,25.097110591190685,3.2980374521323834
2.9846498448210554,13.066300297753015,-3.7459997077070732,-1.897876394408475,25.630248204296368,3.295013203774481
2.964182796466802,12.786506207240409,-4.000227709057201,-1.8934241090245487,26.164646586492978,3.292197172578545
2.9440210910643803,12.50137312874438,-4.248371590150521,-1.8892795297061145,26.698291044604417,3.289600457275897
2.926768429016907,12.249655979076701,-4.458766503871039,-1.8859301742962644,27.16071502401002,3.2875245365394496
2.9196472647581055,12.143632099244359,-4.545055265830095,-1.8846022684938113,27.35315571216482,3.2867083634028487
2.862171597742199,12.116979785062687,-4.570594507364561,-1.8484160627546258,27.407179210308353,3.224495090472799
2.4648524690221936,12.134203890002262,-4.583491874593545,-1.5919812505321829,27.414683175309275,2.780858888633281
1.9232835447345282,12.15353236114537,-4.5979603369315365,-1.2422987970108939,27.423109363954193,2.1760961379403225
1.3787217710804824,12.168149864515108,-4.608899787783402,-0.8905478451911593,27.42949088812961,1.5679350191909323
0.8368048208473141,12.177906268588304,-4.616200132484143,-0.5404079637702929,27.43375459571986,0.9626872223552964
0.291344135157509,12.18290537934138,-4.619937222105137,-0.1879201494167938,27.435912952707696,0.3534565315421387
-0.251276110759667,12.183082485989631,-4.620071171187511,0.16275374204104182,27.435999339255655,-0.2526097407708867
-0.7935097376700905,12.178481218052223,-4.61663088173694,0.513160308006983,27.434001503323444,-0.8582369705027502
-1.3391952428637173,12.169025502092058,-4.6095585467483975,0.8657413634011596,27.4298871733256,-1.4676963607954556
-1.8848423508113348,12.154725888846068,-4.598856375741965,1.2181998061960453,27.423631258479883,-2.077072854024802
-2.424890504307672,12.135798123824259,-4.584690458046896,1.5669120047889138,27.415391772277065,-2.680142134948002
-2.832067727575666,12.118380421210247,-4.571649191361469,1.829718206862944,27.407804382351685,-3.1347893246407557
-2.9184195635303882,12.120970706143563,-4.550618046696451,1.885019476456123,27.38142733924648,-3.230290009055951
-2.9270166684399994,12.218859670662706,-4.278034007500599,1.8842934137136482,27.010874510702816,-3.2261651467302737
-2.9396069858662806,12.356146650339545,-3.877488325478478,1.8834575086377923,26.472922780297907,-3.220315218107345
-2.9523400964614304,12.487827145941667,-3.470855569572741,1.8828778939763267,25.934486590752655,-3.2146202407989093
-2.965229436807355,12.613983478533571,-3.0577506369315426,1.8825533038999533,25.39509841038683,-3.209071621825298
-2.97828278632713,12.734621763632822,-2.637966373656727,1.882483518314558,24.854544910357994,-3.2036638783011537
-2.991356680017752,12.848460570999883,-2.2161815082842216,1.8826652972859919,24.318787743987105,-3.1984510231254615
-3.004649252536329,12.957229288425989,-1.7860612915010166,1.8830990096920526,23.779760792288723,-3.1933499020894685
-3.018092074192449,13.060274335850226,-1.349859765439784,1.883783683006798,23.24037239670441,-3.188385482306232
-3.0316969256910045,13.15764214519577,-0.9072444580503028,1.8847195363730052,22.700243554148884,-3.183550730285095
-3.042489390541525,13.230061099771028,-0.5553584128490824,1.8856300267539918,22.27582144950353,-3.1798449465895984
-3.0458537781417574,13.251781511848034,-0.4455319738001173,1.8859435314837716,22.144237829356253,-3.1787123770630803
-3.0539761177726685,13.419069641937861,-0.6485807329623393,1.8914459272497548,22.179718081302887,-3.1885326528384526
-3.0761268088359714,13.87446916267962,-1.2094383390399042,1.9065775395674984,22.284402523089007,-3.215636530319624
-3.0993860795744848,14.34577091810537,-1.786513342553321,1.922428879257725,22.38935873666039,-3.243981317792354
-3.110892881494104,14.576387032221744,-2.06763386062397,1.9302566003902557,22.43945717204717,-3.257960839294504
-3.109133858282955,14.57437610785066,-2.1605011295795515,1.9304890488260964,22.534339408302053,-3.2595616953242175
-3.0905289708856865,14.368424777790192,-2.4013822649000165,1.9252400409199657,22.981530752555003,-3.256152475086535
-3.0685736056692474,14.116861606099805,-2.684194996384455,1.9192551186022901,23.516327122042643,-3.252274212322324
-3.046973999864738,13.860077403071235,-2.9607362728570754,1.9135965100638384,24.050062976542513,-3.2486192649914147
-3.0261760414562047,13.603814794969757,-3.225267904668145,1.9083712010242773,24.57124922251529,-3.2452579148797267
-3.0150893544126154,13.463496775559516,-3.365523599119798,1.905678198789503,24.852030620521383,-3.243532051672826
-3.0097759646147293,13.395315392284642,-3.4325456002127335,1.9044108495275152,24.98733321960227,-3.242721638672769
-2.997448777751298,13.234769391161711,-3.587526795841912,1.90152975539804,25.30308979070452,-3.2408841381719142
-2.9770532671179146,12.961746881238037,-3.8422916151350193,1.8969488448157636,25.831254116811635,-3.2379788031531396
-2.9567103148423795,12.679985295399996,-4.094193553021198,1.8926183531966203,26.3652904941949,-3.2352554106225524
-2.9367304651200894,12.393780191832628,-4.3392768007159175,1.8886061287619698,26.896941892530407,-3.232758369741391
-2.923629976124877,12.200881597226006,-4.498636870738042,1.8861094594595855,27.249436872971476,-3.2312207453715915
-2.918246540428943,12.120386011837098,-4.563801118338741,1.885115050420459,27.39519341346129,-3.2306124590941496
-2.92367449532368,12.242410222809577,-4.730692941345942,1.8893829246590705,27.439859557747305,-3.238335359769175
-2.9429584011420857,12.662579950482256,-5.260633303928564,1.9037216728005582,27.54893753338645,-3.2639730816882317
-2.9657213874347224,13.151872654820068,-5.8742420963165545,1.920600262464403,27.67243140638002,-3.2941166304152887
-2.9890129858752013,13.645259372595037,-6.489136772231389,1.9378178242325783,27.793092931421054,-3.324827739902872
-3.012652264009232,14.138724497729232,-7.10024254734121,1.9552373658984739,27.9098692366173,-3.355861957347332
-3.033996120994585,14.578153903078015,-7.641141887702729,1.9709176517276301,28.01055420932667,-3.3837669308258627
-3.042561234955542,14.752898346635597,-7.8553728234063955,1.9771972463035437,28.04972449358753,-3.3949343598415114
-3.0451032557015805,14.76759418975986,-7.699210466883216,1.9757162243507982,27.878880874540933,-3.3911180160355654
-3.051107529296241,14.779024368399115,-7.21212961808031,1.9706108099323445,27.380460230139914,-3.37846330456243
-3.055090193637858,14.783738597958237,-6.888049264358561,1.9673645203089678,27.05172408414235,-3.370195864910946
-3.0575019012945814,14.785496432180505,-6.691421777750894,1.965451860499898,26.85337358042574,-3.36523721519655
-3.0589317619762095,14.786151495108577,-6.574710753426211,1.9643365267320572,26.7360279367044,-3.362314005357841
-3.060954838257837,14.786589328066515,-6.4094101689033405,1.9627819290077417,26.570318194974167,-3.35819896699105
-3.066475501201071,14.784896181958715,-5.957335147869441,1.9586773878738535,26.120013117000155,-3.347092103803885
-3.0730346404613855,14.777476478534973,-5.418364228218208,1.9540562413306284,25.588550471073447,-3.3341216524439585
-3.0795780108372615,14.764342076610909,-4.878728844506008,1.949713789194874,25.062135084894773,-3.3214166663235245
-3.086136353288476,14.745555582393697,-4.335944664074045,1.9456206508897198,24.538220554413446,-3.308907358371916
-3.092699124167458,14.721263793953327,-3.7913564206372894,1.941812551006234,24.017996392144607,-3.296624137838495
-3.099280967033331,14.691462700784504,-3.2429254172108344,1.938200877192551,23.499445016436407,-3.2844931994993996
-3.105864339503845,14.656338287022919,-2.6925777523648695,1.9348254412919692,22.98429802725628,-3.272558287178382
-3.1114843473501255,14.622231620328282,-2.221381186703002,1.9321259821499235,22.547271503035848,-3.2625207648450556
-3.1143707324398973,14.645773639308302,-2.1520534836053966,1.9326176052666066,22.454359545173727,-3.262180426955541
-3.1314438767095,14.984180018092234,-2.562710803136324,1.944210336076163,22.52600546038799,-3.2828578108004476
-3.157155290896658,15.487140064525608,-3.1697586082068403,1.961629343062859,22.629177239822923,-3.3138814381109154
-3.183728266728506,15.998772076974266,-3.7832145858057613,1.9795826537155845,22.730048438083188,-3.3458008466207305
-3.2107958253164752,16.511647131048864,-4.394036231217686,1.9978186023549835,22.827018179333233,-3.378166674089875
-3.237553700749686,17.010699423388434,-4.984415413307878,2.01579494759573,22.91737311486255,-3.410018213262324
-3.2525779934688908,17.287537168427367,-5.310216287525789,2.0258663422869305,22.965787770394865,-3.427840689015547
-3.2543861568420196,17.332897874324395,-5.399680418403361,2.027652393963324,23.00980108951881,-3.4314551604585275
-3.2373218647255775,17.155715610233013,-5.603883423996655,2.022798324197101,23.39153857040858,-3.427952613395624
-3.213545689713821,16.900697253356338,-5.887329006304347,2.016248395901345,23.930489758416222,-3.4232278876102513
-3.190087579565769,16.63949444021057,-6.1656032083550585,2.010038697312148,24.470443437842587,-3.418752098645877
-3.1678786367267806,16.383109200510866,-6.427638352730366,2.0044003700676765,24.98931130307348,-3.414693312748382
-3.156812303833238,16.25196165570942,-6.55764090305946,2.0016812271953537,25.250682966487194,-3.4127384496359054
-3.151141212755533,16.18386062332101,-6.624107674133754,2.0003116055936956,25.385363949141816,-3.4117545721608584
-3.1368943011538986,16.010068749470996,-6.79060077029895,1.9969433952738638,25.7259321422928,-3.409337622860394
-3.114733134060977,15.731866225531228,-7.048114284076283,1.9919158079504622,26.2620855479136,-3.4057386221851793
-3.0928177521514466,15.447051881414188,-7.300861306941236,1.987206556221508,26.800075542712765,-3.4023801416315202
-3.071226888782175,15.15671009057574,-7.547831070537181,1.9828329366864463,27.33780551165337,-3.399276113999139
-3.0528199116127164,14.901305416465274,-7.75664920475754,1.9793208965023275,27.802381937889784,-3.3967977861433085
-3.045149040502607,14.792676815330948,-7.843170744266035,1.9779179512937326,27.997678589148194,-3.395812251504136
-2.989993713331434,14.764947164828989,-7.868832940112886,1.9431466617697233,28.05290993042001,-3.3358892130308235
-2.594534059279623,14.78236768666729,-7.881255732037247,1.6864168453190806,28.06034326922261,-2.8910560921613166
-2.0410661873932177,14.802593550182664,-7.895675313023483,1.3269518302988528,28.068991073356926,-2.268428831015609
-1.4857448458058893,14.81802465066442,-7.906673065190611,0.9661341797269097,28.075595134473577,-1.6436609846383368
-0.9276332231703717,14.828631500077519,-7.914227126543143,0.6033935028089121,28.080107902479803,-1.0157126803764251
-0.3733180405398655,14.834309033011676,-7.918272328224751,0.24305327029728588,28.082545333679402,-0.39201108930606143
0.18385744179328672,14.835139901924741,-7.918864891791186,-0.11917387586098471,28.082910277566672,0.23491916240806454
0.7376307654107777,14.831120784492382,-7.915998752399387,-0.47917566133112055,28.08116908043536,0.8580162510322417
1.2954038686195901,14.822190445785377,-7.909637195155599,-0.8417238500153289,28.077360305909657,1.4855938689108457
1.8495808099696809,14.8084601577522,-7.899853863059463,-1.201840453164344,28.071501037768467,2.10909028687748
2.4077177307316298,14.789730311131898,-7.886500069525753,-1.564393006226922,28.06347801946205,2.7369905837784114
2.8836429096080023,14.76986891334945,-7.872337665450591,-1.8734051981371065,28.055002277146308,3.2723521973614798
3.0429457520477983,14.762589553039255,-7.861937326539857,-1.9767093323325176,28.04658011494513,3.4513322435189253
3.046391474882957,14.770799422408947,-7.5832008323747795,-1.9737027374990215,27.759686471946495,3.444006462778564
3.052792155078225,14.781466571672102,-7.063829112167697,-1.968343118595825,27.22974308564921,3.430602349664347
3.059351035615581,14.786330347994513,-6.529514482009365,-1.9631458581039085,26.69065935003657,3.4171321321697428
3.065918291434654,14.785179504349511,-5.992438099710758,-1.9582305570513554,26.15482553655921,3.4039021461233427
3.0725047592379053,14.778105517229436,-5.451755910917544,-1.953580878627681,25.621306392750675,3.3908810111217385
3.079031886206636,14.76537296162513,-4.913987313841307,-1.9492403255503918,25.096355844449068,3.378211252200011
3.085632141892146,14.74682929318122,-4.368262867928658,-1.9451126420053955,24.569258855323813,3.365626327142486
3.0921736315607666,14.7229470609398,-3.825530371031223,-1.9412726569722922,24.050489118097175,3.3533688305821405
3.098767200280624,14.693448202106875,-3.276643303018534,-1.937646768385777,23.531179666585743,3.34122143810397
3.1053593200847254,14.658624862351344,-2.72608187553363,-1.9342594760673388,23.015518017589788,3.3292762509116196
3.1111222122163253,14.623904011697562,-2.2433401160125643,-1.9314872338888054,22.567562136217624,3.31899036942737
3.0834867668905193,14.615240749723995,-2.1142226953600196,-1.912682626739525,22.448082875491114,3.285421435277255
2.6982701612345235,14.631811075879977,-2.125946392023832,-1.6738888544069448,22.455035813147035,2.878534016979472
2.123933440404786,14.652400553465238,-2.140501604840238,-1.317713888656179,22.463625623891364,2.2718489225079996
1.5417796119387888,14.668256072990316,-2.151709661608046,-0.9565489596353275,22.47027179430662,1.6568701439291673
0.9606952809150875,14.679054214346321,-2.159337408776682,-0.5959434607253402,22.474772280464844,1.0429942952383064
0.38165742325087776,14.684825088054744,-2.163416177421812,-0.23654322958747703,22.477200376029103,0.4312638534126637
-0.19933470172586698,14.68561235119597,-2.163974177790896,0.1240958835288272,22.477541815540448,-0.1825379024694382
-0.7810585922979666,14.681377856572407,-2.1609806880614064,0.48517460801782064,22.475748507413602,-0.7971088164019914
-1.3608069554054827,14.672158427900014,-2.1544686441426077,0.844975859573247,22.471900204653565,-1.409579662146621
-1.9414100277114317,14.657917024581508,-2.144406042152293,1.2052161740715885,22.46595179643185,-2.0229300072264254
-2.5220335563447347,14.63865380270702,-2.1307861234865793,1.5653362201643615,22.45787515612889,-2.636267315485717
-3.101781200905413,14.61440222701708,-2.113636318007555,1.924745879995115,22.447751870657456,-3.2486368571157347
-3.6810763340179236,14.585145799022662,-2.0929321001881234,2.2836641053296014,22.435517403574664,-3.860473514653099
-4.261661076112273,14.550772730270207,-2.068595994453393,2.6431368178471484,22.42119506000492,-4.473609939101198
-4.842436004274168,14.51130907303095,-2.040635197165175,3.0024405290245433,22.404771803369275,-5.0868734144775205
-5.425402994924591,14.466564752947827,-2.0089026409688344,3.3627685141134993,22.38614676261112,-5.702365169437295
-5.966796222997483,14.420387776991545,-1.976128241448501,3.6970746176191587,22.366984701563855,-6.273880540881604
-6.207365499379868,14.396266542511329,-1.9630756672544307,3.8456461478530928,22.362595023938916,-6.528148559998709
-6.1844444372431315,14.270284426712461,-2.1128083687161907,3.839160752848788,22.639190850414714,-6.523961256032715
-6.141757388664581,14.02896670187207,-2.3905255940676615,3.827409232559446,23.15985710345986,-6.516387246536602
-6.098550688431929,13.775588069119493,-2.6699793131937564,3.8159612831132805,23.694327881269253,-6.509030645552216
-6.056168573958743,13.51782731460567,-2.942326575888787,3.8051851402504715,24.22603034144243,-6.50213225015877
-6.020066772846868,13.290832539677712,-3.1728019637442433,3.7963729915739846,24.684848541790895,-6.496516139224134
-6.005272688912313,13.19579014966518,-3.266817907865624,3.7928622278150996,24.87445654859786,-6.494286348590515
-5.994281433650085,13.124404405441688,-3.3364978827172784,3.7902924180761177,25.01592960476643,-6.492657350506585
-5.95895516258797,12.890431286862125,-3.559434231740019,3.7822593321144686,25.47414219243163,-6.487584860492352
-5.918283126719424,12.612283584369358,-3.8140675901263186,3.7734500580826174,26.008411910131752,-6.4820636527487805
-5.8783019489410995,12.32943336517495,-4.062079974960199,3.765265772174333,26.540725464445323,-6.47698420830045
-5.8427021713163585,12.069473005487481,-4.280849939142166,3.758389860324117,27.020737146691797,-6.472765188725209
-5.827499285623738,11.956074392802655,-4.3736486666870835,3.755575098113349,27.227478599824035,-6.471053802970111
-5.82731221019565,11.906572512540953,-4.412733378964686,3.7584469989192533,27.31588724918302,-6.47737605175947
-6.10152276835905,11.879761905753366,-4.392575788941437,3.9344971169261362,27.304307146154766,-6.78316588893656
-6.622821057736304,11.825322788861747,-4.351611276952569,4.268875379341834,27.280787075088092,-7.364367820210666
-7.16766210820984,11.76354574617614,-4.305071947636493,4.61789193261396,27.254107760238725,-7.971621782293255
-7.712527830416648,11.69675142638477,-4.254697987380642,4.96641989623167,27.22534626288927,-8.578694913112898
-8.258781721639926,11.624722143423002,-4.200307243579681,5.315287874043751,27.194388784239802,-9.187085044312983
-8.804891854722333,11.547607903600836,-4.141993745227042,5.663472355101282,27.161280201578506,-9.795063543102318
-9.350516040140262,11.46543168561362,-4.079766409334474,6.010726385391644,27.126106620457172,-10.402242833431794
-9.896240838651865,11.378071225818998,-4.013511449131756,6.357381310193979,27.088798250619515,-11.009254463433068
-10.442324999736597,11.285436746175725,-3.943138025264367,6.703556540722056,27.04929989153801,-11.616363299138225
-10.98567596436474,11.188045563870157,-3.8690275175510545,7.047268832632888,27.007908596351406,-12.220127080990652
-11.400736710231078,11.110111892186744,-3.809628315282624,7.30930815989227,26.974854512945797,-12.681115143007098
-11.526415713106557,11.085906359520921,-3.791163588431709,7.388563373337174,26.96461136690425,-12.82066375039213
-11.552613686829217,11.159436806860288,-3.585364128830288,7.386815553160696,26.684259834720685,-12.809285082066548
-11.599830242000591,11.292989352447876,-3.1972121232061252,7.382976866712627,26.160870026816642,-12.78620650501818
-11.649098394585417,11.425286566289097,-2.7904878065623975,7.379990207022316,25.62005263800504,-12.762964484919923
-11.698505536241592,11.550903277259836,-2.380961279041274,7.378002737212223,25.083071783377836,-12.740478995240807
-11.748585597186487,11.671209765517142,-1.964261373104696,7.376981143801069,24.544166880767772,-12.718489038339614
-11.799137172468228,11.78565704343415,-1.5421432684841265,7.376960245549035,24.00564081419607,-12.697080067054685
-11.850326770168124,11.894603577813232,-1.1131793142294495,7.3778718160642525,23.465720068666094,-12.676155914678118
-11.901765217888803,11.997216000871402,-0.6807231945230544,7.3797325351396195,22.928598343948128,-12.65586678867101
-11.954052930733637,12.094661584720592,-0.23977264469367723,7.3825607438296625,22.38808262503113,-12.635963796040661
-12.000750495637712,12.175994224216964,0.15511785686044852,7.385858509149598,21.90994003428206,-12.618775072210765
-12.018081054556722,12.204839261973435,0.301917983594734,7.387262981646868,21.73357638325173,-12.612531673584881
-12.038595114524526,12.304839612592362,0.20154809181882244,7.399640565338161,21.731366107282053,-12.63396270964441
-12.115289590636126,12.708939923186264,-0.3064017491800677,7.451212002284044,21.824668184163922,-12.728381452373586
-12.207065659548642,13.185822697764294,-0.9026705312656957,7.512766764604155,21.931365594394688,-12.84092056681917
-12.259004259077276,13.452556635888397,-1.2346792430423719,7.547525892597029,21.989427248135826,-12.904396763433944
-12.276418569526188,13.541462098222357,-1.3451007886774307,7.559195850576596,22.008508142693504,-12.925647994134074
-12.239652152260534,13.439960797015068,-1.4743673217140023,7.549342531980951,22.241999555538854,-12.919925367794482
-12.158564502008737,13.20718923620571,-1.7460762364866786,7.527685581130931,22.75253626009506,-12.906366696196663
-12.074886584462822,12.958141535087218,-2.0247190201107985,7.506183806245919,23.286430147214872,-12.892952674523311
-11.99245482537691,12.703737042363846,-2.2973165968971245,7.48587470765233,23.819496272780533,-12.880340589859602
-11.927990252243868,12.498323424904868,-2.5090767945903716,7.470616855182295,24.241379249419722,-12.870913151244064
-11.902917878333456,12.416865010489133,-2.5910801014837763,7.4648345762063615,24.40666453596614,-12.86735334611381
-11.87629137360579,12.329382677470527,-2.677938899074912,7.458788706130095,24.582937323426226,-12.863639872146551
-11.8033727664778,12.08456848655267,-2.914569448449929,7.442766066997187,25.0696458954116,-12.85381726402505
-11.72465782059213,11.811513137653872,-3.1678173241983507,7.426305460081378,25.601587046762088,-12.843847227461817
-11.646547049819489,11.531253936869913,-3.4167157028072443,7.410888427453711,26.136293037155884,-12.834616180116026
-11.577248860114993,11.274627352075033,-3.6353812995600907,7.398003622026806,26.616468245149953,-12.827004324668223
-11.547403010290406,11.16173417386023,-3.7289001075224313,7.392690577325322,26.82497167704047,-12.8238993256075
-11.530701777101354,11.097929433902927,-3.7810527009848225,7.389780757841616,26.94209626150902,-12.822208435040217
-11.54623167430996,11.190371201241222,-3.9260313836537826,7.402964729586128,26.99221346430776,-12.846935748223677
-11.61861702364149,11.592047563600872,-4.442620337830612,7.455983673471541,27.096877288475383,-12.943568659204345
-11.70608130636101,12.070976407529889,-5.055307920652018,7.519855556526718,27.218186489197635,-13.059875107076195
-11.79525220663252,12.552223066012221,-5.667374656157711,7.584756598712841,27.336240292123044,-13.177942397225358
-11.886786867704911,13.039072714223511,-6.282888520960109,7.651148895801824,27.451722665300693,-13.298611689028098
-11.979726960649396,13.526208786334744,-6.895039542142298,7.718321995493968,27.563273778445673,-13.420593082916213
-12.074802574015123,14.017272894603998,-7.5083340371783205,7.786788841918894,27.671648384057807,-13.544820116546889
-12.171790413860197,14.510876137707008,-8.12094132626937,7.8563717033038705,27.77643235797835,-13.670971811865245
-12.271070506618852,15.008706416806897,-8.73485513990039,7.927325331043074,27.877870641187727,-13.799511594831975
-12.372150827762463,15.508047811368261,-9.346636574185125,7.999309444924449,27.975295963132954,-13.929789219865967
-12.470963247746766,15.989126627394903,-9.932240745435731,8.069371738483381,28.06506563243685,-14.05653977661728
-12.52406158867121,16.244823091918963,-10.241967802935878,8.106906997000339,28.111130721960755,-14.12441331022198
-12.537029665402038,16.29316002065322,-10.228181329823208,8.110405611886598,28.047809559856436,-14.128951671270775
-12.55924312169886,16.31109686063917,-9.802606298227841,8.091381237252785,27.60561139839059,-14.082997396927375
-12.586818076647358,16.327536365824066,-9.272378364054095,8.068926749117209,27.060521682639497,-14.027017145395176
-12.614519068650683,16.337690014184155,-8.737627398628227,8.047621084843524,26.517145430641282,-13.971920994940644
-12.642468211758889,16.341619629459494,-8.19611990881685,8.02738937122744,25.97319304352845,-13.917470500956503
-12.670455928828893,16.33934399972383,-7.651736715464917,8.008279597031938,25.43252240974269,-13.863978370664585
-12.698357356993691,16.33102816923637,-7.1070730635172445,7.990372218838352,24.897557331568027,-13.811666486237613
-12.72615776832879,16.31687304780971,-6.562491198125371,7.973626163881241,24.368461291070926,-13.760508372783956
-12.753896452345566,16.29704508402924,-6.017399518513049,7.9580096485328475,23.844478301709973,-13.710410910414575
-12.781367878744984,16.271909397178174,-5.475702180077894,7.943509356397737,23.329145781211047,-13.661631834768498
-12.80820497853861,16.242188704563596,-4.944875786541002,7.930277713209583,22.82920264105115,-13.61477496842873
-12.821433604744234,16.225693649681144,-4.682636772364693,7.924086377560331,22.58401839915521,-13.591957459614052
-12.795923545370167,16.215006873945036,-4.606529650312285,7.904945546342944,22.522663744140907,-13.55540040871941
-12.427960213866774,16.132673002547577,-4.475028061901637,7.679911841437991,22.522836291422102,-13.161622511133054
-11.868146906908201,16.003200271561695,-4.271502939469357,7.337052943675167,22.521027834525796,-12.562785653646321
-11.299845976195579,15.866534259620183,-4.060565987280992,6.9884312253184655,22.516710956039983,-11.955186380397048
-10.73108539276598,15.724436021274599,-3.845004989341965,6.638993802522516,22.50981331313374,-11.347432797985755
-10.16321003616202,15.577199034002863,-3.6252448519415137,6.289607645081427,22.500310425934114,-10.740978629833176
-9.59283075383463,15.423869106928608,-3.399855963178315,5.938224357131928,22.48805974075271,-10.132226650091026
-9.023864682402172,15.265431074714199,-3.1702835435290666,5.587301275473812,22.473156375268935,-9.525372377162185
-8.454694425045146,15.101391828386015,-2.9357816251888744,5.2358811617157395,22.45549004046793,-8.918711830337209
-7.884031832117272,14.931293654131707,-2.6956896385803053,4.883208961999087,22.434962380553568,-8.310894796757823
-7.327002310184064,14.759758171728313,-2.456414133301914,4.5386827129470655,22.41212711358952,-7.718042934352408
-6.7700147073141554,14.582738534606117,-2.2121950334428746,4.19394778776381,22.386549512272218,-7.125688849317812
-6.321043203317787,14.435999234000274,-2.011642407530008,3.915922897739324,22.36387386242045,-6.648558047082266
-6.207107328674636,14.394869788670668,-1.964751468669147,3.8455669859072517,22.365662213584905,-6.528095045764184
-6.1811117319799145,14.251767314168093,-2.134532382131774,3.838222443493261,22.679544469687038,-6.523353486123058
-6.137908877846952,14.006781796064432,-2.4154748467650675,3.826365647919909,23.207122408728665,-6.515713310994668
-6.094686160471756,13.752474531657711,-2.6948770674263707,3.814954402473807,23.742469766701394,-6.5083825739366725
-6.052349336238511,13.49414729503293,-2.9667666396818637,3.804231277934755,24.274278158020067,-6.501520848926544
-6.0104278692344835,13.229049994176677,-3.2340766839662303,3.794073480998003,24.80824879715997,-6.495052827758463
-5.969098280901497,12.958332299971984,-3.495577350388476,3.784524693388757,25.3419957643624,-6.489009786612786
-5.928395999659223,12.682340841679608,-3.7509593929656577,3.7755901842881006,25.87486215831288,-6.4833981113236945
-5.888139592145992,12.399918696959253,-4.0012685207221335,3.767229475123232,26.409057485336596,-6.4781955303868415
-5.850195200013746,12.124839595213842,-4.23496525406939,3.75979880780996,26.919201674180776,-6.4736232133705425
-5.831925944674348,11.989245978667427,-4.346661796818969,3.7563816841638813,27.167146567494832,-6.471540870276427
-5.822402701780949,11.917739038087555,-4.404665249823636,3.754642698701546,27.29699718709927,-6.470486901990925
-5.830841938279933,12.015675621787075,-4.5510451106658625,3.7616958612719293,27.344788035551446,-6.483457809877465
-5.868204613310317,12.424477195315895,-5.068808589268143,3.789394587226968,27.45107442568236,-6.533178221529058
-5.913414691283943,12.912549598931358,-5.683531578246335,3.822817021944922,27.574469711077167,-6.593106096604362
-5.959422208304285,13.402037404850043,-6.296256757548317,3.856722875702232,27.69437439575493,-6.653829362017632
-6.006360120474417,13.894174198032863,-6.908459080294521,3.8912035952448827,27.811019168475834,-6.7155118404033285
-6.0542912190105564,14.389401165749703,-7.520599285086534,3.926298013200086,27.924417820547315,-6.77822273309905
-6.103403596158284,14.889393848484,-8.134633690347957,3.962135495357766,28.034835964850096,-6.842192515416776
-6.153444063679562,15.39133033967359,-8.74699518592152,3.998523065671733,28.14154573432172,-6.907076303995512
-6.204889278672032,15.899705455798939,-9.363043777801435,4.035798094256208,28.245375405915343,-6.973474934456173
-6.257026223358703,16.40724859128346,-9.973879610100623,4.073435567048937,28.344747634827318,-7.040453026842109
-6.308282168473597,16.898923387374325,-10.561592596127676,4.110300849256313,28.43690721590285,-7.105995485334101
-6.336556925860538,17.167088662387556,-10.880460693709393,4.130608652545924,28.485443449091743,-7.142026604720085
-6.342606374190797,17.207969378811395,-10.84730771838285,4.1316340050915885,28.411168992215465,-7.142781265148337
-6.354356078891809,17.225030102436815,-10.411100228932447,4.121738915523769,27.958235714146078,-7.118983296671728
-6.36862814547245,17.239862878629648,-9.879399610600508,4.110325968539585,27.412095070532086,-7.090636285335012
-6.381521981044844,17.247825341100032,-9.397348762618464,4.100567754500481,26.922423871869256,-7.065533489083734
-6.386443147522306,17.24952699296245,-9.212950788159894,4.096977859556654,26.736451750902294,-7.0560752019648545
-6.397500893288162,17.250698159021855,-8.797795146386123,4.089175827689642,26.32040546259206,-7.03506244588851
-6.411757715632991,17.24687813416889,-8.260898156542703,4.079643091446865,25.787678364047256,-7.008445316125358
-6.426007932074036,17.23718913693308,-7.722462740812448,4.070688034003821,25.25926894408998,-6.982353364780682
-6.439584189203937,17.22262198533381,-7.207879924743033,4.062671513251383,24.75956307780483,-6.957952064891946
-6.445519830623258,17.214654649661718,-6.9826266185962025,4.059357979255297,24.54240790484088,-6.947447558627476
-6.454839736134135,17.20019266901655,-6.628036250216805,4.05428003497788,24.20248303991701,-6.931069499798405
-6.469063298585471,17.17362070308776,-6.085539594459407,4.046954477537495,23.686859975501743,-6.906442317295341
-6.483140216722483,17.142075704128498,-5.5470845636594035,4.040194469685209,23.180238231601237,-6.882490431173919
-6.4912396655096005,17.121605292524325,-5.2365910548161425,4.036519846064749,22.890376586841626,-6.86889225695159
-6.509304178503351,17.284960207472352,-5.421781296269593,4.048336097013446,22.910911677856834,-6.889705481799482
-6.560464357774527,17.749815329131327,-5.966939718270964,4.082378541065699,22.987463769140287,-6.950128285828503
-6.618612959721264,18.270086108886375,-6.573019373782271,4.12095622161829,23.0689816970364,-7.018498964752854
-6.678268345141599,18.795176050486358,-7.180341461652316,4.160407100280521,23.146781585399758,-7.08830874165368
-6.739347553507369,19.324001443492072,-7.787530988706686,4.200667683808173,23.220576182914346,-7.159441793943602
-6.788253362440395,19.741204232487956,-8.263394071179174,4.232808516756773,23.275554776519026,-7.216151567064727
-6.8026477569888995,19.862967647006613,-8.401750926612817,4.242252378420933,23.291060718112927,-7.2328016995957265
-6.782260851786565,19.765239289183828,-8.520705013828207,4.236543368690524,23.508627899366697,-7.2285358703929505
-6.733615632790651,19.522752786728525,-8.790970082858344,4.2229499475807035,24.02350499659432,-7.217823123393984
-6.68288650979649,19.26030957816093,-9.071768959449695,4.209306111038267,24.568944546422454,-7.207057556102627
-6.633106444470635,18.99293285200097,-9.346115438356135,4.196468194831964,25.11280473676399,-7.196917403682946
-6.584165546907845,18.72021263766427,-9.614512009680828,4.184401622244806,25.65600338239051,-7.187379007665254
-6.535802675780556,18.440774009140213,-9.878277652221794,4.173041662860536,26.20124591757201,-7.178394641359858
-6.488169793346451,18.155552092763422,-10.136469256753225,4.1624252769928916,26.746648060223087,-7.169996868631948
-6.441446307142603,17.865797138236204,-10.388021929533734,4.15258718106233,27.289887739473226,-7.162216388381913
-6.395488090475354,17.570780715839522,-10.633655981912478,4.143525222338655,27.832418099054063,-7.155024753372222
-6.359961416465411,17.335762762427194,-10.822157645639301,4.136903812459936,28.25737981133457,-7.14979751489523
-6.346107175466246,17.24242317038018,-10.895325584993111,4.134421550840958,28.424446650234955,-7.147839705335999
-6.351100995848678,17.20343097349039,-10.924105361703209,4.140303818536912,28.491684626217207,-7.159032334544367
-6.681049326769355,17.170257989117054,-10.901509644260434,4.3542677632094735,28.47796879888233,-7.532044023264109
-7.228366198935488,17.11143698140462,-10.861400065922322,4.708804938643958,28.453623116218747,-8.150664191241408
-7.792841878662857,17.045792011792305,-10.81658757565455,5.073933454803954,28.426549482920716,-8.788507252238567
-8.35862107279951,16.974887727200983,-10.768119166147315,5.439323884917302,28.3973651035542,-9.427630734573306
-8.922674052764705,16.899076144494934,-10.716221929003979,5.802979469334926,28.366236427741544,-10.06459914167228
-9.487398358119039,16.818012484972062,-10.66064749655182,6.166410526333451,28.333062733753405,-10.702109621051115
-10.053757382889879,16.73148597172358,-10.601228061371852,6.530182362771023,28.297726528725548,-11.34122869226443
-10.618454729400352,16.63995975545327,-10.53827129503288,6.892148352904953,28.260497768224575,-11.978230511581875
-11.186033965225768,16.542633672314462,-10.47120322236067,7.255170966308514,28.221039668060357,-12.618221917909498
-11.751869167452641,16.44023620342586,-10.400500795695736,7.616240036680784,28.17963582769817,-13.255967288928339
-12.274539824330258,16.340843054478288,-10.331743123295228,7.948998420841888,28.13961344855461,-13.844810535944122
-12.523529404408192,16.291857551647247,-10.297805929555333,8.107242918668428,28.1199220337628,-14.125231114409825
-12.541331970333543,16.29696447599303,-10.14590892658479,8.106666199464279,27.961991374196312,-14.120001536738362
-12.566421294218612,16.315992563113078,-9.664825754854412,8.085425254408605,27.463352622551323,-14.068324211385102
-12.593961408474158,16.330759138359273,-9.134719658656115,8.06332569858223,26.920040871901357,-14.012712816704262
-12.621791324287187,16.339317845951395,-8.596938591248524,8.042240973695538,26.37522222439805,-13.957650178967208
-12.649866674996657,16.341617350403876,-8.052445088494423,8.022234255201726,25.82990590875337,-13.903237842124208
-12.677717993092047,16.337756425755057,-7.510195214976999,8.003520701515864,25.29293364666612,-13.850276249660688
-12.705625627086615,16.327888946355465,-6.96490877111941,7.9858999697626425,24.758885214998198,-13.798209061175351
-12.733381552558438,16.31225361048602,-6.420714596956393,7.9694592469446,24.231643130799828,-13.74737606339336
-12.761049583444395,16.291023621699747,-5.876546608231524,7.954148677626262,23.709970681477035,-13.697635871238742
-12.788624079221801,16.264374215086892,-5.3323647481701055,7.939851376812347,23.193661394852555,-13.648893843729368
