RAMEL-ESPOL/ARCHIE/matlab/data/joint_goals_square_t35_h35_p12.txt
Joint0,Joint1,Joint2,Joint3,Joint4,Joint5 
0.0008833523271785202,9.578302527041156,14.25413933345802,-0.0052376009956808574,-23.824709179005858,-0.003963589925345764
0.0008833523271785202,9.578302527041156,14.25413933345802,-0.0052376009956808574,-23.824709179005858,-0.003963589925345764
0.0008833523271785202,9.578302527041156,14.25413933345802,-0.0052376009956808574,-23.824709179005858,-0.003963589925345764
0.0008833523271785202,9.578302527041156,14.25413933345802,-0.0052376009956808574,-23.824709179005858,-0.003963589925345764
0.0008833523271785202,9.578302527041156,14.25413933345802,-0.0052376009956808574,-23.824709179005858,-0.003963589925345764
0.0008833523271785202,9.578302527041156,14.25413933345802,-0.0052376009956808574,-23.824709179005858,-0.003963589925345764
0.0008833523271785202,9.578302527041156,14.25413933345802,-0.0052376009956808574,-23.824709179005858,-0.003963589925345764
0.0008833523271785202,9.578302527041156,14.25413933345802,-0.0052376009956808574,-23.824709179005858,-0.003963589925345764
0.0008833523271785202,9.578302527041156,14.25413933345802,-0.0052376009956808574,-23.824709179005858,-0.003963589925345764
0.0008833523271785202,9.578302527041156,14.25413933345802,-0.0052376009956808574,-23.824709179005858,-0.003963589925345764
0.0008833523271785202,9.578302527041156,14.25413933345802,-0.0052376009956808574,-23.824709179005858,-0.003963589925345764
0.0008833523271785202,9.578302527041156,14.25413933345802,-0.0052376009956808574,-23.824709179005858,-0.003963589925345764
0.0008833523271785202,9.578302527041156,14.25413933345802,-0.0052376009956808574,-23.824709179005858,-0.003963589925345764
0.0008833523271785202,9.578302527041156,14.25413933345802,-0.0052376009956808574,-23.824709179005858,-0.003963589925345764
0.0008833523271785202,9.578302527041156,14.25413933345802,-0.0052376009956808574,-23.824709179005858,-0.003963589925345764
0.0008833523271785202,9.578302527041156,14.25413933345802,-0.0052376009956808574,-23.824709179005858,-0.003963589925345764
0.0008843752939469365,9.578304654263926,14.254134121788814,-0.005237596294168603,-23.82469608789445,-0.003962555846146586
0.018995966804178675,9.615884129151528,14.161968722440347,-0.005215809487884358,-23.593075842898017,0.014320786440202694
0.06000572748594845,9.700363741190477,13.954065865007921,-0.005618060869459037,-23.06977208361456,0.055539143653675856
0.10328901593835046,9.788616922585604,13.735800018621058,-0.006712426536895457,-22.519143530008048,0.09878389198961333
0.146524306220414,9.875850447958236,13.51894529093062,-0.008480897883243,-21.970801381151375,0.14173090347790063
0.18997588577675048,9.962602952085042,13.302160153777004,-0.010927223758038025,-21.42135088580073,0.18465655793769667
0.2337326533860453,10.04904576105513,13.084999746442746,-0.014057989408611162,-20.869645863754464,0.22765946056434713
0.27725218500194193,10.134115209795551,12.870137282091752,-0.01782597328987741,-20.322479248679148,0.2702205804212914
0.32111185320508934,10.218946335355014,12.654705371224743,-0.02227405483814181,-19.772548584819482,0.31291810919294716
0.36515491402919215,10.30322910048824,12.439473543141045,-0.027389022416079132,-19.221798610563923,0.3556099627921133
0.4093062824086811,10.386819774060399,12.224800020604095,-0.033160126624959534,-18.671136414256228,0.3982352851057226
0.45348663466825107,10.469572710543703,12.011056351252815,-0.03957190533222602,-18.12151251375154,0.4407301634803976
0.49759615463173607,10.551310440695037,11.798705553631544,-0.04660147152720801,-17.57412277617347,0.4830118860800883
0.5419898844512966,10.632692441807128,11.586028080110854,-0.05430286540185325,-17.02452795327473,0.5254326097863504
0.5865889373582439,10.713567198228185,11.373401567788843,-0.06266606572266992,-16.473684206409743,0.5679274762398289
0.6311964289951619,10.7935786819797,11.161755142221716,-0.07165241174715589,-15.923991261808256,0.6103205188356675
0.6757692417824996,10.872657478928653,10.951275947803184,-0.08124678169739774,-15.37593903228143,0.6525831041921696
0.7205638118372193,10.951259850930311,10.740743377539093,-0.09150281865562168,-14.826342724087253,0.6949698405582264
0.7654992030989518,11.029239795871694,10.530534244878835,-0.1024043653087672,-14.276170987749072,0.737415049490574
0.8104832871534007,11.106438262118374,10.321070531711811,-0.11392824907938283,-13.726521156837359,0.7798430333145745
0.8555181495720606,11.182862010076827,10.112330974674396,-0.12607271935101255,-13.177334368820281,0.8222671813587065
0.9007492739416235,11.25875664692891,9.903634734856622,-0.13887806340605408,-12.626808951670174,0.8648356590589769
0.9458851248440734,11.333635684458715,9.696316159313527,-0.1522601989862633,-12.078461239933597,0.9072853190334683
0.9912979136357727,11.40811677841937,9.488657616294303,-0.1663299104543665,-11.527740396372005,0.9499773614198429
1.0366341894007005,11.48161968781807,9.28226822002774,-0.1809788213810791,-10.978904981659772,0.9925905691988929
1.0820733475963464,11.554439401698676,9.076319190991983,-0.19626290810629707,-10.429750458196738,1.0353046472173477
1.127724918349109,11.62674726770147,8.870310956460688,-0.2122231132097929,-9.878929581944321,1.0782336738217755
1.1733923052952608,11.698230004793894,8.66512513826581,-0.2287933831066607,-9.328788556414628,1.1212039084017908
1.2190067173405024,11.76878523839534,8.461057796563477,-0.24594651390467467,-8.780123121897473,1.164161502337733
1.2647066292396745,11.838630246031117,8.257478841371562,-0.26373410007932807,-8.231237317050004,1.2072477602370002
1.3105923013934069,11.907914677732869,8.053938008866988,-0.2821996566209603,-7.680903194656907,1.2505685036781442
1.3565873838863869,11.976518768380904,7.8507712628222945,-0.301317812664158,-7.130013520850308,1.2940631205437927
1.4023479691480145,12.043936481847034,7.6494834876302225,-0.3209429598908174,-6.582654504988541,1.3374168889699285
1.4483404927466217,12.110858374167018,7.4480124476360015,-0.3412752284619576,-6.033217555115792,1.3810825037997065
1.4944865586781564,12.177162893465347,7.246701937971177,-0.3622881344618556,-5.482619015304651,1.4249975671813506
1.5406848257383086,12.242701796050206,7.045989609551514,-0.3839404119343677,-4.932043868308395,1.4690772453911032
1.5866927281843342,12.307137507591706,6.8469159537562385,-0.40611672886901673,-4.384352043618452,1.513100431042333
1.6329880731639799,12.371139182671264,6.647406651585283,-0.42905078779202754,-3.8338298137907567,1.5575356626433292
1.6793485517040676,12.434392318565916,6.448419799009599,-0.45264136278038863,-3.283100157244498,1.602182173062749
1.7255723483098038,12.496625763419384,6.250810827933252,-0.4767864281498366,-2.7345323031896,1.6468563054505314
1.7719128104838073,12.558183328505825,6.053487378156004,-0.5016202984530205,-2.1850927064370187,1.6918139039626108
1.8182246493110839,12.618871500060232,5.857061963472291,-0.5270697254971766,-1.6364794229897053,1.7369256776589945
1.8649203296623225,12.679223049033395,5.659785734648533,-0.5533717427433168,-1.0837858764864923,1.7826068871815675
1.911287269753648,12.738317174391446,5.464662456952591,-0.580129543137471,-0.5354215391048733,1.828172170657405
1.9576967371109706,12.796636163068257,5.270114932859963,-0.6075552771863667,0.013033548307142808,1.8739959594756057
2.0043115585242237,12.854379394836153,5.075458937459417,-0.6357543943890576,0.5635252613227872,1.9202523808519982
2.0508199616150344,12.911159159840818,4.881991397890863,-0.6645448675823246,1.1123950422794373,1.9666445478837102
2.097583662650693,12.967414125879836,4.688203923679457,-0.6941586114825095,1.6639343771167403,2.0135464100498837
2.1439939377053037,13.022415573501574,4.496609700500026,-0.7242131849807921,2.2109888224475505,2.060358627436379
2.1908762686661576,13.077139354966667,4.303796844319803,-0.7552513101325017,2.763311290625715,2.107927164507463
2.2373753226065944,13.130585365266903,4.113278485018321,-0.7867144946990206,3.310847614522951,2.1553973027299906
2.2842516578295307,13.183628409190893,3.921931799483091,-0.8191235791151976,3.862576916619916,2.2035581052341797
2.330788240707314,13.235456521836419,3.732678234808854,-0.8519902433381572,4.410082352296863,2.251685970153192
2.377650000162012,13.286810844624908,3.5428072116385203,-0.8857908472951433,4.961209743307905,2.3004814648369876
2.4241817630828466,13.336973614208821,3.3549672977843215,-0.9200601015296512,5.508276142765825,2.3492754613280966
2.471016857724671,13.386628313862921,3.16659544226602,-0.9552716146905972,6.058749910922468,2.3987452243175946
2.518128089762692,13.435730325508954,2.9778082881200327,-0.9914267442943937,6.612330774799984,2.4488826153839973
2.5647047996747006,13.483441474015095,2.791843138965313,-1.0279058872224487,7.159516010973174,2.4988357314728495
2.6118865808336955,13.530926744674984,2.604146203590095,-1.065612511393132,7.713715259173228,2.5498421273956304
2.6592157865371866,13.577704748996517,2.4165491869142706,-1.1042086992409894,8.269572692391478,2.6014316689944628
2.7063454197112304,13.623433287954668,2.2304212195353443,-1.1434204173155353,8.82303486786305,2.653240638337892
2.7538388931940796,13.668653723877222,2.0435358038468907,-1.183731351475126,9.38073968302555,2.7059064238097323
2.801031100338089,13.712730212597238,1.858506603618628,-1.224589739273754,9.934898328249988,2.7587083294383876
2.8483743227589486,13.756088182899507,1.6735524875616774,-1.266395132383969,10.490843115108623,2.812166560774323
2.8955657683383276,13.798449238018193,1.4898518143264434,-1.308892313741788,11.045039412769595,2.86595585683184
2.9427001781774567,13.839902887419344,1.307027037848446,-1.3521737733679526,11.598620349149373,2.9201978544723373
2.9900525615840152,13.88068512526053,1.124010653046546,-1.3965097302090936,12.154836835946703,2.9752292805960296
3.037244388656025,13.920466911919705,0.9422627643032985,-1.4415611215327384,12.709263163841296,3.0306291046765828
3.0843808263233976,13.959341262746424,0.7613699453554623,-1.4874367141736744,13.263154464823165,3.0865352669910817
3.131746579910349,13.997536399936127,0.5802394089690619,-1.534433600685078,13.819877148101968,3.1433075976586182
3.178967900694459,14.034746760442658,0.40029846725425533,-1.582199012303009,14.375058702113911,3.200519132838727
3.226143682327749,14.071053626824382,0.22116286891731649,-1.6308436620650475,14.929880709533037,3.258305837224042
3.2733581239676948,14.106519883175872,0.042509406182156644,-1.6804711242890271,15.485353080959973,3.31679118536866
3.320552918682905,14.141099015536355,-0.13544415202303442,-1.7310382904432224,16.040809516795562,3.3759243795791574
3.3677750781217193,14.174823041504157,-0.31287808912611775,-1.7826140056964117,16.596822785456073,3.4357860868936854
3.4147538433280515,14.20750216136482,-0.4887822409749236,-1.8349147892788988,17.150222393436295,3.4960504615741996
3.461789924073274,14.239348323566128,-0.6642891081623882,-1.8882890533112389,17.704568079260365,3.5571216874640204
3.5090259253223244,14.27044825440074,-0.8399284653362027,-1.942927512661315,18.26156173372803,3.619214572186317
3.556117503272479,14.300571007798398,-1.0144214698442175,-1.9984549835741,18.817162275281525,3.681902064250357
3.6030759458069817,14.329728869255542,-1.187817844787475,-2.0548974053961464,19.37151869681719,3.7452170852381053
3.6499183864204547,14.35793653050677,-1.3601879391555451,-2.1122896716099295,19.924849005155345,3.809201881949218
3.6969604437111134,14.385378777336749,-1.5326938329742577,-2.1710450788029814,20.480900648189227,3.874316160867598
3.7438489135592374,14.41184516924803,-1.7040415216357112,-2.2307487683182683,21.03551729153661,3.9400995179174525
3.7909136002484423,14.437518076940162,-1.8754378367730435,-2.291847201863469,21.592618344258543,4.007043531008563
3.8371263992042812,14.46185255991272,-2.0431532547373346,-2.3530066874792803,22.140043091326998,4.073694675885984
3.865679903265704,14.476454049860687,-2.1464938478981175,-2.3913847167993834,22.478489640532676,4.115343974002944
3.876832348696054,14.482066811826535,-2.1867974822070892,-2.406498503679233,22.61072480877405,4.131710305674147
3.870346170489504,14.411703707929604,-2.2759217049648752,-2.4063471154071996,22.784065152986848,4.132529559538238
3.8453320412439798,14.185524652959945,-2.5345549103743625,-2.3994360172655225,23.26947729194289,4.128045935169735
3.818160955249164,13.930979030146466,-2.8139160361967614,-2.392201398988975,23.804030751522628,4.123365225107987
3.7915116835396483,13.6720597358681,-3.086156764431846,-2.385391687915682,24.335820010657454,4.118975541254372
3.771128640826499,13.467638293004018,-3.2931022538895913,-2.3803812082214244,24.747664776941402,4.115758691260115
3.7633656915155416,13.388295372924153,-3.3716070880441587,-2.3785192890161944,24.90569371866532,4.114566692796102
3.754244367872021,13.29400351836361,-3.4636201933787576,-2.3763648263847887,25.09221100288803,4.113190021348211
3.7302501864173156,13.040373192887294,-3.7044317317992688,-2.3708724339365466,25.587208436546565,4.109695070108718
3.7048779480882503,12.763147130374593,-3.9569997909062553,-2.3653486614057972,26.117585288903065,4.106206091235157
3.679718611618347,12.478795060197182,-4.205170479503602,-2.3601705099745924,26.65068096626815,4.10296608402281
3.655456024167498,12.195382038315016,-4.442174941313397,-2.3554700769855947,27.17164620277711,4.100058617935118
3.6425634202682664,12.041012403484194,-4.567126762664587,-2.3530932857395146,27.451256791336473,4.098603803648497
3.636424989745669,11.966578047503257,-4.626367683548132,-2.351991792474889,27.585069252919013,4.097933717514926
3.6473213130242312,12.159181429058593,-4.872838637779163,-2.3601852395739145,27.638446921293774,4.112619085276615
3.673048367362988,12.608465893045928,-5.440368240239633,-2.3793748600546225,27.755535463334056,4.146941383530996
3.701470703304094,13.097927142757719,-6.055018711794414,-2.400513361972773,27.879439517394832,4.18470476548079
3.7305576368329056,13.591568081651086,-6.671063491087905,-2.422078976056886,28.000520130137843,4.223185046120703
3.759904664577101,14.082402351755945,-7.27974574571967,-2.4437682604491346,28.117024879204315,4.261841104588728
3.7901689998813852,14.58121693457556,-7.894360036863912,-2.466062467447749,28.231430805340892,4.301530483689388
3.8210444419105416,15.082638143129856,-8.50813691613113,-2.4887302091260186,28.342355634231968,4.341840357979601
3.852533461303959,15.58649836599636,-9.120788748159637,-2.511768513569282,28.44967873637671,4.3827652940218105
3.8847159700719947,16.093846416696437,-9.733496825649357,-2.5352306825535016,28.553528330377144,4.4243997145921155
3.9175743152901203,16.60416120315682,-10.345531389553843,-2.5590983903282756,28.653696010905495,4.466710778918256
3.951471727171381,17.122729160751316,-10.963070683123036,-2.5836285462042956,28.751055693695424,4.510153000722859
3.9856021054580655,17.63702491375097,-11.57112791111544,-2.608232617486703,28.843183747477763,4.553684075942875
4.01998132852409,18.14737070262715,-12.170170406509117,-2.632920163638385,28.930224336705486,4.597322342386752
4.046238891710599,18.53209721056827,-12.61888923114991,-2.651710859109651,28.992944517221797,4.6305110658767
4.041724679209583,18.621129855245343,-12.722053954664709,-2.6491222152471923,29.00726981480265,4.626129729027469
3.7136049109222244,18.640406194084598,-12.73483133535977,-2.4343974571940734,29.01527827175806,4.252959749208446
3.155774274813674,18.66940916053651,-12.754039928369588,-2.0691347527001893,29.027280680899374,3.6184711088284582
2.5886814912174025,18.69404475461533,-12.77035113982462,-1.6975737363863586,29.03751690271413,2.9733744437836074
2.014319176848796,18.714022618422486,-12.783569319728114,-1.321050972585296,29.045796642043477,2.319944896874018
1.442501142904975,18.728951802270302,-12.793447134632718,-0.9460422569726047,29.05201606783169,1.6693617277300687
0.869058955958611,18.738958707528962,-12.800063445898882,-0.5698578259914371,29.056160285099622,1.0168953283571711
0.29814415941874284,18.743988959195253,-12.803391902336461,-0.1952646001662604,29.058268100207492,0.36728378538198264
-0.27476675210439033,18.74409026053015,-12.803457354333913,0.1806602665775954,29.058294352573277,-0.28460613080720976
-0.8446563507237015,18.739276481170258,-12.80027666617493,0.5545830108456089,29.056308585677638,-0.9330519143491963
-1.4169253879406436,18.72950682151234,-12.793815769109422,0.9300015820767388,29.052243785565476,-1.584184441456964
-1.9894118199078623,18.714780442975982,-12.78407537081696,1.3054547204645381,29.04612819751127,-2.235530149957603
-2.5626506396556685,18.695064021658787,-12.771031248306418,1.6812498564174416,29.037957223499827,-2.8876841148123757
-3.134245588796655,18.67044065788688,-12.754729197540113,2.055768728456434,29.027725495010213,-3.53790474936005
-3.686255373199227,18.641946532353117,-12.735858538248298,2.4172315670091282,29.015930704199718,-4.16577591520607
-4.011687444897838,18.622972150795004,-12.723284866624677,2.630206798969721,29.008069643790506,-4.535892660893262
-4.053855859144914,18.62477673358793,-12.643785124369987,2.655688170618022,28.924921211958353,-4.579495726943092
-4.061498187644894,18.645849039984796,-12.213115349743745,2.6492228325168266,28.47331134549418,-4.564315295647787
-4.070890812331047,18.665709081220232,-11.68203259886853,2.6416804937555227,27.9225249390943,-4.54603607154175
-4.080381300803298,18.679167425896757,-11.143489268999584,2.6344954568940215,27.370674744422352,-4.527971877745945
-4.089855095071861,18.6861383582695,-10.604027936766187,2.627743476033068,26.824387455877453,-4.510327794013651
-4.099489882618771,18.686767079880067,-10.053554163700586,2.6212913526878574,26.273426318920567,-4.492763943546159
-4.1090632961908975,18.681096876537733,-9.504807752099643,2.6152791165099534,25.73048478782318,-4.475674618858278
-4.118639979639479,18.669301174698376,-8.954160949470769,2.60964800242317,25.191762927165474,-4.458924936122156
-4.128150531411285,18.651673009430592,-8.405679069879557,2.6044215296155366,24.661032397270052,-4.442617733657492
-4.137666455724793,18.62827954731777,-7.855309629260799,2.599544124838019,24.134174774324475,-4.4266128887674645
-4.146809423038919,18.60050900241972,-7.325073656270484,2.5951783354956053,23.631818670267354,-4.411516167638334
-4.151303963824695,18.58499220894673,-7.063915551114633,2.5931441694167425,23.386229585287424,-4.404192167907902
-4.166366481493568,18.79629847406382,-7.305804312089933,2.603129482276416,23.41611178271676,-4.421768419091823
-4.2014441059562095,19.28434384575678,-7.865735399156296,2.626416228551138,23.486354757803003,-4.462777458360911
-4.239902758569365,19.811028178282545,-8.465700082333475,2.651867963669915,23.557821904390558,-4.50753177755057
-4.279384888040041,20.34287177272662,-9.067002095066124,2.677911100325366,23.625405716742975,-4.55325517840684
-4.3198205603895055,20.87855837855562,-9.668024398067246,2.704493726908522,23.688807777156246,-4.599853867257711
-4.350091428226519,21.2737971541265,-10.108486411225789,2.724335185131414,23.732574379757075,-4.634589263887099
-4.340592014234187,21.342617781021353,-10.184492510741944,2.718552669680683,23.740194947960337,-4.624792268394328
-4.013404022967754,21.11202980839167,-9.91943643433788,2.513486656225771,23.720429104172503,-4.27280734516239
-3.4951765828493193,20.740515423462973,-9.4921206062511,2.1886548237043044,23.685523294565304,-3.7156223835409725
-2.9725883639081307,20.357889151132685,-9.051615590459098,1.8610915407966586,23.64578511675026,-3.1541854828475895
-2.4521341068225238,19.968640072694445,-8.6029844704,1.5349164474463173,23.601545130502625,-2.5955339186920985
-1.9347270197688768,19.573351616599012,-8.146800271445779,1.2107500805783182,23.55281321028308,-2.040699436236727
-1.4270466945224374,19.17721078691406,-7.688962220099428,0.8928217380367275,23.500253793053393,-1.4968843137248244
-0.9194468108423861,18.772700629761363,-7.220689425937905,0.5751344931678618,23.442861098430292,-0.9538001711758167
-0.4168626506020822,18.36364670644014,-6.746306180195099,0.26082220650528104,23.381117784268802,-0.4167807860623167
0.08414790052215974,17.9471737355472,-6.262374262464865,-0.05222433675454306,23.31454468954671,0.11780023622443933
0.5076552179112004,17.5881654000274,-5.844400947137788,-0.3165881749239997,23.25423417652617,0.5690433230853277
0.7057603000291415,17.417994735820418,-5.6460073384633604,-0.44016350137955024,23.224739044193733,0.7799125882130806
1.1430717234911674,17.037193346712026,-5.201380827717455,-0.7127255255182791,23.156599524088158,1.2448785415561328
1.6398165793595365,16.595837496433333,-4.684854644123568,-1.0219257748938784,23.074070315847674,1.7721281963661812
2.1292338698549247,16.15157155589328,-4.163566891984239,-1.3260956598628035,22.98724472678188,2.2905809328985782
2.608506685341231,15.707175039251426,-3.6407068445269317,-1.6234612846537484,22.896732322704075,2.7972302507110727
3.075745875067906,15.264772155119624,-3.118732145994617,-1.912847516676125,22.803119527426993,3.2900898474930385
3.5321082003217072,14.823663472102735,-2.596777079224839,-2.1949491235350362,22.70632591871042,3.7703595530265477
3.8248484960630504,14.535898674239693,-2.2554378104792945,-2.3756030287707244,22.641369076652296,4.077821201031567
3.8771160122720274,14.471593676258594,-2.205717994601975,-2.4082595994201577,22.653812011619035,4.133773923643336
3.8582236848898104,14.303042260771534,-2.401440030428697,-2.402970172254009,23.01853979799148,4.130339404635077
3.8310045031930984,14.052460255343298,-2.6820907983151883,-2.3955869286246423,23.550422859261,4.125555601761495
3.804004959541459,13.79459498665808,-2.958767257769232,-2.3885499169717255,24.085604520824365,4.121010967137048
3.77840822076433,13.541282718625405,-3.2193366664072425,-2.3821523091551287,24.600088085067064,4.1168960982447365
3.7657577727825347,13.41282489265261,-3.3474440029177113,-2.379091993086719,24.856948958547765,4.114934859446226
3.7592979815664846,13.346380881698504,-3.4126801537397218,-2.377555745772117,24.98877966829372,4.11395236387596
3.7424264184060183,13.170096438509647,-3.5824642900370143,-2.3736293010050185,25.335239986649096,4.111448204985885
3.716761478434261,12.894158482160991,-3.838987551855729,-2.367900443843593,25.86829301263498,4.107815830408825
3.691506291112774,12.613206222117059,-4.089196288611904,-2.362560368363082,26.40003144098134,4.104458791822411
3.6664922662884645,12.325431070739935,-4.334667014562399,-2.3575733340659095,26.933844310192697,4.101356572604474
3.6462131263941173,12.084978590297514,-4.53182945458518,-2.353759007525481,27.37191522307133,4.099011594703175
3.638122980265023,11.987226534648483,-4.609999720893208,-2.3522960469469947,27.548018525698463,4.098120000976911
3.556831092102291,11.970186347916286,-4.6307291818737495,-2.3006273031363866,27.58903547425257,4.008976179049088
3.130688609573503,11.99347913032188,-4.648221916632956,-2.0253051479824276,27.599194073027398,3.5321741032289093
2.5898863518915887,12.01874668026104,-4.667190369442577,-1.6757090904029415,27.610229972466783,2.926999969416084
2.0465769451802793,12.03930590970207,-4.682618127653961,-1.324308389186296,27.619217263369286,2.318942735592962
1.50532975336649,12.054987557707815,-4.6943821422879735,-0.9740964821794424,27.626077719864085,1.7131323540052152
0.9605716473399938,12.065940165313009,-4.70259322236026,-0.6215054895542689,27.630842627549363,1.1033458434179186
0.4197023676451984,12.072025906539881,-4.707157670107152,-0.2713635599688212,27.633512083311963,0.49788496799163595
-0.1213377174613413,12.073342493178457,-4.708146223477839,0.07891873442485785,27.634096719143777,-0.10777967347645473
-0.6639307186222703,12.069870274154262,-4.705544405375668,0.4301979808017072,27.632587690622028,-0.7151791882794502
-1.2074936641640692,12.061577810844762,-4.699324162877494,0.7820565597511028,27.628940444476918,-1.3236449269418273
-1.7480007731523046,12.048551558020115,-4.689556253423416,1.131853202291111,27.62325683727009,-1.9286537448880652
-2.2913024498614916,12.030647789684586,-4.676126558325122,1.4833344983154018,27.61544530743057,-2.536738463698334
-2.8333128829296426,12.007972939228647,-4.659111243483077,1.8338181922205663,27.605554419865832,-3.1433096540252565
-3.34900116298336,11.981925655072336,-4.639552206229823,2.167092328468918,27.594165003607465,-3.720344467353818
-3.611897084811068,11.966966050586237,-4.628318897971398,2.336916848806543,27.58766191538314,-4.014481381666479
-3.640500181436114,12.00327930455238,-4.525538972745009,2.3524048293338087,27.44752662113635,-4.040021434084421
-3.6545593975980135,12.131982494348694,-4.167958926890076,2.351190854972012,26.961081159744875,-4.033238019239088
-3.6702499738541254,12.268782635994187,-3.767352080249783,2.3501555454970053,26.423489328054007,-4.025935447501319
-3.6861384067594956,12.400148049110484,-3.360139916817856,2.3494382774728786,25.884720668628212,-4.018816057191265
-3.7022013610714755,12.52582746254021,-2.9469637026182984,2.3490393835743544,25.345668032745806,-4.011887153744403
-3.7184856696358817,12.646119804612528,-2.52666111096953,2.348957565619574,24.804869619419158,-4.005125774526109
-3.7348304376888457,12.759847251932081,-2.103443130408811,2.3491901639921915,24.267716319748978,-3.998593191408978
-3.7513878844617143,12.86808939171642,-1.6734285495512984,2.3497356505298033,23.72924547205236,-3.9922227981142404
-3.7681421962567443,12.970680294036445,-1.2370730795054465,2.350593705100845,23.19007895167317,-3.9860179604360346
-3.7846021559610468,13.064861122315104,-0.8072682759666631,2.351725913858821,22.665873788271973,-3.980147324772028
-3.7933329743606063,13.112220799045014,-0.578867502543867,2.3524394202024244,22.389995634062224,-3.9771203608624814
-3.7968343799961253,13.145612703110968,-0.5481271215108663,2.353522539024207,22.325777112608847,-3.9779657996880426
-3.81592150690379,13.463228299697377,-0.941175447743883,2.3666092745443055,22.4003789458556,-4.001452098828547
-3.846097795979625,13.959023817260954,-1.551619631574406,2.387255966535239,22.51370738727314,-4.038451003876314
-3.8696395773339645,14.34055023844761,-2.018787143038314,2.403326582446942,22.59831291334837,-4.067204320949714
-3.8777450264370255,14.47086468686176,-2.1778367352985533,2.408852249620656,22.626690377456164,-4.077081831945841
-3.869192710600041,14.400551406948287,-2.288924770414895,2.4067378100026016,22.808282736942324,-4.076289375821844
-3.843494114887018,14.167627169639188,-2.554604209271402,2.399656239145448,23.30750247681042,-4.071701736222404
-3.8165527271348214,13.914552242304858,-2.831547392932723,2.3925054897739284,23.83816154286682,-4.067082592542596
-3.789795712459079,13.653905357523437,-3.104824392439581,2.3856911164335934,24.372716925213275,-4.062697467964868
-3.769251370250471,13.447289061709743,-3.3133417271537624,2.3806603729788125,24.788331929081224,-4.059473751523012
-3.7613655298773874,13.36644902397732,-3.3930586174719095,2.3787770634176733,24.949072810649145,-4.058270519181488
-3.7524107481717945,13.273604704270953,-3.4833557969608653,2.376671154116185,25.13242264187831,-4.056927707825672
-3.72876282029925,13.022980140267538,-3.7206081325454177,2.371280310806624,25.620846829173882,-4.053504886627789
-3.7032110196714982,12.743091831752762,-3.974866941252293,2.365741538078704,26.15558052422247,-4.050014879964118
-3.6781097686603843,12.458661354058748,-4.222350974238721,2.360600731174516,26.688066339781475,-4.046807080890464
-3.6541842864867666,12.178535444096006,-4.455959923937452,2.355988448863893,27.20234109505555,-4.043962773409124
-3.6422912599178354,12.035872809913975,-4.571244269202846,2.353835496565656,27.46053366445687,-4.042627279902281
-3.636562582240856,11.96676284893758,-4.628814956364818,2.352849674279019,27.587340754004376,-4.042092030511529
-3.6489356069922505,12.18483499533199,-4.905337674480297,2.3620961724397977,27.645237227332146,-4.0586434384749435
-3.675176428097893,12.642679722681121,-5.483464333490586,2.381665840980424,27.764339136431655,-4.093642947560081
-3.703547280809591,13.130764785707992,-6.096127591731415,2.4027620748166854,27.88763407446098,-4.131327837257648
-3.7325494682884335,13.622499037234505,-6.709543235602317,2.4242609088261804,28.007995687480797,-4.169686170423284
-3.762208088664789,14.118052715367641,-7.3238137985767455,2.446176134150285,28.125354627749974,-4.208742037480065
-3.7924179696722176,14.615452455690866,-7.936404869805754,2.4684254510613384,28.23915419282576,-4.248348525883111
-3.823304360741233,15.116544354388077,-8.549502346061393,2.4910963723149733,28.349727926641933,-4.288661199414311
-3.854929069991275,15.622054631626847,-9.163874578795319,2.5142287522043816,28.457114519784994,-4.329750371265059
-3.8871506119028933,16.129484009158222,-9.776385854589119,2.5377138368177055,28.560683592691678,-4.371422561188668
-3.9200696710712686,16.64020079814285,-10.388601743546564,2.5616198203646117,28.660627140733872,-4.413798601326655
-3.953799512230903,17.15568067046061,-11.002170052583777,2.5860228728090133,28.75711130859519,-4.457012993708767
-3.9881523000237062,17.67280446449372,-11.61327629651064,2.610781239183295,28.84944909313915,-4.50081438320692
-4.022498401190403,18.18213014726267,-12.210822110622052,2.63543868621399,28.936014074608966,-4.544396790452855
-4.047846093839815,18.55322057549128,-12.643463593245162,2.6535745633044394,28.996336721533808,-4.576427458401329
-4.052960406598828,18.622019473874776,-12.694028968455667,2.65644917153423,28.977887186342326,-4.581271084305921
-4.059405954618732,18.64052666525729,-12.331019776276168,2.6509468838784263,28.59648306159682,-4.568421564367057
-4.068229575382522,18.660752234047223,-11.832571171661215,2.643757193364912,28.07795736963718,-4.5511524048566665
-4.072715303395633,18.668808996084348,-11.57851932471989,2.640249822579004,27.8159220209848,-4.54251096711119
-4.078368507084496,18.676860953241984,-11.25773544137648,2.6359677622769175,27.487176441477907,-4.531748781937209
-4.081466257906944,18.68029062236937,-11.081673078876374,2.6336855127257044,27.307732914584392,-4.525910891037891
-4.086656576247813,18.684496950647386,-10.786234936986494,2.62996148154028,27.00816823557273,-4.516221587163395
-4.089653523086579,18.686055579868246,-10.615396132719384,2.6278673295262385,26.8358160468184,-4.5106785103902896
-4.091457638904743,18.686689363083687,-10.512466790369723,2.6266262372327644,26.732279870803747,-4.507359599145805
-4.094095574220585,18.687206933255982,-10.361849345999993,2.6248377275529573,26.581183877989464,-4.502530734556193
-4.101617917785318,18.686041180201617,-9.931598596219978,2.6199057787015443,26.152207706575346,-4.488914148640562
-4.11098550788475,18.679212215185196,-9.394291184234488,2.6141034236162985,25.62185987833571,-4.472265288282648
-4.1203666766848075,18.66652964376234,-8.854573617650429,2.6086574389092303,25.094950485405818,-4.455920603944157
-4.129766534263072,18.64809638839588,-8.312198430756915,2.6035539604782336,24.571129431062175,-4.4398585532443855
-4.139176658542096,18.624055914972853,-7.768024156611768,2.5988241229579927,24.051108542137296,-4.424116617388778
-4.147971447093656,18.596625076979777,-7.257789507234473,2.5946678031985324,23.56840930607437,-4.409632421851105
-4.151807835836328,18.591485183109853,-7.06968230893094,2.593462392666312,23.38545924138415,-4.40469994417613
-4.1711467915302745,18.86319555618792,-7.382778448395938,2.6063253549126513,23.42594305607588,-4.42737351890862
-4.207389311728514,19.366279058424553,-7.959361606671704,2.630374468260079,23.497743736504884,-4.469715758308761
-4.246159548355657,19.895850152529977,-8.56190325967382,2.656019148374343,23.56888436253259,-4.514798324295774
-4.285635582890186,20.426217394808784,-9.160815652350278,2.682044538399882,23.635553077253554,-4.560479449585054
-4.325807626607779,20.95706811057724,-9.755716471252535,2.70844030929793,23.697680048378146,-4.606739883818619
-4.352492979469066,21.304895735051442,-10.14303304164695,2.725925467795394,23.735883936817956,-4.637345489534831
-4.3082956587631,21.334040639665282,-10.174054304670682,2.6983619494619537,23.739812750608824,-4.590126341778716
-3.9084359089805263,21.169505803832923,-9.98052227201842,2.447990023804907,23.72846872000207,-4.160613913516843
-3.3396317565230524,20.930288077404665,-9.700428686179649,2.091743569876033,23.709710365272603,-3.549893243642294
-2.7691570881227885,20.684177965293458,-9.413717722890116,1.7343870547407936,23.68781452764614,-2.93771298854894
-2.195584862896959,20.43036584489575,-9.11942111930672,1.3750721937979442,23.66260988226248,-2.3225785359032978
-1.623864113737206,20.170899780283577,-8.819871243128649,1.0169475434628383,23.634210665378152,-1.7098349835579165
-1.0615306238816473,19.90926956877187,-8.519021716635425,0.6647775448757876,23.603088512560785,-1.1075730189552981
-0.5042131530384122,19.643562327753834,-8.214579450574869,0.31586773640156024,23.56903182037698,-0.5111316065162376
0.054273185332824804,19.37076674132183,-7.903035492587397,-0.03360974157443395,23.531633505925754,0.08607843089188166
0.6061425277917142,19.094649535112847,-7.588624070477363,-0.3787376344267987,23.49136531149321,0.6756977985064083
1.1568506554240572,18.812487187130174,-7.268179954895104,-0.7228923803847861,23.44789843832086,1.2635399138924293
1.7052462346293613,18.52479183357589,-6.942219653013831,-1.0653099093514051,23.401254374585257,1.8483384164880086
2.252358360086972,18.230945994640546,-6.609979600864256,-1.4065909063761708,23.351308501098195,2.4311574152130575
2.7952459302385497,17.932484627619502,-6.273126329873978,-1.7448613128907084,23.29830836110672,3.008832992903209
3.335788921003539,17.62834713027626,-5.9303908341617495,-2.0812550826158804,23.242058630032933,3.5833360688022298
3.841865016381076,17.33716376887023,-5.6026592847443,-2.3957835477020533,23.186179708248048,4.120555662731481
4.0558853850677945,17.21095551225393,-5.4631774039227095,-2.52870888243979,23.163898373782988,4.347655352419229
4.041055091250145,17.086663073792455,-5.605206992504702,-2.5245289793919254,23.430601848344637,4.344639065171444
4.012257368003919,16.838509742011603,-5.880082760244503,-2.5166348953556072,23.95436711071507,4.338944294060801
3.983096132524289,16.577810144279077,-6.157055996661789,-2.508950645617225,24.492779191478448,4.333405141941975
3.9543094680358286,16.31084197783944,-6.428949601136463,-2.5016830847153577,25.03236445644648,4.328173127860605
3.926039214679522,16.039038376830778,-6.694323319301771,-2.494866124128679,25.570246110027018,4.3232748021109035
3.8982060140812522,15.761798290221172,-6.953832325459887,-2.4884773941422877,26.107682534673447,4.318696101514082
3.8706304372355875,15.47737278118341,-7.2090395310783,-2.482476767639708,26.64799010565198,4.314410373236411
3.8435600975447697,15.188400809886142,-7.457554413615884,-2.4769177655350507,27.18613340049974,4.310457824624626
3.8169726579058816,14.894863001563508,-7.699513934718411,-2.4717910097236966,27.722269494857223,4.306833441806687
3.7995608846800675,14.697258103380983,-7.856742831204814,-2.468618963159555,28.077518340338756,4.304604211260522
3.7923478250003795,14.614126829548228,-7.921577271202933,-2.467349014933947,28.225655225773675,4.30371521840572
3.6239780090623563,14.617406387161855,-7.933744004384266,-2.358228379683321,28.241587153225538,4.114502952797993
3.1356125186820685,14.643562818253658,-7.952455581802278,-2.0407974222346,28.2527722614841,3.563970803222587
2.581093535437776,14.668660263628947,-7.970401681774327,-1.6801529692647066,28.263519058594106,2.9387829505775973
2.0267776431502944,14.688866838666199,-7.984840882578012,-1.3194505275049795,28.272148298304362,2.313750634995436
1.471843563198558,14.704218525227011,-7.9958105603976515,-0.9581978686499572,28.278735057486944,1.6879665443113283
0.9173447016915711,14.714690093427755,-8.003291876564187,-0.5971202876620803,28.2832336864644,1.0626321720995378
0.3614759979676533,14.720306656980458,-8.007300971295036,-0.2350834279502574,28.28562080554883,0.43572636539291165
-0.19030113999323633,14.721053725148828,-8.007836244615717,0.12431540803380187,28.28595258048513,-0.18657407414630134
-0.7448586472869578,14.716956981795043,-8.004912399012566,0.48551149731762683,28.284208390819845,-0.8120050825908939
-1.300572391390524,14.707974061738154,-7.998494542165782,0.847404448425544,28.280339144258726,-1.43871962642577
-1.8564595384647593,14.694100980258233,-7.988585707254958,1.2093160130735103,28.27440843845293,-2.0655931550700144
-2.409486997322845,14.675441592106415,-7.9752535120462085,1.5692303358501891,28.266431423906553,-2.689190527911366
-2.964340315900907,14.651841536663746,-7.958380217200647,1.9301537741306247,28.256314616480772,-3.3147794030480644
-3.494190186587335,14.624735139002254,-7.93899462075946,2.2746127595836096,28.244736853939568,-3.9121008604016665
-3.7740288979274523,14.608612732797745,-7.927457835254565,2.456444204863531,28.237839992622806,-4.227539203188524
-3.794111766450008,14.612585563471248,-7.785325894135373,2.4661146129060616,28.09101507000882,-4.2430235758078885
-3.8014303282652993,14.626240177808905,-7.308861430033004,2.4597211675747177,27.601036453441544,-4.227410817101511
-3.809534054955923,14.635498065691195,-6.7792237303560245,2.4530003377056637,27.062291553565107,-4.210447092062198
-3.817703242252293,14.63872683333169,-6.24317699190131,2.4465934752389145,26.523163035454157,-4.193676567191322
-3.8258701519206055,14.635960549676806,-5.705197456457241,2.4405451185578846,25.988092028683674,-4.177227875810917
-3.8340235196084467,14.627349522646416,-5.166087430350823,2.434850337364723,25.457730571889375,-4.161109150512714
-3.8421838147735023,14.613004542691947,-4.624547907961337,2.429482836545147,24.930669432381382,-4.145266570967108
-3.850338925478792,14.593067468535688,-4.081432133396909,2.424439683618104,24.407619999793972,-4.129711334028594
-3.8585029138702915,14.567619191201036,-3.535850386641558,2.419701953254661,23.887612078312962,-4.11440494370878
-3.8667096324713826,14.536619525450512,-2.9855693506715433,2.4152429104506474,23.368453209177222,-4.099274981398147
-3.8745907227275698,14.501843181184984,-2.455424407818986,2.4112383025642465,22.87319892469008,-4.084977214462329
-3.878465070078273,14.482979551109969,-2.19420692723453,2.4093667960163483,22.630900124520174,-4.078028794139568
-3.891205953185763,14.686133029986753,-2.439993915557591,2.418014145380755,22.67297166630616,-4.093452411601066
-3.9207530386331735,15.15360438092885,-3.006809523796381,2.438101585581224,22.77100364673113,-4.1292959586465
-3.9533599850828876,15.661691929103077,-3.6190044314459375,2.4602103790555603,22.87365391448113,-4.1686808423263795
-3.98688666638118,16.175846165788503,-4.234389967862753,2.4828784500608956,22.973377294284695,-4.208993114175041
-4.020971635473128,16.690244834201557,-4.84590465000891,2.5058572587277186,23.068950197582556,-4.2497891676395145
-4.04721662627612,17.080778289006098,-5.307378008924265,2.523504920144629,23.13869502071008,-4.281074809551826
-4.055573859315967,17.204144345624957,-5.45265112393261,2.5291161549446866,23.16022026835843,-4.291014236629839
-4.056109508106419,17.21203561494475,-5.461935697654592,2.5294756679246775,23.161589080771616,-4.291650928888914
-4.056109508106419,17.21203561494475,-5.461935697654592,2.5294756679246775,23.161589080771616,-4.291650928888914
-4.056109508106419,17.21203561494475,-5.461935697654592,2.5294756679246775,23.161589080771616,-4.291650928888914
-4.056109508106419,17.21203561494475,-5.461935697654592,2.5294756679246775,23.161589080771616,-4.291650928888914
-4.056109508106419,17.21203561494475,-5.461935697654592,2.5294756679246775,23.161589080771616,-4.291650928888914
-4.056109508106419,17.21203561494475,-5.461935697654592,2.5294756679246775,23.161589080771616,-4.291650928888914
-4.056092357235032,17.212003347578854,-5.461852426835155,2.5294649672387752,23.161390573590634,-4.29163279951945
-3.969256720505295,17.04863221617707,-5.040248505751207,2.4752869110453757,22.15633974747385,-4.199842982815228
-3.882409437790418,16.885239174211367,-4.61858804114222,2.4211015887471707,21.151154128690983,-4.108040855694665
-3.7956307264904257,16.72197514137203,-4.197260504101661,2.366959049183207,20.14676216744059,-4.016311212151588
-3.684031503038252,16.512014207295078,-3.655424548619487,2.2973306198074934,18.855093263420354,-3.89834498709942
-3.5356832778369434,16.23291430885114,-2.9351650355191703,2.204773937046449,17.138084994619632,-3.741533142188267
-3.3873908206641197,15.953919331454044,-2.2151762870538114,2.1122520487948346,15.42172219472097,-3.5847802470045003
-3.238423456221698,15.6736545946773,-1.4919107324067211,2.0193090757748617,13.697547900205505,-3.4273139394833354
-3.090280506045024,15.394940897271157,-0.7726478695130015,1.926880467180583,11.982915520392993,-3.2707190810260713
-2.941625456030534,15.115263743696037,-0.05089866221345245,1.8341323518165649,10.262356007614866,-3.1135829062150884
-2.7930144850820793,14.835669519747052,0.6706365326393877,1.741411738042983,8.542306673645822,-2.9564933252858836
-2.644958379296159,14.557119209941982,1.389477749109534,1.649037312966665,6.828679445980029,-2.799990265898785
-2.4963403199954866,14.277511650084316,2.111047359292321,1.5563122766638164,5.108548070184371,-2.642893192209979
-2.3479035490526523,13.998245163146079,2.831736779205417,1.4637003488865468,3.3905149575059474,-2.4859877498117733
-2.199232430324356,13.718537778158444,3.553564003238681,1.3709422080109719,1.6697694626276796,-2.3288345895285745
-2.0507769130437787,13.439236022170288,4.274344440270973,1.2783185841124103,-0.04848062343799812,-2.171909331269392
-1.9023665975600716,13.1600193080955,4.99490541377978,1.1857231622928928,-1.7662075360118081,-2.01503185367729
-1.7532812104597686,12.879532525441334,5.71874399140699,1.0927065531664593,-3.4917478453832906,-1.8574407900244054
-1.6048413000288586,12.60026013192213,6.43944865414588,1.0000926666154901,-5.2098172950450525,-1.700532029022848
-1.4563434051166477,12.320878647358393,7.160434842829635,0.9074426026769351,-6.928557867220883,-1.5435619753871748
-1.3082345733448233,12.0422291397551,7.879532054225796,0.8150352810671805,-8.642795354656585,-1.3870031818710493
-1.1592741476708461,11.761977457462597,8.602763919801282,0.7220966372489135,-10.366889338654163,-1.2295442089916018
-1.0113810442840676,11.48373381767657,9.320813727891041,0.629823911814274,-12.078629948082487,-1.0732134516788947
-0.8624634207933007,11.203562662703968,10.043837780534506,0.5369119729200972,-13.80222853213581,-0.9157997229491922
-0.7144672756654162,10.925125161889682,10.762387876337021,0.4445749581976707,-15.515161764672838,-0.7593600451185364
-0.5659299297221078,10.64566945480823,11.4835656074569,0.35190028016909236,-17.234358949973068,-0.6023482896764437
-0.4170957194890474,10.36565523215971,12.206184672495693,0.2590403840575044,-18.956992094412833,-0.4450227331295445
-0.2851935719677367,10.117496712381133,12.846595276813106,0.176744655833836,-20.483650587693308,-0.30559525381530356
-0.19885523163172755,9.955061186193348,13.265784727094136,0.12287687031937483,-21.482945618491907,-0.21433110544895587
-0.11181294367386627,9.791301264587265,13.688391980120535,0.06856988132521077,-22.490388262016452,-0.12232284757166756
-0.025490590997569798,9.62889581731816,14.107503807201256,0.01471207075144142,-23.489498248849145,-0.03107559899911218
0.0034800503934899847,9.574390931539254,14.24816191102564,-0.003363146939755135,-23.824809512286297,-0.0004521134897525381
0.0034800503934899847,9.574390931539254,14.24816191102564,-0.003363146939755135,-23.824809512286297,-0.0004521134897525381
0.0034800503934899847,9.574390931539254,14.24816191102564,-0.003363146939755135,-23.824809512286297,-0.0004521134897525381
0.0034800503934899847,9.574390931539254,14.24816191102564,-0.003363146939755135,-23.824809512286297,-0.0004521134897525381
0.0034800503934899847,9.574390931539254,14.24816191102564,-0.003363146939755135,-23.824809512286297,-0.0004521134897525381
0.0034800503934899847,9.574390931539254,14.24816191102564,-0.003363146939755135,-23.824809512286297,-0.0004521134897525381
0.0034800503934899847,9.574390931539254,14.24816191102564,-0.003363146939755135,-23.824809512286297,-0.0004521134897525381
0.0034800503934899847,9.574390931539254,14.24816191102564,-0.003363146939755135,-23.824809512286297,-0.0004521134897525381
0.0034800503934899847,9.574390931539254,14.24816191102564,-0.003363146939755135,-23.824809512286297,-0.0004521134897525381
0.0034800503934899847,9.574390931539254,14.24816191102564,-0.003363146939755135,-23.824809512286297,-0.0004521134897525381
0.0034800503934899847,9.574390931539254,14.24816191102564,-0.003363146939755135,-23.824809512286297,-0.0004521134897525381
0.0034800503934899847,9.574390931539254,14.24816191102564,-0.003363146939755135,-23.824809512286297,-0.0004521134897525381
0.0034800503934899847,9.574390931539254,14.24816191102564,-0.003363146939755135,-23.824809512286297,-0.0004521134897525381
