RAMEL-ESPOL/ARCHIE/matlab/data/joint_goals_square_t35_h35_p12.txt
Joint0,Joint1,Joint2,Joint3,Joint4,Joint5 
<<<<<<< HEAD
-0.002317041170982962,9.577926211880465,14.254728352763685,0.00409164661338889,-23.823453378562768,0.0037357797326211216
-0.002317041170982962,9.577926211880465,14.254728352763685,0.00409164661338889,-23.823453378562768,0.0037357797326211216
-0.002317041170982962,9.577926211880465,14.254728352763685,0.00409164661338889,-23.823453378562768,0.0037357797326211216
-0.002317041170982962,9.577926211880465,14.254728352763685,0.00409164661338889,-23.823453378562768,0.0037357797326211216
-0.002317041170982962,9.577926211880465,14.254728352763685,0.00409164661338889,-23.823453378562768,0.0037357797326211216
-0.002317041170982962,9.577926211880465,14.254728352763685,0.00409164661338889,-23.823453378562768,0.0037357797326211216
-0.002317041170982962,9.577926211880465,14.254728352763685,0.00409164661338889,-23.823453378562768,0.0037357797326211216
-0.002317041170982962,9.577926211880465,14.254728352763685,0.00409164661338889,-23.823453378562768,0.0037357797326211216
-0.002317041170982962,9.577926211880465,14.254728352763685,0.00409164661338889,-23.823453378562768,0.0037357797326211216
-0.002317041170982962,9.577926211880465,14.254728352763685,0.00409164661338889,-23.823453378562768,0.0037357797326211216
-0.002317041170982962,9.577926211880465,14.254728352763685,0.00409164661338889,-23.823453378562768,0.0037357797326211216
-0.002317041170982962,9.577926211880465,14.254728352763685,0.00409164661338889,-23.823453378562768,0.0037357797326211216
-0.002317041170982962,9.577926211880465,14.254728352763685,0.00409164661338889,-23.823453378562768,0.0037357797326211216
-0.002317041170982962,9.577926211880465,14.254728352763685,0.00409164661338889,-23.823453378562768,0.0037357797326211216
-0.002317041170982962,9.577926211880465,14.254728352763685,0.00409164661338889,-23.823453378562768,0.0037357797326211216
-0.002317041170982962,9.577926211880465,14.254728352763685,0.00409164661338889,-23.823453378562768,0.0037357797326211216
-0.0023163691309722703,9.57792761619503,14.2547249608186,0.004091647321208253,-23.823444825701987,0.0037364560190831153
0.015887358066876772,9.615883667751664,14.162953423950448,0.0040490924365443725,-23.59193097741206,0.02203028078497195
0.05667468563160914,9.700327575847252,13.958101354509527,0.0035081705678280304,-23.074347106834107,0.06284284660028096
0.09978200273651701,9.788681396236491,13.742738053470775,0.002276314892205353,-22.52900370886982,0.10572364740224298
0.14281519457651967,9.875978449980424,13.528892101490833,0.00038096893844547154,-21.98626912801321,0.1482861942419937
0.18613707886643835,9.96295866136919,13.31474694700881,-0.002188010238229445,-21.44152850170585,0.19090246430081684
0.2295829578608793,10.049288701317264,13.101111483555053,-0.005420048231060722,-20.89682603639933,0.2334217307283547
0.27310504327380564,10.134877293040445,12.888207618512837,-0.009306363375890057,-20.352723068126586,0.2758099714531369
0.31668365194082687,10.219691163612428,12.67611652599615,-0.013838922912887765,-19.809425307143655,0.31806097067195144
0.360548802454843,10.304176749382986,12.463711901532356,-0.019040407526984916,-19.26403638313349,0.3604091392926034
0.4045173869097765,10.387978443835307,12.251875678666927,-0.024889285233815967,-18.71880720718483,0.40268870236129434
0.44850694618000614,10.470943900582972,12.040991103683961,-0.031369392596360214,-18.17472211820477,0.4448327661517083
0.4924903276382355,10.553029689733679,11.83117091977882,-0.03846962820618611,-17.632074618118608,0.486828019902591
0.5369296097029213,10.635092828743224,11.620209090927963,-0.046267076801703055,-17.085142210802626,0.5291261478787684
0.5817495123915641,10.716977401719618,11.408474807569037,-0.05475943420929817,-16.53484707351866,0.5716644291886058
0.6265572804632771,10.797962442126272,11.19781937136542,-0.06387375149845735,-15.985986434012679,0.6140810913538988
0.6716419624845811,10.878570020147416,10.986876171547502,-0.07366830597687113,-15.434990102388609,0.6566611922666908
0.7166520307505229,10.958172753749583,10.777280644081356,-0.08406536853534849,-14.88612291213279,0.699084224080316
0.7618218240878939,11.03718930013151,10.567928781024595,-0.09511571079577746,-14.336491859397775,0.7415827985844554
0.8073715798369141,11.115995982260836,10.35780202894581,-0.1068793892616288,-13.783399637979981,0.7843747611864011
0.8524052823478555,11.193052641279074,10.151014723465021,-0.11911789533171047,-13.237683982935392,0.8266302336226126
0.8977661106898527,11.269813449314366,9.943674659105652,-0.13205250224085788,-12.689083857780194,0.8691521876376318
0.9433134188703436,11.346031544557851,9.736426881101234,-0.14564981667798135,-12.139282874623758,0.9118194969879712
0.9889857432639593,11.421600811902684,9.52954701180622,-0.1598944332512389,-11.588998473038481,0.9545856430538032
1.034640157734958,11.496287093191462,9.3236723610217,-0.17474094307160556,-11.039921707818836,0.9973279661325369
1.080410040003769,11.57031092355295,9.11819144454895,-0.19023207256923932,-10.490417743772873,1.0401824634373367
1.1262845633998937,11.64365352630356,8.913146789745635,-0.20636628008156685,-9.940590163940868,1.0831501151039777
1.1722927722853345,11.716359373828709,8.70840326783984,-0.22315660596666756,-9.390065294887972,1.126269303455202
1.2184522772857678,11.788452840188945,8.50387878774002,-0.24061358278319053,-8.83860844980645,1.1695678366951803
1.2643143107927834,11.859241378399027,8.301545786180386,-0.2585633027770785,-8.291545246813047,1.2126354547244185
1.3104166195840181,11.929560574483732,8.099018893445905,-0.27721423311692645,-7.742428718922989,1.2559879045055296
1.356780497136094,11.999433040204138,7.8962075753014185,-0.2965843500382375,-7.190987846989699,1.2996571011431874
1.4030302939265153,12.068292331521638,7.694748292555221,-0.31651937812309316,-6.641664132757358,1.3433004512426818
1.4492879119025988,12.13632632256156,7.494096582650065,-0.3370698416489414,-6.092977551307794,1.3870435518763735
1.4956480464820987,12.203674598179832,7.293834433495886,-0.3582804149449949,-5.543778411947296,1.4309871320051324
1.5420690203074192,12.270275325069731,7.094136278073293,-0.38013601786087986,-4.994535511435454,1.4751031106320254
1.5885763441686565,12.336164089971376,6.894886535874511,-0.402652667646408,-4.444921966662806,1.5194272028917768
1.6352523956130454,12.401453517027624,6.695729469047991,-0.42587676772747335,-3.8939416268347675,1.5640499811278956
1.681746733340593,12.465656426468586,6.498150699047084,-0.4496353870011062,-3.345703525320281,1.608647353287098
1.7284326467720574,12.529290451428796,6.300555163834994,-0.47412155767966135,-2.7957791446364983,1.6535885152909697
1.7751207371970141,12.592094537960703,6.103740649273191,-0.499242259043103,-2.246376335680736,1.6987032909963387
1.8218564794282892,12.654130696198404,5.907508108259625,-0.5250256737247723,-1.6969344862595104,1.7440471218373268
1.868704957683414,12.715483037501341,5.711579902031458,-0.5515140448604315,-1.1466650621856374,1.7896954425499558
1.9156453401781157,12.776120659306498,5.516040057089034,-0.5787032260797922,-0.595790204519851,1.8356407231505496
1.9624747683692163,12.835783709436532,5.321725197430793,-0.6064790594742452,-0.046664925460128494,1.8816958273806559
2.0094173010134777,12.894759144249246,5.1276979024661555,-0.6349785671368012,0.5033631516249225,1.928092801056131
2.0562833097368474,12.952809136497654,4.934735336162778,-0.6640918182558861,1.0520963096678384,1.9746562567275097
2.103313932382303,13.010231261921934,4.74183943418325,-0.6939752767657331,1.602381258563217,2.021638417647224
2.1503152079087218,13.06678626210329,4.54980175408439,-0.7245136952406759,2.1519711017483294,2.068858709907907
2.197339074342509,13.122537798909805,4.358402954218739,-0.755746165185103,2.7014971117194273,2.1163815084462088
2.2442961911884267,13.17738190520919,4.167998935655312,-0.7876182763462375,3.2499391993324913,2.1641285299517596
2.291434851314927,13.231606260241225,3.9775789460125694,-0.8203072958500125,3.800219583034475,2.2123659332168613
2.3385243494344845,13.284942574307346,3.788071528637,-0.8536627548213517,4.3496669951191285,2.2608717282350406
2.3856108826952473,13.337444938900505,3.5992833916263414,-0.887723255898124,4.898843700780579,2.3097060060801433
2.4327975192959523,13.389226029250255,3.4107973942929313,-0.9225729394765673,5.448973701169757,2.3589899480520753
2.480006759707686,13.440197767513466,3.2229199037556935,-0.9581651546535295,5.999175061910361,2.408657466296891
2.527147288606264,13.490262767886891,3.0360076223560744,-0.9944382645125692,6.548405958459172,2.4586257306346844
2.5742561355707587,13.53946300074918,2.8499059160846762,-1.0314269752106846,7.0971202299162135,2.5089467303424526
2.621455732026671,13.587924542001833,2.6641270341123398,-1.0692378817654828,7.646765329377682,2.5597662407972908
2.6687221653049797,13.635618347909444,2.478763243336041,-1.1078651010747955,8.197083704324477,2.6110751183380683
2.7159235300568914,13.682410878043791,2.294326733909498,-1.1472107880680946,8.74656090561848,2.6627450547143865
2.7631872248216762,13.728427858702743,2.1103147535083564,-1.1873915694319515,9.296701141088711,2.7149307320910108
2.810436105453888,13.773592359627791,1.9270237552505027,-1.2283538200214656,9.846627324718712,2.7675631297130265
2.8576183525252206,13.817856084689808,1.7446485082875403,-1.2700620361775043,10.395757139553917,2.8205992600628136
2.9046973190312033,13.861188397756345,1.5633225418428451,-1.3124911337776328,10.94368459143468,2.874011409643923
2.952029877829242,13.90391268750713,1.3816701466756391,-1.355979060041874,11.494583516956457,2.9282234916738616
2.9991601567927817,13.945614994367025,1.2014376912657911,-1.400121134348669,12.043168222476654,2.9827311618389056
3.0465312169365273,13.98668507745803,1.0209275347405564,-1.4453468301431704,12.594615984574254,3.0380649994925477
3.0936463987076945,14.026691380209908,0.8420279909749808,-1.4911955215757045,13.143164951074496,3.093662444668306
3.14097660331369,14.066033433928496,0.6629463233720421,-1.5381388589847629,13.694317337138653,3.150096809285699
3.187959938317315,14.104246086196142,0.4858022976498813,-1.585630933995552,14.241548966205917,3.2067144061877864
3.2354015818940915,14.141979601686492,0.3075587034085392,-1.6345045707038517,14.794257927948877,3.264507023683073
3.2829035314271002,14.178901554577825,0.1297177836967366,-1.6843815099120738,15.347829166635671,3.323020228314952
3.3306935777575646,14.215177649700589,-0.04856978623162799,-1.7355287676923419,15.904938671225707,3.3825627121523576
3.3781679461363376,14.25034827553984,-0.22505531571360574,-1.7873174560492204,16.458567194452645,3.442403127869989
3.425877912279584,14.28482187893938,-0.4017928877190429,-1.8403654141987758,17.015162346744088,3.5032568220625855
3.4733352331466785,14.318243921902187,-0.5769771865339385,-1.8941487610338352,17.569047104448515,3.564523354127629
3.5209039659316277,14.350872254125216,-0.7519576729153952,-1.9490959946685613,18.124488370129903,3.6266929339787093
3.568339524357418,14.382537327303636,-0.925837842509539,-2.00494488174279,18.678648740502748,3.689469372175015
3.6158388584811467,14.413369997271811,-1.0993436063188515,-2.0619469012553577,19.233847067386247,3.7531364028708856
3.663251441920626,14.443270527375882,-1.2719280388018512,-2.119943394986995,19.788342140306888,3.8175172275978895
3.7108739824068677,14.472419837591412,-1.4446711927390095,-2.1793254290358064,20.34562364109736,3.8830445397734517
3.7582855435513767,14.500557472610492,-1.616048482366969,-2.239592709564219,20.900783951756267,3.9491663737452383
3.8055065530057406,14.52770388264762,-1.7861435280196107,-2.3007819478352127,21.454075756359767,4.01592785066025
3.851755962978432,14.553439243915506,-1.9521665225990534,-2.3618638200330664,21.996351270344803,4.082219284422841
3.8768242712571834,14.5670349147604,-2.0419190626519725,-2.3954569666538092,22.29043588666637,4.118534383714932
3.8880832154879945,14.573060051745758,-2.082175754955686,-2.4106572562052055,22.42255540417606,4.134934016255962
3.8784363776509996,14.483223983685237,-2.1919972377413335,-2.4086318229716372,22.628425479270003,4.1340146578048165
3.8524055229588114,14.25026637784662,-2.461552604353117,-2.401365797486014,23.13156405734655,4.129297669112791
3.8251367097508204,13.99722768049542,-2.7423589009007254,-2.3940305864224385,23.666059420314852,4.124548035878148
3.798366145367344,13.739550517881327,-3.0163083863873457,-2.387115008478185,24.198319483993416,4.120085495836337
3.774866803977174,13.505550929121501,-3.255235842488554,-2.3812864389016752,24.67179831823752,4.116339730417552
3.7649009982167194,13.404053928724013,-3.3560940189001527,-2.378884925916732,24.874386289950326,4.11480141908406
3.758487235527782,13.33800924207447,-3.4208497739073667,-2.377361939610976,25.005336166994493,4.113827601879334
3.7371445706559596,13.11408966479235,-3.6354256007193757,-2.372423728401465,25.44432663651637,4.110680670566327
3.711498958789414,12.83640249672326,-3.891305171065115,-2.3667607992889748,25.97848370773185,4.107095964287297
3.6862074705096894,12.553050666711055,-4.14139095958997,-2.3614762940745826,26.512498548315317,4.1037806396049294
3.6623454845622914,12.276793558170365,-4.375117527793107,-2.356774316378288,27.023022207586585,4.100862387829682
3.65090462606286,12.141189278922559,-4.486365631588434,-2.354620719469776,27.270131872647514,4.0995381849197425
3.645619236240308,12.07894890821166,-4.543909278694136,-2.3537595867807832,27.39002997620432,4.099185139716803
3.6588074655736076,12.310497852568009,-4.836960760329958,-2.36357285150921,27.45094222195602,4.116754049834856
3.6854984184303627,12.77427167667267,-5.421381974394451,-2.3833914268690632,27.57038984255719,4.152203515482754
3.7141114374309803,13.264421108932869,-6.035345893255525,-2.404574572366195,27.69291058845936,4.190047923119468
3.743330170191707,13.757675619026672,-6.6493456791106755,-2.426138995162541,27.812326682969907,4.228526940064227
3.7732080062837268,14.254692705082734,-7.264097270980513,-2.448119407451598,27.928693645994986,4.267702035718897
3.803585151950803,14.752617298391185,-7.875992418385583,-2.470393876509471,28.041265156895285,4.307355737914899
3.834591567705349,15.253401417270842,-8.487363836508068,-2.493053381448936,28.150415482632518,4.347649985375137
3.8664040294294253,15.759618314487602,-9.101231022766294,-2.5162215848852454,28.25658209043627,4.388804050235672
3.898826065450199,16.267876973586173,-9.713369873465663,-2.5397498935208453,28.35894047440234,4.430553476862878
3.93206357593946,16.781144462602708,-10.327245050098005,-2.5637820833701404,28.457977966751546,4.473152925801302
3.965990898938691,17.29720089570822,-10.940083092948006,-2.588221277749361,28.55314628980309,4.516430119613672
4.000433505035339,17.81322479806844,-11.548478917424326,-2.612936917863856,28.643869625920253,4.5601539358327186
4.034965553595912,18.322876645847703,-12.145021159136896,-2.637621072156465,28.729096289355738,4.603780781949813
4.059134560742404,18.67511744290893,-12.554785472828007,-2.6548406684543324,28.785448920921525,4.634191226817613
4.03630911619481,18.741947623776756,-12.631462655487754,-2.640199925077682,28.796335874836767,4.608841093768334
3.6683349999454875,18.763340177675794,-12.645601373810798,-2.399872294942955,28.805192958302637,4.19135259257448
3.1021099806250776,18.792242956347863,-12.66469178865514,-2.029843071135995,28.817150472146064,3.5488673926974674
2.5301601004400096,18.816508966671083,-12.680712786113999,-1.6558391760915019,28.827212987385092,2.89981434344115
1.955087406429255,18.83592410593597,-12.693522970714028,-1.2795994062085134,28.835248470676337,2.2471570573296877
1.3824423356040807,18.850303026535244,-12.703010178084,-0.9047992236770946,28.84122855798223,1.597209339795043
0.8080062736547625,18.859765339486483,-12.70924887770683,-0.5287213847085422,28.84513919249334,0.9451958380113411
0.23431846564631043,18.86426197466432,-12.712216252407252,-0.15307128241171666,28.84702184544787,0.29401271377109234
-0.33892625881618116,18.863811343969182,-12.711917564910918,0.22230567592848527,28.84681867340878,-0.3566729022714932
-0.9120423569604431,18.858421959006183,-12.708366111009829,0.5975738352117003,28.844597851865895,-1.007204805614388
-1.484876139910838,18.84809635298189,-12.70155475638207,0.972586078864195,28.840297279224075,-1.6573942123979037
-2.0594252549907335,18.832776532554355,-12.691451033185784,1.3486098541059486,28.83396005017717,-2.30949620614678
-2.632593162143144,18.812531599928363,-12.678089761630762,1.7235702561919886,28.825553888225954,-2.9599809585025088
-3.204097996982388,18.787402667247697,-12.661501954920722,2.0972460492345104,28.81516507152766,-3.608517776796911
-3.7506575427250946,18.7587407261041,-12.642567501500142,2.454381911310992,28.803292140055877,-4.228675486785717
-4.042955512608094,18.741551279239506,-12.63121102469665,2.6452766195712463,28.79621324825703,-4.560303079925091
-4.066081056470838,18.74666219484129,-12.501764417721724,2.656942377581152,28.66073818151946,-4.579396339067246
-4.074392749857992,18.76650423098301,-12.034261017519487,2.6501355924219405,28.173532774704555,-4.563123430395467
-4.083741588311736,18.782712059780316,-11.506641946238478,2.6428856080576164,27.629857245654293,-4.5451991182608475
-4.09318102112078,18.792666849753342,-10.972061481989005,2.635985743503232,27.08546854444608,-4.52749097410654
-4.10269356442465,18.796341285978233,-10.431526371387255,2.6294437534458477,26.541400602163385,-4.5100243842296015
-4.112215664245319,18.79378352496366,-9.888687292119704,2.623293423284605,26.00125520809213,-4.4929040889240515
-4.12172916809218,18.785149741822757,-9.344639641757588,2.617532010857482,25.465971605404192,-4.476146649798208
-4.131247170955152,18.77057900263529,-8.79869382139703,2.6121376490080723,24.9347215788002,-4.459713479643849
-4.140670676687279,18.750448251763036,-8.256606560841503,2.6071484144074963,24.412883938606864,-4.4437564322613765
-4.15013516887734,18.724653876445476,-7.710650360074873,2.6024774727218256,23.89283678810693,-4.428029749455203
-4.159159452100683,18.694976456150663,-7.1887233992077775,2.5983306250321716,23.400692400652844,-4.41330239779954
-4.163331892824986,18.681267504396224,-6.9538561779939405,2.596613286837426,23.1795760551841,-4.4068361079355
-4.180062899346895,18.915401409904185,-7.223328182910148,2.6077097783587226,23.21413415916179,-4.426386421830524
-4.21601527343089,19.412789230397305,-7.792870049351965,2.6315017257088282,23.284603995402065,-4.468257513431984
-4.254767941333925,19.940389476293294,-8.392663049688094,2.657066759491415,23.354968979770597,-4.513179763411218
-4.294629690753441,20.474148135092346,-8.994892692539393,2.6832774679140536,23.421546529447422,-4.559164102878457
-4.3350793548450515,21.006809284804724,-9.591294877303975,2.709786396531055,23.483352411113376,-4.605599017261915
-4.364290544888625,21.386021499214007,-10.013085162646679,2.7288752428218146,23.524524376768422,-4.638992215422746
-4.344352083489075,21.43404021199462,-10.065644265366453,2.716537170045891,23.529989314861968,-4.617931899771432
-3.9930875770058054,21.18681877460714,-9.781895973464668,2.4967475628157816,23.509177908018067,-4.240956815724787
-3.473655996185666,20.814758406543028,-9.354586662100953,2.1716993788961565,23.47470681568378,-3.683827898314863
-2.9501988258698413,20.431808554944674,-8.914358785898113,1.8441315162774807,23.435433013449302,-3.1228129585748112
-2.426787687491396,20.04063873448919,-8.464173122555742,1.5166406067052354,23.391476008429976,-2.5623375703484284
-1.9096676257511356,19.645843389082405,-8.009219254387572,1.1931819755286877,23.343306793297227,-2.009138877636749
-1.3987081608723553,19.247396360810697,-7.549378602546912,0.8737187049473599,23.290943029096915,-1.4631176705490885
-0.893431380621407,18.844984645421444,-7.084201198428757,0.5579946451845001,23.234356597111713,-0.9238039211157334
-0.38724847986956434,18.433243669639644,-6.607379849503904,0.24193793570257147,23.172730082537615,-0.38421900381529733
0.11232397504850414,18.018190702647896,-6.125777079589782,-0.06971428282989568,23.10690772884972,0.14757111361999153
0.5344392480600015,17.660576453707073,-5.710012694569115,-0.33279493146999484,23.04729605048183,0.5962782333156802
0.7319522561725765,17.491023184723243,-5.51261710201741,-0.45580866075340415,23.018132729238612,0.8060275824446649
1.1756388763943855,17.104868512420715,-5.062366286461766,-0.7319136253753403,22.949531285835462,1.2766729555638126
1.6720767455401684,16.66395269431741,-4.5470602077292135,-1.040443810704302,22.867632895456442,1.8023702107641877
2.163830500198703,16.21771202220873,-4.024163413468778,-1.3455962758455564,22.78097470037129,2.3220905065487303
2.643900719161077,15.772688480422543,-3.5012645461633474,-1.6430028509330936,22.690880942610768,2.828410265904111
3.111862431006115,15.329691597737373,-2.9792761482704893,-1.9323909788005067,22.597653704707717,3.3208832713337366
3.568279303443557,14.888613424835338,-2.4580440320991275,-2.214113669403632,22.501441421450398,3.800123747388259
3.8600486675900165,14.60185915496379,-2.118347445285198,-2.393903316127307,22.437070718092762,4.105868791011334
3.883956780405814,14.531561575028665,-2.134676592143867,-2.4102089149932424,22.522643928349027,4.135043696057337
3.860612056720905,14.324589282783462,-2.376739962059579,-2.4036330701698407,22.9722417281224,4.130772361881054
3.833213665136168,14.073143510294498,-2.6593775708604603,-2.3961770671023475,23.50698011338306,4.125940281363681
3.806300302849846,13.8168842707232,-2.9353191332168542,-2.389138351974602,24.039819233545963,4.1213931683286065
3.7803429013257763,13.5607345364866,-3.1997071684188563,-2.3826279044218226,24.560967766239838,4.1172042021683115
3.766375109726561,13.419143240401668,-3.3412058557353204,-2.3792413286539564,24.844384384599504,4.115033313791653
3.7597242255325702,13.350781622037605,-3.4083820929039748,-2.3776581414888933,24.980077267175457,4.1140206823156475
3.744473789699195,13.191700796020823,-3.561910744111454,-2.3741006783949103,25.293040983064987,4.11175115223073
3.719043173370293,12.919075106364243,-3.816273766015224,-2.3683991913339715,25.820616516297164,4.108133812210907
3.693645959014088,12.637376922490308,-4.06809038436442,-2.3630026885158455,26.354712431897823,4.104738530130925
3.668656189402909,12.350705408647963,-4.313531105768527,-2.357994211863346,26.887391534865255,4.101619872532553
3.6525552826170995,12.160875810301771,-4.470355085737639,-2.3549310867417743,27.234407708158308,4.09973217081506
3.645863564471834,12.080775236130277,-4.535215403618207,-2.353696711787811,27.379518682087525,4.098976502689566
3.472491356490264,12.08549416518577,-4.547010311971997,-2.2421198125692396,27.39349278979031,3.9058859467791063
2.9843350561845705,12.111165970410742,-4.566242863136166,-1.927251197350697,27.40466892325981,3.36090335520467
2.4414417373950434,12.135138942627053,-4.5841952231710446,-1.5768779404283346,27.415117955051485,2.7547296611523127
1.8962107142660904,12.154373231387048,-4.5985897367251525,-1.2248220066149593,27.423476673039982,2.145872080542567
1.35503293889083,12.168675944081281,-4.60929342773102,-0.8752507195489253,27.4297204995157,1.541487220068749
0.8087075830466228,12.178281946740931,-4.616481189641075,-0.5222580699584609,27.433918591848332,0.9313136075957107
0.26598345567746096,12.183020898956233,-4.620027473547378,-0.17153482090043162,27.43599506621749,0.325138272503484
-0.27575245197758413,12.182977878677063,-4.619992834247975,0.17856787534416588,27.43595278243811,-0.2799420128868115
-0.8221102347440084,12.17810578279121,-4.616349928746261,0.5316384450036341,27.433836610762274,-0.8901754748714822
-1.3629442467946875,12.168504061829475,-4.609168207602886,0.8810819089169786,27.429657811866555,-1.4942155666438024
-1.9069603674948095,12.15404497585345,-4.598350304911505,1.2324853426885167,27.42336315971224,-2.101769833000813
-2.4515642838385223,12.134739935122044,-4.583898009927739,1.5841311490341894,27.414928287015112,-2.709924445149709
-2.9943317309130864,12.110684936079316,-4.565887022942176,1.93442038319784,27.40446172878218,-3.3159565296320794
-3.4712521947069552,12.085570923182308,-4.5470739664714745,2.2420405688386436,27.393536911722624,-3.8483948262819077
-3.6456359165448013,12.076031140102486,-4.537946300933736,2.3544306553982626,27.387028924936903,-4.042961346491238
-3.652975422890818,12.14345914169474,-4.351661499176453,2.3537842614630096,27.13323139601169,-4.039414696574344
-3.6682125292144554,12.278392676533176,-3.963790453836849,2.3526789678128543,26.610248103349264,-4.032250609904936
-3.6839997310581127,12.411165766559867,-3.5603785868329703,2.3518604707711814,26.07387410963132,-4.025100465530049
-3.700028011807419,12.538838748912909,-3.149302889569109,2.3513571727625417,25.534929646499656,-4.018112058380319
-3.716241186912616,12.660873703973323,-2.7320414241298723,2.351171710082065,24.99543139762674,-4.011308000845965
-3.7326696013140337,12.777433168071761,-2.3078566381911862,2.351303641447116,24.45447892560908,-4.004672775500558
-3.7492553239811777,12.888062517597794,-1.8782928338416294,2.351751583594369,23.914071930789373,-3.998226245166211
-3.765880251297871,12.992044931335345,-1.446478490177709,2.3525065385396635,23.378057334254464,-3.9920068257969032
-3.782719986481797,13.090516637479842,-1.0079156901618416,2.353572367552945,22.840798769751014,-3.9859426549137487
-3.798272906184103,13.175502888978999,-0.6018972756648686,2.354816706651271,22.34958425745258,-3.980542735368909
-3.8045361157251847,13.208145352712853,-0.4381454520190876,2.3553864173125634,22.153104702911868,-3.978420637255431
-3.81020335534628,13.291777954709831,-0.5114673669581173,2.3587146212123495,22.14257549366384,-3.9839249018879848
-3.834108503660559,13.686739214384763,-0.9989647997936535,2.3750442191186054,22.23407010781229,-4.013211368297395
-3.8643540110070207,14.179553277439343,-1.6038746378264783,2.3956580620175214,22.34484082848788,-4.050121241377025
-3.8831921880337372,14.482698587131397,-1.9741099088578888,2.408470755166177,22.411101408701246,-4.0730299453025385
-3.8885270563544827,14.570495310042938,-2.0881545486457926,2.4122279245544878,22.43710713491882,-4.079853417380451
-3.8730118226914203,14.434476680656232,-2.2493249857229802,2.4078113881552876,22.73467071358349,-4.076986405170517
-3.8460082360009396,14.190775638622481,-2.528675681396757,2.4003379624711094,23.258370383233206,-4.0721434902225235
-3.818902718526085,13.936997375986627,-2.807459964695536,2.3931178152850783,23.79157824899559,-4.067478124156183
-3.7921655478829943,13.677373388540609,-3.080696797179461,2.3862828075520692,24.325070548321353,-4.063078073764829
-3.7703905246150344,13.458896742094188,-3.3018116164798332,2.380934631821663,24.765172500780043,-4.059649769761224
-3.7616809921915744,13.369700147026288,-3.389873708131687,2.3788518809854655,24.94263440192216,-4.058318899918445
-3.7539918544782696,13.29007988681327,-3.4674306653675186,2.377040434403807,25.099990560350236,-4.057163585045637
-3.730969683730317,13.046707577587428,-3.6985443627605052,2.371772768126686,25.57500970011689,-4.053817218840073
-3.7055083290982016,12.76865019547364,-3.9521010663006853,2.366227073633833,26.10720872661076,-4.050320166668964
-3.680270295030154,12.483520271550658,-4.201143747744496,2.3610312217063427,26.641956190574348,-4.0470749456753925
-3.658089001432835,12.224810092095051,-4.418034913226258,2.3567527233193166,27.118033002990938,-4.044410358946747
-3.6486022285483846,12.111828262973031,-4.510165841657735,2.3549851314029064,27.323358859437995,-4.043328270201223
-3.6469287503500185,12.099326830331016,-4.569742422364034,2.355439448235659,27.395444184074766,-4.044796845928616
-3.6647738441454654,12.412063702576706,-4.965246320898105,2.3687132261188,27.477411957356658,-4.068557468758503
-3.692483167814645,12.891956967698336,-5.569150673089916,2.389274562138386,27.600175929367722,-4.105325296602807
-3.7212862310360575,13.383622138329724,-6.184090074208951,2.4105830124839898,27.72214603500817,-4.143382489325753
-3.750539017091061,13.875710474405357,-6.7957074752906,2.432156584410599,27.840342525489888,-4.181866965119054
-3.7805144165057807,14.372605583488403,-7.4093685461792465,2.454192161162423,27.955734578305915,-4.2211297043264
-3.8110830680777057,14.871909778267137,-8.022004838096834,2.4765896940585366,28.06765684040699,-4.260991937705035
-3.8423413078187525,15.374964127415248,-8.63516644270118,2.4994148626954504,28.17631337852322,-4.301570211227632
-3.874309685681689,15.88183379815505,-9.248819960966598,2.5226772691246415,28.281604102506076,-4.34288107079874
-3.906944704969096,16.391578407792906,-9.86172293934389,2.54633985338352,28.383228403171547,-4.384858286483485
-3.9403341905054035,16.905314325137304,-10.4751119768697,2.5704606694476184,28.481301787674933,-4.427604418917256
-3.9745112282249226,17.423260872544102,-11.089125006655749,2.595057430950084,28.57574064153852,-4.471150253537691
-4.00894879254763,17.937318508796075,-11.694136390645344,2.619746636276481,28.665043530827795,-4.514817207636326
-4.042780472738503,18.434909615140956,-12.275583802753996,2.6439087296790955,28.747267500884387,-4.557512319514781
-4.061848550290926,18.712202716619593,-12.597815478331242,2.657486449325991,28.79128148940257,-4.581487953723874
-4.0654847738590565,18.745043236359944,-12.535111189366651,2.657427460093922,28.695671804277165,-4.580554386457879
-4.0733277854451195,18.764253115815045,-12.094112769213524,2.6509720139715736,28.23559612796882,-4.565168751431015
-4.082478854563056,18.780896737486305,-11.577881933423386,2.6438240524534877,27.702870608007903,-4.547575925688509
-4.087525411880201,18.78746769834058,-11.292440969045563,2.6400538176083654,27.410938243670298,-4.538033493675651
-4.092339419232165,18.792036899355026,-11.019665466306945,2.636568131704578,27.133667784702755,-4.529033269498454
-4.095548174334008,18.79417111065879,-10.837587707445698,2.63430383723381,26.949504426927664,-4.523088660109864
-4.098496134694769,18.79549588023931,-10.670127473910766,2.632264588215795,26.780763480223893,-4.517664897680674
-4.100186194938446,18.795982128219226,-10.57404528121706,2.631113047434436,26.684220038851144,-4.514571566394409
-4.104627919968571,18.796319860223143,-10.321261301276268,2.6281467943656396,26.431163147333503,-4.506496880723711
-4.113617613791762,18.79288625763662,-9.808488687003692,2.6224050447041978,25.92195151722496,-4.490392775666304
-4.123032097714678,18.78349796156837,-9.26987004312296,2.6167565897904197,25.392849315024023,-4.47385765193906
-4.132445046964844,18.768326731458426,-8.729741617105953,2.6114690083914462,24.86801512179978,-4.457648196842139
-4.14191379994123,18.747369495091817,-8.184853808833363,2.606500611721984,24.344203362167253,-4.44165430355011
-4.151343655215441,18.720974122146842,-7.641029798565282,2.6019268235764175,23.826884677114254,-4.426058048119924
-4.160116883628458,18.6915533180095,-7.133473778853376,2.5979295161532647,23.348851228510313,-4.411770039677137
-4.163845131013906,18.68842545162155,-6.962105205024079,2.596971695071567,23.180617834293734,-4.407441850684529
-4.184073367219164,18.971219086764652,-7.287437903574128,2.610385080364749,23.222213463820736,-4.431071905611865
-4.220938656573567,19.480253590368186,-7.869812508086497,2.6347720220925344,23.293825165928848,-4.473982153381406
-4.2598550704682525,20.00895592119133,-8.470279576719703,2.660434344381206,23.36375273429348,-4.519066239925211
-4.300136774221137,20.54714345044728,-9.076891521198922,2.686909533004776,23.43026193910145,-4.565504939392906
-4.340160249563564,21.073043912499525,-9.665131613676005,2.713127683513403,23.4906849964494,-4.611421235920472
-4.366041182698585,21.408556472868348,-10.038074105967297,2.730035529025186,23.526868371869686,-4.640995322736132
-4.3133911792279855,21.42875641770799,-10.058905329322636,2.6972195450230285,23.529945803603336,-4.584793753039956
-3.901095854526055,21.259366655076324,-9.859983338738735,2.439483332959291,23.51855074593869,-4.142975580172653
-3.328965568507222,21.019046694564363,-9.579074483216457,2.081737078584367,23.50011894171648,-3.5301392195708536
-2.7490475769797786,20.769110617994606,-9.288407365075978,1.7190531206792183,23.478263496574563,-2.9092999820754164
-2.183733779948991,20.51920552914866,-8.99913468056469,1.365482787862602,23.45381615700934,-2.3044552416291655
-1.6099014516557937,20.25909002735728,-8.699336669572745,1.006611978271128,23.42576206047007,-1.690892502697796
-1.043496996911451,19.995852436028414,-8.397145745166778,0.6524590485369927,23.394848838013235,-1.0856919681445236
-0.48543080758972534,19.73005874125908,-8.093114906963324,0.3036360495569599,23.36117613294609,-0.4898445911029995
0.07127100620803649,19.458426988675136,-7.783414743152449,-0.04417411759207072,23.324343870574644,0.10407305709960113
0.6268706685057555,19.180739065377924,-7.4677370410363775,-0.3910888427781948,23.284260354890375,0.696303673189918
1.1783959322246769,18.89843867106954,-7.147665235867514,-0.7352150800415921,23.24118367255547,1.2836594762415232
1.727775077265901,18.61051083392766,-6.821977121762244,-1.0777134242647939,23.194919526615045,1.8681610151887595
2.27689695944386,18.315863689908795,-6.489376068916173,-1.4197185708541498,23.14526037974857,2.451782777729327
2.8203811181239202,18.01734650805879,-6.1530086332369125,-1.757840533131218,23.092676078271072,3.028776310245569
3.3629401610751,17.71234257335277,-5.809854030324369,-2.0949736402689996,23.036698074530346,3.604115156958819
3.8661298125270505,17.423084735620005,-5.484813837511386,-2.407235210692501,22.98160099252428,4.137067563934474
4.067145743797409,17.303774770235357,-5.355139146499463,-2.531933347222188,22.962753403128275,4.349983675004747
4.0515453975882965,17.17482645755612,-5.504772911555016,-2.5274777294037443,23.241737945187825,4.346768261297291
4.022534584799079,16.92811401297895,-5.782132236005727,-2.519417889211449,23.76655350654375,4.340952969005906
3.9932153480003025,16.669370031666308,-6.06111061052136,-2.511581081809138,24.30502132595142,4.335302011995495
3.9645048038656117,16.406508217955963,-6.3328371359441284,-2.504220085682016,24.84033344877021,4.329999976392101
3.946682520111056,16.238467026888163,-6.500711515675276,-2.4998121546112957,25.176695168451104,4.326829103533046
3.9391062642189603,16.16587820032033,-6.571875828013336,-2.4979767896818297,25.320637225372902,4.325509998087494
3.9256879408802687,16.03560024313643,-6.697609632530891,-2.494783482076872,25.576982486739016,4.323216879120333
3.8986899199096605,15.766702745497408,-6.949336381222395,-2.4885856584635473,26.098273455142888,4.318774959675632
3.8711472859033877,15.48279568946973,-7.20427456651612,-2.482586150620491,26.63779285797062,4.314489724416198
3.8440948637863777,15.194205768044698,-7.452665487658037,-2.4770243174267716,27.17542982474927,4.310534774445889
3.818814153870442,14.91551154553838,-7.682826776025759,-2.4721351886147414,27.684892960607332,4.307077382120524
3.8071055287653044,14.783412215687607,-7.788738162600023,-2.469975077208217,27.92318325324317,4.305557204527725
3.7909860696323836,14.722053819678434,-7.838220099200681,-2.462068219107831,28.034610141367125,4.292855859163305
3.4813517711228,14.739841386470177,-7.850918598676862,-2.2612559362889404,28.042216055961344,3.9446384654283366
2.9438525537256583,14.767101292211283,-7.870364178336198,-1.912475977533672,28.05382299972985,3.340089502502736
2.3911615223518283,14.790357908825786,-7.886949735625148,-1.5536302115077298,28.063762746425468,2.718377777854832
1.835300952473844,14.808875413710963,-7.900150883748332,-1.1925521178611305,28.071686002941895,2.093035717725991
1.2784267636653388,14.822534866399113,-7.9098823793835855,-0.8306806367476184,28.07750473425058,1.4665017667339075
0.7233761858633462,14.831285620601106,-7.916118463860421,-0.46990107453806595,28.08125790638235,0.8419861056185846
0.16698352733388924,14.835186674003992,-7.918899145831499,-0.10819601436531555,28.082937826835426,0.21594056194345887
-0.38990975941450756,14.834209134095437,-7.918200745169343,0.2538459959604811,28.082499311413372,-0.41067358186055847
-0.9470379803756456,14.828345188191157,-7.9140252161966,0.6160129656020544,28.080003192033175,-1.0375407203007396
-1.5025566733273674,14.817628577842658,-7.906391606409881,0.9770646895822632,28.075433258560732,-1.6625712163179251
-2.0590576353972523,14.802011520144704,-7.895259875907403,1.3386428863670152,28.068739093072384,-2.2886659574496986
-2.6131215512113224,14.781604016653164,-7.8807130701381,1.698489846715339,28.060034670073392,-2.911963088819553
-3.1687105137457525,14.756261326271993,-7.8626401849161445,2.059136960990194,28.049230784292394,-3.536904962098103
-3.6457929300728678,14.730590988114209,-7.844320168127715,2.3686368709142487,28.038258251773996,-4.073471523551822
-3.8019095829677094,14.721595657542807,-7.8321482503492685,2.4697426436929732,28.028554347234138,-4.2487548590328625
-3.8062529403872123,14.729906202670875,-7.55047577277538,2.4659458050996728,27.738654552370306,-4.239501290439203
-3.8142392232444675,14.740585171064865,-7.030946424856503,2.4592469108960007,27.208595437870557,-4.222742180215554
-3.822405613147635,14.745453542206649,-6.497595442323941,2.452764064234205,26.67052372017182,-4.205935276645978
-3.8306229322835765,14.744308802919969,-5.958826319550414,2.4466024285616377,26.133043096912324,-4.189346081762317
-3.8388207219555497,14.73725703905107,-5.419301836978586,2.4408044038899552,25.600709230077324,-4.1731047763511295
-3.846956873079729,14.724547484379213,-4.881875687202137,2.435382924020225,25.076126147174968,-4.157277144718135
-3.855203390161922,14.70598464628916,-4.335219777207162,2.43021508145179,24.548164240464747,-4.141518492018293
-3.8633518704869383,14.682144544530466,-3.7931930855342113,2.4254216393371175,24.030103341827513,-4.1262157231133685
-3.8715775586434646,14.652653511938203,-3.2441928519066954,2.4208881466601855,23.51071726753807,-4.1110271110231995
-3.8797972891989763,14.61785477634084,-2.6937913271017195,2.4166547079000225,22.99523393093103,-4.096098454973371
-3.8869921876972846,14.583110654470222,-2.2105719381491413,2.413185332206121,22.546860420895953,-4.083226967314132
-3.890297308985747,14.596308718190363,-2.1124948658611755,2.413291596605154,22.435548044009582,-4.081646354872369
-3.9104472810848327,14.916276821734362,-2.501166614551844,2.426965784654208,22.503359835725842,-4.106058549605789
-3.9422967863097442,15.415582172060882,-3.104500089453086,2.4485320970278974,22.60597100011158,-4.144505389964583
-3.9753406954037134,15.925499424761055,-3.7166370402884037,2.470845828565623,22.70671120102891,-4.184215962274649
-4.009238785687571,16.440283404356176,-4.330479279329655,2.493671556442328,22.804241800598113,-4.224767821162002
-4.043130868840016,16.946823356888217,-4.9304173810250695,2.5164277812712093,22.896102548312395,-4.265128155405729
-4.064136454170391,17.256786642052855,-5.295533739607428,2.5304988416142145,22.95029776184004,-4.290051483130191
-4.067466143021429,17.305646161111465,-5.352948484952063,2.5327270149830214,22.958700802574537,-4.2939958592151655
-4.067466143021429,17.305646161111465,-5.352948484952063,2.5327270149830214,22.958700802574537,-4.2939958592151655
-4.067466143021429,17.305646161111465,-5.352948484952063,2.5327270149830214,22.958700802574537,-4.2939958592151655
-4.067466143021429,17.305646161111465,-5.352948484952063,2.5327270149830214,22.958700802574537,-4.2939958592151655
-4.067466143021429,17.305646161111465,-5.352948484952063,2.5327270149830214,22.958700802574537,-4.2939958592151655
-4.067466143021429,17.305646161111465,-5.352948484952063,2.5327270149830214,22.958700802574537,-4.2939958592151655
-4.067443470813896,17.305603127370702,-5.35283929156927,2.5327129183927064,22.958440138892932,-4.293971905319928
-3.9802221104574618,17.14004971114545,-4.932765711369431,2.4784824786832944,21.95565111305215,-4.201819814463484
-3.893041164449833,16.974573004724796,-4.51288677385947,2.4242771668542256,20.953326733317596,-4.109710422628562
-3.806011116795307,16.80938271596326,-4.093734589649101,2.3701656770431425,19.95273724067824,-4.017760459615759
-3.6929244694417944,16.594734827850456,-3.549089188196333,2.2998533294005186,18.652573513905278,-3.8982808853579742
-3.543066895304965,16.310292654004552,-2.827348465161661,2.2066784224050844,16.929652314678094,-3.7399516787169698
-3.394336888888674,16.02799069773147,-2.1110383087605364,2.1142045878652627,15.219694826764602,-3.582813782582993
-3.2447677011115514,15.744095905247738,-1.3906865057118412,2.0212089869369345,13.50008922219835,-3.424789265136389
-3.0953690346648526,15.460524776470642,-0.6711559637106547,1.928319408738484,11.782444111232769,-3.266944908800204
-2.9455704419430817,15.176194554269575,0.0503006943416809,1.8351811738158115,10.06020102474664,-3.1086780178660076
-2.7959808535185173,14.89226103965558,0.7707507505358727,1.7421728886542096,8.34036087275655,-2.950631946498335
-2.6464558386364043,14.6084500910106,1.4908898090678757,1.6492047525064097,6.621263126519652,-2.7926540990946838
-2.4970379399346387,14.324842457809416,2.210512977029129,1.556303216530133,4.903396901204964,-2.63478942328046
-2.347783325967068,14.041544752651694,2.9293497366770396,1.4635032038836584,3.1874079699254656,-2.4770972628867662
-2.197835767459511,13.756931780965443,3.6515238404411443,1.3702723485291117,1.4634522151823683,-2.318672984948169
-2.048945505047478,13.474325645447081,4.368605818212686,1.2776988737970287,-0.24834774518510458,-2.1613657733504157
-1.8993340924320106,13.190350706698615,5.089160983590798,1.1846770193048857,-1.9684388111605462,-2.0032966440435556
-1.749847993227827,12.906613623255913,5.809112617298345,1.091733079229207,-3.6870891415969864,-1.8453599122688473
-1.5998628505324635,12.621929313646682,6.5314677331937245,0.998478855665055,-5.411477003921573,-1.6868959254622
-1.450816701591609,12.339027292495668,7.249300488206058,0.9058084574847689,-7.125069200729054,-1.529424014878917
-1.3014259590940374,12.055471204034875,7.9687928670593005,0.8129238060524646,-8.842623209593114,-1.3715880304424246
-1.151343805514133,11.770602759676072,8.691615204624018,0.7196092653492109,-10.56812641166942,-1.2130215486069251
-1.002304630468044,11.487713975558945,9.409414372119139,0.6269432032326837,-12.281638429205335,-1.0555570061612347
-0.852537733316556,11.20344391419369,10.130718378669243,0.5338246752339366,-14.003517109886314,-0.8973236025867912
-0.7033385432457139,10.920251408214314,10.849288206975658,0.44105912275040476,-15.718868829418813,-0.7396899992706987
-0.5538491345934641,10.636508043163174,11.56925577957354,0.34811312500418423,-17.437557208771125,-0.5817497709607652
-0.4039793331175238,10.352042660807879,12.291055391647491,0.2549306155823065,-19.16061898642342,-0.4234076457541704
-0.27803879469738324,10.11299701543503,12.897607418011765,0.17662627880225729,-20.608564642396892,-0.2903475341992134
-0.1909497785044805,9.947694799469673,13.31704360518808,0.12247812492457257,-21.609832099733342,-0.19833526908421892
-0.10397018190964659,9.782600271027057,13.735952808124333,0.06839800338313952,-22.609841553620782,-0.10643860919140291
-0.016950274619230564,9.617429229522308,14.155056154538105,0.014292818408420463,-23.61031446190734,-0.014499359789932305
0.0019359138427548312,9.581581668711765,14.246015396301065,0.0025502097109314417,-23.82745006323533,0.005454488074496426
0.0019359138427548312,9.581581668711765,14.246015396301065,0.0025502097109314417,-23.82745006323533,0.005454488074496426
0.0019359138427548312,9.581581668711765,14.246015396301065,0.0025502097109314417,-23.82745006323533,0.005454488074496426
0.0019359138427548312,9.581581668711765,14.246015396301065,0.0025502097109314417,-23.82745006323533,0.005454488074496426
0.0019359138427548312,9.581581668711765,14.246015396301065,0.0025502097109314417,-23.82745006323533,0.005454488074496426
0.0019359138427548312,9.581581668711765,14.246015396301065,0.0025502097109314417,-23.82745006323533,0.005454488074496426
0.0019359138427548312,9.581581668711765,14.246015396301065,0.0025502097109314417,-23.82745006323533,0.005454488074496426
0.0019359138427548312,9.581581668711765,14.246015396301065,0.0025502097109314417,-23.82745006323533,0.005454488074496426
0.0019359138427548312,9.581581668711765,14.246015396301065,0.0025502097109314417,-23.82745006323533,0.005454488074496426
0.0019359138427548312,9.581581668711765,14.246015396301065,0.0025502097109314417,-23.82745006323533,0.005454488074496426
0.0019359138427548312,9.581581668711765,14.246015396301065,0.0025502097109314417,-23.82745006323533,0.005454488074496426
0.0019359138427548312,9.581581668711765,14.246015396301065,0.0025502097109314417,-23.82745006323533,0.005454488074496426
0.0019359138427548312,9.581581668711765,14.246015396301065,0.0025502097109314417,-23.82745006323533,0.005454488074496426
-0.005531399975410271,9.579301119963748,14.24670655366594,-0.004086877364722914,-23.822715803984682,-0.00010442675480568782
-0.005531399975410271,9.579301119963748,14.24670655366594,-0.004086877364722914,-23.822715803984682,-0.00010442675480568782
-0.005531399975410271,9.579301119963748,14.24670655366594,-0.004086877364722914,-23.822715803984682,-0.00010442675480568782
-0.005531399975410271,9.579301119963748,14.24670655366594,-0.004086877364722914,-23.822715803984682,-0.00010442675480568782
-0.005531399975410271,9.579301119963748,14.24670655366594,-0.004086877364722914,-23.822715803984682,-0.00010442675480568782
-0.005531399975410271,9.579301119963748,14.24670655366594,-0.004086877364722914,-23.822715803984682,-0.00010442675480568782
-0.005531399975410271,9.579301119963748,14.24670655366594,-0.004086877364722914,-23.822715803984682,-0.00010442675480568782
-0.005531399975410271,9.579301119963748,14.24670655366594,-0.004086877364722914,-23.822715803984682,-0.00010442675480568782
-0.005531399975410271,9.579301119963748,14.24670655366594,-0.004086877364722914,-23.822715803984682,-0.00010442675480568782
-0.005531399975410271,9.579301119963748,14.24670655366594,-0.004086877364722914,-23.822715803984682,-0.00010442675480568782
-0.005531399975410271,9.579301119963748,14.24670655366594,-0.004086877364722914,-23.822715803984682,-0.00010442675480568782
-0.005531399975410271,9.579301119963748,14.24670655366594,-0.004086877364722914,-23.822715803984682,-0.00010442675480568782
-0.005531399975410271,9.579301119963748,14.24670655366594,-0.004086877364722914,-23.822715803984682,-0.00010442675480568782
-0.005531399975410271,9.579301119963748,14.24670655366594,-0.004086877364722914,-23.822715803984682,-0.00010442675480568782
-0.005531399975410271,9.579301119963748,14.24670655366594,-0.004086877364722914,-23.822715803984682,-0.00010442675480568782
-0.005531399975410271,9.579301119963748,14.24670655366594,-0.004086877364722914,-23.822715803984682,-0.00010442675480568782
-0.005527677052606833,9.57930889350496,14.246687782014703,-0.004086860507386952,-23.822668447313408,-0.00010067397762577786
0.012807585910734491,9.617509087901468,14.15434669754539,-0.004066659138501019,-23.589601112106386,0.018356115605232523
0.053529835534956625,9.701750902622123,13.950030349383976,-0.004468271124015671,-23.073112244007135,0.0591703028944357
0.09669257501174311,9.790147286871806,13.734611749625595,-0.005556560681583145,-22.527356981363553,0.10217489974341931
0.13972627731591952,9.87737426081967,13.520985247038693,-0.007309286536890226,-21.984909621964462,0.1448041461549888
0.18300536617251428,9.964197804521493,13.307274594209433,-0.009733517161022826,-21.441005708750893,0.18744293725372774
0.22663582456039347,10.050822223615443,13.092958295578022,-0.012838489838576085,-20.894296640739157,0.23020560213761468
0.2702126321720438,10.1364440713001,12.880016466320738,-0.0165922942198788,-20.349824845198544,0.27270727468592143
0.31369292879572075,10.220993292152713,12.668632637707251,-0.02097857306779482,-19.808070267955724,0.31492114224012024
0.35765191090421417,10.305586032014737,12.456004961797943,-0.026054885723254595,-19.26183922796395,0.3574168408972106
0.40150527539861497,10.389095414936325,12.244954446217575,-0.031753584555868845,-18.71836586029328,0.39964057606631437
0.44557023988833616,10.472130974119246,12.033939616335479,-0.03811019239936083,-18.173679583701762,0.4419103399322358
0.48953128954113334,10.554103152715188,11.824457314744318,-0.04507405296491321,-17.631642595860594,0.48393569648760737
0.5339163019099413,10.635994776616212,11.613985805785127,-0.0527284849039499,-17.08571863065796,0.5262323922095103
0.5788404364125089,10.71799772123562,11.401995204971467,-0.061106893824999675,-16.53449262275135,0.5689185394297209
0.623639803136894,10.798895416643665,11.191615743381234,-0.07008784624725452,-15.98608758463054,0.6113741396025726
0.6687379543917208,10.879455028256503,10.98084758509534,-0.07975379527434126,-15.435285136736486,0.6540123819403695
0.7138211951438892,10.959114999148841,10.77115016278275,-0.09003776372996172,-14.88588849659698,0.6965479528911174
0.7590415167797867,11.03814706035277,10.561804917646013,-0.1009717713183833,-14.33601141422457,0.7391359444431843
0.8044635367535818,11.116661001305754,10.352508354672388,-0.1125734807158347,-13.784842945744193,0.781848302515813
0.8497875301415856,11.194142038980454,10.144630006111733,-0.12476399014894278,-13.235986547877822,0.824414695016932
0.8952811752078167,11.27105172543977,9.936929978391998,-0.13761268380476294,-12.686166675591641,0.8670979951619241
0.9407298308150993,11.347029444801931,9.730378061214168,-0.15105774101851918,-12.13794600580846,0.9097080771713391
0.9863353768757613,11.422415074973612,9.524046534490738,-0.1651577793757325,-11.588858058511311,0.9524454308829912
1.0320712874099964,11.49716202674357,9.3180508523038,-0.17990734610368814,-11.039197267421246,0.9952962726939316
1.0780569473526505,11.571459916079274,9.111851707758845,-0.1953498643326964,-10.487507010133555,1.0383836151408954
1.1239208503254554,11.64470979050781,8.907106098479337,-0.21136085920713707,-9.938214877569983,1.0813705189751384
1.169968922251636,11.717403217570938,8.702437735974383,-0.22804640314055924,-9.38762588308929,1.1245548476814147
1.2157528892287748,11.788839260492283,8.499824682951433,-0.24524081682110394,-8.841065559112792,1.1675270423706032
1.2619782715234453,11.860118043232308,8.296138180281677,-0.26321135337711227,-8.290084973275942,1.210960470893848
1.3081735436472268,11.93050532190989,8.09345619071003,-0.28178186642302516,-7.740284541367378,1.2544236488886784
1.3544779166863152,12.00021493579367,7.891158983084819,-0.3010092776324808,-7.189978780458262,1.298058648377265
1.4007625498622682,12.069054182292986,7.689801072384305,-0.3208415747245155,-6.640671032534529,1.3417551541488941
1.4469827918798612,12.136962443743581,7.4895638552870265,-0.34125799541196894,-6.092859634200979,1.3854816229509743
1.4933851027060001,12.204301956551678,7.289372544169037,-0.3623701176286826,-5.5435971903925125,1.4294824252681757
1.5398887160718802,12.270951001306978,7.089573191051987,-0.38414753708863664,-4.993817462247039,1.473692824343506
1.5864133808609553,12.336794248498656,6.890504059017159,-0.4065561406783082,-4.444443559610032,1.5180479199165402
1.6331432405226756,12.40208901652102,6.691373643703848,-0.4296905343899282,-3.893277792553284,1.5627352295930381
1.6799154936404017,12.46660383624866,6.4928727993812405,-0.4534767979656752,-3.3422176381819884,1.6076112740952146
1.7265528549996947,12.530099156917943,6.295742431736852,-0.47782491546897904,-2.7933228606644254,1.6525166260436595
1.7733315317307181,12.592953168841476,6.098806373860701,-0.5028815816812092,-2.2433159862967225,1.6977284557496626
1.8200502500221412,12.654895426039825,5.902905444116634,-0.5285433141825047,-1.6945386083459864,1.7430638975504853
1.86690484992845,12.716185535484037,5.707211992566379,-0.5549222852822117,-1.144665546869615,1.7887247850967092
1.913749895447256,12.77663177219365,5.512328397356103,-0.5819425489318519,-0.5953799116338668,1.8345815941060013
1.9606747196754108,12.836349255949425,5.3178767704050856,-0.609660781868454,-0.04560987899573367,1.8807337879909318
2.0074372416211292,12.895033673695094,5.124850531349013,-0.6379362696236816,0.5018344369924933,1.9269542829786361
2.0544826584960263,12.95324185983769,4.931407427157393,-0.667045188922561,1.0521879949635746,1.9736958184863893
2.1015048354511507,13.010589456858037,4.738805064190493,-0.6968083342683843,1.6018906866447666,2.0206681790411576
2.1485321075683403,13.067112661749059,4.54691975800375,-0.7272483363525853,2.15129817777699,2.0679116141406695
2.1956927620983016,13.122962982940686,4.355224324718849,-0.7584567015980388,2.7019316312424375,2.1155684821332836
2.242631202234439,13.177722472482422,4.165155365442394,-0.790202024681029,3.2496636603081153,2.163291047787863
2.289970237601046,13.232113729135866,3.9741883849559683,-0.8229156632646952,3.8017837047690537,2.211726882096153
2.337082233891441,13.285411615707917,3.7848528132726837,-0.8561743196244076,4.350993181091906,2.2602483326272336
2.3841275068103926,13.337805721456403,3.5964914543696636,-0.8900915661703747,4.899186214375626,2.3090305302429384
2.4314358334503687,13.389658422978028,3.407782285608292,-0.924916991231015,5.450226704837438,2.358430795267004
2.478663366078148,13.440588260818194,3.2200949987557603,-0.9604093808576464,6.0001307699905775,2.4081055778992897
2.525791727200758,13.490580209437375,3.0334929292569552,-0.9965589757830436,6.548707660019385,2.4580472296578004
2.573112852872122,13.539941421314687,2.84681662484401,-1.0336004952139468,7.099377017361604,2.5085802491546554
2.6202674298940356,13.588296251202786,2.6614786675187054,-1.0712622758241734,7.647979128076159,2.559335485215538
2.667402837858491,13.635800377936,2.476890583858588,-1.1096670722713655,8.19625079050905,2.6104837312080296
2.7149149525022844,13.682842943525289,2.2915045592925103,-1.1491560004142964,8.748817030297559,2.6624742229204448
2.762134792821817,13.728758723454229,2.1079277610330838,-1.1891855750199123,9.297918519096271,2.7145913314926555
2.80931599768659,13.773802584230143,1.9251622173226366,-1.2299733078208144,9.8465263012802,2.7671257431177185
2.856647012112249,13.81815057263872,1.7424757292671258,-1.2716963614171488,10.39685214231596,2.820304862534915
2.90380780417704,13.861502623519472,1.5610985074955985,-1.314083734988,10.945195468851551,2.8737848949032414
2.9511568456798756,13.904186663005795,1.3796479731072353,-1.3574705332431676,11.495744671520034,2.927989331162445
2.9983670182850295,13.945905463422609,1.1993744276174214,-1.4015710417893763,12.044716379214448,2.9825614180380873
3.0455518022702672,13.986762416874775,1.019837137428979,-1.446500258715002,12.593449927258362,3.0376469804460586
3.092972614677316,14.026976910915678,0.8400417283261908,-1.492526814530112,13.145005777565364,3.093572791942266
3.140055406669233,14.06606347294571,0.6621587943959186,-1.5391051100112847,13.692726459748496,3.1496782317254897
3.187433233718034,14.10454715492851,0.48379209528591294,-1.5868754360269515,14.243995861015598,3.2067357928838582
3.2347850467042125,14.14215841194609,0.30615201391282004,-1.6355373961010076,14.795098825809266,3.26438325816363
3.282421059605002,14.179134747882971,0.12807653608337774,-1.6854340673250978,15.349666477013434,3.323023660074036
3.3300538123789365,14.21524357158688,-0.04935758944940367,-1.7362899863440608,15.904373159341745,3.3823296563950467
3.3776381135350144,14.250450020243353,-0.22598630294747396,-1.7880734033475296,16.458711676161784,3.4422653370855287
3.4254974143736567,14.28498505205221,-0.40300890062206285,-1.8411623215498576,17.016470933192455,3.5032653575246826
3.473143371394465,14.318492367934601,-0.5786209146137374,-1.8950366273553174,17.57197932482207,3.564731535942484
3.52054817873757,14.35096254722863,-0.7527315827778275,-1.9496705425194083,18.124928164664826,3.6266407892568795
3.568297549516085,14.382791488994618,-0.9274928966524424,-2.0057636861579864,18.682169146061316,3.6897847264353447
3.615595124615563,14.413448796319258,-1.0999948871598784,-2.0623987229907135,19.234426239521405,3.753132239798867
3.6632537651161816,14.443461234789547,-1.2732064604523932,-2.120568698637023,19.791208283343476,3.817795347434311
3.7106483927156635,14.472429739660777,-1.444856325314023,-2.17953763542514,20.345231895062746,3.8829547966826357
3.7580807699559466,14.500542221237534,-1.6160439542322655,-2.2396974512580616,20.90004035709529,3.949046469269482
3.8054823657002728,14.527755002865902,-1.7865240529843518,-2.3009868276473315,21.45485009980728,4.01600298549871
3.851822997091883,14.55350393770673,-1.9526139158913531,-2.362059121376811,21.997608156405803,4.082365839248192
3.876804387734847,14.567033165157424,-2.0419149885395735,-2.395464675129872,22.290355237762753,4.118521820477894
3.888081648661934,14.573059726832497,-2.082174006336046,-2.410657122145341,22.42254579342629,4.134932675122771
3.878377315974001,14.482704677182092,-2.1926103714213836,-2.408615053668705,22.629559344036522,4.134003760537532
3.8523469857629467,14.24973326356018,-2.462157197476732,-2.40134974139091,23.132703166416828,4.129287257745537
3.82517736968824,13.997611956695886,-2.7419414674654554,-2.3940413089997175,23.66525674473124,4.124554968055738
3.798325288664343,13.73915007095558,-3.016725084773269,-2.3871046763103636,24.199137592078642,4.120078842400225
3.7748524042642364,13.505405230603161,-3.2553817747656355,-2.381282939112596,24.67209028588118,4.116337486526064
3.7648452587459027,13.403482501477201,-3.3566573306236496,-2.378871610888155,24.875522328927243,4.114792899176951
3.7584726539135533,13.337858481909818,-3.4209968639219372,-2.377358496085497,25.00563435655844,4.113825401754837
3.737079505748704,13.113397095926265,-3.6360775370549354,-2.3724089851711754,25.44567264568413,4.11067130241567
3.7114583359479623,12.835954972121026,-3.891708691187809,-2.3667520708962932,25.97933568350213,4.107090462794819
3.686171072044219,12.552635889012635,-4.14174915534864,-2.3614689106998954,26.51327234882956,4.103776031985155
3.6622760848508356,12.27597716704602,-4.375793972975026,-2.3567610545522286,27.0245166076864,4.100854207671402
3.6508829769744726,12.140930788262743,-4.486575642831719,-2.3546167050263973,27.270600860396325,4.099535724724745
3.6456266193737354,12.079078997920359,-4.544074164992897,-2.353765084582785,27.390064442749726,4.0991949858983565
3.6588713921049187,12.311616267563979,-4.838374164251325,-2.363620384819473,27.451234345431455,4.116839123561493
3.685631455849564,12.776567154728284,-5.424266093341539,-2.3834900676412243,27.57097248607639,4.152379848150504
3.714169754994972,13.265412870412733,-6.036584335176094,-2.4046176806850506,27.693154624092042,4.190124891143068
3.743234058394631,13.756065121213048,-6.647347369794357,-2.426068174904414,27.811943257172928,4.228400646335101
3.773059430468152,14.252239009846633,-7.261071968779756,-2.4480102785634794,27.928128860168027,4.267507649162683
3.8035070158063213,14.751345756961033,-7.8744348398079795,-2.4703366754508793,28.040982729306076,4.307253963046712
3.834645799131343,15.254270725161106,-8.488421512655115,-2.493092944787351,28.150601329490666,4.347720299933964
3.8664752390175785,15.760743025603954,-9.102590278793725,-2.516273353868737,28.256813303658287,4.388895959526989
3.8989823304394258,16.270308089341597,-9.716287594054144,-2.5398630857622555,28.359419720616064,4.4307542232762955
3.9320740526343707,16.781305011296286,-10.327436378786158,-2.563789644165962,28.458008250140846,4.473166321378533
3.966122791017669,17.299191729373,-10.942438685942413,-2.5883161021359333,28.553504756621248,4.516597951709323
4.000456030796873,17.813559705037946,-11.548872320083944,-2.6129530504113756,28.643927039790636,4.560182461867083
4.0350314485930605,18.323841931159084,-12.146146900869521,-2.637668083422815,28.72925356058225,4.603863831682392
4.059165457112586,18.67556541699612,-12.55530528487768,-2.6548626511140454,28.78551925867292,4.634230037178543
4.0356034598261825,18.741990568752893,-12.631491047650174,-2.639739169786161,28.79635367504958,4.608040521591129
3.6648335399483223,18.763533734279644,-12.645728273982806,-2.397584504623687,28.805264848050903,4.18737947106686
3.103157498315996,18.79219403138843,-12.664659327513155,-2.0305278106312348,28.817128930081637,3.550056020386448
2.5271777179037467,18.81662242746679,-12.680787900640548,-1.6538884589917222,28.82726191198023,2.8964297907692567
1.9555387289612454,18.8359107823786,-12.693513894011875,-1.2798947227628636,28.835240566654832,2.2476692441046673
1.3810950519507807,18.8503309498627,-12.703028341028629,-0.9039172791327821,28.84123802787644,1.5956801136461876
0.8080188464829224,18.859765132786308,-12.709248476372474,-0.5287296483262617,28.845136905002413,0.9452100990434127
0.23524077699402451,18.864258665607803,-12.71221378559356,-0.15367529917844094,28.84701810997455,0.29505962715645295
-0.33833758663838953,18.863814284713676,-12.711919226029092,0.2219201119796591,28.84681758939409,-0.35600468447147815
-0.9126690591643007,18.858413312387402,-12.708360144391968,0.5979840470559119,28.844592062303576,-1.0079161159137067
-1.4849013154749446,18.84809573564521,-12.701554081418003,0.9726024162297705,28.84029480085991,-1.6574227337356973
-2.0588390728481127,18.832794622975772,-12.691462684285296,1.348226110647841,28.83396519463943,-2.3088308509116655
-2.632487694107445,18.81253572266788,-12.678092223898867,1.723501086221523,28.82555345114291,-2.9598611865219695
-3.2055665398526094,18.78733176116285,-12.661454892834794,2.098205755224869,28.815133744210492,-3.6101840807999857
-3.752352973702427,18.758644867022863,-12.642503997852694,2.4554892209459425,28.803251127548183,-4.2305990331941805
-4.0432206833466235,18.741535035806972,-12.631200033724967,2.6454495078195266,28.796204430444735,-4.560603800950221
-4.066066820692637,18.746623824254343,-12.50256213999032,2.6569540387051895,28.661572118515082,-4.579424291066072
-4.074380557835937,18.76647895238341,-12.034946179327706,2.650145031641795,28.17424110196794,-4.563146868517116
-4.083758706652839,18.782735955355832,-11.5056724400015,2.6428724257774423,27.628862203624347,-4.5451664615791465
-4.09320662204557,18.7926852868152,-10.97060744067141,2.6359673002597677,27.083994543544843,-4.5274432732569965
-4.102694858489352,18.796341300234147,-10.431450947399735,2.6294426099537405,26.541323270935596,-4.510021851419231
-4.112265482545218,18.793754042629864,-9.885840952533623,2.6232619821121372,25.998437135340666,-4.492815261630153
-4.1217746433897995,18.785093831550277,-9.342033209134911,2.617505105243103,25.46341978070976,-4.47606719271922
-4.131266427032272,18.770543439737665,-8.797585842915367,2.6121268318749387,24.933647498940516,-4.4596803913229195
-4.140689281532968,18.75040288288593,-8.255532981888264,2.6071386297419283,24.411854046407882,-4.443725056903519
-4.15017000613745,18.724548488588216,-7.708636153895534,2.602460634955307,23.890926471143604,-4.4279722423964625
-4.159193733151621,18.694854318005493,-7.186736387799278,2.5983151602484997,23.39882600710646,-4.413246769730584
-4.163328233248386,18.68121640289119,-6.953797046551362,2.596610623282837,23.179566281753075,-4.406831741369598
-4.180096149392847,18.915865285276972,-7.2238609679238905,2.607731579522134,23.214199602496706,-4.4264251467217886
-4.216059587423422,19.413397829776105,-7.793564274499556,2.631530769477014,23.2846856247876,-4.468308918483054
-4.254843528813919,19.941410262202776,-8.393818878224737,2.657116303220461,23.35509853114869,-4.513267082188937
-4.294700598436778,20.475089913055445,-8.99595095261857,2.683323773504263,23.42165771801763,-4.5592456101595875
-4.335198203537814,21.008361433891395,-9.59302574001258,2.7098639097007373,23.483523505110245,-4.605735022343904
-4.36429048008121,21.386020958253667,-10.01308434161672,2.7288749562785974,23.524522186884187,-4.638992049714361
-4.344230117549972,21.433954913251373,-10.065546167569213,2.7164606159670974,23.52998028850079,-4.617800885621028
-3.993928847120113,21.187415092236403,-9.782580344112661,2.4972737562410092,23.50922803227968,-4.241859372872283
-3.4728550833584055,20.814178636977484,-9.35392030198504,2.171197977314754,23.474648187928583,-3.6829691058133203
-2.9486757566928503,20.43068215884967,-8.913063019474249,1.8431782925466489,23.435309970036425,-3.1211812448500877
-2.426541632358046,20.04045279622467,-8.463958805534087,1.5164865386736015,23.391452338467705,-2.5620741819857376
-1.9059763379363326,19.6429951904111,-8.005934558856683,1.1908734102719563,23.34294422471601,-2.0051920575223945
-1.397288101261072,19.246277204783308,-7.54808575943401,0.8728310725079163,23.290788578431364,-1.461601149124714
-0.8912363429679788,18.8432178441201,-7.0821568309791,0.5566235453170233,23.23409810410146,-0.9214626089432247
-0.3870912847738493,18.433114336457237,-6.607229673238456,0.2418399442734045,23.1727076373774,-0.38405184947369514
0.11431111731588242,18.01652183353768,-6.123838310385006,-0.07095309927558621,23.106632860606823,0.14968437614180824
0.5339636113374038,17.660982856275243,-5.710485332779874,-0.33249835856404975,23.04736251594174,0.5957724599347078
0.7327845919458903,17.490305459842077,-5.5117808519417695,-0.4563266457529641,23.01800531086163,0.8069106807518012
1.1748538841058505,17.10555818427621,-5.0631710437556405,-0.731425103538646,22.949653902095992,1.2758403892382433
1.670409592190899,16.665449118537854,-4.548811085341559,-1.039408108383533,22.86791475847169,1.8006058983448787
2.161540186025183,16.219812660473494,-4.026628012164406,-1.344175841982478,22.78138924933898,2.3196718354514987
2.641518975373644,15.774919421712655,-3.5038892536812476,-1.6415281041048035,22.69133901304922,2.825900146907147
3.1129028877605958,15.328698608640925,-2.978107487109129,-1.9330414497568518,22.59747025117953,3.321988973202455
3.5688230481010064,14.88808239979033,-2.457415370599936,-2.214448465203776,22.50132153163267,3.800693245381842
3.8597454087513943,14.602158980109463,-2.1187027272694667,-2.39371591588717,22.43713641565314,4.105550243366013
3.884055415654136,14.532423132737858,-2.1336502341968715,-2.4102364377459877,22.52075156549193,4.13506094402591
3.8605483197922723,14.324015966863943,-2.3773980046433936,-2.403614709507001,22.9734725519155,4.130759797805324
3.833371173064861,14.074616987078382,-2.657756264927038,-2.396218408927327,23.50387951564962,4.125966379507689
3.80644466274279,13.818284538806807,-2.933842459893366,-2.3891746480900617,24.036936817281926,4.121415911124036
3.780352583283747,13.560832613805694,-3.1996076063783043,-2.382629587494495,24.560767835358085,4.117204614898861
3.7664091036140195,13.419492035309599,-3.340860911917027,-2.3792487718246336,24.84368778806969,4.115037406462022
3.7597256791911584,13.350797504635734,-3.408366153625271,-2.3776577894677264,24.980043346796315,4.114019784056565
3.744475909538858,13.19172402947727,-3.561888195676767,-2.374100467489841,25.29299308737569,4.111750340242821
3.7190232145249826,12.918858404755754,-3.816471319404212,-2.3683941295926156,25.821029165211847,4.108129927608361
3.6937199847001425,12.63821294753681,-4.067358588966016,-2.36301726797358,26.353140860198803,4.10474696372208
3.668682803479587,12.351016835183879,-4.313269825234177,-2.3579986715851198,26.886816161938537,4.101621928279112
3.6525573659801873,12.160901621433819,-4.470333682931721,-2.354930762091795,27.23435838261593,4.09973126022586
3.6458649635523104,12.080793051621033,-4.5352006894173655,-2.353696253726442,27.379484056225877,4.098975508285908
3.473323460678714,12.085446951457497,-4.546974644905662,-2.2426557012447352,27.393469886746765,3.906813785464246
2.987856677138617,12.110994581892545,-4.5661141976610065,-1.9295227226742828,27.404591852196926,3.36483419165327
2.441170369101646,12.135149627851076,-4.58420284621221,-1.576702179363718,27.41511950718614,2.754425665999972
1.897818345458458,12.154323632881457,-4.598552317237841,-1.2258598059043038,27.423452575739272,2.1476665868344393
1.3547554127110961,12.168681958768962,-4.609297504884849,-0.8750710103438597,27.429719624208307,1.5411764734370452
0.8093425923727309,12.178273535461871,-4.616474472366655,-0.5226680623333636,27.43391140720666,0.9320221275618362
0.26715159810453015,12.183015689446014,-4.620023080526238,-0.17228947799211927,27.43598868937628,0.32644233716338883
-0.27448306650310295,12.182983539223915,-4.619996604396572,0.17774768418632672,27.43595141685815,-0.27852472303383297
-0.8177272166711576,12.178163905056925,-4.616392922444221,0.5288062796706633,27.433857975411087,-0.8852805438628711
-1.3618067373040479,12.168529230214931,-4.609186612552051,0.8803470482758583,27.429665268402022,-1.49294551017091
-1.906554961166129,12.154057433883947,-4.598359230204278,1.2322234762105246,27.42336529598642,-2.101317371977819
-2.448730629173243,12.134852875378408,-4.583982159908738,1.5823017468906766,27.414974181729285,-2.706760442265635
-2.9924373357082565,12.110777154640852,-4.565955723220632,1.9331979335527483,27.404498839687424,-3.313841534182137
-3.4717114721602305,12.085544826931642,-4.547054084142426,2.2423364886036934,27.393522846849866,-3.848907529421288
-3.6456312848730033,12.07598818414535,-4.538062853093051,2.3544308280861053,27.387186020848652,-4.04296356640927
-3.6529423963273553,12.143159294793916,-4.352499648993863,2.3537867494369538,27.134367310528695,-4.039430481521022
-3.668107165886713,12.277482562584638,-3.966476706120755,2.352685289556109,26.6138432525923,-4.032299223142082
-3.6839800141064414,12.4110044437236,-3.5608824486394552,2.351861035216749,26.074537067320666,-4.0251091950475955
-3.7000387885453967,12.538922248270806,-3.149025081845438,2.35135669249321,25.534565741011836,-4.0181074216042365
-3.7161946479744206,12.66053341467238,-2.7332401823058374,2.3511715424985393,24.996968564173034,-4.011327139980618
-3.7325348294125478,12.776505367492605,-2.311340910214333,2.3513010402736945,24.45889025552562,-4.004726163088027
-3.7491778817507955,12.887561978447689,-1.8803005039073208,2.3517485359192656,23.916578681047476,-3.9982557607565417
-3.765820395582479,12.991682770913664,-1.4480343245961123,2.352503038657293,23.37997365391059,-3.9920287784034767
-3.7826914594248864,13.090355593285963,-1.0086586039210352,2.353570067155366,22.841700644496555,-3.9859527175167417
-3.798236847676426,13.175312302827596,-0.6028386323202422,2.3548133001116622,22.35071422427173,-3.9805550276083044
-3.804527059779738,13.208098832526051,-0.43838133373953636,2.3553853230538504,22.153384762809353,-3.978423671441064
-3.810182632287785,13.291433725868874,-0.511041177386433,2.3587002226139084,22.142491967432267,-3.983899492540303
-3.83412257430982,13.686970518451071,-0.9992493151784289,2.375053590886947,22.234120238442873,-4.01322859784603
-3.864239286033152,14.177698366996935,-1.601604474688742,2.3955797367108556,22.34442815098309,-4.049981555402024
-3.883216194162737,14.48308334668451,-1.974578646883313,2.4084868365011944,22.411181862386478,-4.073059119202559
-3.8885251227079527,14.570478634422495,-2.0881740165671063,2.412227125728274,22.43714085981046,-4.079853051493825
-3.873118431202147,14.435421241517718,-2.2482185036184226,2.407841190465947,22.732614637346312,-4.077005892346464
-3.846103501380538,14.191651461260083,-2.5276922904405756,2.400363593242431,23.25650642720809,-4.072160227591983
-3.8189497008772273,13.93744552335089,-2.806977626026141,2.3931298331470994,23.79064418340412,-4.067486023971032
-3.7922508398734354,13.678216584029649,-3.0798274803472663,2.3863039041296337,24.323353564115656,-4.063091770786213
-3.770419589996108,13.459192852671515,-3.301516763900394,2.3809413874585177,24.764578393039756,-4.059654234085509
-3.7616876366189205,13.36976873947912,-3.389806003056756,2.378853209153745,24.942495484059023,-4.058319890385418
-3.75398316496571,13.28998959543988,-3.4675176061490895,2.3770381530647495,25.100165528959323,-4.05716227320943
-3.7311282740280847,13.048409874962179,-3.696957503569106,2.37180799977834,25.571714419003733,-4.05383966742098
-3.7056019868910193,12.769690666380631,-3.951171928486348,2.366246669470562,26.105234509808685,-4.050332604528208
-3.6803334738974973,12.48424628768759,-4.200522730138293,2.3610435923529747,26.64060525845456,-4.04708276219071
-3.6581123397960567,12.225086086803417,-4.417807897519773,2.3567572188655754,27.11752921352062,-4.044413057137739
-3.6486509492224153,12.112412041067538,-4.509693779788538,2.3549941797509217,27.32230167307227,-4.043333731876722
-3.646875833190194,12.098394911818566,-4.56856158814307,2.3554001324874796,27.395197380387636,-4.044726269453445
-3.664680206687726,12.410429874076089,-4.963183970286729,2.3686437217475174,27.476987383316292,-4.06843293185551
-3.6924154631121104,12.890792552852156,-5.567689771544641,2.3892244797324493,27.59988224524322,-4.105235623947681
-3.7211524465230275,13.381354588903177,-6.181262683787134,2.410484272057508,27.72159201581397,-4.143206073037832
-3.7505289314178323,13.875541803803086,-6.795498472842795,2.4321492403132465,27.840302400732554,-4.18185370271344
-3.7805073079328446,14.372488370374677,-7.4092242335803835,2.4541870261627183,27.95570755184442,-4.221120391421743
-3.811103518126276,14.872241064504601,-8.022409935580159,2.4766047342010977,28.06772945163741,-4.2610185221517805
-3.8422485904974164,15.373482798776596,-8.6333669163029,2.4993473580443997,28.175999243529056,-4.301450100046173
-3.8743366862545647,15.882258512093037,-9.249332388519804,2.522696964049912,28.28169029707851,-4.342915860677422
-3.906909277799429,16.391028907840933,-9.861064482930322,2.546314294182561,28.383120863317565,-4.38481280111459
-3.9404356508923595,16.906863513246794,-10.476955132724301,2.570533911101623,28.48159068546992,-4.427733983990582
-3.9744892223555786,17.422929617926172,-11.088733677482532,2.595041704822458,28.575681364229748,-4.47112225979565
-4.008783263265838,17.934865764893665,-11.691260043778447,2.6196282728077422,28.664627634606305,-4.514607795440609
-4.042621741163904,18.4325914901609,-12.272884489823232,2.64379565992378,28.74689374137448,-4.5573124451202505
-4.0618430353605754,18.712122607848908,-12.597722543816275,2.6574826077039915,28.79126867726241,-4.581481007112494
-4.065467298053,18.74499514868496,-12.536093135559543,2.657442301252271,28.696701281965915,-4.580589027876725
-4.07332169793218,18.76423998374738,-12.094456448269192,2.650977007625113,28.235952582698904,-4.565180607775475
-4.082454199754971,18.780860074127396,-11.579276006751895,2.6438428725986856,27.704300696296023,-4.547622847319381
-4.087526831129916,18.787469262799846,-11.292361490330517,2.640052877570104,27.410856967364815,-4.538030852089745
-4.092331922094825,18.792031002059566,-11.020091505170548,2.6365735826897354,27.134099351189086,-4.529047237671669
-4.095551816935411,18.79417309304446,-10.837381768836286,2.6343013967935467,26.94929630548345,-4.52308196227611
-4.098489309565265,18.79549346192144,-10.670516247456767,2.6322693692738355,26.78115431549345,-4.517677440699572
-4.100182942576842,18.79598136821846,-10.574231117890099,2.6311153536666874,26.684406332376053,-4.51457753297756
-4.104614172216777,18.796320868588076,-10.32204517078277,2.628155945641425,26.431945554565065,-4.506521777087786
-4.11360150618454,18.79289729854033,-9.809409728551687,2.6224151249496295,25.922861038919706,-4.490421373665059
-4.1230073839489965,18.783530321601596,-9.271286997959287,2.616771036553388,25.39423332515912,-4.473900646948626
-4.132494036282871,18.768232822877966,-8.726927345823768,2.6114425135201285,24.865295131096598,-4.457564680858514
-4.141889654491156,18.747430124606325,-8.186246144850122,2.6065129426415647,24.345534516673037,-4.44169472163363
-4.151336589592359,18.720996077683303,-7.641440695520793,2.6019304519703947,23.827273462839212,-4.4260699182760765
-4.16008601396586,18.691664978463294,-7.135264455683072,2.5979433973446975,23.35052982111149,-4.411820161974853
-4.163839592493802,18.688347008141214,-6.962014766995895,2.596968262142275,23.18060602812279,-4.407435504942049
-4.184094072887201,18.97150662208178,-7.287768028793976,2.610399041716746,23.222255016663045,-4.4310961956400545
-4.220782539978729,19.478114371942162,-7.867373814131161,2.6346691513362814,23.293532964707204,-4.47380099108805
-4.259828921143909,20.008602982651286,-8.46988024210675,2.660417372673784,23.363707507159365,-4.519036154486813
-4.299632298652011,20.5404585848654,-9.069385475445843,2.6865787572093796,23.42946475973138,-4.564924904032666
-4.339885751562618,21.069465498312013,-9.661143991758054,2.7129484036941593,23.490288908842732,-4.6111072043160215
-4.365989378740384,21.40788787961733,-10.037332779246665,2.7300019664772686,23.526798068937293,-4.64093635593675
-4.314052143604737,21.42902542436331,-10.059221866669759,2.6976329181471566,23.529962677630138,-4.5855023100413135
-3.900028674322491,21.258924166850083,-9.859464712028785,2.4388163633645186,23.51851916103436,-4.141832312042572
-3.3313918410502246,21.02007885023658,-9.580277852554758,2.0832545932786726,23.50020341850991,-3.5327375759312334
-2.757645744464406,20.772863462683492,-9.292761319149802,1.724430945223046,23.478610524372776,-2.9185023992385877
-2.1844270374995522,20.519515927638402,-8.999493361347591,1.3659165401691946,23.45384983455199,-2.305196665683583
-1.6098946190833354,20.259086870468654,-8.699333026254045,1.0066078828243445,23.42576157991194,-1.6908853074291093
-1.0453520446427829,19.996725403756262,-8.398145996929602,0.6536189384965579,23.39495538674832,-1.0876734446921044
-0.48693002880217134,19.73078135714697,-8.093940084098302,0.30457311660421393,23.36127062059382,-0.4914448096227998
0.07093802005268272,19.45859139223328,-7.783601884537408,-0.04396598668660795,23.324366673665907,0.10371785693723085
0.6239872035943179,19.18219719828933,-7.469392384053838,-0.38928886992822814,23.284476410140602,0.6932313211461077
1.177914369011319,18.898688098873134,-7.147947674562956,-0.7349146200376557,23.241222601107975,1.2831467972965505
1.7269291167039724,18.610959331079666,-6.822483898115196,-1.077186184960321,23.194993287803342,1.8672613693034985
2.2759730496256494,18.316365358574064,-6.489941803001115,-1.4191433660523738,23.14534673126009,2.450801296882885
2.8201499665549403,18.017474959398797,-6.153153253964219,-1.7576967596764237,23.09269918041596,3.028531020185563
3.362229578885637,17.71274660253414,-5.810308282360011,-2.0945323348999545,23.036773548817553,3.6033620515920366
3.865385611529315,17.42351718427293,-5.485299522120121,-2.4067736662186947,22.98168472234142,4.136279794364442
4.067160383000127,17.303894564875456,-5.354998530796886,-2.5319375446537693,22.962492517736123,4.349986692059778
4.051656180603731,17.17575101511839,-5.503711383988126,-2.5275090590438336,23.2397489114438,4.346790856251263
4.022536740305107,16.928132703361708,-5.782111628366104,-2.519418453772033,23.76651405693531,4.3409533627397945
3.993152097567065,16.66880138727278,-6.0617108369924475,-2.511564497178696,24.306191701575596,4.335290045108829
3.964544693986756,16.406880061735624,-6.332460627561851,-2.5042300707897875,24.8395839987177,4.3300071494601475
3.946716418292767,16.23879017524502,-6.500392773254905,-2.4998203982557428,25.176052334792235,4.326835016200964
3.9391107630515196,16.165921545000643,-6.5718335640668935,-2.497977848736941,25.320551408150504,4.325510744998926
3.92570854249168,16.035801988180797,-6.697416852971176,-2.4947883043576224,25.576587354627655,4.323220325840687
3.898755039295593,15.767362260758347,-6.948731251153179,-2.4886002168812142,26.097007111984666,4.31878536353001
3.8713051604656554,15.484451318513253,-7.202818935974972,-2.4826195584843647,26.634677655111123,4.314513522756744
3.8441578269067764,15.194889066268992,-7.452089812511573,-2.477036842198326,27.174169234863992,4.310543641987239
3.8188670855188667,14.916104387992712,-7.682346928232638,-2.472145080938081,27.68381890725247,4.3070843402628345
3.8071298122260684,14.783688243276485,-7.788518934606793,-2.469979462818984,27.922687322494582,4.3055602704245395
3.790972507416076,14.722054631486717,-7.838220665645111,-2.4620594023329394,28.034610379743487,4.292840578285373
3.484532532637316,14.739666551024655,-7.850793790558671,-2.2633192084341256,28.042141155367474,3.9482157057889227
2.9476475633076666,14.766924877946666,-7.870238304837006,-1.914939246481328,28.05374733734208,3.344358141937562
2.3925161595863362,14.790306951278174,-7.886913490113279,-1.5545099764069794,28.063741681593367,2.7199016920680306
1.836006511775846,14.808854960410223,-7.900136279615088,-1.1930105137272053,28.07167703833554,2.0938294778404067
1.2803641282718747,14.822495828377662,-7.9098545318321545,-0.8319397598811265,28.077487779460487,1.4686815181204973
0.7238219391760333,14.831280571568778,-7.916114848888037,-0.4701908290879926,28.0812555990116,0.8424876370291599
0.16699048592894458,14.835186653822657,-7.918899124490776,-0.10820052975741859,28.08293776048794,0.2159483775776207
-0.3897338688852404,14.83421021060005,-7.918201496564067,0.25373165378162027,28.082499644792563,-0.4104756842372481
-0.9449652108222628,14.828376201302024,-7.914047282294896,0.614665644517474,28.080016232873678,-1.0352085405310552
-1.4992587293447117,14.817706412182835,-7.906447030508384,0.9749215099898466,28.07546624059553,-1.6588607150843329
-2.057235849880008,14.802070612265428,-7.895301962511185,1.3374594154533466,28.06876408274275,-2.286616435139433
-2.613624571101477,14.7815832484101,-7.880698259715115,1.6988164618203412,28.06002578546019,-2.9125289374147934
-3.1685556280448686,14.756269061244197,-7.862645694410289,2.05903644677173,28.04923401476403,-3.536730755402989
-3.644874187279021,14.730643964416341,-7.844357962683778,2.368041017324554,28.038280703247842,-4.072438294216555
-3.8019057794845215,14.721587568628332,-7.832394575052653,2.4697460108458884,28.028808636202847,-4.248763004206582
-3.806219748332696,14.729849603689775,-7.5526307026935315,2.4659743882347316,27.74086539994064,-4.23957161728579
-3.8142072976901233,14.740554150228766,-7.033027295674441,2.4592729724875184,27.210706691572206,-4.222808531778375
-3.8223977474198136,14.745451790640516,-6.498110135719173,2.4527701255537986,26.67103997418104,-4.2059513044887655
-3.830595254858654,14.74432265332853,-5.960644400367807,2.446622583082887,26.134846799798268,-4.189401429339274
-3.8387746568628955,14.73731284529167,-5.4223390543536185,2.440836030709518,25.603689822148986,-4.173195205219282
-3.846951809843087,14.724557156371617,-4.88221069688774,2.435386189792762,25.076451351976438,-4.1572869036011895
-3.8551564322651872,14.706106167655596,-4.338337929364519,2.430243598455841,24.55116008462578,-4.141607445486672
-3.8633363384534922,14.682195054835326,-3.7942279347803893,2.425430483818193,24.031087393617657,-4.126244646116063
-3.8715604079662653,14.65272066049708,-3.245339396365273,2.4208972767445855,23.511796359449324,-4.11105851112514
-3.8797768064949913,14.61794805506348,-2.6951650389833275,2.416664888142947,22.996514019645044,-4.096135351558759
-3.886963359049591,14.583257845979261,-2.212510747941668,2.413198790149782,22.548651585466366,-4.083278179460018
-3.8902490212970795,14.595538200273104,-2.1115570340025904,2.413258795322359,22.435382812006353,-4.081587772385586
-3.910438656055616,14.916140553408953,-2.5010014205249376,2.4269599313565045,22.503331241397056,-4.106048114761979
-3.9423045390460216,15.415702762541068,-3.104645323421129,2.44853733429164,22.605995246449012,-4.144514727527164
-3.9752465017605734,15.924057200518869,-3.714911351854538,2.470782304012469,22.70643191646259,-4.184103015555311
-4.009125587652761,16.438577851815708,-4.328452295669468,2.493595435012885,22.80392543616302,-4.224632707045016
-4.042940973542437,16.94400782428174,-4.927094071526176,2.516300458963434,22.895603362523357,-4.26490253409621
-4.064124717794279,17.256614297052426,-5.295331144147237,2.5304909813366736,22.950267996499814,-4.290037576734222
-4.067466142461887,17.305646158940643,-5.352948476526205,2.532727009233507,22.958700745217183,-4.293995858231317
-4.067466142461887,17.305646158940643,-5.352948476526205,2.532727009233507,22.958700745217183,-4.293995858231317
-4.067466142461887,17.305646158940643,-5.352948476526205,2.532727009233507,22.958700745217183,-4.293995858231317
-4.067466142461887,17.305646158940643,-5.352948476526205,2.532727009233507,22.958700745217183,-4.293995858231317
-4.067466142461887,17.305646158940643,-5.352948476526205,2.532727009233507,22.958700745217183,-4.293995858231317
-4.067466142461887,17.305646158940643,-5.352948476526205,2.532727009233507,22.958700745217183,-4.293995858231317
-4.067459783051739,17.305634068549395,-5.352917828920162,2.532723055218805,22.95862760368399,-4.293989138062935
-3.9799754672596395,17.139310528885517,-4.931308783003669,2.4783289742064305,21.952443564949803,-4.201541989788822
-3.893151071742365,16.974241617265662,-4.512880059810517,2.424345203963083,20.953849472383148,-4.109792197914466
-3.8061485021652097,16.808833964466345,-4.093592670755799,2.370250652556739,19.95320614512174,-4.017854124476913
-3.6935446836762518,16.594753697607317,-3.550926387664502,2.3002383175486356,18.65811497548441,-3.8988624879781106
-3.5438216890548437,16.310103149574367,-2.8293734059379942,2.2071468345197682,16.936104737928755,-3.7406459692971747
-3.3943229532823262,16.02587895825703,-2.108901184327894,2.1141947862442496,15.216673770408608,-3.5826664312780587
-3.2448051098067934,15.741618439733248,-1.3883368778638963,2.0212308575998166,13.497023039315787,-3.424666701609298
-3.0955559958257437,15.457868824682048,-0.6690676468057352,1.9284340136923561,11.780463048839025,-3.266950945990025
-2.9457795002864944,15.173116561707971,0.05274316937626261,1.835309266035048,10.057837480762686,-3.1086778913775968
-2.796844965643995,14.889965018992582,0.770496363032859,1.7427080143759923,8.344895564068619,-2.951294560633475
-2.6466888171356886,14.604490966917389,1.4941368229014353,1.6493472144141252,6.617903490359072,-2.792620316001951
-2.4978620914492558,14.321544388566391,2.2113704579297577,1.5568129938455801,4.906201517646329,-2.6353509100277335
-2.348129947483213,14.036876445971101,2.932967532662276,1.4637158221376765,3.1840860506623776,-2.4771247229758173
-2.1990598890715294,13.753467248008654,3.65137384964169,1.3710303074788666,1.4695854333922465,-2.3195981804357193
-2.0492995790374353,13.46874575661328,4.373106663780417,1.2779156232903144,-0.2528539802083094,-2.161342229503892
-1.8996221182048882,13.184181776565339,5.09444020666117,1.1848524512629985,-1.9743405196454917,-2.0031738276641557
-1.7506619334149358,12.900981468270905,5.812317014866242,1.0922352514172775,-3.6875774465791062,-1.8457633916845024
-1.6007548392748985,12.61598091368751,6.534757218738799,0.9990293030235051,-5.411705069354102,-1.687352329840696
-1.451456568655179,12.332137842957225,7.2542633480722944,0.9062018955783192,-7.12883042545989,-1.5295846290124717
-1.30242587394626,12.048803482527868,7.9724799614115085,0.8135408556201194,-8.842878308670572,-1.3720996832092642
-1.1527808156668178,11.764301105605902,8.69365734819301,0.720497830142304,-10.563992176372793,-1.2139655220628938
-1.0034022717859825,11.480305420857798,9.41355033467599,0.6276205121476818,-12.282040779958322,-1.0561129942116125
-0.8539851249039985,11.196236344808241,10.13362935878567,0.5347191924248321,-14.000533368539916,-0.8982196734783309
-0.7041422226379581,10.91135783061122,10.855760205780868,0.441553155847971,-15.723922700817381,-0.7398764450014498
-0.5546401465042156,10.627127288661798,11.576248525436615,0.3485990306758399,-17.443392086859955,-0.581893377128249
-0.40582225550843126,10.344197506658892,12.29343958385607,0.25607030314767054,-19.15499244907672,-0.4246333070212543
-0.27984066541693225,10.104683671444167,12.9005767320478,0.17774023043166864,-20.603945486849323,-0.29150500129529144
-0.19265767108504014,9.938932998486562,13.320733633631887,0.12353349847459433,-21.60666393473967,-0.19937626792169816
-0.10562132454220903,9.77346112955388,13.74018380242768,0.06941794596661612,-22.607695741278,-0.1074025014101835
-0.018624542341732154,9.608064479606512,14.159443300650338,0.015326992908536213,-23.608272506139198,-0.015470543657083124
-1.0897977921878554e-05,9.572676568200876,14.2491471609389,0.0037538089578643464,-23.822353758212408,0.004199020250944525
-1.0897977921878554e-05,9.572676568200876,14.2491471609389,0.0037538089578643464,-23.822353758212408,0.004199020250944525
-1.0897977921878554e-05,9.572676568200876,14.2491471609389,0.0037538089578643464,-23.822353758212408,0.004199020250944525
-1.0897977921878554e-05,9.572676568200876,14.2491471609389,0.0037538089578643464,-23.822353758212408,0.004199020250944525
-1.0897977921878554e-05,9.572676568200876,14.2491471609389,0.0037538089578643464,-23.822353758212408,0.004199020250944525
-1.0897977921878554e-05,9.572676568200876,14.2491471609389,0.0037538089578643464,-23.822353758212408,0.004199020250944525
-1.0897977921878554e-05,9.572676568200876,14.2491471609389,0.0037538089578643464,-23.822353758212408,0.004199020250944525
-1.0897977921878554e-05,9.572676568200876,14.2491471609389,0.0037538089578643464,-23.822353758212408,0.004199020250944525
-1.0897977921878554e-05,9.572676568200876,14.2491471609389,0.0037538089578643464,-23.822353758212408,0.004199020250944525
-1.0897977921878554e-05,9.572676568200876,14.2491471609389,0.0037538089578643464,-23.822353758212408,0.004199020250944525
-1.0897977921878554e-05,9.572676568200876,14.2491471609389,0.0037538089578643464,-23.822353758212408,0.004199020250944525
-1.0897977921878554e-05,9.572676568200876,14.2491471609389,0.0037538089578643464,-23.822353758212408,0.004199020250944525
-1.0897977921878554e-05,9.572676568200876,14.2491471609389,0.0037538089578643464,-23.822353758212408,0.004199020250944525
0.0018122476809504528,9.57719653471928,14.255702617635677,-0.0024757297053108044,-23.829429405768927,0.0033316260362172044
0.0018122476809504528,9.57719653471928,14.255702617635677,-0.0024757297053108044,-23.829429405768927,0.0033316260362172044
0.0018122476809504528,9.57719653471928,14.255702617635677,-0.0024757297053108044,-23.829429405768927,0.0033316260362172044
0.0018122476809504528,9.57719653471928,14.255702617635677,-0.0024757297053108044,-23.829429405768927,0.0033316260362172044
0.0018122476809504528,9.57719653471928,14.255702617635677,-0.0024757297053108044,-23.829429405768927,0.0033316260362172044
0.0018122476809504528,9.57719653471928,14.255702617635677,-0.0024757297053108044,-23.829429405768927,0.0033316260362172044
0.0018122476809504528,9.57719653471928,14.255702617635677,-0.0024757297053108044,-23.829429405768927,0.0033316260362172044
0.0018122476809504528,9.57719653471928,14.255702617635677,-0.0024757297053108044,-23.829429405768927,0.0033316260362172044
0.0018122476809504528,9.57719653471928,14.255702617635677,-0.0024757297053108044,-23.829429405768927,0.0033316260362172044
0.0018122476809504528,9.57719653471928,14.255702617635677,-0.0024757297053108044,-23.829429405768927,0.0033316260362172044
0.0018122476809504528,9.57719653471928,14.255702617635677,-0.0024757297053108044,-23.829429405768927,0.0033316260362172044
0.0018122476809504528,9.57719653471928,14.255702617635677,-0.0024757297053108044,-23.829429405768927,0.0033316260362172044
0.0018122476809504528,9.57719653471928,14.255702617635677,-0.0024757297053108044,-23.829429405768927,0.0033316260362172044
0.0018122476809504528,9.57719653471928,14.255702617635677,-0.0024757297053108044,-23.829429405768927,0.0033316260362172044
0.0018122476809504528,9.57719653471928,14.255702617635677,-0.0024757297053108044,-23.829429405768927,0.0033316260362172044
0.0018122476809504528,9.57719653471928,14.255702617635677,-0.0024757297053108044,-23.829429405768927,0.0033316260362172044
0.0018128425315980762,9.577197779505227,14.255699611220722,-0.0024757279249686976,-23.829421824486886,0.0033322259090521854
0.019961703196402777,9.615093355058324,14.164080834591818,-0.0024829948375824436,-23.598276984492966,0.021609348763827595
0.06077671952070264,9.699714026752822,13.958814075817516,-0.002946695084161372,-23.07960808445224,0.0625347827131414
0.10372782309179253,9.787871627011173,13.743944157417992,-0.00409388738108227,-22.535475406102695,0.10534822718735691
0.14687526827136277,9.875522353481966,13.529246188076828,-0.005915790453077111,-21.99053900197368,0.14811041030509026
0.1900191868133127,9.962264721710772,13.315700324769722,-0.008397663540027056,-21.447283002050522,0.19063653125774405
0.23326506683720005,10.048318003570879,13.102766879957496,-0.011537564684316964,-20.904334706751982,0.23304432092907681
0.2769673890455031,10.13438022805703,12.888701088196544,-0.015364011591051042,-20.357225194725764,0.2756915307125077
0.3203939810325981,10.219013431732444,12.677076118980567,-0.019807729821072127,-19.815082816367205,0.3178762746695161
0.36401211211672224,10.30314010433737,12.465592030852802,-0.024905830770806752,-19.272023270162222,0.3600666304215883
0.40805459322139953,10.387199517220207,12.25312362519956,-0.030690608809878984,-18.72513361510572,0.4024974107474364
0.45182253214480916,10.469861783201518,12.043029444935264,-0.03706564260336398,-18.183055457489356,0.44450749323154254
0.49587030845651847,10.552182057959046,11.83263048367213,-0.044104310273021224,-17.63887960229987,0.48664180978328186
0.5403978798893397,10.63451948047641,11.620980821830324,-0.05184761763769955,-17.090128380031434,0.5291006825686861
0.5852489666467563,10.716569140429936,11.408833908208006,-0.060278575401737464,-16.538721735684067,0.57174424655011
0.6300914924691473,10.797721772601793,11.197754366309487,-0.06933503915875362,-15.98871458773232,0.6142680678283385
0.6749093310896573,10.877956577388634,10.987800264476336,-0.07900700849512937,-15.440262480297816,0.6566693314854193
0.7198403856954283,10.95752485906912,10.778312484430252,-0.08932052379802043,-14.891641867571929,0.6990903350636264
0.7650763243280493,11.036760635178819,10.568395609755456,-0.10032303902178205,-14.34049036132129,0.7417228611319782
0.8101278675678621,11.114809964236189,10.360308773222908,-0.11189318006539332,-13.792735893621531,0.7841172937725754
0.8555043878869166,11.192557543916955,10.151688896258865,-0.12416019466893768,-13.242153183946636,0.8267643881275076
0.9008019530559223,11.269310249388855,9.944386492127238,-0.13701583212330307,-12.693615943051473,0.8692956171419267
0.9464170860311756,11.345738936829731,9.736580289209892,-0.15057376459120544,-12.142294890023768,0.912094470070325
0.9918421089684553,11.420994966799544,9.530573300260597,-0.16468230101833842,-11.594295189626573,0.9546957988343486
1.0374978474746501,11.495779691703206,9.324444925794204,-0.1794699923517356,-11.04450683984913,0.9975054888324122
1.0833741624414732,11.570068985710643,9.118241542802476,-0.19493991862373988,-10.493032485401617,1.0405251444098125
1.1291065298804233,11.64327527900761,8.91359123512978,-0.21096842761602821,-9.944223090812551,1.0834240461400728
1.1751169090609848,11.716074987780248,8.708597305025442,-0.22770413483764038,-9.392986088984749,1.1266091643492742
1.2208737787013302,11.787630931305527,8.50561656873934,-0.24495256947859292,-8.84565811127344,1.1695925526148854
1.2668523733641905,11.858691393344241,8.302528273409612,-0.2628910135912318,-8.296522143390437,1.2128314982962816
1.3130895678827756,11.9293042320377,8.099171811257238,-0.2815424443847507,-7.745119764731731,1.2563723720305957
1.3590598763316337,11.99867107869013,7.897846944490059,-0.3006940915292834,-7.197686906465738,1.2997311460551024
1.4053573081573698,12.06769026238295,7.695943100403368,-0.3205943912810588,-6.647121289857976,1.3434791126079475
1.4515417787534908,12.135703418955169,7.495374825759528,-0.34105846032045045,-6.098632063517096,1.38721181405247
1.4979923133365272,12.20326785712491,7.2944899792298905,-0.3622577066818285,-5.547692276541787,1.4312995363227503
1.5443179638969187,12.269814281059393,7.09497304089156,-0.38401721238518316,-4.998913359272308,1.4753825737759672
1.5907273791060612,12.335646489895842,6.8959145249702924,-0.4064352124609164,-4.449794463713156,1.5196702377885007
1.6373148248080132,12.400893932749543,6.696907491767208,-0.4295638758817977,-3.899197789382538,1.564264544256219
1.6837990489404757,12.465163360882226,6.499146001522979,-0.4532667548136784,-3.350421343036233,1.6089076067655421
1.7305264289981108,12.528932381213053,6.301150981247502,-0.47772535636517,-2.7993513910982446,1.6539438871055836
1.7772068292947585,12.591802091084332,6.104147994327344,-0.5027941734778315,-2.2493863902285347,1.6991059469605476
1.8238602341256103,12.653803564713455,5.908042193078285,-0.5284851178711878,-1.700263179294235,1.744423946060502
1.8706599799009127,12.715165998452433,5.712099544648422,-0.5548991112544265,-1.1499174366543738,1.7900783023604523
1.9172967121164528,12.775486061450934,5.517606714065663,-0.5818645689272554,-0.6019611847368613,1.8357785030262916
1.964266202861886,12.83540215565536,5.322492350894333,-0.6096754015165926,-0.050546469747292815,1.8820230705888101
2.011060172407222,12.894263295839938,5.128863945924088,-0.6380379640710317,0.49838239021728575,1.9283243100203749
2.057923123645035,12.952381195492837,4.935699715464999,-0.6671026868903877,1.0477197568732037,1.974935172408457
2.1047716030914425,13.009652250742874,4.743337548010785,-0.6968236426950565,1.5965110949408174,2.0217849425286594
2.1516547544923554,13.066137137664617,4.5515689855501344,-0.7272375212789315,2.145355931462512,2.0689349620563413
2.198665458941657,13.121944371305743,4.3600110207911955,-0.7584135932404343,2.6953636305943065,2.1164922897283778
2.2456735716946556,13.176917012830861,4.1691900678639096,-0.7902740865787369,3.2450338845238678,2.1643388030133663
2.292907454999954,13.231316930632152,3.9781776241378988,-0.8229849192989921,3.797058342924037,2.2127217278148823
2.339782911163367,13.284475403025155,3.7893266994750237,-0.8561451529948072,4.344633711836059,2.2610541327260734
2.3871728821487217,13.33737862526323,3.5991176920539467,-0.8903829177095022,4.897979057456975,2.310250863461724
2.4339165541438366,13.388734558105542,3.412200739836136,-0.9248638909318205,5.443563661016359,2.3591185814657454
2.481183124041862,13.439831268367756,3.2238917697703977,-0.9604554910146506,5.99505751059703,2.4088917529734366
2.528187597330767,13.489813237150248,3.0373183057909245,-0.9965808406350558,6.543321956565062,2.458760430638899
2.57523677748068,13.539012513436576,2.851252116465485,-1.0334791382530497,7.09195865081489,2.5090614188438263
2.622427816656388,13.587525448007579,2.665307738899686,-1.0712401011573929,7.6421212946530375,2.5599151862233516
2.6696006943462107,13.635184054522895,2.480113018589479,-1.1097480211165223,8.191965394889737,2.611165384204081
2.7168153804352255,13.68204776454967,2.2954279836529654,-1.1490624575034045,8.742211247140553,2.662892424721321
2.7638623266550453,13.727911482532672,2.112064592125638,-1.1890160857079495,9.290438147786794,2.7148800773943464
2.8110805720452907,13.773104862907124,1.928696797320142,-1.2299078510393788,9.840617757054593,2.76751859665144
2.8581945798742954,13.817361741371112,1.7463912882329995,-1.2715120046157997,10.389560168527186,2.820517549002436
2.9054318617719126,13.860894297477302,1.564263694736667,-1.3140418997735088,10.939936778172074,2.8741494746759764
2.952665755431593,13.903581728422125,1.3828003749821578,-1.3573988329112614,11.490292230439964,2.9282890146637213
2.9997688303213192,13.945311215841112,1.2024839826570999,-1.401475244574245,12.03916184252681,2.9828049813504713
3.046864562532384,13.98619471446255,1.022834846555115,-1.4463962151330803,12.58800420139243,3.0378552569890727
3.0943825463860892,14.026592609053749,0.8422187679396398,-1.4925969447026601,13.141846567780602,3.0939672934501186
3.1412400682688464,14.065589403694462,0.6647424926321617,-1.539032533723501,13.688088429026742,3.1498764718572803
3.1883252225356933,14.10393430061263,0.48702990246135613,-1.586585921569501,14.237100821508802,3.2066531219290697
3.2360185205066205,14.141912912303157,0.30765800892542966,-1.6356813166426092,14.793343361578144,3.2647916938237658
3.283345520475487,14.178740946291672,0.13029297344004898,-1.6853392619348477,15.345471819392197,3.3231292407078734
3.331011679495119,14.214966230369848,-0.047712987093201445,-1.7363165389111241,15.901735688421775,3.382555675750743
3.378671309245972,14.250314902271443,-0.22506557948092995,-1.7882717784203082,16.45812218597511,3.4426686710030516
3.4260243988826424,14.284570923101413,-0.4006577208830331,-1.8408869671584462,17.011146168055816,3.5031049883845826
3.473670012619371,14.318165733958658,-0.5767140663378914,-1.8948470086675024,17.56782303942754,3.564651766806228
