RAMEL-ESPOL/ARCHIE/matlab/data/joint_real_states_square_t35_h35_p12.txt
Joint0,Joint1,Joint2,Joint3,Joint4,Joint5 
-0.087890625,9.4921875,14.23828125,-0.087890625,-23.818359374999996,23.818359374999996
-0.087890625,9.4921875,14.23828125,-0.087890625,-23.818359374999996,23.818359374999996
0.0,9.4921875,14.23828125,-0.087890625,-23.818359374999996,23.818359374999996
0.0,9.4921875,14.23828125,-0.087890625,-23.818359374999996,23.818359374999996
-0.087890625,9.4921875,14.23828125,-0.087890625,-23.818359374999996,23.818359374999996
-0.087890625,9.4921875,14.23828125,-0.087890625,-23.818359374999996,23.818359374999996
-0.087890625,9.4921875,14.23828125,-0.087890625,-23.818359374999996,23.818359374999996
-0.087890625,9.4921875,14.23828125,-0.087890625,-23.818359374999996,23.818359374999996
0.0,9.404296875,14.23828125,-0.087890625,-23.818359374999996,23.818359374999996
0.0,9.4921875,14.23828125,-0.087890625,-23.818359374999996,23.818359374999996
0.0,9.4921875,14.23828125,-0.087890625,-23.818359374999996,23.818359374999996
0.0,9.4921875,14.23828125,-0.087890625,-23.818359374999996,23.818359374999996
-0.087890625,9.4921875,14.23828125,-0.087890625,-23.818359374999996,23.818359374999996
-0.087890625,9.4921875,14.23828125,-0.087890625,-23.818359374999996,23.818359374999996
0.0,9.4921875,14.23828125,-0.087890625,-23.818359374999996,23.818359374999996
0.0,9.4921875,14.23828125,-0.087890625,-23.818359374999996,23.818359374999996
-0.087890625,9.4921875,14.23828125,-0.087890625,-23.818359374999996,23.818359374999996
0.0,9.4921875,14.23828125,-0.087890625,-23.818359374999996,23.818359374999996
-0.087890625,9.4921875,14.23828125,-0.087890625,-23.818359374999996,23.818359374999996
-0.087890625,9.4921875,14.23828125,-0.087890625,-23.818359374999996,23.818359374999996
0.0,9.580078124999998,13.974609375,-0.087890625,-23.466796875,23.818359374999996
0.263671875,9.580078124999998,13.886718750000002,-0.087890625,-23.02734375,23.818359374999996
0.615234375,9.755859375,13.447265625,-0.087890625,-22.412109375,23.818359374999996
0.7910156249999999,9.84375,13.359374999999998,-0.087890625,-21.62109375,23.818359374999996
0.9667968749999999,9.931640625,13.18359375,-0.087890625,-21.093749999999996,23.818359374999996
1.23046875,10.01953125,12.83203125,-0.087890625,-20.56640625,23.818359374999996
1.4941406250000002,10.01953125,12.744140625,-0.17578125,-20.0390625,23.818359374999996
1.6699218749999998,10.107421875000002,12.392578125,-0.17578125,-19.3359375,23.818359374999996
1.9335937499999998,10.1953125,12.3046875,-0.17578125,-18.80859375,23.818359374999996
2.109375,10.37109375,12.041015625000002,-0.263671875,-18.281250000000004,23.818359374999996
2.373046875,10.546874999999998,11.77734375,-0.263671875,-17.75390625,23.818359374999996
2.548828125,10.546874999999998,11.601562500000002,-0.263671875,-17.138671875,23.906250000000004
2.8125,10.546874999999998,11.513671875,-0.3515625,-16.5234375,23.818359374999996
3.076171875,10.634765625,11.162109375000002,-0.3515625,-15.99609375,23.818359374999996
3.251953125,10.722656249999998,10.986328124999998,-0.3515625,-15.468749999999998,23.818359374999996
3.4277343749999996,10.8984375,10.810546875,-0.3515625,-14.853515625,23.818359374999996
3.779296875,10.986328124999998,10.634765625,-0.439453125,-14.23828125,23.906250000000004
3.9550781250000004,10.986328124999998,10.37109375,-0.439453125,-13.710937499999998,23.818359374999996
4.130859375,11.07421875,10.1953125,-0.439453125,-13.18359375,23.818359374999996
4.482421875,11.07421875,10.01953125,-0.439453125,-12.568359375,23.818359374999996
4.658203125,11.162109375000002,9.84375,-0.439453125,-12.041015625000002,23.818359374999996
4.921875,11.25,9.580078124999998,-0.439453125,-11.513671875,23.818359374999996
5.09765625,11.25,9.404296875,-0.52734375,-10.986328124999998,23.906250000000004
5.273437499999999,11.337890625,9.228515625,-0.615234375,-10.37109375,23.818359374999996
5.537109375,11.337890625,9.052734375,-0.703125,-9.755859375,23.818359374999996
5.800781250000001,11.337890625,8.876953125,-0.703125,-9.31640625,23.818359374999996
6.15234375,11.425781249999998,8.525390625,-0.7910156249999999,-8.7890625,23.818359374999996
6.240234375,11.513671875,8.4375,-0.87890625,-8.0859375,23.818359374999996
6.50390625,11.689453125,8.173828124999998,-0.9667968749999999,-7.646484374999999,23.818359374999996
6.679687499999999,11.689453125,8.0859375,-1.1425781250000002,-7.119140625,23.818359374999996
6.943359375000001,11.77734375,7.822265625000001,-1.23046875,-6.591796875,23.818359374999996
7.207031249999999,11.77734375,7.734374999999999,-1.40625,-5.976562500000001,23.818359374999996
7.382812500000001,11.77734375,7.470703125,-1.40625,-5.361328124999999,23.818359374999996
7.646484374999999,11.77734375,7.294921875000001,-1.4941406250000002,-4.833984375,23.818359374999996
7.822265625000001,11.77734375,7.119140625,-1.6699218749999998,-4.306640624999999,23.818359374999996
8.0859375,11.865234375,7.03125,-1.7578125,-3.6914062500000004,23.818359374999996
8.349609375,11.865234375,6.767578125,-1.9335937499999998,-3.1640624999999996,23.818359374999996
8.525390625,11.865234375,6.679687499999999,-2.021484375,-2.6367187499999996,23.818359374999996
8.7890625,11.953125000000002,6.416015625,-2.197265625,-2.109375,23.818359374999996
9.140625000000002,11.953125000000002,6.15234375,-2.197265625,-1.4941406250000002,23.818359374999996
9.228515625,11.953125000000002,5.976562500000001,-2.2851562500000004,-0.9667968749999999,23.818359374999996
9.4921875,12.041015625000002,5.976562500000001,-2.373046875,-0.52734375,23.818359374999996
9.755859375,12.041015625000002,5.712890624999999,-2.548828125,0.087890625,23.818359374999996
9.931640625,12.041015625000002,5.625,-2.724609375,0.703125,23.818359374999996
10.283203125,12.216796874999998,5.361328124999999,-2.9003906250000004,1.23046875,23.818359374999996
10.37109375,12.216796874999998,5.273437499999999,-3.076171875,1.7578125,23.818359374999996
10.634765625,12.216796874999998,5.009765625,-3.251953125,2.2851562500000004,23.818359374999996
10.986328124999998,12.216796874999998,4.833984375,-3.3398437499999996,2.9003906250000004,23.906250000000004
11.162109375000002,12.216796874999998,4.658203125,-3.515625,3.4277343749999996,23.906250000000004
11.337890625,12.216796874999998,4.482421875,-3.6035156249999996,3.9550781250000004,23.818359374999996
11.601562500000002,12.216796874999998,4.39453125,-3.8671874999999996,4.482421875,23.818359374999996
11.77734375,12.3046875,4.130859375,-4.04296875,5.09765625,23.818359374999996
12.12890625,12.3046875,4.04296875,-4.21875,5.625,23.906250000000004
12.3046875,12.3046875,4.04296875,-4.39453125,6.15234375,23.906250000000004
12.48046875,12.392578125,3.6914062500000004,-4.570312500000001,6.591796875,23.906250000000004
12.83203125,12.3046875,3.515625,-4.74609375,7.294921875000001,23.818359374999996
12.919921875,12.3046875,3.3398437499999996,-4.921875,7.822265625000001,23.818359374999996
13.18359375,12.392578125,3.251953125,-5.09765625,8.26171875,23.818359374999996
13.53515625,12.392578125,3.1640624999999996,-5.273437499999999,8.7890625,23.818359374999996
13.623046875,12.392578125,2.9882812500000004,-5.537109375,9.404296875,23.906250000000004
13.886718750000002,12.392578125,2.8125,-5.712890624999999,10.107421875000002,23.818359374999996
14.150390624999998,12.392578125,2.548828125,-5.888671875,10.458984375,23.818359374999996
14.326171875,12.392578125,2.548828125,-6.064453125,10.986328124999998,23.818359374999996
14.677734375,12.392578125,2.2851562500000004,-6.328124999999999,11.689453125,23.818359374999996
14.853515625,12.392578125,2.197265625,-6.50390625,12.216796874999998,23.818359374999996
15.1171875,12.392578125,1.9335937499999998,-6.591796875,12.744140625,23.818359374999996
15.380859375,12.392578125,1.9335937499999998,-6.855468749999999,13.18359375,23.906250000000004
15.556640625000002,12.392578125,1.6699218749999998,-7.207031249999999,13.798828125,23.818359374999996
15.732421875,12.392578125,1.5820312499999998,-7.382812500000001,14.326171875,23.818359374999996
15.908203125,12.392578125,1.4941406250000002,-7.646484374999999,14.853515625,23.818359374999996
16.171875,12.392578125,1.3183593749999998,-7.910156250000001,15.468749999999998,23.818359374999996
16.435546875,12.392578125,1.23046875,-8.0859375,15.99609375,23.906250000000004
16.69921875,12.392578125,1.0546875,-8.4375,16.5234375,23.818359374999996
16.875,12.392578125,0.7910156249999999,-8.613281249999998,17.05078125,23.818359374999996
17.138671875,12.392578125,0.7910156249999999,-8.876953125,17.578125,23.906250000000004
17.314453125,12.392578125,0.52734375,-9.228515625,18.10546875,23.818359374999996
17.490234375000004,12.392578125,0.52734375,-9.228515625,18.6328125,23.818359374999996
17.841796875,12.392578125,0.263671875,-9.66796875,19.160156249999996,23.906250000000004
18.017578125,12.3046875,0.263671875,-9.931640625,19.6875,23.906250000000004
18.281250000000004,12.216796874999998,0.087890625,-10.37109375,20.214843750000004,23.818359374999996
18.544921875,12.12890625,-0.087890625,-10.546874999999998,20.654296875,23.818359374999996
18.6328125,12.12890625,-0.087890625,-10.722656249999998,21.26953125,23.818359374999996
18.6328125,12.12890625,-0.263671875,-10.8984375,21.26953125,23.818359374999996
18.6328125,11.953125000000002,-0.263671875,-10.8984375,21.357421875,23.818359374999996
18.720703125,11.953125000000002,-0.263671875,-10.986328124999998,21.445312499999996,23.818359374999996
18.720703125,11.865234375,-0.52734375,-10.986328124999998,21.972656249999996,23.818359374999996
18.720703125,11.425781249999998,-0.7910156249999999,-10.986328124999998,22.5,23.818359374999996
18.720703125,11.337890625,-1.0546875,-10.986328124999998,22.939453124999996,23.906250000000004
18.6328125,11.07421875,-1.23046875,-10.986328124999998,23.466796875,23.818359374999996
18.544921875,10.810546875,-1.5820312499999998,-10.986328124999998,24.082031250000004,23.818359374999996
18.45703125,10.458984375,-1.7578125,-10.986328124999998,24.609375,23.818359374999996
18.369140625,10.1953125,-2.109375,-10.986328124999998,25.13671875,23.818359374999996
18.193359375,9.931640625,-2.2851562500000004,-10.986328124999998,25.6640625,23.818359374999996
18.017578125,9.755859375,-2.4609375,-10.986328124999998,26.015625,23.818359374999996
18.017578125,9.66796875,-2.548828125,-10.986328124999998,26.103515625,23.818359374999996
18.017578125,9.580078124999998,-2.548828125,-10.986328124999998,26.191406250000004,23.906250000000004
18.017578125,9.580078124999998,-2.724609375,-10.986328124999998,26.279296875,23.818359374999996
17.9296875,9.931640625,-3.251953125,-11.07421875,26.54296875,23.818359374999996
18.017578125,10.37109375,-3.8671874999999996,-11.162109375000002,26.806640625000004,23.818359374999996
18.281250000000004,10.810546875,-4.482421875,-11.337890625,27.24609375,23.818359374999996
18.281250000000004,11.337890625,-5.09765625,-11.513671875,27.24609375,23.818359374999996
18.544921875,11.77734375,-5.712890624999999,-11.601562500000002,27.158203125,23.818359374999996
18.45703125,12.3046875,-6.328124999999999,-11.77734375,27.333984375,23.818359374999996
18.720703125,12.83203125,-6.943359375000001,-11.865234375,27.509765625,23.906250000000004
18.984375,13.271484375,-7.55859375,-11.953125000000002,27.509765625,23.818359374999996
18.896484375,13.798828125,-8.173828124999998,-12.12890625,27.509765625,23.818359374999996
19.248046875,14.23828125,-8.876953125,-12.216796874999998,27.59765625,23.818359374999996
19.3359375,14.765625000000002,-9.404296875,-12.3046875,27.59765625,23.818359374999996
19.599609375,15.205078124999998,-10.01953125,-12.3046875,27.59765625,23.818359374999996
19.51171875,15.556640625000002,-10.37109375,-12.392578125,27.773437500000004,23.818359374999996
19.51171875,15.644531250000002,-10.37109375,-12.392578125,27.773437500000004,23.818359374999996
19.51171875,15.820312500000002,-10.810546875,-12.392578125,27.773437500000004,23.818359374999996
19.51171875,15.908203125,-10.810546875,-12.48046875,27.773437500000004,23.818359374999996
19.072265625,15.99609375,-10.810546875,-12.216796874999998,27.773437500000004,23.818359374999996
18.544921875,16.171875,-10.986328124999998,-11.601562500000002,27.861328125,23.818359374999996
18.10546875,16.259765625,-11.07421875,-11.425781249999998,27.861328125,23.906250000000004
17.490234375000004,16.435546875,-11.07421875,-11.07421875,27.861328125,23.906250000000004
16.962890625,16.611328125,-11.25,-10.722656249999998,28.037109375,23.818359374999996
16.347656249999996,16.787109375,-11.337890625,-10.37109375,28.037109375,23.818359374999996
15.820312500000002,16.875,-11.513671875,-10.01953125,28.125,23.906250000000004
15.205078124999998,17.05078125,-11.513671875,-9.755859375,28.125,23.906250000000004
14.589843750000002,17.138671875,-11.689453125,-9.404296875,28.125,23.818359374999996
14.0625,17.314453125,-11.77734375,-9.052734375,28.212890625,23.818359374999996
13.447265625,17.40234375,-11.865234375,-8.701171875,28.212890625,23.818359374999996
12.919921875,17.578125,-11.865234375,-8.26171875,28.212890625,23.818359374999996
12.392578125,17.666015625,-11.953125000000002,-7.998046875,28.212890625,23.818359374999996
12.12890625,17.666015625,-12.041015625000002,-7.822265625000001,28.212890625,23.818359374999996
12.041015625000002,17.75390625,-12.041015625000002,-7.822265625000001,28.212890625,23.818359374999996
12.041015625000002,17.75390625,-11.865234375,-7.822265625000001,28.125,23.906250000000004
12.041015625000002,17.75390625,-11.425781249999998,-7.822265625000001,27.158203125,23.818359374999996
11.953125000000002,17.666015625,-10.8984375,-7.822265625000001,26.54296875,23.818359374999996
11.953125000000002,17.666015625,-10.458984375,-7.822265625000001,26.3671875,23.818359374999996
11.953125000000002,17.666015625,-9.931640625,-7.734374999999999,25.312499999999996,23.818359374999996
11.953125000000002,17.666015625,-9.228515625,-7.734374999999999,25.312499999999996,23.818359374999996
11.953125000000002,17.666015625,-8.525390625,-7.734374999999999,24.2578125,23.818359374999996
12.12890625,17.666015625,-8.0859375,-7.734374999999999,24.169921875,23.818359374999996
12.041015625000002,17.666015625,-7.55859375,-7.646484374999999,23.203125000000004,23.818359374999996
12.12890625,17.666015625,-6.943359375000001,-7.646484374999999,23.115234375,23.818359374999996
12.216796874999998,17.666015625,-6.679687499999999,-7.646484374999999,22.67578125,23.818359374999996
12.12890625,17.666015625,-6.591796875,-7.734374999999999,22.587890625000004,23.818359374999996
12.216796874999998,18.10546875,-6.855468749999999,-7.734374999999999,22.587890625000004,23.818359374999996
12.3046875,18.80859375,-7.734374999999999,-7.822265625000001,22.587890625000004,23.818359374999996
12.392578125,19.51171875,-8.0859375,-7.910156250000001,22.67578125,23.818359374999996
12.568359375,20.0390625,-8.876953125,-7.998046875,22.67578125,23.818359374999996
12.744140625,20.214843750000004,-9.140625000000002,-8.0859375,22.763671875,23.818359374999996
12.83203125,20.478515625,-9.140625000000002,-8.0859375,22.763671875,23.818359374999996
12.919921875,20.126953125,-9.228515625,-8.0859375,22.763671875,23.818359374999996
13.447265625,19.599609375,-8.876953125,-8.173828124999998,22.763671875,23.818359374999996
13.798828125,18.984375,-8.173828124999998,-8.26171875,22.763671875,23.818359374999996
14.414062499999998,18.45703125,-7.734374999999999,-8.4375,22.763671875,23.818359374999996
14.677734375,17.9296875,-7.382812500000001,-8.613281249999998,22.763671875,23.818359374999996
14.94140625,17.40234375,-6.591796875,-8.876953125,22.763671875,23.818359374999996
15.380859375,16.962890625,-5.976562500000001,-9.140625000000002,22.67578125,23.818359374999996
15.644531250000002,16.435546875,-5.44921875,-9.228515625,22.587890625000004,23.818359374999996
16.171875,15.908203125,-4.921875,-9.404296875,22.060546875000004,23.818359374999996
16.347656249999996,15.380859375,-4.306640624999999,-9.66796875,22.060546875000004,23.818359374999996
16.875,14.853515625,-3.6035156249999996,-9.755859375,22.060546875000004,23.818359374999996
17.138671875,14.326171875,-3.1640624999999996,-10.1953125,22.060546875000004,23.818359374999996
17.40234375,13.886718750000002,-2.6367187499999996,-10.283203125,21.972656249999996,23.818359374999996
17.841796875,13.359374999999998,-1.9335937499999998,-10.458984375,21.357421875,23.818359374999996
18.017578125,12.83203125,-1.40625,-10.634765625,21.533203125,23.818359374999996
18.281250000000004,12.392578125,-0.9667968749999999,-10.810546875,21.533203125,23.818359374999996
18.544921875,12.041015625000002,-0.52734375,-10.986328124999998,21.445312499999996,23.818359374999996
18.6328125,12.041015625000002,-0.439453125,-10.986328124999998,21.445312499999996,23.818359374999996
18.6328125,11.865234375,-0.17578125,-10.986328124999998,21.445312499999996,23.818359374999996
18.6328125,11.77734375,-0.17578125,-11.07421875,21.445312499999996,23.818359374999996
18.6328125,11.425781249999998,-0.17578125,-11.07421875,21.884765625,23.818359374999996
18.544921875,11.162109375000002,-0.263671875,-11.07421875,22.5,23.818359374999996
18.45703125,11.162109375000002,-0.7910156249999999,-11.07421875,23.02734375,23.818359374999996
18.369140625,10.810546875,-1.1425781250000002,-11.07421875,23.5546875,23.818359374999996
18.281250000000004,10.458984375,-1.40625,-11.07421875,24.169921875,23.818359374999996
18.281250000000004,10.283203125,-1.4941406250000002,-11.07421875,24.697265624999996,23.818359374999996
18.10546875,10.01953125,-1.8457031250000002,-11.07421875,25.224609375,23.818359374999996
18.017578125,9.66796875,-2.109375,-11.07421875,25.751953125,23.818359374999996
17.9296875,9.66796875,-2.197265625,-11.07421875,26.015625,23.818359374999996
17.9296875,9.580078124999998,-2.2851562500000004,-11.07421875,26.103515625,23.818359374999996
17.666015625,9.580078124999998,-2.373046875,-11.07421875,26.191406250000004,23.906250000000004
17.138671875,9.580078124999998,-2.4609375,-10.722656249999998,26.279296875,23.818359374999996
16.611328125,9.66796875,-2.6367187499999996,-10.37109375,26.455078125,23.906250000000004
16.171875,9.84375,-2.8125,-10.01953125,26.54296875,23.906250000000004
15.732421875,10.01953125,-2.9003906250000004,-9.66796875,26.54296875,23.818359374999996
15.029296875,10.107421875000002,-2.9003906250000004,-9.404296875,26.718749999999996,23.818359374999996
14.414062499999998,10.37109375,-3.1640624999999996,-9.140625000000002,26.806640625000004,23.818359374999996
13.886718750000002,10.458984375,-3.251953125,-8.701171875,26.806640625000004,23.818359374999996
13.359374999999998,10.634765625,-3.4277343749999996,-8.525390625,26.806640625000004,23.818359374999996
12.744140625,10.722656249999998,-3.515625,-8.0859375,26.89453125,23.818359374999996
12.216796874999998,10.810546875,-3.515625,-7.734374999999999,26.89453125,23.818359374999996
11.601562500000002,10.8984375,-3.6035156249999996,-7.382812500000001,26.982421875,23.818359374999996
11.162109375000002,11.162109375000002,-3.779296875,-7.119140625,26.982421875,23.818359374999996
10.8984375,11.162109375000002,-3.779296875,-6.855468749999999,26.982421875,23.818359374999996
10.8984375,11.162109375000002,-3.779296875,-6.943359375000001,26.982421875,23.818359374999996
10.8984375,11.25,-3.779296875,-6.855468749999999,26.982421875,23.818359374999996
10.8984375,11.25,-3.515625,-6.943359375000001,26.103515625,23.818359374999996
10.810546875,11.337890625,-3.1640624999999996,-6.943359375000001,25.48828125,23.818359374999996
10.810546875,11.425781249999998,-2.724609375,-6.943359375000001,24.78515625,23.818359374999996
10.810546875,11.513671875,-2.4609375,-6.943359375000001,24.521484375,23.818359374999996
10.810546875,11.601562500000002,-1.7578125,-6.943359375000001,23.466796875,23.818359374999996
10.8984375,11.865234375,-1.40625,-6.943359375000001,23.466796875,23.818359374999996
10.8984375,11.953125000000002,-0.87890625,-6.943359375000001,22.324218750000004,23.818359374999996
10.986328124999998,12.041015625000002,-0.52734375,-6.943359375000001,22.324218750000004,23.818359374999996
10.986328124999998,12.12890625,-0.263671875,-6.943359375000001,21.972656249999996,23.818359374999996
10.986328124999998,12.12890625,-0.17578125,-6.943359375000001,21.708984374999996,23.818359374999996
10.986328124999998,12.392578125,-0.17578125,-6.943359375000001,21.62109375,23.818359374999996
11.07421875,13.095703125000002,-0.615234375,-7.119140625,21.708984374999996,23.818359374999996
11.162109375000002,13.623046875,-1.1425781250000002,-7.119140625,21.708984374999996,23.818359374999996
11.25,13.798828125,-1.23046875,-7.119140625,21.708984374999996,23.818359374999996
11.25,13.798828125,-1.3183593749999998,-7.119140625,21.796875,23.818359374999996
11.337890625,13.798828125,-1.4941406250000002,-7.119140625,22.324218750000004,23.818359374999996
11.337890625,13.447265625,-1.8457031250000002,-7.119140625,22.851562499999996,23.818359374999996
11.25,13.095703125000002,-2.197265625,-7.119140625,23.466796875,23.818359374999996
11.162109375000002,12.919921875,-2.4609375,-6.943359375000001,23.994140625,23.818359374999996
11.07421875,12.568359375,-2.724609375,-6.943359375000001,24.609375,23.818359374999996
10.986328124999998,12.216796874999998,-3.076171875,-6.943359375000001,25.13671875,23.818359374999996
10.8984375,11.953125000000002,-3.3398437499999996,-6.943359375000001,25.751953125,23.818359374999996
10.8984375,11.601562500000002,-3.4277343749999996,-6.943359375000001,26.191406250000004,23.818359374999996
10.8984375,11.601562500000002,-3.6035156249999996,-6.943359375000001,26.718749999999996,23.818359374999996
10.8984375,11.425781249999998,-3.6914062500000004,-6.943359375000001,26.806640625000004,23.818359374999996
10.8984375,11.337890625,-3.779296875,-6.943359375000001,26.89453125,23.818359374999996
10.8984375,11.425781249999998,-4.130859375,-6.943359375000001,26.982421875,23.818359374999996
10.8984375,12.041015625000002,-4.833984375,-6.943359375000001,27.421874999999996,23.818359374999996
10.986328124999998,12.392578125,-5.44921875,-6.943359375000001,27.59765625,23.818359374999996
11.07421875,12.919921875,-6.064453125,-7.207031249999999,27.685546875000004,23.818359374999996
11.162109375000002,13.359374999999998,-6.679687499999999,-7.294921875000001,27.773437500000004,23.818359374999996
11.25,13.886718750000002,-7.207031249999999,-7.294921875000001,27.861328125,23.818359374999996
11.337890625,14.326171875,-7.822265625000001,-7.382812500000001,27.94921875,23.818359374999996
11.425781249999998,14.853515625,-8.4375,-7.470703125,28.037109375,23.818359374999996
11.601562500000002,15.380859375,-9.052734375,-7.55859375,28.125,23.818359374999996
11.601562500000002,15.820312500000002,-9.66796875,-7.55859375,28.212890625,23.818359374999996
11.689453125,16.435546875,-10.283203125,-7.646484374999999,28.300781249999996,23.818359374999996
11.77734375,16.962890625,-10.986328124999998,-7.734374999999999,28.388671875,23.818359374999996
11.865234375,17.490234375000004,-11.601562500000002,-7.822265625000001,28.4765625,23.818359374999996
11.953125000000002,17.75390625,-11.953125000000002,-7.822265625000001,28.4765625,23.818359374999996
11.865234375,17.841796875,-11.953125000000002,-7.822265625000001,28.388671875,23.818359374999996
11.953125000000002,17.841796875,-11.953125000000002,-7.822265625000001,28.388671875,23.818359374999996
11.953125000000002,17.841796875,-11.513671875,-7.822265625000001,27.421874999999996,23.818359374999996
12.041015625000002,17.841796875,-11.07421875,-7.822265625000001,26.89453125,23.818359374999996
12.041015625000002,17.841796875,-10.546874999999998,-7.822265625000001,25.927734375000004,23.818359374999996
12.12890625,17.75390625,-10.01953125,-7.734374999999999,25.927734375000004,23.818359374999996
12.12890625,17.841796875,-9.404296875,-7.734374999999999,25.048828125000004,23.818359374999996
12.12890625,17.75390625,-8.701171875,-7.734374999999999,24.9609375,23.818359374999996
12.216796874999998,17.75390625,-8.173828124999998,-7.734374999999999,23.994140625,23.818359374999996
12.216796874999998,17.75390625,-7.646484374999999,-7.734374999999999,23.906250000000004,23.818359374999996
12.216796874999998,17.75390625,-7.119140625,-7.646484374999999,22.763671875,23.818359374999996
12.216796874999998,17.75390625,-6.767578125,-7.646484374999999,22.763671875,23.818359374999996
12.3046875,17.75390625,-6.679687499999999,-7.646484374999999,22.763671875,23.818359374999996
12.216796874999998,17.841796875,-6.679687499999999,-7.646484374999999,22.851562499999996,23.818359374999996
12.3046875,18.45703125,-7.294921875000001,-7.822265625000001,22.763671875,23.818359374999996
12.392578125,19.248046875,-7.998046875,-7.910156250000001,22.851562499999996,23.818359374999996
12.656249999999998,19.775390625,-8.613281249999998,-7.998046875,22.851562499999996,23.818359374999996
12.83203125,20.126953125,-9.052734375,-7.998046875,22.851562499999996,23.818359374999996
12.83203125,20.302734375,-9.140625000000002,-8.0859375,22.851562499999996,23.818359374999996
13.0078125,20.302734375,-9.228515625,-8.0859375,22.851562499999996,23.818359374999996
13.53515625,19.951171875,-9.140625000000002,-8.0859375,22.851562499999996,23.818359374999996
13.974609375,19.3359375,-8.701171875,-8.349609375,22.851562499999996,23.818359374999996
14.677734375,18.896484375,-8.349609375,-8.613281249999998,22.851562499999996,23.818359374999996
15.1171875,18.6328125,-8.0859375,-8.96484375,22.763671875,23.818359374999996
15.732421875,17.9296875,-7.382812500000001,-9.228515625,22.67578125,23.818359374999996
16.171875,17.578125,-7.119140625,-9.580078124999998,22.060546875000004,23.818359374999996
16.787109375,17.138671875,-6.416015625,-9.755859375,22.236328125,23.818359374999996
17.226562499999996,16.611328125,-6.064453125,-10.283203125,22.236328125,23.818359374999996
17.666015625,16.259765625,-5.44921875,-10.458984375,22.236328125,23.818359374999996
18.369140625,15.556640625000002,-4.921875,-10.810546875,22.236328125,23.818359374999996
18.720703125,15.205078124999998,-4.658203125,-10.986328124999998,22.1484375,23.818359374999996
19.3359375,14.677734375,-3.6914062500000004,-11.337890625,21.533203125,23.818359374999996
19.423828125,14.501953124999998,-3.6035156249999996,-11.513671875,21.708984374999996,23.818359374999996
19.423828125,14.501953124999998,-3.6035156249999996,-11.513671875,21.708984374999996,23.818359374999996
19.423828125,14.0625,-3.6035156249999996,-11.601562500000002,22.324218750000004,23.818359374999996
19.423828125,13.798828125,-3.6035156249999996,-11.601562500000002,22.851562499999996,23.818359374999996
19.3359375,13.623046875,-4.04296875,-11.601562500000002,23.466796875,23.818359374999996
19.160156249999996,13.359374999999998,-4.21875,-11.601562500000002,23.994140625,23.818359374999996
19.072265625,13.095703125000002,-4.482421875,-11.601562500000002,24.609375,23.818359374999996
18.984375,12.744140625,-4.833984375,-11.601562500000002,25.13671875,23.818359374999996
18.896484375,12.568359375,-5.09765625,-11.601562500000002,25.751953125,23.818359374999996
18.720703125,12.3046875,-5.361328124999999,-11.601562500000002,26.279296875,23.818359374999996
18.6328125,12.216796874999998,-5.537109375,-11.601562500000002,26.630859375,23.818359374999996
18.6328125,12.041015625000002,-5.537109375,-11.689453125,26.718749999999996,23.818359374999996
18.45703125,12.041015625000002,-5.712890624999999,-11.601562500000002,26.718749999999996,23.818359374999996
17.9296875,12.12890625,-5.800781250000001,-11.337890625,26.982421875,23.818359374999996
17.490234375000004,12.216796874999998,-5.888671875,-10.986328124999998,26.982421875,23.818359374999996
16.962890625,12.3046875,-6.064453125,-10.634765625,27.0703125,23.906250000000004
16.5234375,12.48046875,-6.15234375,-10.283203125,27.24609375,23.818359374999996
15.99609375,12.656249999999998,-6.240234375,-10.01953125,27.24609375,23.818359374999996
15.205078124999998,12.83203125,-6.416015625,-9.66796875,27.333984375,23.906250000000004
14.677734375,13.0078125,-6.50390625,-9.31640625,27.421874999999996,23.818359374999996
14.150390624999998,13.095703125000002,-6.591796875,-8.96484375,27.421874999999996,23.818359374999996
13.623046875,13.359374999999998,-6.767578125,-8.613281249999998,27.509765625,23.818359374999996
13.0078125,13.447265625,-6.855468749999999,-8.26171875,27.509765625,23.818359374999996
12.48046875,13.447265625,-6.855468749999999,-7.910156250000001,27.509765625,23.818359374999996
11.865234375,13.623046875,-7.03125,-7.55859375,27.59765625,23.818359374999996
11.425781249999998,13.710937499999998,-7.119140625,-7.382812500000001,27.685546875000004,23.818359374999996
11.337890625,13.798828125,-7.119140625,-7.294921875000001,27.685546875000004,23.818359374999996
11.337890625,13.798828125,-7.119140625,-7.294921875000001,27.685546875000004,23.818359374999996
11.337890625,13.798828125,-6.767578125,-7.294921875000001,27.0703125,23.818359374999996
11.25,13.710937499999998,-6.328124999999999,-7.294921875000001,26.455078125,23.818359374999996
11.25,13.710937499999998,-5.888671875,-7.294921875000001,25.751953125,23.818359374999996
11.25,13.710937499999998,-5.273437499999999,-7.207031249999999,25.576171874999996,23.818359374999996
11.162109375000002,13.710937499999998,-4.570312500000001,-7.207031249999999,24.521484375,23.818359374999996
11.25,13.710937499999998,-4.130859375,-7.207031249999999,24.433593749999996,23.818359374999996
11.25,13.710937499999998,-3.515625,-7.207031249999999,23.37890625,23.818359374999996
11.25,13.710937499999998,-2.9882812500000004,-7.207031249999999,23.37890625,23.818359374999996
11.25,13.710937499999998,-2.373046875,-7.119140625,22.324218750000004,23.818359374999996
11.25,13.710937499999998,-1.8457031250000002,-7.119140625,22.324218750000004,23.818359374999996
11.425781249999998,13.710937499999998,-1.8457031250000002,-7.119140625,21.972656249999996,23.818359374999996
11.337890625,13.710937499999998,-1.8457031250000002,-7.207031249999999,21.796875,23.818359374999996
11.425781249999998,14.150390624999998,-2.2851562500000004,-7.294921875000001,21.796875,23.818359374999996
11.513671875,14.94140625,-2.9882812500000004,-7.294921875000001,22.060546875000004,23.818359374999996
11.601562500000002,15.380859375,-3.6035156249999996,-7.382812500000001,22.1484375,23.818359374999996
11.77734375,15.908203125,-4.21875,-7.470703125,22.236328125,23.818359374999996
11.865234375,16.171875,-4.306640624999999,-7.470703125,22.324218750000004,23.818359374999996
11.865234375,16.259765625,-4.39453125,-7.470703125,22.324218750000004,23.818359374999996
11.865234375,16.259765625,-4.39453125,-7.470703125,22.412109375,23.818359374999996
11.865234375,16.259765625,-4.39453125,-7.470703125,22.324218750000004,23.818359374999996
11.865234375,16.259765625,-4.39453125,-7.470703125,22.412109375,23.818359374999996
11.865234375,16.259765625,-4.570312500000001,-7.470703125,22.412109375,23.818359374999996
11.865234375,16.259765625,-4.570312500000001,-7.470703125,22.412109375,23.818359374999996
11.865234375,16.259765625,-4.570312500000001,-7.470703125,22.324218750000004,23.818359374999996
11.865234375,16.259765625,-4.570312500000001,-7.470703125,22.412109375,23.818359374999996
11.865234375,16.259765625,-4.570312500000001,-7.470703125,22.1484375,23.818359374999996
11.601562500000002,16.259765625,-4.482421875,-7.207031249999999,20.91796875,23.818359374999996
11.25,16.259765625,-4.04296875,-7.119140625,20.0390625,23.818359374999996
10.986328124999998,15.820312500000002,-3.251953125,-6.943359375000001,18.544921875,23.818359374999996
10.546874999999998,15.644531250000002,-2.6367187499999996,-6.855468749999999,16.611328125,23.818359374999996
10.01953125,15.380859375,-1.8457031250000002,-6.591796875,14.677734375,23.818359374999996
9.66796875,15.1171875,-1.23046875,-6.416015625,13.359374999999998,23.818359374999996
9.140625000000002,14.765625000000002,-0.3515625,-6.064453125,11.337890625,23.818359374999996
8.701171875,14.501953124999998,0.17578125,-5.888671875,9.580078124999998,23.818359374999996
8.26171875,14.23828125,1.0546875,-5.537109375,7.822265625000001,23.818359374999996
7.734374999999999,13.974609375,1.8457031250000002,-5.273437499999999,6.15234375,23.818359374999996
7.294921875000001,13.886718750000002,2.4609375,-5.009765625,4.306640624999999,23.818359374999996
6.855468749999999,13.447265625,3.4277343749999996,-4.658203125,2.548828125,23.818359374999996
6.416015625,13.18359375,3.8671874999999996,-4.482421875,0.7910156249999999,23.818359374999996
5.976562500000001,12.919921875,4.833984375,-4.130859375,-0.9667968749999999,23.818359374999996
5.537109375,12.656249999999998,5.537109375,-3.9550781250000004,-2.6367187499999996,23.818359374999996
5.09765625,12.392578125,6.15234375,-3.6035156249999996,-4.306640624999999,23.818359374999996
4.658203125,12.12890625,6.943359375000001,-3.3398437499999996,-6.064453125,23.818359374999996
4.21875,11.953125000000002,7.646484374999999,-3.076171875,-7.822265625000001,23.818359374999996
3.779296875,11.689453125,8.4375,-2.9003906250000004,-9.4921875,23.818359374999996
3.3398437499999996,11.425781249999998,9.052734375,-2.548828125,-11.25,23.818359374999996
2.8125,11.07421875,9.84375,-2.197265625,-12.919921875,23.818359374999996
2.2851562500000004,10.8984375,10.458984375,-2.021484375,-14.677734375,23.818359374999996
1.9335937499999998,10.546874999999998,11.337890625,-1.6699218749999998,-16.435546875,23.818359374999996
1.4941406250000002,10.283203125,11.953125000000002,-1.40625,-18.10546875,23.818359374999996
0.9667968749999999,10.283203125,12.656249999999998,-1.1425781250000002,-20.0390625,23.818359374999996
0.52734375,9.84375,13.447265625,-0.87890625,-21.357421875,23.818359374999996
0.439453125,9.66796875,13.447265625,-0.7910156249999999,-22.324218750000004,23.818359374999996
0.17578125,9.66796875,13.886718750000002,-0.615234375,-23.115234375,23.818359374999996
-0.263671875,9.4921875,14.414062499999998,-0.439453125,-24.082031250000004,23.818359374999996
-0.263671875,9.4921875,14.414062499999998,-0.3515625,-24.169921875,23.818359374999996
-0.17578125,9.4921875,14.414062499999998,-0.3515625,-24.169921875,23.818359374999996
-0.263671875,9.404296875,14.414062499999998,-0.3515625,-24.169921875,23.818359374999996
-0.263671875,9.4921875,14.414062499999998,-0.3515625,-24.169921875,23.818359374999996
-0.263671875,9.404296875,14.414062499999998,-0.3515625,-24.169921875,23.818359374999996
-0.17578125,9.404296875,14.414062499999998,-0.3515625,-24.169921875,23.818359374999996
-0.263671875,9.404296875,14.414062499999998,-0.3515625,-24.169921875,23.818359374999996
-0.17578125,9.4921875,14.414062499999998,-0.3515625,-24.082031250000004,23.818359374999996
-0.17578125,9.404296875,14.414062499999998,-0.3515625,-24.082031250000004,23.818359374999996
-0.17578125,9.404296875,14.414062499999998,-0.3515625,-24.082031250000004,23.818359374999996
-0.17578125,9.404296875,14.414062499999998,-0.3515625,-24.082031250000004,23.818359374999996
-0.17578125,9.4921875,14.414062499999998,-0.3515625,-24.082031250000004,23.818359374999996
