RAMEL-ESPOL/ARCHIE/matlab/data/joint_goals_square_t35_h35_p12.txt
Joint0,Joint1,Joint2,Joint3,Joint4,Joint5 
0.003870557123804251,9.5745724521274,14.24586019416335,0.004985985620235051,-23.83088146011051,-0.0003230106494472601
0.003870557123804251,9.5745724521274,14.24586019416335,0.004985985620235051,-23.83088146011051,-0.0003230106494472601
0.003870557123804251,9.5745724521274,14.24586019416335,0.004985985620235051,-23.83088146011051,-0.0003230106494472601
0.003870557123804251,9.5745724521274,14.24586019416335,0.004985985620235051,-23.83088146011051,-0.0003230106494472601
0.003870557123804251,9.5745724521274,14.24586019416335,0.004985985620235051,-23.83088146011051,-0.0003230106494472601
0.003870557123804251,9.5745724521274,14.24586019416335,0.004985985620235051,-23.83088146011051,-0.0003230106494472601
0.003870557123804251,9.5745724521274,14.24586019416335,0.004985985620235051,-23.83088146011051,-0.0003230106494472601
0.003870557123804251,9.5745724521274,14.24586019416335,0.004985985620235051,-23.83088146011051,-0.0003230106494472601
0.003870557123804251,9.5745724521274,14.24586019416335,0.004985985620235051,-23.83088146011051,-0.0003230106494472601
0.003870557123804251,9.5745724521274,14.24586019416335,0.004985985620235051,-23.83088146011051,-0.0003230106494472601
0.003870557123804251,9.5745724521274,14.24586019416335,0.004985985620235051,-23.83088146011051,-0.0003230106494472601
0.003870557123804251,9.5745724521274,14.24586019416335,0.004985985620235051,-23.83088146011051,-0.0003230106494472601
0.003870557123804251,9.5745724521274,14.24586019416335,0.004985985620235051,-23.83088146011051,-0.0003230106494472601
0.003870557123804251,9.5745724521274,14.24586019416335,0.004985985620235051,-23.83088146011051,-0.0003230106494472601
0.003870557123804251,9.5745724521274,14.24586019416335,0.004985985620235051,-23.83088146011051,-0.0003230106494472601
0.003870557123804251,9.5745724521274,14.24586019416335,0.004985985620235051,-23.83088146011051,-0.0003230106494472601
0.003870557123804251,9.5745724521274,14.24586019416335,0.004985985620235051,-23.83088146011051,-0.0003230106494472601
0.0038719214585051375,9.574575304654918,14.245853285489622,0.004985986897576964,-23.830864042712157,-0.00032163397571925804
0.02200901614018915,9.612413203445813,14.154118033503906,0.004941461255936904,-23.599481073601414,0.01795462280539226
0.0626897277075309,9.696681541916126,13.949131266769495,0.004396831870226363,-23.08164379514117,0.058770931029190905
0.10559307139019534,9.784663449502448,13.734082128299374,0.0031653899033460818,-22.53718656335848,0.10156495524959919
0.14854171989844822,9.871833388617272,13.519952944924809,0.0012681108914503623,-21.993822444647044,0.1441597269746406
0.19179395848877664,9.958715197747427,13.305447773471395,-0.0013037255101083318,-21.448252486334493,0.18682339748969268
0.23512308663920098,10.044851809399914,13.09168441127884,-0.00453511031411794,-20.903307548337562,0.22934390684053893
0.2784496116866939,10.130092735100531,12.879037113553128,-0.008412083022156094,-20.35994272969928,0.2716569019279176
0.32186939162854533,10.214633257201964,12.667018719931681,-0.01293604093807155,-19.81691331157893,0.31386920811511604
0.3655631466025943,10.298823176773523,12.454740952731193,-0.018125172468227306,-19.271931815284145,0.3561677012208687
0.409214181711267,10.382054083915099,12.243731950170664,-0.023938639579068294,-18.728914829602235,0.3982576597431726
0.45350775983284514,10.465623055776348,12.030682336705935,-0.030472788424636965,-18.179322448720093,0.44080966117214077
0.49792688141054897,10.548540025540543,11.818088069764586,-0.037660257131652365,-17.629562097612578,0.4833360974164433
0.5425004682927526,10.630858630640628,11.60580279930727,-0.04550459463724022,-17.079245542490014,0.5258762567739372
0.5869220188618929,10.712020623995443,11.395268847967177,-0.05394513539116377,-16.53211471572847,0.5681502701351184
0.6317174299362618,10.79298783911487,11.18398443108155,-0.06308013951686497,-15.981660551621527,0.6106702210507361
0.6765061965865927,10.873068942466702,10.973740320796805,-0.07283377985373073,-15.432534004956867,0.6530858846558224
0.7215831411104718,10.952789815856194,10.76314593777283,-0.08327057246335046,-14.88109225085366,0.695687752693541
0.7664459745455465,11.031266751860876,10.554534689643422,-0.09427057827710635,-14.33344408361898,0.7380128375997567
0.8116405283074936,11.109457620543465,10.345357069245797,-0.1059652839441809,-13.782892896382359,0.7805876364072593
0.8567667624883337,11.186668891110275,10.1374583987173,-0.1182522048284832,-13.234284737091956,0.8230463830317751
0.9020034111963167,11.263211123975635,9.930002185693912,-0.13117686660608066,-12.685411760151744,0.8655686820987515
0.9475365819989534,11.339393394620375,9.722133648729502,-0.14479698861130988,-12.133994343720127,0.9083404069628475
0.9928959389068754,11.414430803924132,9.515990107850332,-0.15897105825466487,-11.585697456923667,0.9509309252856992
1.038591314518559,11.489167475161222,9.309246137432183,-0.17385870013921026,-11.034329052140063,0.9938301328863927
1.084073390597644,11.5627065155665,9.104377911184121,-0.18928085727217633,-10.486487556207127,1.0365333946245845
1.129902497399387,11.635955060146978,8.898852774076396,-0.20542792240810512,-9.935394414755274,1.0795779308790625
1.1755485723619294,11.708065923599856,8.69504046190664,-0.22211452908939022,-9.387396043352094,1.1224769298955461
1.2215156420600408,11.779835929959969,8.490682502311527,-0.23952613366828862,-8.836413253768557,1.1657151958473704
1.2674293734085336,11.850677483844764,8.287439084563879,-0.25752499892318065,-8.286908901583548,1.208951867779088
1.3134570566445627,11.920851038530447,8.08456001670936,-0.27617703655471054,-7.736851376064169,1.2523554885088235
1.3594502184705641,11.990131884027926,7.882690889035744,-0.2954230937815685,-7.187986606532136,1.2957970484558885
1.4055961831006525,12.058802577942165,7.6810020211879,-0.31534369120486594,-6.638052091873228,1.3394646121664189
1.4518653078096586,12.126814935072066,7.479620032355785,-0.33593161938295535,-6.087378162172201,1.383341759061085
1.497911712589284,12.193666540313501,7.280037364113372,-0.35703140175663206,-5.540049983986415,1.4271109914548454
1.5443821473583963,12.260293937714637,7.079446223512829,-0.3789442233473133,-4.988355807799494,1.4713986969992077
1.5907193914018798,12.325893313514523,6.880249833827248,-0.4014141839497538,-4.4388889048129325,1.5156858375304194
1.6371081864644117,12.390731159790294,6.681642360178486,-0.4245306585676075,-3.8894290449967106,1.5601596166018477
1.6834506771196718,12.45467309568206,6.4840337189483535,-0.4482467582224663,-3.3411080997287543,1.6047372115474572
1.7300998229453521,12.518201613560569,6.285916488896122,-0.4727503972509167,-2.7897276346965123,1.6497704941005165
1.776456436696553,12.580502549136643,6.089827054622962,-0.49772954608735853,-2.242343617307988,1.6946921955877048
1.8231455243072163,12.64241695041854,5.893114030304873,-0.5235245171339005,-1.6915501975675875,1.7401194328112741
1.8698708287466432,12.703544014981825,5.6970265355866125,-0.5499822780278496,-1.1408223643365347,1.7857774958238266
1.9163008676531796,12.763458814235944,5.502941132839425,-0.5769131773610735,-0.5940375617861625,1.83135218633472
1.9630933390353222,12.823009895010918,5.308102291122972,-0.604703857911231,-0.043426077478050405,1.8775010631864024
2.009821360113615,12.881647557781672,5.114287050766075,-0.633111067671013,0.5060097134274784,1.9238168378054925
2.056533056219103,12.939435727468588,4.921286321844189,-0.6621667768331027,1.0548614333007533,1.9703583626292618
2.103439729413012,12.996632211215763,4.7282240598297545,-0.6920110504943694,1.6056340400581555,2.017349532920393
2.1501955568466147,13.052815218122513,4.536517568208494,-0.7224299419856592,2.154290495588483,2.064456321774815
2.1971287595666986,13.108379437574746,4.344814709070765,-0.7536430310232465,2.7047059483639555,2.112021889206034
2.244098177914324,13.163152851359584,4.153690292665629,-0.7855669879041629,3.2552463984444757,2.159917558574535
2.2908316981034607,13.21682402302855,3.9642404897207237,-0.8180187732792199,3.802747426470794,2.207876554193206
2.3378649208640114,13.270007000405439,3.774289042659993,-0.8513782705116506,4.353506375925268,2.2564619292014534
2.384778569578246,13.322223245038085,3.5855272048023963,-0.885359168743583,4.902634853343528,2.3052554261979727
2.431878571561628,13.373811747524647,3.396719487553323,-0.9201920198503276,5.453735978744317,2.3545892507815323
2.4788036650051226,13.424376715745945,3.2093083967316844,-0.955617664176292,6.002605039042468,2.4040985777587522
2.525780149614622,13.474165188746316,3.022381771996355,-0.9918123982383019,6.551911814617529,2.4540345121912273
2.5728928754358025,13.523262101473799,2.835600465619443,-1.0288545433533842,7.102669498874722,2.504503463459132
2.619863303731679,13.571377051053894,2.650063292953826,-1.0665340652367319,7.651643624371211,2.5552212576971396
2.6668759138209888,13.618701352591707,2.4650341201289696,-1.1050060150972487,8.201012181857413,2.606400329864267
2.71380010964953,13.665104258207503,2.2810209271690334,-1.1441723317383603,8.749270406990481,2.657912694522428
2.7610322444651696,13.710971319405289,2.0964691204339303,-1.1843796348117785,9.301069921634346,2.7102117017628076
2.807942899210111,13.755690909982558,1.9138330416040794,-1.2251026637280322,9.849078267068352,2.7626157048640616
2.8549808499742704,13.799695271481706,1.7313567133522174,-1.266737363587606,10.398558930847546,2.8156389601452214
2.9020590122458834,13.842897403637712,1.54937707867547,-1.3092228885969888,10.948515072010307,2.8692021371093976
2.9490232062004758,13.885156854633237,1.3684841670018848,-1.3524303841465828,11.497165876623267,2.923145139432562
2.9961918167983757,13.926756460664267,1.187449348489342,-1.396668120989954,12.04825114231326,2.9778522292643244
3.0432080805124295,13.967378916775706,1.0076388896778303,-1.4416162944806623,12.5976227844255,3.032927918749789
3.0902389072141476,14.007170787725485,0.8284076912503934,-1.487444639024715,13.147250640786694,3.088583161536754
3.1376852578086454,14.04645810348378,0.6482326757665952,-1.534570634767913,13.70184174058773,3.1453188508547023
3.185084644993183,14.08484634218719,0.46887379392803524,-1.5825607136954245,14.256011346512944,3.202607980932729
3.232711296134189,14.122550925238588,0.2892933641079531,-1.6317139632158553,14.812986318389436,3.26080541233064
3.2800699971763105,14.15917903973638,0.11135433742077974,-1.681534912485836,15.36699485801134,3.3193255747314665
3.3276576075675197,14.19511404181378,-0.06681426967617742,-1.7325626731305324,15.923868781057633,3.3788026869121657
3.375051335314396,14.230033650853988,-0.24363207382095808,-1.784363114986035,16.47868018759643,3.4387305981780525
3.422252568679285,14.263947235432637,-0.4191148934074986,-1.8369446379454977,17.031461963342966,3.499124659711496
3.4697102524877117,14.297173410821923,-0.594933580597888,-1.890828863554587,17.58749130148814,3.560583416089703
3.5169851515527775,14.32940023961499,-0.7694622713562554,-1.9455397535221917,18.1416414387825,3.622563122695764
3.5643956348734163,14.360843495580234,-0.9438799117964934,-2.001465475932669,18.697662712964576,3.6855042694458024
3.6116532918358124,14.391309807136464,-1.1171284087872342,-2.0582871594018775,19.252191154267287,3.749048338879199
3.6590106177728923,14.420960782381284,-1.2901369543287224,-2.1163293839571837,19.808207586317486,3.813559096280641
3.7061427096686788,14.449593700306384,-1.4617233298223695,-2.1752131654544002,20.361914358846953,3.8786169323585593
3.753427480643329,14.477437231367142,-1.6332669227807661,-2.2354327227866615,20.917768619033644,3.9447687836403027
3.800716383420875,14.504396587582772,-1.8042280036056395,-2.2968300971935713,21.474043945716332,4.0118393155881265
3.8468733985161014,14.529852643935175,-1.9705227140818635,-2.3579142161114204,22.01738093927668,4.078212752045958
3.8738334339277354,14.544327986139882,-2.0673926494515134,-2.3941319704097945,22.33491957714545,4.117407481142356
3.885261055266404,14.550376019408867,-2.1083950528250677,-2.4096051764903716,22.469556308436797,4.134117669547781
3.877010321216574,14.470674065556855,-2.206799949329694,-2.408227395341448,22.655812501062957,4.13375164743526
3.851351682334258,14.240660229810057,-2.472435840336795,-2.4010771325757196,23.152078671918126,4.129110290202934
3.824213948539468,13.988499971095804,-2.751831395644307,-2.3937875776884483,23.684281542645763,4.124390740324742
3.7973340204823764,13.729427748755011,-3.026834006178294,-2.386854333754957,24.218992192516986,4.119917437977419
3.77422700579054,13.499075393837886,-3.2617196775999044,-2.381131131883875,24.684772656349686,4.116239948322469
3.7645570956467296,13.400526825680323,-3.3595695006237207,-2.3788029524782024,24.881396895700945,4.114748766576258
3.757957725819566,13.33253107814515,-3.4261906426111306,-2.3772371357499256,25.016167523914568,4.113747662457215
3.7360937002878085,13.102897338222276,-3.6459538775427722,-2.372185947371239,25.46607152846156,4.110529394145257
3.710517809488776,12.82558778314285,-3.9010501396216717,-2.3665503019814165,25.99906587560654,4.106963102718449
3.6852940697490686,12.542636915749412,-4.150378689742987,-2.3612913085068965,26.531920782952945,4.103665014703288
3.6611962513997796,12.263264772913105,-4.386316957623648,-2.3565551487374203,27.047776314896662,4.100727041194093
3.6490671562816,12.119216976560324,-4.5041819039423405,-2.354281186211314,27.309961670283023,4.0993300372346075
3.6431818811342307,12.048679626326516,-4.562301090899538,-2.353225212854196,27.43874925042223,4.098716498527173
3.655352035784841,12.26262047469901,-4.8332281656745835,-2.362291141797812,27.495190731898013,4.11494717141002
3.6816054330973436,12.719528016711092,-5.409427915305577,-2.3818082345687825,27.61330297144144,4.1498579685902195
3.710112393081011,13.208708329108344,-6.022670686289888,-2.402938750557892,27.736076694470686,4.1876094308691805
3.7391940206408547,13.700519078343728,-6.635378480309531,-2.424428502826334,27.85565103138303,4.225956471909078
3.769007212526553,14.19735472241462,-7.250423419982059,-2.4463886037040368,27.972496003642103,4.265096802334894
3.799372612109613,14.69598226518448,-7.863700716603504,-2.4686821054836643,28.085747520841643,4.304785894658733
3.8303093000282367,15.196537734455823,-8.475311851849337,-2.4913187025773293,28.19536971577303,4.345040998243949
3.8619908004286025,15.701589703744668,-9.088296408359504,-2.5144202814998238,28.301825025961943,4.386078500622334
3.8944634571892585,16.211567414256074,-9.70303841627382,-2.5380146324540984,28.40506544254356,4.427947012729635
3.927534927623891,16.723201911153794,-10.315495067163347,-2.5619564953950684,28.504325559474562,4.470388389161115
3.961375566986636,17.23889650672568,-10.928450878492464,-2.5863637120960425,28.599977958906255,4.513611251266747
3.995828627196937,17.756033747486512,-11.53870504420763,-2.6111176499242115,28.691446151136585,4.557405254904358
4.0304068196967,18.26729611447471,-12.137660534165773,-2.635865287850874,28.77747365456038,4.601146783396117
4.055529215867528,18.63401346183482,-12.564594375060905,-2.6537850652888406,28.83647319536483,4.632795216124418
4.042095916089445,18.711554059442175,-12.654008630478936,-2.6453194934602413,28.848952936113097,4.618188185162491
3.6930832867390335,18.731945368289217,-12.667496878692415,-2.4172661535228253,28.857413198687052,4.221975323713898
3.1319040532741123,18.760849839983308,-12.686600335176703,-2.050360270610781,28.86936109013382,3.5848332830959633
2.560494259283462,18.78537643574611,-12.702805460161919,-1.676531680074007,28.87953960293623,2.936003848409104
1.9865907680550843,18.805038998592238,-12.715787952402946,-1.3008756307502791,28.887679238011884,2.2842812760426834
1.4121380794523892,18.81974248959683,-12.725496270909717,-0.9247082881894801,28.89379772020152,1.631888291753807
0.8408608482989428,18.829430936913866,-12.731888816890608,-0.5505129334653438,28.89780580981305,0.9830677915464976
0.26805819700336764,18.834211411786065,-12.735042297100462,-0.17525474406218908,28.899780113026395,0.33249513057779145
-0.3050393393417395,18.834052855946172,-12.734939632788052,0.20021769871020245,28.899727325223406,-0.3184188602717776
-0.8788877716956806,18.82894102748921,-12.73156890320789,0.5761592284061217,28.897620856568704,-0.9701786490380974
-1.4532823833762978,18.818857336873517,-12.7249125807532,0.952389585541624,28.893418808849788,-1.6225372566736005
-2.0264056476108325,18.803840046449526,-12.715001712462687,1.327678264692274,28.887203832735263,-2.273418147496798
-2.599637894075595,18.78385901991603,-12.701805761274914,1.7028812555914778,28.878902887332057,-2.924373680707156
-3.172368025105952,18.758932521982462,-12.685340671045505,2.077560376544001,28.86859268865275,-3.574698598824202
-3.721071438568081,18.73038596929929,-12.666469993357698,2.4362919441861384,28.85676153569207,-4.197669806747996
-4.036217512117306,18.711921639925464,-12.654259204452085,2.6422135938012006,28.849122071391182,-4.555435723732154
-4.062912222594551,18.716028219074772,-12.54328860561394,2.6567051057740625,28.73294301361805,-4.579620545772404
-4.070985533813477,18.736129316131624,-12.089000691428117,2.650033597536259,28.258691011285745,-4.563751802188959
-4.0803518157864875,18.75337216641722,-11.560181331636498,2.642698290009153,27.71278163890018,-4.545719683304819
-4.089780724070872,18.76428984388255,-11.02596322419181,2.6357370127996975,27.167793382547064,-4.5279597186900595
-4.099227935433311,18.768905186441884,-10.488898082861661,2.629171996305366,26.6262546466491,-4.510542934489663
-4.108806982279232,18.767279929602378,-9.94255227323287,2.622918613811001,26.08167191739597,-4.493251905501825
-4.118284752678195,18.75957561385817,-9.400273873465819,2.61711638299653,25.547228631853343,-4.476492989355008
-4.12776960246901,18.745942155216255,-8.85594698979324,2.611679484165065,25.0166608260102,-4.46005403753582
-4.137223629916755,18.726598770672943,-8.311808644562355,2.60661530998438,24.49198607656176,-4.443984971106971
-4.146643335467733,18.70174883759261,-7.768129461722747,2.601909942273749,23.973271876721537,-4.428274782709884
-4.155779765228624,18.6724533335332,-7.239402051051806,2.5976598786103167,23.47394727009093,-4.413311343630642
-4.160230174573268,18.65636738308454,-6.98137074917076,2.595698514742666,23.232052716114307,-4.406116916427153
-4.175495960165602,18.86986283095917,-7.225814572783566,2.6058027528302565,23.262291018045772,-4.423899980648564
-4.210961421627957,19.361482330883355,-7.789162748633465,2.6292934716416214,23.332358809536085,-4.465250074947034
-4.249583011661623,19.888393935056843,-8.388640215816707,2.65479518144909,23.40310373722994,-4.510071583027872
-4.28934197213134,20.42190164956947,-8.99106389779997,2.68096199140912,23.470131854997135,-4.555989989513416
-4.329738175504136,20.95498887308282,-9.588418388030197,2.7074596963042064,23.532467255024038,-4.602416670933116
-4.360075040824434,21.349558562256373,-10.027591560455846,2.727300877156226,23.575610851835208,-4.637133886742224
-4.349062385981623,21.415219019361526,-10.099962829514286,2.7205707858572468,23.582828034288525,-4.625712779113694
-4.016217837499397,21.180993526572486,-9.831034061608849,2.5122213784423195,23.56307471247073,-4.268285238384425
-3.498590376701908,20.810427672228133,-9.40529687964608,2.188169994576421,23.528755436911144,-3.712741314900105
-2.97588564875193,20.428256735339417,-8.965820246952203,1.8609383913851174,23.489580830119653,-3.152177939407885
-2.453056128814984,20.037767495267964,-8.516275106520165,1.5336755447376458,23.445721918530182,-2.5919692893846693
-1.9342325990319962,19.64191342793133,-8.059959658364143,1.209015688759793,23.39743779506696,-2.036595185558667
-1.4239448164939341,19.24422577388492,-7.60085620550983,0.8898381518304606,23.345181175638203,-1.490944753969151
-0.9173467487716306,18.84099757857645,-7.134596973658571,0.5731545956704582,23.288482585601745,-0.9498763207754439
-0.41508407804175157,18.432708363563734,-6.6616390472574345,0.2594117029912927,23.227381229037878,-0.4141270028882888
0.07911963483948747,18.022462920915224,-6.185492768410419,-0.0490264672042195,23.162360765973666,0.11229340749714126
0.3667567607603905,17.779711951858495,-5.903288628614698,-0.22840528803355478,23.122238128199673,0.41832663534073383
0.6604002031065855,17.528805540982464,-5.61122506146632,-0.41140456432286765,23.07946088557903,0.7304502036659598
1.1495862244279824,17.10375111794527,-5.1155441258323435,-0.7159743280045542,23.004120699500323,1.2497373124878333
1.6452407556245927,16.663840200474795,-4.601289095239109,-1.024159493822671,22.922443405878468,1.7749578298905135
2.135558693708935,16.219237820157897,-4.080191074219244,-1.328556413200396,22.83611200662064,2.2935019751797343
2.616893248685376,15.773384393106983,-3.556200081840893,-1.6268795684558792,22.74585689105264,2.8014909626706666
3.086311067799563,15.329327220455815,-3.032845449986501,-1.9172969346544988,22.6524010353004,3.295821308717438
3.54321943617931,14.888072740203524,-2.511285952971725,-2.1994384827712685,22.556104025414026,3.775878588467318
3.8511297300251406,14.58555222872687,-2.1528182392879645,-2.3892599925006577,22.488173762429064,4.098749616829276
3.8822358055735453,14.516524190839867,-2.1525632471380405,-2.409719884089314,22.555615868816265,4.134727949793414
3.859586315025359,14.315340142235298,-2.3873557238643572,-2.4033513793588637,22.992137580679326,4.130591743014291
3.8322042803673697,14.063696855881151,-2.6697631044960284,-2.3959105187641683,23.52684266871932,4.125769996622003
3.8053070180551347,13.807243394553671,-2.9454738364999744,-2.3888867520023234,24.059644608965122,4.121233169669578
3.7794161258433596,13.551418596018015,-3.2091177825755253,-2.3824032765402445,24.579722373309387,4.117062264395085
3.766139866040359,13.416731979616838,-3.3435889140377406,-2.3791876535376555,24.849190528456795,4.115001215039692
3.7596053807445635,13.349550970526014,-3.4095860781019094,-2.3776326702858235,24.982521007119878,4.114006666601554
3.7435450849846617,13.181903929959477,-3.5712415776505892,-2.3738900048307756,25.31219653480932,4.111619307661229
3.718045446846676,12.908184728716456,-3.8262139215548694,-2.3681841744802044,25.841476308556103,4.108000261655155
3.692696629852812,12.626656726248703,-4.077462437721598,-2.362809571527715,26.374832642390807,4.104619990420069
3.6677249506400025,12.339832801954014,-4.322634716254451,-2.3578162042031985,26.907395116984254,4.101512107378491
3.6506326135459117,12.137930143289852,-4.489014645227425,-2.3545767920581913,27.276062430144293,4.099517371861987
3.6438865586147737,12.056968915188078,-4.554345514897148,-2.3533391624330116,27.422505721208008,4.098760636534719
3.4893756203146777,12.056992193319502,-4.56820880066941,-2.254018322777667,27.442503286671958,3.9269291201072494
3.013068164683856,12.08223990604484,-4.5871351198262955,-1.9466635939108048,27.453500691041803,3.394879732426298
2.4689595057010894,12.1065368981955,-4.6053411468039585,-1.5953588877809803,27.464096215113763,2.78701179519564
1.9238779923210425,12.126027117720973,-4.6199360590891025,-1.2432495125854237,27.472571291933228,2.177981837061579
1.38221635138286,12.1405969833675,-4.630846249600004,-0.8932145463331332,27.478935607756725,1.5727184662909084
0.838829735752981,12.150412425277782,-4.6381950743353135,-0.5419670731938693,27.48322752953438,0.9654868304962041
0.2965758525207363,12.15541911820826,-4.641943816811067,-0.19139243018070828,27.48542181256998,0.3594962826353977
-0.2484846319807432,12.15563200670481,-4.642100824294621,0.16101723377617877,27.485492356524922,-0.2496406141306654
-0.7912233494485108,12.151044793168555,-4.638669034168935,0.5119087299498344,27.48349943955787,-0.8561743917210698
-1.3340112424948474,12.141664654634763,-4.631649106523202,0.8627763581912921,27.479415453363575,-1.4627399859257701
-1.8784333523736214,12.127436597827035,-4.620994241417406,1.2146041491569153,27.4731868510409,-2.0710928358118097
-2.421240113456399,12.108441074961872,-4.606769441753161,1.5652569100725853,27.46491398139612,-2.677584950160056
-2.9631379470053556,12.084676680188482,-4.588966130589221,1.9151522439001831,27.454568124502288,-3.282990591023063
-3.4502736042349693,12.059211590906582,-4.569879489660913,2.2295115548318862,27.443484763653107,-3.8271425690583767
-3.6428306391478484,12.04807217997515,-4.561525153768246,2.353718538557279,27.438620018454095,-4.042215109722541
-3.649968798827727,12.109701421516078,-4.392243730116158,2.353415742019678,27.20761358434108,-4.039499794885714
-3.6650139906765293,12.243978231483581,-4.009319347402676,2.352276322755062,26.6902365987239,-4.032382959361879
-3.6808435866842735,12.378206059060513,-3.6048793819330354,2.35140545575275,26.151379958918962,-4.02516902770346
-3.6969565425528206,12.507608900536269,-3.191665156748779,2.3508517104525657,25.60856674414871,-4.018101368903046
-3.713035317253227,12.629663811057553,-2.777881603518094,2.3506214474170917,25.072528775734675,-4.011312915793652
-3.7293159346504208,12.746246250830373,-2.357527650253543,2.3507043959269187,24.535386700800057,-4.004695719006627
-3.745820152650388,12.857432280824156,-1.930082056619195,2.351101390617038,23.996542963856832,-3.9982387803160924
-3.762567117764537,12.96325131016023,-1.495087183621398,2.3518146439675984,23.45551028181125,-3.991933159148777
-3.7793640733804565,13.062498358155331,-1.0576088077337964,2.3528328932405156,22.918561997758477,-3.985846095396818
-3.7951081437845633,13.14943323845215,-0.6465543821690369,2.3540531597943968,22.420360823150688,-3.9803463435868456
-3.8018703614389917,13.185002748231486,-0.4697242081950271,2.3546540892414813,22.207869286744124,-3.978042983994445
-3.8069024267861935,13.256136746095004,-0.5217538415270938,2.357443153466782,22.18857933534478,-3.982491623469153
-3.829915262193054,13.636994313227,-0.9921276146537478,2.373177410976417,22.27709304417564,-4.010714835412553
-3.8602850173955483,14.132753868281362,-1.601065696831521,2.3938951707608678,22.388941411808155,-4.047817498218181
-3.8801886806232546,14.453540755100507,-1.9930634840408865,2.4074443804390153,22.45927613554282,-4.072046635454707
-3.886070568429519,14.549151551587428,-2.1136980438369233,2.4115209775334776,22.484036394250708,-4.079394888767129
-3.871777115062639,14.423529331680882,-2.262126099292699,2.407461857644881,22.75843151333364,-4.076760224412538
-3.844855542439519,14.180173283982914,-2.5405608325937807,2.4000232458436805,23.280868038605753,-4.0719403883098675
-3.817776000026481,13.92624588713112,-2.8190060697284287,2.392822099270497,23.813885158518456,-4.0672879352307305
-3.7910608649109254,13.66644475818209,-3.0919412672980835,2.386004827172833,24.34725223174943,-4.062900061104706
-3.7698638899437147,13.453534011986426,-3.3071381583204666,2.380805894280501,24.77585667840371,-4.059567944802666
-3.761542075569371,13.368269813242705,-3.3912718848879244,2.3788170539332287,24.945448751243465,-4.058297174018857
-3.75335828631674,13.283483479794656,-3.4738086198810647,2.3768904487214653,25.112962248726113,-4.057068522883287
-3.7299883085996064,13.036166396563054,-3.7083537232922965,2.3715516068441045,25.595365481184228,-4.053677684218285
-3.7044352210981293,12.756722911547786,-3.9627335635007483,2.3659980566390146,26.129775653548663,-4.050176885835153
-3.67937008102264,12.473172602765867,-4.209978072271648,2.360849665136163,26.66114119785249,-4.046962636021624
-3.656628274597905,12.207506421719652,-4.432245341685364,2.356477657073642,27.14957870907564,-4.044241404875749
-3.6468655132880725,12.090989854779824,-4.5269908479110255,2.354666611838966,27.361059953971864,-4.043133793359145
-3.644260673471554,12.065002504811448,-4.583005820646955,2.354734109215319,27.443099157801406,-4.044022139246836
-3.661085343397103,12.360258982829913,-4.956643050046036,2.3672632592752882,27.520726367650912,-4.066449720317637
-3.688718162655949,12.839611845770289,-5.560325846559829,2.3877925588031244,27.643812782359003,-4.103160975800522
-3.717392530486268,13.329897281024632,-6.174016103555351,2.4090315318499216,27.76591948210547,-4.141094968289609
-3.7465198409668123,13.820714755357152,-6.784542433166816,2.4305388357712805,27.884301683359645,-4.179462325280035
-3.7764491180024096,14.317705966635843,-7.398821903935581,2.4525675128160214,28.00021837142584,-4.218714017709961
-3.806933723666698,14.816506540926273,-8.011344107637314,2.4749309298621656,28.11253427781262,-4.258516900725607
-3.8381785781421174,15.32022489992005,-8.625823978804334,2.4977743790915525,28.221845939281902,-4.299129158456848
-3.8699586266222874,15.825001752286143,-9.237459315733574,2.520928283194997,28.32722036294284,-4.340248994896148
-3.902603792546691,16.33582020303334,-9.852180315694818,2.544627525119663,28.429588657438615,-4.382293105304372
-3.935835805306667,16.84805699688095,-10.464309590840688,2.568664320339525,28.527909159035072,-4.424892368411536
-3.969888800516309,17.365076882770104,-11.07776921592255,2.59320235427714,28.622727520651992,-4.468336536778337
-4.004395765211489,17.88111778329419,-11.685654697028795,2.617972022678278,28.71291826078179,-4.51214823411822
-4.038270942985707,18.380242070488237,-12.26940082378083,2.6421948370296877,28.79590597407961,-4.55495302980642
-4.058763823619914,18.678692597947983,-12.616465563838979,2.656803690731938,28.843526559717525,-4.5807504517797
-4.062362728550721,18.714485289534142,-12.574041631471452,2.657157784026693,28.765228134643905,-4.580692082588693
-4.069974523342507,18.733883134451375,-12.145855177817477,2.6508378418209073,28.31777346278866,-4.565702626755142
-4.079268954498479,18.751709379683852,-11.621301771998837,2.643511520487801,27.77554618550679,-4.547764877600611
-4.085336361785655,18.75993979315385,-11.277885452230267,2.638953390235584,27.423995554556896,-4.536263830682286
-4.089352413234914,18.763932290688185,-11.050157324059448,2.636031328021702,27.192337124835888,-4.528739113636434
-4.092994742620505,18.76656286587214,-10.84333726461146,2.6334454072104845,26.98294194696115,-4.521973838871067
-4.096057498941453,18.768052074256403,-10.66922054313292,2.631317596472816,26.807381961512426,-4.516327941004129
-4.097858260062098,18.768621987369677,-10.566760920282583,2.6300861854730586,26.704379149945467,-4.513026430631232
-4.101572605726442,18.769087357045574,-10.35522093259587,2.62759167404122,26.492428249671892,-4.506258165052404
-4.110165822549819,18.766542215840836,-9.864797268826244,2.622050976268119,26.00467235883355,-4.490809669943813
-4.119580225422051,18.75805653510814,-9.325913473573952,2.616339862164175,25.474403414190807,-4.474210141157395
-4.129001515891052,18.743740251489932,-8.785021726716254,2.6109874787338083,24.947952044261932,-4.4579244776784135
-4.1384448236713265,18.723683329161172,-8.241300617652156,2.605974225682939,24.424407298495865,-4.4419137865895015
-4.14790494833078,18.698016281800715,-7.695420140834774,2.6013299705436452,23.904306116554913,-4.426210244245118
-4.156742098602541,18.669088431959,-7.183856607817359,2.597254699469315,23.421773738394762,-4.411767834244278
-4.160646716681537,18.66170325525398,-6.986115696806418,2.595966995640466,23.231440089769084,-4.40653814418834
-4.179481842993283,18.92543858065546,-7.289692955259313,2.608466920638718,23.27040369006917,-4.428562951833722
-4.215844214537358,19.428525349602896,-7.865686597861549,2.63254274413177,23.3416062796688,-4.470935169383845
-4.254799202211604,19.958843856563785,-8.468453491765247,2.658253730641504,23.41221631676054,-4.516115272973094
-4.294479453853072,20.490140915297783,-9.067786184245534,2.6843574808256925,23.478366073624038,-4.561913703504904
-4.334854418966644,21.02182203997783,-9.662983824030057,2.710830011110305,23.539949966078016,-4.608287197415808
-4.362120297778264,21.375932130975823,-10.05685588230754,2.728657416081586,23.578398993692232,-4.639476625947592
-4.3215126359942175,21.408986559728834,-10.092270794608602,2.7033761596476675,23.58264609595563,-4.596201537365419
-3.9256785625960826,21.24641557219576,-9.901252593605937,2.455832475805078,23.571719085713763,-4.17176351165334
-3.355959441389042,21.00728567706547,-9.621553921722787,2.0994524431523063,23.553356241905167,-3.561137062416685
-2.7865779323501765,20.762139617286188,-9.336266033344113,1.7432165381407516,23.531954700976232,-2.9511991492354763
-2.213411575633931,20.509029976201965,-9.043091669773386,1.384590638317247,23.507240617205728,-2.3375697806505737
-1.6398345801950662,20.249255752614758,-8.743503768234204,1.0257338483974652,23.479233790699745,-1.7239010918689834
-1.0735014803313117,19.9862774653074,-8.44143197186766,0.6714801868263627,23.4483657486734,-1.1184019431871965
-0.513689731107577,19.71986823756959,-8.136523866663046,0.3214213534746349,23.414622797310276,-0.5203211850243281
0.04339881831446339,19.448251798171217,-7.8266722750751585,-0.026775300619689628,23.377792615407337,0.07437567421011966
0.5973332523894374,19.171608070825112,-7.512014055291573,-0.3727955304859963,23.337858897171294,0.6651959324859414
1.1489769470005184,18.889470285123696,-7.191959894625548,-0.7171416594434233,23.294806654263976,1.2530414532211125
1.6978517013753294,18.6020331256134,-6.86666213041092,-1.059471818616273,23.248618423970917,1.8373678749038576
2.2457649757868063,18.30827478740928,-6.534900280049436,-1.4008717112523223,23.199107116145115,2.4200666588510193
2.789299465825667,18.00997906543635,-6.198620310099125,-1.7391724845168344,23.146558531211898,2.997472485970886
3.333884148041977,17.704075999200654,-5.854294043126771,-2.0777120088205683,23.090404754322524,3.575317167440842
3.841725726408148,17.412329600041108,-5.5263115578012965,-2.3929960091064144,23.0348081290717,4.113525669132977
4.064461030871472,17.28176488133149,-5.380913537074104,-2.5311610111466445,23.010608268318347,4.349426271537375
4.050097133835575,17.16272406403602,-5.518648464548655,-2.5270687401976355,23.267754368037423,4.34647307094204
4.021220322997592,16.916720083216433,-5.794668376738011,-2.519060239706181,23.790518330080708,4.340694929417991
3.9919230120812967,16.65774143081327,-6.073374811105471,-2.5112433830575256,24.328948041255497,4.335058575325574
3.9634252711368205,16.39643641218372,-6.343024570597231,-2.5039499061463473,24.860620984192245,4.329805472385485
3.9465010215661667,16.23673528739868,-6.502418495247602,-2.4997683145268637,25.180139620045527,4.326797541942754
3.938999748977115,16.16485202299572,-6.572876224880326,-2.497951543870366,25.32266765414204,4.325491815246103
3.924684901499666,16.02577236179789,-6.706993103171906,-2.4945481397803637,25.59621991369045,4.323047945609444
3.8975052382637303,15.754691887913753,-6.96034272641529,-2.4883211871479682,26.12132098298971,4.318585681789626
3.870027034408639,15.471038032298939,-7.214602038401539,-2.482349630129219,26.659906478876202,4.314321116293272
3.843001083438017,15.182329323802799,-7.462664643036419,-2.4768069314974057,27.197333026767055,4.310380591342169
3.8173424827387135,14.899013471711514,-7.696164181933278,-2.4718604046627357,27.714764847077685,4.306883697377205
3.805184371776633,14.761550777440288,-7.806073643139229,-2.4696274810044296,27.9624271342363,4.3053130519004235
3.791981433154463,14.693452393208311,-7.860377908591617,-2.4638764303647824,28.085280836720006,4.296447038318962
3.5055798938860603,14.709977832442233,-7.872182895315964,-2.278047520609478,28.09235039647074,3.97417255891928
2.973535048720504,14.737212790727819,-7.89162344013265,-1.9326553614721491,28.10395310460836,3.3754164914263676
2.418378302581998,14.76084370484907,-7.908487001109473,-1.572048840471373,28.11405887868158,2.7505734454422077
1.862374772259583,14.77962095708642,-7.921881900624508,-1.210714958883116,28.122097002226287,2.1247109143508087
1.3077656715100865,14.793484179542828,-7.931765021858035,-0.850150822572093,28.12800670141189,1.5003656890924861
0.7518937414619112,14.802508919547973,-7.9382005182789666,-0.4886703026246242,28.131880092150745,0.8745644262687253
0.19459349061602418,14.806666339333294,-7.941165806658935,-0.12620541357471943,28.133671554755676,0.24713433105956364
-0.36014477070088596,14.805942876676648,-7.940648252740261,0.2346067981823921,28.13334307001237,-0.37741749407616704
-0.9173578049265899,14.800333836510864,-7.936651947264631,0.5970029852562003,28.130955629830844,-1.0047449370393489
-1.4725316488912221,14.78987490216365,-7.929193533991282,0.9580043406074653,28.126461875314657,-1.6297518032485712
-2.0278544763466733,14.774546868844014,-7.918264943176715,1.3189965124108967,28.11991933266923,-2.2548858923680437
-2.582531199163904,14.754369733333,-7.903873657778638,1.6794209551110353,28.111308385771945,-2.879237426563901
-3.1399885124581766,14.729180732121442,-7.885895711385263,2.0414597538798196,28.100531872997152,-3.506647404648806
-3.6242486512611154,14.70329555392741,-7.867415188088058,2.355776656366684,28.089493641381797,-4.0516056337247
-3.7993974329943674,14.693131590464821,-7.85674319346905,2.4693336332286053,28.081679241889596,-4.2485218202256645
-3.8034008679515288,14.701161584465464,-7.5970095187445486,2.46580877191041,27.813992668727693,-4.239966272938792
-3.8113265805820213,14.712619948162663,-7.081252984237827,2.459103327361113,27.28692669458277,-4.223275822493465
-3.8194648515671896,14.718358641257362,-6.549563746331307,2.4525842644351474,26.749646757693803,-4.206467426481172
-3.827667058631234,14.718096806436389,-6.011600711681872,2.4463763117690878,26.212089903096782,-4.189850466949007
-3.835853191215496,14.71191446688724,-5.472648311848313,2.440530672467593,25.679459316729478,-4.173575940724603
-3.844014386543491,14.699989319936984,-4.933358160184617,2.4350392160805434,25.152229014824876,-4.157645909132389
-3.852197174002163,14.682381248366493,-4.3907079258480035,2.4298591357779955,24.627317762708998,-4.141956675397375
-3.8603930550101713,14.659193102197596,-3.84529784988349,2.424987184185132,24.10522298848082,-4.126514212869882
-3.868590925895279,14.630559620435715,-3.2979090995272906,2.4204205919817423,23.586591129415435,-4.111328528824471
-3.876802534378376,14.596539547993197,-2.7477975170797375,2.4161439600883345,23.070619633518394,-4.096367438693423
-3.8841442760827096,14.5616914030072,-2.25446582266708,2.4125649714331074,22.612240477531284,-4.083194321433703
-3.8873291435944473,14.567855985588253,-2.1323707577449658,2.412295920133969,22.483963524785302,-4.080714414797101
-3.9064630617728544,14.872146286766116,-2.5021958293701414,2.425291804800817,22.54865150780868,-4.103918987559912
-3.93818081847248,15.370267666191221,-3.1044870891064837,2.4467883581145426,22.651410599929363,-4.142248217357325
-3.971128468562758,15.879619153104581,-3.7163489973305364,2.4690572737035748,22.752446181185437,-4.181886273475704
-4.00487444767683,16.393040667632174,-4.328981844325095,2.49180123744602,22.850137092936606,-4.222300536390959
-4.03877706895201,16.90068263332224,-4.9306370416878496,2.5145851743556045,22.942612844205325,-4.262717863655283
-4.060880234351611,17.227361806704792,-5.315662623930875,2.529404089900936,22.999951492865762,-4.288970254405454
-4.064620967783238,17.282320498338,-5.380271109808137,2.531909287053707,23.009430314309597,-4.293405614711366
-4.064620967783238,17.282320498338,-5.380271109808137,2.531909287053707,23.009430314309597,-4.293405614711366
-4.064620967783238,17.282320498338,-5.380271109808137,2.531909287053707,23.009430314309597,-4.293405614711366
-4.064620967783238,17.282320498338,-5.380271109808137,2.531909287053707,23.009430314309597,-4.293405614711366
-4.064620967783238,17.282320498338,-5.380271109808137,2.531909287053707,23.009430314309597,-4.293405614711366
-4.064620967783238,17.282320498338,-5.380271109808137,2.531909287053707,23.009430314309597,-4.293405614711366
-4.064615091546356,17.282309350384597,-5.380242711827971,2.531905630865021,23.00936255964149,-4.29339940995225
-3.9775438103472194,17.1171242830012,-4.959454958365184,2.477729967164745,22.005406136948395,-4.201460242653751
-3.890786289613023,16.952534458306662,-4.540183509237759,2.423749524910586,21.005067460883424,-4.109852377197614
-3.8038071774891513,16.787524247141057,-4.119841179542551,2.3696312087163562,20.002173773615976,-4.018010531862384
-3.691647180967075,16.574742761350716,-3.577807660396555,2.2998453715433933,18.708937389278837,-3.899580016743876
-3.5424070037981648,16.291615553591186,-2.8565774451930945,2.2069882832184673,16.98815606702044,-3.74199628273393
-3.3935842404978507,16.009280231939925,-2.137364458191769,2.114390909383296,15.272187644360248,-3.5848532989112916
-3.2440471743122323,15.725589788730602,-1.4146994729855291,2.021349097010396,13.547983108028905,-3.4269560777377226
-3.095175265890336,15.443161232661419,-0.6952489832735581,1.9287211451299417,11.831448028259999,-3.269761201241716
-2.945361467142717,15.158945793307883,0.028753362213486088,1.835507150034938,10.10405268746175,-3.1115717762442867
-2.7966495362805994,14.876820734598889,0.7474307313619767,1.7429787360314832,8.389362194064086,-2.95454582115876
-2.6480201785201434,14.59485232735033,1.465709051025193,1.650501698928939,6.675623791810749,-2.797607055581685
-2.499167857161442,14.3124609303801,2.1850648827029056,1.5578859340995301,4.959314556403218,-2.6404328612010106
-2.350054307029078,14.029573949883524,2.905683149793253,1.4651076329895487,3.2399932795797404,-2.4829828335536828
-2.200665219136607,13.746164239930772,3.627633003067618,1.3721578925620028,1.5174949746920878,-2.325241863682068
-2.051921048459787,13.463978018276995,4.346466176966125,1.2796094189782243,-0.19756725285938107,-2.1681818663534873
-1.9027553422718566,13.180992091245644,5.067336497651515,1.1867986664228596,-1.9174899037093625,-2.0106767667667973
-1.7535034404974341,12.897842640448856,5.788623374136924,1.0939342830601615,-3.6384064139751637,-1.8530806526648989
-1.6046144952612145,12.615381763420537,6.508156197343092,1.0012957308909487,-5.355137933016888,-1.6958677868789591
-1.4557456249468923,12.332958971019897,7.227592004849365,0.9086696693179759,-7.071637982548842,-1.5386761183417266
-1.3062056846009615,12.04926307517041,7.950270879956435,0.815626068645416,-8.795875658758984,-1.380775862322429
-1.1568546994251439,11.765925650817815,8.672036594944094,0.7227000356898979,-10.51793462858025,-1.2230751253725387
-1.0076666201054836,11.482897279168428,9.393015037845089,0.6298753625944441,-12.23811524794737,-1.065546401841503
-0.8586974998325299,11.200284300107576,10.112935321452971,0.5371869255979101,-13.955771207768652,-0.908248878680434
-0.7102130792455555,10.918590856732735,10.830513205946488,0.4448000682591188,-15.667838443545518,-0.7514631532660511
-0.5610751378284554,10.63565760293046,11.551249348342754,0.35200659091627534,-17.387440958759324,-0.5939873706926772
-0.41168957626555414,10.352254582864191,12.273182159990109,0.2590590445674452,-19.10989860407276,-0.4362501242968147
-0.28471745201910514,10.111372645552462,12.886797971980608,0.18005711640294247,-20.57392299747369,-0.3021793811933391
-0.19797502957514462,9.946811464195378,13.30599645588297,0.12608606828980204,-21.574087585995166,-0.2105874581261571
-0.11109919752510422,9.781997188195993,13.725839665895474,0.07203201285376669,-22.575790424890677,-0.11885466693433419
-0.024216348398441702,9.6171695999281,14.145716787203037,0.01797359139970563,-23.577574172658164,-0.027114466362832712
-0.002984216802529817,9.576889601287187,14.248324912780483,0.0047629804480941946,-23.822386636533935,-0.0046953119411147675
-0.002984216802529817,9.576889601287187,14.248324912780483,0.0047629804480941946,-23.822386636533935,-0.0046953119411147675
-0.002984216802529817,9.576889601287187,14.248324912780483,0.0047629804480941946,-23.822386636533935,-0.0046953119411147675
-0.002984216802529817,9.576889601287187,14.248324912780483,0.0047629804480941946,-23.822386636533935,-0.0046953119411147675
-0.002984216802529817,9.576889601287187,14.248324912780483,0.0047629804480941946,-23.822386636533935,-0.0046953119411147675
-0.002984216802529817,9.576889601287187,14.248324912780483,0.0047629804480941946,-23.822386636533935,-0.0046953119411147675
-0.002984216802529817,9.576889601287187,14.248324912780483,0.0047629804480941946,-23.822386636533935,-0.0046953119411147675
-0.002984216802529817,9.576889601287187,14.248324912780483,0.0047629804480941946,-23.822386636533935,-0.0046953119411147675
-0.002984216802529817,9.576889601287187,14.248324912780483,0.0047629804480941946,-23.822386636533935,-0.0046953119411147675
-0.002984216802529817,9.576889601287187,14.248324912780483,0.0047629804480941946,-23.822386636533935,-0.0046953119411147675
-0.002984216802529817,9.576889601287187,14.248324912780483,0.0047629804480941946,-23.822386636533935,-0.0046953119411147675
-0.002984216802529817,9.576889601287187,14.248324912780483,0.0047629804480941946,-23.822386636533935,-0.0046953119411147675
-0.002984216802529817,9.576889601287187,14.248324912780483,0.0047629804480941946,-23.822386636533935,-0.0046953119411147675
