RAMEL-ESPOL/ARCHIE/matlab/data/joint_goals_square_t35_h35_p12.txt
Joint0,Joint1,Joint2,Joint3,Joint4,Joint5 
-0.0041842508001057235,9.575280226016508,14.255706975221663,0.00533317752665283,-23.824108214008827,-0.0016835687800932253
-0.0041842508001057235,9.575280226016508,14.255706975221663,0.00533317752665283,-23.824108214008827,-0.0016835687800932253
-0.0041842508001057235,9.575280226016508,14.255706975221663,0.00533317752665283,-23.824108214008827,-0.0016835687800932253
-0.0041842508001057235,9.575280226016508,14.255706975221663,0.00533317752665283,-23.824108214008827,-0.0016835687800932253
-0.0041842508001057235,9.575280226016508,14.255706975221663,0.00533317752665283,-23.824108214008827,-0.0016835687800932253
-0.0041842508001057235,9.575280226016508,14.255706975221663,0.00533317752665283,-23.824108214008827,-0.0016835687800932253
-0.0041842508001057235,9.575280226016508,14.255706975221663,0.00533317752665283,-23.824108214008827,-0.0016835687800932253
-0.0041842508001057235,9.575280226016508,14.255706975221663,0.00533317752665283,-23.824108214008827,-0.0016835687800932253
-0.0041842508001057235,9.575280226016508,14.255706975221663,0.00533317752665283,-23.824108214008827,-0.0016835687800932253
-0.0041842508001057235,9.575280226016508,14.255706975221663,0.00533317752665283,-23.824108214008827,-0.0016835687800932253
-0.0041842508001057235,9.575280226016508,14.255706975221663,0.00533317752665283,-23.824108214008827,-0.0016835687800932253
-0.0041842508001057235,9.575280226016508,14.255706975221663,0.00533317752665283,-23.824108214008827,-0.0016835687800932253
-0.0041842508001057235,9.575280226016508,14.255706975221663,0.00533317752665283,-23.824108214008827,-0.0016835687800932253
-0.0041842508001057235,9.575280226016508,14.255706975221663,0.00533317752665283,-23.824108214008827,-0.0016835687800932253
-0.0041842508001057235,9.575280226016508,14.255706975221663,0.00533317752665283,-23.824108214008827,-0.0016835687800932253
-0.0041842508001057235,9.575280226016508,14.255706975221663,0.00533317752665283,-23.824108214008827,-0.0016835687800932253
-0.0041842508001057235,9.575280226016508,14.255706975221663,0.00533317752665283,-23.824108214008827,-0.0016835687800932253
-0.004183234186496923,9.57528233744898,14.255701803817619,0.00533317891271939,-23.82409522526046,-0.0016825446656186394
0.013953081516364044,9.612867345260458,14.163551057448887,0.005296617496115891,-23.592533604155914,0.016562810947416306
0.05514336959894025,9.697615380942104,13.955050551826334,0.0047608733112406805,-23.067773399646438,0.05782113794081466
0.09826979210425321,9.785443955374795,13.737902429869482,0.003535905255201299,-22.520016207569096,0.10076399796464128
0.14173916679170379,9.873047191561522,13.520197829026788,0.001625140066807315,-21.969577845671846,0.14380001864809983
0.18522440613538277,9.9597652119659,13.303566689098867,-0.0009544786720832648,-21.42056842053839,0.1866175502725323
0.2288182354218383,10.045789257542085,13.087530137523627,-0.0042009806938762455,-20.87177336528941,0.22932174171897932
0.2727344048924176,10.131537611457649,12.871024310004497,-0.008130166007086045,-20.320475328666042,0.27213333604158646
0.3165268910272094,10.216142841519362,12.656234996616313,-0.012697200516017164,-19.772235437132633,0.31463033144170244
0.3607472320553617,10.300670383728338,12.440448366227615,-0.01795743569815849,-19.220116993285217,0.35735995560853745
0.40484077387554895,10.384059663569085,12.226362741930402,-0.023843116230835053,-18.671014068264636,0.3997980432285751
0.449053011741685,10.466783824619318,12.012766859687254,-0.030378856736494517,-18.121823923727888,0.4421942915686058
0.4933397076969391,10.548762490164972,11.799863060628336,-0.03755480343992403,-17.57306129974011,0.4845183240422018
0.5378905117615956,10.630344535578052,11.586733734065964,-0.045401826824828434,-17.022348599066834,0.5269626438700076
0.5824536791885865,10.711068354136303,11.37457553361479,-0.053874808289376255,-16.472767985415608,0.5692988445494265
0.6271050466124737,10.791075669699373,11.163014005684753,-0.06298407969056277,-15.923347446919651,0.6116110107467874
0.6718124143547106,10.870311645900845,10.952190171799332,-0.07272024493837777,-15.374449037338882,0.6538803329220757
0.716801496098906,10.949173233953626,10.741034990098807,-0.08313402710430748,-14.823275781473031,0.6963312458066301
0.761674705051307,11.026965233564518,10.531404453789241,-0.09413176344795757,-14.274666624147958,0.738600016929594
0.8067356328037303,11.104218129856543,10.321867529946607,-0.10578469896156908,-13.724874941857836,0.7809841937233735
0.8519080141071311,11.180798594006816,10.112773775346279,-0.11807491089546653,-13.174805298624067,0.8234230549480758
0.8970955239716218,11.256545478607768,9.90455876655777,-0.1309748540968509,-12.625598960831534,0.8658373709544664
0.9423005523721135,11.331467385813632,9.697198616612985,-0.1444823442732944,-12.077192608833425,0.908240661047902
0.98762966049155,11.405742204243245,9.490195387136053,-0.15862888992298707,-11.528263526342982,0.9507439667702102
1.033248506598365,11.479634770660875,9.28279200847511,-0.17347162304272462,-10.976784737097633,0.993513614608711
1.0787713512971722,11.552519708227985,9.076735179265889,-0.18888639968522375,-10.427391815741238,1.0361990304707567
1.1242323838487112,11.6244608250553,8.87185292697219,-0.2048795286153865,-9.879634513209965,1.0788432006535233
1.170072186873804,11.69615088566005,8.666156827592836,-0.2216105213352013,-9.328181140185537,1.1218705784497718
1.215832660132597,11.766869416118215,8.461699290117084,-0.23891660430914305,-8.778519195114546,1.1648623706907453
1.2616683204843786,11.836859338167386,8.257778239229278,-0.2568550248426546,-8.228761221454054,1.2079746306374268
1.3073502599496187,11.905777073103993,8.055398664012941,-0.2753338736707043,-7.6816201724433935,1.2510026820711284
1.3534798528507868,11.9745255075857,7.85189355997082,-0.2946017087302909,-7.129870307428679,1.294524404204947
1.3994655109254337,12.042218066008102,7.6498705645386655,-0.31441732136262973,-6.580565181260655,1.3379931926546296
1.4456023167094336,12.109292221866198,7.448023049261168,-0.3349081913403517,-6.030150719557386,1.3816988561662136
1.4916671619636253,12.175424558413178,7.247319108573706,-0.35597730627413543,-5.48126155846718,1.425441100976433
1.5379029148794183,12.240963914090038,7.046693380908149,-0.37773860233993783,-4.930977486105738,1.4694617688694198
1.5840958611363196,12.305606664006065,6.847066942480313,-0.4000951710606596,-4.381816690322739,1.5135687374432918
1.6303397075034667,12.369486320863514,6.648025641768133,-0.42309399892353927,-3.83263771903136,1.557862421977945
1.6766430371028436,12.432614110909043,6.449526329331383,-0.44674341972582265,-3.283313600399192,1.6023625083516009
1.7230108175513894,12.494995709643726,6.251541997868911,-0.47105060626143497,-2.7337608211652245,1.647085405317408
1.7694228628156567,12.556603163123244,6.054152891331554,-0.49600961229379414,-2.1841940063915866,1.6920233106695235
1.815823408992196,12.617363436628215,5.857588613081598,-0.5215939596516128,-1.635247960112889,1.7371335991387444
1.862301035740748,12.677392556483868,5.661467311388506,-0.5478569452578643,-1.0858499975118603,1.782514042724968
1.9090664037675156,12.736954438849965,5.46490103445026,-0.5749286085799097,-0.5334897046656009,1.8283841190186751
1.9555973959011987,12.79538411865765,5.270077866970164,-0.6025116540194332,0.015690477262213065,1.8742436053128653
2.002211551905182,12.853085722026059,5.07565697087648,-0.6307953317919912,0.5654651764953781,1.9204160394032488
2.0488034710941467,12.909928365886755,4.882071993182701,-0.6597214325668073,1.1146150362545288,1.9668092050706159
2.0954203759420182,12.965970550302693,4.689119663279517,-0.6893242360805449,1.6637207660427134,2.013482047239148
2.1421028255155194,13.02125959245395,4.496627163418199,-0.7196365638959649,2.2132830969639707,2.0604879375686416
2.188869970642522,13.075814822792223,4.304512294209704,-0.7506797336670838,2.7635496576635474,2.107859731854113
2.2355549268314023,13.129442211212261,4.11345393934446,-0.7823488817863714,3.312580283761216,2.155440771950039
2.282155185292301,13.18214373441136,3.9234521622794603,-0.8146449949806254,3.8603699075436353,2.203239473919116
2.329159642420636,13.234464158216673,3.73251455627145,-0.8479206449579825,4.412686093783408,2.2517732935968877
2.375743596375617,13.285486140867372,3.543984728118041,-0.8815986976772723,4.959861030831274,2.3002034784296614
2.4226197555764895,13.335993793029022,3.35496945783192,-0.9161990012060314,5.510289479262098,2.349282864664317
2.4695135515018043,13.385683033810473,3.1665769365387524,-0.9515337652577935,6.060767927038233,2.3987408762429845
2.516255279683847,13.434377367844593,2.979480452351083,-0.9874803679767448,6.609326862371475,2.448410721762412
2.563102923801482,13.482346586337934,2.7926408330187162,-1.0242447420897287,7.159015952484647,2.498579924103726
2.610524547558229,13.530051231027148,2.6042008475076885,-1.0622196559279349,7.715346823746067,2.5497727773817744
2.657703407365853,13.576660207568972,2.41740797464378,-1.1007688014386463,8.268758669196739,2.6011267522274335
2.704974559588615,13.62250794769336,2.230927261018151,-1.140172511465134,8.823203794615505,2.65301976000464
2.752398563986038,13.66764571754083,2.044520135379857,-1.1804981568433757,9.379413768358699,2.7055373711759203
2.799809351244794,13.711910729679587,1.858837525489355,-1.2216193544403087,9.935462241216385,2.7585137519329406
2.8470829780835443,13.755190296886154,1.6743570125664615,-1.2634365437863264,10.489916820763963,2.811824510261417
2.8944318295182514,13.797679432294109,1.4902439374278273,-1.3061482275183622,11.045289506230132,2.865724899326396
2.9416941949304225,13.839232054908974,1.3071225221506282,-1.349621005115047,11.599704320638821,2.920047733145041
2.9890280606619983,13.879986023300605,1.1243761613526964,-1.3940131887758525,12.155035181401235,2.9749919203545083
3.036224089540134,13.91976141700828,0.9428076401807227,-1.4391404836171793,12.70884634477313,3.030331221567585
3.0837564674406286,13.958950831296093,0.7605928163994443,-1.4854762911428958,13.266723120051084,3.0866436842448848
3.130964872424035,13.997007782898512,0.5802594881121964,-1.5323923059621665,13.82093566130401,3.1431661343659205
3.1782066633663506,14.034226382137346,0.400433108820358,-1.580251175255788,14.375697968629455,3.2003404141168224
3.225506809834377,14.070621934286548,0.2210168909100234,-1.6290970267026763,14.93132353233307,3.2582183680175656
3.272636820154234,14.10601961166944,0.04287196321935515,-1.678707521364395,15.48514726702253,3.3165385589654104
3.319984876036319,14.140707424262331,-0.13547121314658284,-1.7295104047660905,16.04175055855024,3.375803434973322
3.367198898235323,14.174422884418714,-0.31268796869736665,-1.7811487285493488,16.597014457009443,3.435595691106318
3.414313506947647,14.207194756713845,-0.4889157869266907,-1.833672133199154,17.15136353528415,3.495976238293616
3.4615207893213356,14.23915437985404,-0.6648761538851777,-1.887314260878783,17.707076867393607,3.557213936551786
3.508597004168604,14.270148774666023,-0.8397385680421083,-1.9418400754495153,18.261539126642216,3.619041103600635
3.555775631013012,14.300329719356272,-1.0143734027857558,-1.9975404376377406,18.81751873813244,3.6817879794669572
3.6026268419241125,14.329425825796859,-1.1871964532251127,-2.0539221832823085,19.36996654528786,3.744901965834987
3.64970535258076,14.357781481871251,-1.3602581768106636,-2.111672359105312,19.925440835437467,3.809153401260365
3.6969263482869796,14.385332237291378,-1.5332419859350659,-2.17072375157895,20.482963345619748,3.8744629421613093
3.7438908012679395,14.411845309573167,-1.7046903489121312,-2.2305981987014616,21.037839770251928,3.9403030506067367
3.7907580230575513,14.437417622572024,-1.8751936433539746,-2.2915113031965246,21.591965883540297,4.006915013213062
3.8371186938805537,14.46183960502133,-2.0432758860560587,-2.352934806037817,22.140511930774526,4.073728031893008
3.8656568488451737,14.476439448914553,-2.1464567985037784,-2.3913346516888008,22.478389126996632,4.11532397306718
3.8768507255390845,14.48207565150654,-2.186869467765065,-2.406521184088905,22.610963662325624,4.131738991978319
3.8703330838883003,14.41158739023984,-2.2760573551958,-2.4063434378039754,22.78431743549557,4.132527170922554
3.845239804335174,14.184676441666236,-2.535506130335885,-2.3994109688816563,23.271278926940347,4.128029703984295
3.818068768136599,13.930099434803724,-2.814860903511557,-2.392177344886294,23.805857399250236,4.12334968868015
3.7912600308618285,13.669570031147671,-3.0887187364505517,-2.3853287671608023,24.340877604796752,4.118935069366766
3.771092876350592,13.467274743912341,-3.293464353131615,-2.3803725679224303,24.748391260712268,4.115753154781612
3.7633688355333166,13.388327668715881,-3.371575327723027,-2.378520037785183,24.905629588887763,4.1145671715702
3.7542021455088475,13.293564405098572,-3.4640455464763065,-2.3763549356426608,25.093076450321988,4.113183707809184
3.7303706143455555,13.041666642165714,-3.7032277084151835,-2.370899357688566,25.584708185880658,4.109712144963378
3.704782899545836,12.762090717572185,-3.9579417113189717,-2.365328532984682,26.11958579541326,4.106193433968074
3.6797460092777725,12.479109998418501,-4.204901544810806,-2.360175980326996,26.650096471832885,4.1029694876864955
3.655422522032293,12.194984389363439,-4.442500561136403,-2.355463788322313,27.17237022429126,4.100054753276225
3.6425543312032804,12.040902623305731,-4.567214596309142,-2.353091640518062,27.451454608138004,4.098602800570097
3.636417542823874,11.966487394341922,-4.626439456422751,-2.3519904672678957,27.585231844834283,4.097932912711532
3.647266456552748,12.158217032668784,-4.871617035340737,-2.3601442663778904,27.638192174259828,4.112545759106195
3.6731535172186223,12.610289651199892,-5.4426653728196985,-2.3794531798179204,27.756004096894753,4.147081383521823
3.701506158632119,13.098533273661117,-6.055777508107864,-2.4005396902231806,27.879590574400655,4.184751771873036
3.7304293991869066,13.58940749355578,-6.668375606280809,-2.42198404712504,27.999998684551887,4.22301575999767
3.759925579851534,14.082749629101007,-7.280175034894248,-2.4437836930117123,28.117105930435397,4.261868594065968
3.79013204716703,14.580612349439017,-7.8936175259029415,-2.4660352912997636,28.231294586240196,4.30148213015818
3.8209609663559454,15.081292371729159,-8.506495003697218,-2.4886690275660017,28.342063373298977,4.341731617519815
3.852593542218661,15.587452508834646,-9.121944923927035,-2.511812391876254,28.449877958015605,4.382843197390753
3.88472599757887,16.094003333918835,-9.73368568314365,-2.5352379796196596,28.553559798163743,4.424412657032295
3.9177166342440244,16.60635501526817,-10.34815326246326,-2.5592015767301994,28.654117327019364,4.466893609761776
3.9512781480972485,17.11978980686184,-10.959582740551946,-2.583488724348229,28.750516338181317,4.5099054995073375
3.9856394131544173,17.637582927072778,-11.571785301169957,-2.6082594604516003,28.84328133258288,4.5537315462652055
4.020028543981384,18.14806632920292,-12.170983931649127,-2.6329540015813397,28.93033995292551,4.597382127828168
4.046192390189643,18.531419608488427,-12.618101062212551,-2.6516776296268554,28.99283620836619,4.630452394157526
4.041753123952238,18.621128108392988,-12.722052796765928,-2.649140825100043,29.007269091365032,4.626162077454495
3.7140637943005363,18.640380412307483,-12.73481424884226,-2.434697823652197,29.015267554075045,4.253481657862266
3.157705688707927,18.669317018936567,-12.753978921554808,-2.070399849131205,29.027242535038052,3.620668074160857
2.5867537059132544,18.69412004348828,-12.770401013789417,-1.6963102904401834,29.037548512015285,2.9711813839602716
2.0133539925294195,18.71405197056216,-12.783588772766452,-1.320418106672355,29.045809112707694,2.3188468047487474
1.4441016686906365,18.728916964833694,-12.793424096369773,-0.9470920864680474,29.05200162128736,1.6711827745241103
0.8713488997728599,18.73892862728275,-12.80004355379811,-0.5713602164674592,29.056147780580336,1.0195008922199238
0.2972690618054849,18.743992911285638,-12.803394548539549,-0.19469038882868453,29.05827001405515,0.3662880515850384
-0.27305674999794083,18.744097300528352,-12.803462007487404,0.17953822889781576,29.058297276120303,-0.28266039827338235
-0.847212945068895,18.739243908579592,-12.80025517183119,0.5562603779883402,29.05629539748369,-0.9359608914355789
-1.4178675908047864,18.729486629325294,-12.793802152088913,0.9306194702120106,29.052233210043678,-1.585256411818627
-1.9903675872457103,18.714751761528742,-12.784056409543384,1.3060814344273042,29.04611639117462,-2.2366175403469133
-2.5614657776164975,18.695109823376836,-12.771061551817118,1.680473283245159,29.037976163240405,-2.886336194971186
-3.1330929954479956,18.670495278872362,-12.754765372821167,2.0550137585616577,29.027748216770856,-3.5365936842891292
-3.6860726882236365,18.64195672419509,-12.735865291905142,2.4171119853755996,29.015934937818574,-4.165568138081791
-4.012367224475815,18.62293087678095,-12.723257525518326,2.6306515893569222,29.008052672198577,-4.536665756035963
-4.053853258425683,18.624768815932484,-12.643931506515106,2.6556904287998377,28.92507551570601,-4.579500945396098
-4.061513291534366,18.645886276563512,-12.212262938801459,2.6492103586285802,28.47242200448571,-4.564285576875083
-4.070884635702586,18.665698164886148,-11.682382513464718,2.641685319105389,27.92288571903163,-4.546047964605343
-4.080360393940697,18.6791450502322,-11.14467779235832,2.6345108173996956,27.371885366531462,-4.528011236928539
-4.089868688333995,18.68614378500474,-10.603252637316642,2.6277340904568276,26.82360698307846,-4.510302753729744
-4.099470622045368,18.686772305650898,-10.0546564814909,2.621303845950689,26.274523184072144,-4.492798683666714
-4.109050958557451,18.681108187740445,-9.505516113347886,2.615286620564206,25.731181717635522,-4.475696419884312
-4.118643387030207,18.669295897526958,-8.953964775654892,2.6096460732573474,25.191572125271154,-4.45891904138079
-4.1281616872761475,18.651648926901636,-8.405034812097965,2.604415615249172,24.66041241330912,-4.442598795542935
-4.13767183069981,18.628264732423528,-7.8549983700134005,2.599541474385585,24.13387844520381,-4.426603938681299
-4.146801886108015,18.60053402544252,-7.325511374489805,2.5951818135050457,23.632231326802852,-4.4115285055205335
-4.15130249156891,18.58499749011298,-7.064001198655379,2.5931448310839484,23.38630998443564,-4.404194561248539
-4.166447499193891,18.797434193265957,-7.307111707041429,2.603183352322219,23.416279726091236,-4.421863346645102
-4.201370050298283,19.283321301779615,-7.86456626550259,2.626367145361545,23.486211697209647,-4.462691074834028
-4.240112048874215,19.81387054252332,-8.468925659152253,2.652006247916511,23.55819526432279,-4.507774737015554
-4.279536348403778,20.34489488870168,-9.069280596373032,2.6780108438022627,23.625653934594325,-4.553430150385747
-4.319907320598434,20.879698132704704,-9.66929818939476,2.7045506726578727,23.68893770020239,-4.599953606122843
-4.350100237023823,21.27391146675562,-10.10861344949787,2.724340958227849,23.732586730156772,-4.634599356258644
-4.340210239046154,21.342350491425833,-10.184185336267165,2.718313412594362,23.740172941483916,-4.624381479010278
-4.011841288721892,21.11092096180711,-9.91816155578374,2.5125071597472584,23.720330501703902,-4.271126536562332
-3.494328659179941,20.739901160908364,-9.491413811780966,2.1881233145846886,23.685462876184314,-3.7147110151363085
-2.971947925615674,20.357415180582905,-9.051069667058645,1.8606901158154943,23.645733875733928,-3.1534976829905568
-2.4500663291254474,19.967076795105484,-8.60118167834667,1.5336206393497314,23.601360825797,-2.593315267637006
-1.933295944404785,19.572246641443947,-8.14552427044533,1.2098535763422567,23.552672748305376,-2.0391654551980816
-1.4242267824594164,19.17498731446355,-7.686390558057436,0.8910561741895561,23.499949675069093,-1.4938651852639442
-0.9191697627647061,18.772477573197346,-7.220431126937496,0.5749609916896962,23.442829827864845,-0.9535036170171599
-0.4175177395007414,18.364185648709974,-6.746931977932499,0.26123146574440564,23.38120337541955,-0.41747980909877813
0.08227469818168398,17.9487473683077,-6.2642048258683705,-0.0510547468013025,23.314804793861256,0.1158034678545208
0.5082308510638395,17.587673048237267,-5.843827368126876,-0.31694762895688394,23.2541514031906,0.5696567568003577
0.705348691061753,17.41834989030092,-5.646421761863897,-0.4399071123067646,23.224802950824223,0.7794751228735456
1.1431910187540468,17.037088621816697,-5.201258604063988,-0.7128001693273965,23.156582141509535,1.2450058397547596
1.639293388814549,16.596307463039892,-4.685405520443205,-1.0216006888805693,23.07416177176992,1.771573953778156
2.1307662162386616,16.150165602088023,-4.16191511918191,-1.3270475815422256,22.986965655141876,2.2922030962711815
2.6094486238930754,15.706292527047525,-3.639667278441679,-1.6240456949083932,22.89655102512708,2.7982257118683678
3.0767928415123333,15.26377051836365,-3.1175488434556082,-1.913495842752937,22.802905557217578,3.291193734228216
3.5330076451164754,14.822785258931725,-2.5957365814726354,-2.1955051098430407,22.706131839554565,3.771305836881884
3.824749989549702,14.53599633791736,-2.255554011225045,-2.375542952303401,22.641393656012227,4.077718869524457
3.8770704363256887,14.471191449832176,-2.206192430046531,-2.4082473915656823,22.65469184216354,4.133766669180419
3.858118942674129,14.302094686550431,-2.4025244777151102,-2.4029419365667106,23.020576401339493,4.130321767689885
3.830834696615016,14.05086703640593,-2.6838377844199583,-2.395542481113117,23.55376917490373,4.125527534533814
3.803895182825728,13.793526527417844,-2.9598898748194853,-2.388522617589328,24.087800258473546,4.120994065428228
3.7784029145366085,13.541228388185054,-3.219391832162507,-2.3821517358474145,24.600199775480494,4.116896431862307
3.7657702336770655,13.412951591355073,-3.3473193692465575,-2.3790957001516504,24.856699405435005,4.114937937023001
3.759291928047072,13.346317427872785,-3.4127425497676027,-2.377555041722795,24.98890772906038,4.113952620855308
3.742332104720406,13.169098940828817,-3.5834122463962137,-2.3736084296118762,25.337189694669654,4.111435634532567
3.7167926447696105,12.89449841092906,-3.8386786711424823,-2.36790795152923,25.867645557588688,4.107821291976226
3.691427524727648,12.612313882209284,-4.089974230060296,-2.3625449304312625,26.40170558548289,4.104449865475125
3.6665195084136175,12.325748631438337,-4.3344022343051964,-2.3575793422556366,26.933263424535557,4.101361027720369
3.6461454881463973,12.08416455719934,-4.532485371732463,-2.3537473842737886,27.37338875875489,4.099005242680458
3.6381228355662967,11.987223725401364,-4.610002328571937,-2.3522967681407954,27.548026016026405,4.098121193187799
3.5559614457570277,11.970237057270252,-4.630767562033301,-2.3000663016423863,27.589059954978723,4.008004333823947
3.1322338546949706,11.993400129208762,-4.648162871843217,-2.026304401145441,27.59916183997051,3.5339041963717066
2.5863067673148734,12.01889783229058,-4.667304111892109,-1.6733950368738806,27.610298469845628,2.9229950120680606
2.045759717372374,12.039333301666058,-4.682638926749615,-1.3237802252893363,27.619231282565988,2.318028957448586
1.5027384792243343,12.055051121289758,-4.694430060357402,-0.9724199817911641,27.62610752135308,1.7102326749965395
0.961820179453885,12.065920621920997,-4.702578743696444,-0.6223140575222607,27.630835541948564,1.104744124861394
0.41821025364232783,12.07203615528251,-4.7071655669028765,-0.27039787020278006,27.633518318344848,0.4962152543232076
-0.1234597608722746,12.073338306602254,-4.708143276482359,0.08029233695463814,27.634096466263497,-0.11015464449941051
-0.6650515537327752,12.069858175783551,-4.705535502845647,0.43092336163006667,27.632583793160332,-0.7164334055267914
-1.2081915100249314,12.06156404940466,-4.69931396317819,0.782508086490731,27.62893542102085,-1.324425730355231
-1.7514485962712072,12.048453314329677,-4.689482693800864,1.1340840493450746,27.623214967457223,-1.9325125861163304
-2.292466457718354,12.030604221566863,-4.676093958746128,1.4840872915410297,27.615427023373805,-2.5380409792197995
-2.8339920649278736,12.00794159299942,-4.659087888447084,1.834257280934276,27.60554217791681,-3.1440695407210875
-3.350577381897088,11.981839366352517,-4.639487755103584,2.168110933327542,27.594130256672734,-3.722108078095553
-3.612008007583398,11.966959582075159,-4.628314374662143,2.3369887430311485,27.587661869390537,-4.014605501431146
-3.6405232801141865,12.003495492910753,-4.524953517518927,2.35240287534029,27.446727195496365,-4.040010150604229
-3.654529712775986,12.131716694017024,-4.168716231005712,2.3511934012612845,26.96210709187538,-4.033252154237583
-3.670316397753979,12.269346641911504,-3.7656538084069218,2.3501521248050814,26.42122874134646,-4.025905162642076
-3.6862136046093594,12.40075271284464,-3.358209990813485,2.3494359257141766,25.88218764718799,-4.0187830517162455
-3.702261320176715,12.526283393886516,-2.9454197031811633,2.3490387523495593,25.343669841476057,-4.011861820364141
-3.718478532999792,12.646068542131749,-2.5268465814156618,2.34895779232299,24.805108924202443,-4.005128721901294
-3.734853494671653,12.760002771603686,-2.102846184280594,2.349190966347097,24.266966040133383,-3.9985841865225003
-3.7513752339211983,12.868009284559982,-1.6737585676508917,2.3497353728556267,23.729658244174075,-3.9922276071168814
-3.768209681607107,12.971079652026814,-1.2353141000272931,2.3505980226003587,23.187922202570725,-3.985993473901108
-3.7846153270411866,13.064933851423799,-0.8069249425657158,2.3517271860034232,22.66546003080522,-3.980142743763449
-3.793320600037765,13.112154947683884,-0.5791924456059901,2.3524386046701897,22.390389077917995,-3.977124635784358
-3.7968527008267823,13.145918755583246,-0.5485068651986232,2.353535347726406,22.325852490468726,-3.9779883641209803
-3.815997475417744,13.464485789616914,-0.9427287498026317,2.366661557010031,22.40067392698125,-4.001545435784471
-3.846131386638662,13.959571241913288,-1.5522918671623693,2.3872791612449107,22.513833206620824,-4.038492093960369
-3.8696827289455435,14.34124523874541,-2.0196364313964397,2.4033562532057005,22.598467781182727,-4.067256932967342
-3.8777783656648976,14.47139939927053,-2.178489135311452,2.408875213380702,22.626809075029886,-4.0771224325554485
-3.8691378424019653,14.40006247347122,-2.2894941196113314,2.4067226831583817,22.809344821480124,-4.076279421013936
-3.843486535391331,14.167557139903552,-2.5546830098763196,2.399654441764964,23.307653970009824,-4.071700431260874
-3.816431208332822,13.91338986432448,-2.8327933211444596,2.392474131787381,23.840575210570435,-4.067062231836632
-3.7898319714682174,13.654264828765692,-3.104455975338168,2.3857004086149445,24.37199066644451,-4.062703296781675
-3.769233820807798,13.447109974952077,-3.3135199671679922,2.3806564089718707,24.788692147628748,-4.059471081328522
-3.761360129758485,13.36639323981759,-3.3931137745702156,2.378776040022562,24.94918635961848,-4.058269731312224
-3.7524455740456704,13.273967889338037,-3.483005740924555,2.376679531576884,25.13171107364952,-4.056932909921052
-3.7287002416939266,13.022306175890764,-3.721234182475108,2.371266637014596,25.62215076808083,-4.0534961035106685
-3.7032144023781735,12.743129366933207,-3.9748340445586936,2.3657425112474293,26.15551249696101,-4.050015362524779
-3.6781445847070438,12.45906243304961,-4.222009991134725,2.360607908729034,26.687325970701938,-4.0468114096904975
-3.6541657017165505,12.178314135968952,-4.456141059711636,2.355985242358638,27.202746438483715,-4.043960688978447
-3.6422535550456296,12.035417255669548,-4.571608512225169,2.3538285749814816,27.46135456739678,-4.042623148522843
-3.6365651843279063,11.966809181332655,-4.628873818025047,2.3528515169874566,27.587353428642462,-4.042095543292134
-3.648937520538878,12.184868933843912,-4.9053806838664284,2.362097498345412,27.645246474185633,-4.058646024311777
-3.6752617065902906,12.644157738656808,-5.4853252750910455,2.38172924575598,27.76471847811173,-4.093756490253037
-3.7036232687559942,13.13206292898907,-6.097752074195725,2.402818388911027,27.887957228154914,-4.131428584682942
-3.732647987690357,13.624157365297592,-6.711605312307627,2.424333718933583,28.00839520091779,-4.169816212638577
-3.7621839847222915,14.117653181240055,-7.323320146483349,2.4461582488517455,28.125261878784222,-4.2087103922756475
-3.7923940880455453,14.615062402324707,-7.93592606371693,2.4684077884523847,28.23906680580079,-4.248317311848782
-3.8233968010611576,15.11803332331081,-8.551318103894047,2.4911640051204196,28.35005067885843,-4.2887816067579
-3.854856678090317,15.620906367808951,-9.162483807618447,2.5141757907490128,28.456875662651992,-4.329656556665054
-3.8871309582883455,16.129177120876452,-9.776016732882198,2.5376994353739852,28.560622547300355,-4.3713972290393235
-3.920105994617984,16.640760482328766,-10.389270369607418,2.5616460478766196,28.660734623080007,-4.413845277987882
-3.9538584784229758,17.156575409023247,-11.003231299906279,2.586065350968538,28.757275266132698,-4.457088388117871
-3.988114094143384,17.67223403024278,-11.612604712141033,2.6107536557551003,28.849350040790096,-4.500765814413229
-4.022698311798819,18.185072924889212,-12.214262089547608,2.635581821295658,28.936501873265573,-4.544649876232158
-4.047864765257849,18.553492762732617,-12.643780127010992,2.653587801173568,28.99638042371729,-4.576451037409773
-4.052960291276071,18.622019180837416,-12.694034409562397,2.656449139102572,28.977893182367676,-4.581271278689675
-4.059413128835313,18.64054553650181,-12.330614147155872,2.6509407479047553,28.59605894824486,-4.568407339019338
-4.068263275003444,18.66081832937302,-11.830663122485927,2.6437303481053234,28.075984044847544,-4.551087110616093
-4.072711313217125,18.668802544091758,-11.578744438705861,2.640252767690639,27.816153786302596,-4.542518578652549
-4.078352321040116,18.67684121831929,-11.258653775037118,2.63597967790854,27.488114518650626,-4.531779363728331
-4.081495394092594,18.68031964315815,-11.080015086409277,2.633664129907973,27.30604661820009,-4.525856145922015
-4.086653977778961,18.6844953565545,-10.786381900013984,2.629963185598956,27.008317017000575,-4.516226377264516
-4.089653332962882,18.686055518260506,-10.615405887516502,2.627867332800438,26.835826124146934,-4.510678829785087
-4.091461096042671,18.6866903748467,-10.512268398978069,2.6266237448503023,26.732080782855235,-4.507353221271989
-4.094087850076526,18.68720613301896,-10.36228947555892,2.6248427917513255,26.581624957941354,-4.502544802504985
-4.101596165366226,18.68605022357831,-9.93284325617162,2.6199195541506124,26.153443277401625,-4.488953167773716
-4.111001722985755,18.679195233767455,-9.393358560415312,2.6140935766508586,25.62094472110596,-4.472236732999835
-4.120360981711447,18.666539038808494,-8.854900613062872,2.608660513591091,25.095268274695616,-4.455930404661355
-4.129765917448322,18.648097747175253,-8.312232936384817,2.6035541601489887,24.571162833770664,-4.4398595723275704
-4.139184159213303,18.624034458954963,-7.767587329980154,2.5988202035445944,24.050693330984835,-4.42410393565325
-4.147979737526549,18.596596864219308,-7.257305690119108,2.5946637693047196,23.56795386702826,-4.409618665681374
-4.1518104753923035,18.59152298484729,-7.069725961167594,2.593463944084947,23.38546503525757,-4.404702933797962
-4.171126841509592,18.862917016663427,-7.3824581079646645,2.606311890804537,23.425902253652325,-4.427350048882255
-4.207403750212531,19.366478484570298,-7.959589381834828,2.630383828575615,23.497771472951687,-4.469732479064269
-4.246377152733224,19.898798744677666,-8.565245652583094,2.656162642984286,23.56926792331542,-4.515050641209496
-4.2857882210831875,20.428251848382207,-9.16310436728227,2.68214479569622,23.635800124429654,-4.560655543315342
-4.325787614563015,20.95680638441262,-9.755424304009727,2.7084269758294988,23.697650635704044,-4.606716783935657
-4.3524870186279605,21.304818985183164,-10.142947799850441,2.7259213598843886,23.735875799663617,-4.6373385523366295
-4.3083047299695485,21.334044356907793,-10.174058692221594,2.6983674209376862,23.739813067171486,-4.590135972920849
-3.9078746202679486,21.169272701986614,-9.980248486221594,2.447638297492969,23.728450409089128,-4.160011101273655
-3.3395910647185114,20.930270771279865,-9.700408492167016,2.0917178939770293,23.709709104875483,-3.5498494502251927
-2.7667403750822857,20.683121846291968,-9.412490405755896,1.7328729268042828,23.687715301410993,-2.93512024375817
-2.1961897278773104,20.430636902287922,-9.119734738795813,1.375450933563249,23.662638359310073,-2.323226917523252
-1.623552109731588,20.17075643709852,-8.819706118301013,1.0167519665792146,23.634194554200956,-1.7095005992032943
-1.0614300753693586,19.909222227100113,-8.518967398225234,0.6647144405847822,23.603082844344662,-1.1074652772645355
-0.5016935885706717,19.64234620379902,-8.213188451105424,0.31429055969533537,23.56887068204603,-0.5084361450811393
0.05259344121535113,19.37159731583214,-7.90398257766334,-0.032559037692658485,23.53175103673354,0.08428304802512829
0.6064508923093093,19.094493440626486,-7.5884466716959,-0.3789305824829633,23.491342849248944,0.676027309069592
1.1607078570828013,18.81048748607822,-7.2659118274841425,-0.7253020741503473,23.447583354204987,1.2676554553674364
1.7091891204902818,18.52269889046157,-6.939851007844893,-1.0677708632267457,23.400907809139177,1.852541097698762
2.2539889214583715,18.230059993724254,-6.6089788656337305,-1.4076076422591985,23.351155363292495,2.4328936393462848
2.7952382421295767,17.932488946390762,-6.273131285459295,-1.7448566751070878,23.298309954361972,3.008825004585058
3.3385104323323276,17.62679799463415,-5.928646460754898,-2.0829478836750384,23.241768098080495,3.5862271347453403
3.842065787941745,17.337047046520166,-5.602528134096317,-2.3959084866991174,23.186158359499945,4.120768994850751
4.055880730730555,17.210916655414497,-5.463222562180275,-2.528707813788538,23.16398381631212,4.347654772284058
4.040984013847143,17.086061535756503,-5.6058874960782985,-2.524509385322278,23.431887021838563,4.344625119134462
4.012247734414137,16.838424954065076,-5.88017502019713,-2.516632561981435,23.954545711364243,4.338942805278566
3.9830535065653376,16.577421728352295,-6.157460281524892,-2.5089399056823045,24.49357427573933,4.333397600292859
3.95440600518137,16.311753283760392,-6.428041015254343,-2.501707176013964,25.03054345642417,4.3281906546743105
3.9259593453975477,16.038256583648906,-6.695071121336155,-2.4948475810859683,25.57177899402494,4.323261693495094
3.8981409367991584,15.761138509624525,-6.954437429623537,-2.4884630986375553,26.108950326983322,4.318686074280599
3.8704593222744266,15.475576354627336,-7.210617332196434,-2.4824408532905986,26.65136980921507,4.314384981447627
3.843584782978118,15.188668585001414,-7.4573292496005,-2.4769229443690888,27.185641173190742,4.310461704072898
3.8169170792520313,14.894238672886429,-7.7000178479306145,-2.471780918211434,27.72340037331951,4.306826542216619
3.799537714530049,14.696991923111483,-7.856951840648054,-2.4686151109830368,28.077995388252077,4.304601723659015
3.7923586820180053,14.614252194768776,-7.92148027907304,-2.467351175600667,28.22543391876223,4.303716942177742
3.6238887948607723,14.617411558138983,-7.933747881929299,-2.358170659250162,28.241590827217767,4.114402757695895
3.136591675094738,14.64351428290477,-7.952421055795918,-2.04143427976931,28.252753036060856,3.5650750250032885
2.5827453937740903,14.668592676654866,-7.9703535330315125,-1.6812277877443667,28.263491500957656,2.9406457557983052
2.0276857102151236,14.688837737719838,-7.984820242999462,-1.320041712005632,28.27213712069337,2.3147748707165516
1.4717182771835358,14.704221469743121,-7.995812818515815,-0.9581164309317088,28.278737600381397,1.6878255089174719
0.9178554335663639,14.714682667944382,-8.003286704568609,-0.5974530134469865,28.283231595676284,1.0632083847101417
0.36172942119581336,14.720305221317934,-8.007300059629845,-0.23524857393027246,28.28562113395459,0.4360123589478718
-0.1921097965839566,14.72104819344555,-8.007832415363435,0.1254934100889327,28.285951203316866,-0.18861373687164779
-0.7455262239435955,14.716949184357391,-8.004906936380614,0.48594623625741323,28.284205925614767,-0.8127578298085933
-1.2999334988350326,14.707987207400283,-7.998504011070376,0.8469884075643348,28.280345437501975,-1.4379990232551638
-1.8549732358327204,14.694144675302784,-7.988616972944276,1.2083484943168965,28.274427548044375,-2.063917033997288
-2.4141101187137135,14.675264819226213,-7.975126194638524,1.5722377426143972,28.266347676966042,-2.694403186206883
-2.965625141565365,14.651781274815725,-7.958337178478678,1.9309893163061114,28.256289259363015,-3.3162279068862945
-3.4935796018561383,14.624768970993452,-7.939018852694825,2.274215954609878,28.244751548298936,-3.911412556741264
-3.773959014907631,14.608616919025406,-7.927460851014825,2.4563988194914477,28.237841946408984,-4.2274604324009895
-3.7941155395831796,14.612593915671475,-7.78508080910448,2.4661112525487874,28.09076186007435,-4.243015456147472
-3.8014467045978235,14.626265114372412,-7.307793396528862,2.459707223318533,27.5999439467764,-4.227376197201577
-3.8095381555556553,14.635501207279344,-6.778955285525054,2.452997047020273,27.06202019592693,-4.2104385951579335
-3.8176953027646623,14.63872659284882,-6.243699073849337,2.4465995452584526,26.523685371111384,-4.193692714441339
-3.825911527539842,14.635931397596186,-5.7024667751991345,2.440515385270821,25.98539136228511,-4.177145334190421
-3.8340222491110847,14.627351327232246,-5.166171697594802,2.434851214110746,25.457813167256656,-4.161111641052581
-3.8421752822970117,14.613022469157324,-4.625115253051778,2.429488296665622,24.931218867453325,-4.145282992413607
-3.850353429037798,14.593027054885214,-4.0804646300279055,2.4244310124190003,24.406693290256797,-4.129683913477784
-3.8585301198557964,14.567525332559617,-3.5340292880102657,2.4196866900155825,23.885885404260055,-4.114354369965617
-3.8667101349120747,14.536617475331063,-2.985535712949109,2.4152426618353946,23.36842178277922,-4.099274064061414
-3.8746053324288328,14.501774227849657,-2.45444022901661,2.4112311417627246,22.872284062021436,-4.084950916168817
-3.8784668537853677,14.482970621042142,-2.1940866875545293,2.4093659636099796,22.63078899390716,-4.078025607872538
-3.89120496240876,14.686117225522386,-2.4399747120851094,2.4180134846519743,22.672968465059885,-4.093451204582197
-3.9207678055514754,15.15383630961221,-3.007089916949465,2.438111625996585,22.771051607323734,-4.12931383308781
-3.953453886154609,15.663143409548471,-3.6207474899847356,2.460273971545932,22.873941436703763,-4.168794001668792
-3.9869885876891664,16.1773966054032,-4.236239368363882,2.482947275286362,22.973671809848955,-4.2091153792056835
-4.021001223639987,16.69068776906227,-4.846429416677299,2.5058771908339503,23.069030839281467,-4.249824497564779
-4.04725546962258,17.081352676647448,-5.308054927109281,2.523531023331784,23.138795931785083,-4.2811210279730405
-4.055588405743655,17.204358632810376,-5.452903263954973,2.5291259324724966,23.160257609917963,-4.29103152487661
-4.05610950944509,17.212035621393756,-5.461935722938679,2.5294756831841543,23.16158925338834,-4.291650928298051
-4.05610950944509,17.212035621393756,-5.461935722938679,2.5294756831841543,23.16158925338834,-4.291650928298051
-4.05610950944509,17.212035621393756,-5.461935722938679,2.5294756831841543,23.16158925338834,-4.291650928298051
-4.05610950944509,17.212035621393756,-5.461935722938679,2.5294756831841543,23.16158925338834,-4.291650928298051
-4.05610950944509,17.212035621393756,-5.461935722938679,2.5294756831841543,23.16158925338834,-4.291650928298051
-4.05610950944509,17.212035621393756,-5.461935722938679,2.5294756831841543,23.16158925338834,-4.291650928298051
-4.05608986666887,17.211998663545124,-5.46184033129474,2.5294634157275,23.16136189764369,-4.291630187675706
-3.969242715777301,17.04859590312155,-5.040082612184944,2.475224969635951,22.156147642703573,-4.1999290992832945
-3.88244298819689,16.885282369573844,-4.618555195938766,2.4210161407129487,21.15148228991977,-4.108278084718337
-3.7957386610813617,16.722148331831665,-4.197491075057581,2.366866892017029,20.147921151911504,-4.016727802605428
-3.683953550174932,16.511824843854825,-3.6546265950794954,2.297054000638404,18.854061931204356,-3.898694957187342
-3.5359971248490396,16.233445091929052,-2.936102569449722,2.2046511236694624,17.14153703751775,-3.742469161663267
-3.3876380267563935,15.954307711906567,-2.2156230352522006,2.111996766428252,15.424351399050689,-3.5858181877585777
-3.2391228198015773,15.67487661333669,-1.4943853861716239,2.0192449148879383,13.705358875130681,-3.4290023799771077
-3.090546476480717,15.395330486802491,-0.7728508392189488,1.926454881997288,11.985658726999493,-3.27212201888273
-2.941996052292019,15.1158331270695,-0.051442163914913075,1.8336810363210494,10.26625858043264,-3.115269025555805
-2.7929970318191972,14.835491734223288,0.6721450393391034,1.7406270298666675,8.541666146325138,-2.9579423636389417
-2.644684593474065,14.556442144433024,1.3923979787838503,1.6480018129274028,6.825020572130205,-2.801340657322044
-2.4962135607909905,14.277094159677109,2.113421103382023,1.5552775494407203,5.106539344288429,-2.6445714927379167
-2.3476655765314995,13.997601390666595,2.8348179296044678,1.4625052275677084,3.3871674387357507,-2.4877210757092527
-2.199423292612805,13.71868379630529,3.554730176573109,1.3699238240067455,1.6713338684900385,-2.331193444790268
-2.0510657860764097,13.43954941079307,4.27520198166119,1.2772704607364016,-0.04583334847425436,-2.174544151394828
-1.902561054658233,13.160138021926805,4.996388758163978,1.1845251514582513,-1.7647046230654162,-2.0177394046337995
-1.754035164259898,12.880686822476886,5.717678289485072,1.0917666278121818,-3.483820802737018,-1.860912316304972
-1.6055551900959473,12.601322014340553,6.438744836792468,0.999036780123559,-5.202405523945537,-1.7041337104954293
-1.4569308785468738,12.32168563567002,7.160512332901369,0.9062167897486006,-6.922660881387442,-1.5472027002008166
-1.3085225898958146,12.042455703699096,7.881230752284015,0.8135317116440877,-8.640415877052956,-1.3904997864489486
-1.1596653808771864,11.76238112885252,8.604129273470164,0.7205662703623624,-10.363366911370065,-1.2333228619104861
-1.0111528069144966,11.482954984252656,9.325354135893464,0.6278160631984047,-12.082328959664892,-1.0765098342805957
-0.8628601868864644,11.203942682590878,10.04551083121125,0.5352032233459254,-13.798745146313392,-0.9199290539380047
-0.7145727752946943,10.92494018059269,10.765642232686051,0.44259363630584764,-15.515101047802007,-0.7633537731341915
-0.5647138651347487,10.642980906824729,11.493405337042224,0.34900260497545155,-17.24964629397414,-0.6051191617981804
-0.41699697901664656,10.365051847493714,12.210766083176031,0.25674932686237584,-18.95939863584048,-0.4491462934667841
-0.28571716999990165,10.118049119586171,12.848303092135595,0.1747614577018368,-20.47889966788017,-0.3105291799841143
-0.19884281841795132,9.954595181111873,13.270192906553236,0.12050602402734753,-21.484428757808345,-0.21879937063900348
-0.11216130458896303,9.791504066527873,13.691146238771836,0.06637102285940653,-22.48772584293063,-0.12727317686041656
-0.025355257656241744,9.628178643129996,14.112704343826907,0.01215824732622623,-23.49246433919651,-0.03561548975089172
0.0031845772370884535,9.574480994378966,14.251302968477349,-0.005665668374316008,-23.822799284832556,-0.00548054697625064
0.0031845772370884535,9.574480994378966,14.251302968477349,-0.005665668374316008,-23.822799284832556,-0.00548054697625064
0.0031845772370884535,9.574480994378966,14.251302968477349,-0.005665668374316008,-23.822799284832556,-0.00548054697625064
0.0031845772370884535,9.574480994378966,14.251302968477349,-0.005665668374316008,-23.822799284832556,-0.00548054697625064
0.0031845772370884535,9.574480994378966,14.251302968477349,-0.005665668374316008,-23.822799284832556,-0.00548054697625064
0.0031845772370884535,9.574480994378966,14.251302968477349,-0.005665668374316008,-23.822799284832556,-0.00548054697625064
0.0031845772370884535,9.574480994378966,14.251302968477349,-0.005665668374316008,-23.822799284832556,-0.00548054697625064
0.0031845772370884535,9.574480994378966,14.251302968477349,-0.005665668374316008,-23.822799284832556,-0.00548054697625064
0.0031845772370884535,9.574480994378966,14.251302968477349,-0.005665668374316008,-23.822799284832556,-0.00548054697625064
0.0031845772370884535,9.574480994378966,14.251302968477349,-0.005665668374316008,-23.822799284832556,-0.00548054697625064
0.0031845772370884535,9.574480994378966,14.251302968477349,-0.005665668374316008,-23.822799284832556,-0.00548054697625064
0.0031845772370884535,9.574480994378966,14.251302968477349,-0.005665668374316008,-23.822799284832556,-0.00548054697625064
0.0031845772370884535,9.574480994378966,14.251302968477349,-0.005665668374316008,-23.822799284832556,-0.00548054697625064
