RAMEL-ESPOL/ARCHIE/matlab/data/joint_goals_square_t35_h35_p12.txt
Joint0,Joint1,Joint2,Joint3,Joint4,Joint5 
-0.0010474429960472432,9.581705180300519,14.256614432300502,-0.004909166819104384,-23.83040710842454,-0.0008179950055468261
-0.0010474429960472432,9.581705180300519,14.256614432300502,-0.004909166819104384,-23.83040710842454,-0.0008179950055468261
-0.0010474429960472432,9.581705180300519,14.256614432300502,-0.004909166819104384,-23.83040710842454,-0.0008179950055468261
-0.0010474429960472432,9.581705180300519,14.256614432300502,-0.004909166819104384,-23.83040710842454,-0.0008179950055468261
-0.0010474429960472432,9.581705180300519,14.256614432300502,-0.004909166819104384,-23.83040710842454,-0.0008179950055468261
-0.0010474429960472432,9.581705180300519,14.256614432300502,-0.004909166819104384,-23.83040710842454,-0.0008179950055468261
-0.0010474429960472432,9.581705180300519,14.256614432300502,-0.004909166819104384,-23.83040710842454,-0.0008179950055468261
-0.0010474429960472432,9.581705180300519,14.256614432300502,-0.004909166819104384,-23.83040710842454,-0.0008179950055468261
-0.0010474429960472432,9.581705180300519,14.256614432300502,-0.004909166819104384,-23.83040710842454,-0.0008179950055468261
-0.0010474429960472432,9.581705180300519,14.256614432300502,-0.004909166819104384,-23.83040710842454,-0.0008179950055468261
-0.0010474429960472432,9.581705180300519,14.256614432300502,-0.004909166819104384,-23.83040710842454,-0.0008179950055468261
-0.0010474429960472432,9.581705180300519,14.256614432300502,-0.004909166819104384,-23.83040710842454,-0.0008179950055468261
-0.0010474429960472432,9.581705180300519,14.256614432300502,-0.004909166819104384,-23.83040710842454,-0.0008179950055468261
-0.0010474429960472432,9.581705180300519,14.256614432300502,-0.004909166819104384,-23.83040710842454,-0.0008179950055468261
-0.0010474429960472432,9.581705180300519,14.256614432300502,-0.004909166819104384,-23.83040710842454,-0.0008179950055468261
-0.0010474429960472432,9.581705180300519,14.256614432300502,-0.004909166819104384,-23.83040710842454,-0.0008179950055468261
-0.001046331523881304,9.581707503456645,14.25660881825655,-0.004909161967227188,-23.83039295270897,-0.0008168731075670997
0.01715680553299693,9.619671796242143,14.164772170897583,-0.004891691729609314,-23.59871824253591,0.017531821246693394
0.0580485571373038,9.704350650757888,13.959246737165895,-0.005301814429091714,-23.07943846476761,0.05857127389091566
0.1009675234271999,9.792336802822579,13.744670986650139,-0.0063916403058921385,-22.536094959392827,0.10139068866363209
0.14414873607804413,9.879950943459049,13.52993838934861,-0.008158378267229368,-21.99111520974266,0.14422379638787194
0.18722461036841187,9.966452868321271,13.316861151366318,-0.010579877514807743,-21.449096368645204,0.18671952707117692
0.23076016401276636,10.052976518267961,13.102636638039726,-0.013685615249891576,-20.90289842564864,0.22944713913519513
0.27409891104760326,10.138218830799227,12.890484681789781,-0.01742499306227049,-20.360723557220776,0.27177454874239865
0.317718024562483,10.223125408113239,12.67805226080236,-0.021831687718191915,-19.816558925172185,0.31418117912067883
0.3615065045057976,10.307475672030984,12.465877159418556,-0.02689559388263105,-19.271766180538123,0.35656980170666086
0.40529868434571864,10.390954140952696,12.254749392149789,-0.03259296598896838,-18.728369840946613,0.3987923503085276
0.44947051124900306,10.474274557598537,12.042851717894923,-0.038973035362340265,-18.181679172230798,0.4412223088283779
0.49337116341276765,10.556214297860361,11.833292082405036,-0.045936650456771,-17.63971104075156,0.4832467756841314
0.5379915254863062,10.638617550794256,11.621338601399232,-0.05364338711070067,-17.09021061896369,0.5258249145352434
0.5828564908698222,10.720586215747359,11.409264357176426,-0.062024779056469075,-16.539030148285086,0.5685117789851936
0.6276523646423591,10.801549550166346,11.198541196988739,-0.07101952894966033,-15.98998960806473,0.6110207667120647
0.6725636630586027,10.8818470797161,10.988286019055295,-0.08065959502349934,-15.440788615363035,0.653539188598229
0.7174772410893892,10.961280079780122,10.779016409937721,-0.09091756230631755,-14.892776033082574,0.6959716660678943
0.7628764720277568,11.040696037521808,10.568480599536441,-0.10190868973191636,-14.340034525749031,0.7387855586233408
0.8078838221442692,11.11856375713298,10.360735846156627,-0.11341759451963827,-13.79321371347034,0.781164885971718
0.8534470248393312,11.19652454330916,10.15139788708132,-0.12568547708135341,-13.2407675199534,0.8240135048238048
0.8986623889057704,11.273032125894066,9.944610975570487,-0.1384692292155858,-12.693624301237987,0.8664927265356174
0.9442181022746249,11.349256994708561,9.737213369108396,-0.15195954184502583,-12.14342007744143,0.9092605871378023
0.9899411948555462,11.424900981095815,9.52999449680752,-0.16611201648246113,-11.592226058466922,0.9521656070881924
1.0355530512501612,11.499506896578266,9.324205375897886,-0.18083854288108783,-11.043368173285284,0.9949575832102304
1.0811868053869973,11.573300088733212,9.119229641113296,-0.19617769234524268,-10.495207607271459,1.0377725768332544
1.1270304497186974,11.64658298632339,8.914217125009653,-0.21219496712007552,-9.945460119329985,1.080798076947684
1.1731506857579002,11.719453344216062,8.708871545401022,-0.22892141894302095,-9.393307693498366,1.124108040009702
1.2190659476836072,11.79115281128153,8.505327010215833,-0.2461821824780331,-8.84448543312865,1.167261313688987
1.2649949776106901,11.862032517358463,8.302596569287974,-0.26405441172573524,-8.296341689370895,1.2104741646165325
1.311074253502645,11.932302622443133,8.100071106516593,-0.2825935318194145,-7.747221145673635,1.253886128020508
1.3572117093624538,12.001820899721777,7.898150025183905,-0.3017660139184467,-7.198195917884262,1.2974217233722207
1.4035426808996496,12.070788076317475,7.696237186012997,-0.3216328205922974,-6.647631785222799,1.341220134252079
1.4497894175770873,12.138791254492332,7.495535454212109,-0.3420770518217849,-6.098802368313692,1.3850299496122696
1.4961302569216801,12.206095717347603,7.295260850137886,-0.3631781256045671,-5.549562328322217,1.429031021804228
1.5426151267212083,12.272770674490765,7.095193970706479,-0.3849642336901103,-4.9992965454317195,1.4732824806749965
1.5891150758460997,12.338629860506192,6.895884235511114,-0.4073791460932682,-4.449506572864866,1.5176731184053147
1.6356793498328046,12.403743692113512,6.69711309805383,-0.4304495608244482,-3.8995838463678956,1.5622612764199693
1.6822047623989949,12.467969847683293,6.49931238695154,-0.45412654230193444,-3.350720005821299,1.606959275412797
1.728869231500499,12.531553679435222,6.301719252621886,-0.4785047113561262,-2.800790949708155,1.6519496300012908
1.7757275159266783,12.594563244420538,6.104101432174303,-0.5036217641553049,-2.2491305237310764,1.6972980730695013
1.822270307192091,12.656319034271455,5.908595234499213,-0.5292049458813437,-1.7017063686253036,1.742522259311095
1.8691584037240454,12.717699127817358,5.7124171862563315,-0.5556210601071786,-1.1507206623521888,1.788275790861589
1.915956631349713,12.778128851846807,5.51738625039203,-0.5826335823145395,-0.6012655386930496,1.8341470579049672
1.962758842118993,12.83773340491488,5.323101198981344,-0.6102985901207375,-0.05221239833292451,1.8802390190679068
2.009568329598992,12.896518204231176,5.129540922450401,-0.6386223181433472,0.49650221168836,1.9265666282590732
2.056607560289512,12.954757729900393,4.935783669165762,-0.6677487715219991,1.0475077383150664,1.9733636397671388
2.1034976266079,13.011981990650469,4.743384741855436,-0.6974497723542531,1.5963891938379102,2.0202656494265403
2.1504636134830966,13.068468776393802,4.551411638444475,-0.7278714095043963,2.1458064268726447,2.0675092827692514
2.197506316789976,13.124215946308912,4.359857745511912,-0.7590229786897987,2.6957909425808086,2.115108914913674
2.244482328100667,13.179054100739862,4.169300490523292,-0.7908155881325296,3.244689612714482,2.162931954991018
2.292044941855762,13.233732844389609,3.9770950736896893,-0.8237090590282096,3.8001547105460136,2.2116611578832632
2.338694906529812,13.286537799022321,3.7892862822775024,-0.8566658896190065,4.344702934419932,2.2597700603722966
2.3858278427249773,13.339060497969713,3.6002394891584237,-0.8906694597422082,4.894651825638949,2.3087066008653427
2.43291222696429,13.390697567186901,3.412090234530465,-0.92535333846605,5.443818842551689,2.357936644259616
2.4801788019598745,13.441698684110214,3.223913538283873,-0.9608983715928167,5.994916827662082,2.407716472474451
2.527130887765222,13.491531410897379,3.037678181957731,-0.9969362062008066,6.542177660165739,2.457535183484123
2.574363690707129,13.54082843163194,2.851016840772566,-1.033931386747911,7.092561070899077,2.508037862613482
2.6215546895904787,13.589246471766701,2.665204005189453,-1.0716460859090053,7.642329453087053,2.558896936111393
2.6687425446113178,13.636826209583116,2.48008109536188,-1.1101194789454338,8.191954944586076,2.610168005499149
2.7160333541223296,13.683671450955815,2.2952289650643856,-1.1494505182213648,8.742694401952544,2.6619826354621603
2.7631260063004652,13.729485955069649,2.111817582804683,-1.1893967329616346,9.291062478042015,2.7140247242327806
2.810401122671656,13.774639721852054,1.9283594236207853,-1.2302914858805913,9.841512299177595,2.766730233988756
2.8574425720429057,13.818735936515715,1.7464635832672135,-1.2717847113639626,10.389219321240045,2.81965021702754
2.9048896990530264,13.86236832832703,1.5636570262361433,-1.3144567341757107,10.941648061674167,2.873522918685513
2.9520246833291672,13.904873382572386,1.3827028946004205,-1.3576766268494496,11.490461292165337,2.927551326984829
2.999131720244499,13.946515263193698,1.2024989609064136,-1.4017088968084184,12.03898795833469,2.9820726835735027
3.046260716481962,13.987337092802106,1.0228500563344178,-1.4466132666012097,12.587829105878537,3.037161937810356
3.0935581065717632,14.027459218923457,0.8431979420592156,-1.4925484297385434,13.138710299667187,3.093011474069907
3.14081397916365,14.066698741236745,0.6643386461193199,-1.5393285450715057,13.68920675108603,3.149394057923304
3.187888441498655,14.104943945686475,0.48679346845244653,-1.586823899728272,14.237707596744855,3.2061573977562308
3.2355825855346594,14.142832094340628,0.30754623479578147,-1.6358713303882584,14.793568372342568,3.2642955267548395
3.283109383894902,14.179723920890174,0.1295603307493979,-1.6856913461580088,15.347638149055452,3.32287826140327
3.3306195722728273,14.215739563125881,-0.047735823669583524,-1.7364537951857089,15.901692797538802,3.382108449906587
3.3782101271277822,14.25094876111722,-0.2247061108479219,-1.7882823267869552,16.456883005043732,3.442129817483819
3.4257090990009127,14.28522248301117,-0.4007144710593789,-1.8410081038383868,17.011221965312565,3.5027473070412585
3.473421581666822,14.318775219392737,-0.5768920218253353,-1.894993376955922,17.568290367641733,3.56437594581602
3.5208417610681644,14.351251099198628,-0.7513754715037688,-1.9496835926657503,18.122200912461384,3.6263839426076023
3.568411567753266,14.382954321896959,-0.9257964868970937,-2.0056048424757935,18.678133425453733,3.6893698670745554
3.6157376078491223,14.41362277758524,-1.098717073248242,-2.0623133235888242,19.231508175662313,3.7528352035050063
3.6632370672963757,14.443526033710729,-1.271665351752424,-2.1203293914481613,19.787221110890833,3.817363265324968
3.710615334564027,14.472474481608174,-1.4435700371245528,-2.179318546600112,20.341844264541297,3.8825814555682268
3.7579950859478215,14.50054361096272,-1.6148808111611739,-2.2394537359124556,20.896830623632976,3.948682510181573
3.80537470757126,14.527729466369584,-1.7855939369227984,-2.300758463788386,21.452179334729003,4.015692268508568
3.851645696075305,14.553423820862834,-1.9517380930126274,-2.3617831072761586,21.994901835280398,4.082039080962259
3.876804599032913,14.567038880614602,-2.0418380273166274,-2.395451833169045,22.290154779502505,4.1184990361434775
3.888076415756675,14.573057272138962,-2.0821508369944466,-2.410649290459962,22.422472694501813,4.134923705067265
3.8784910974223186,14.483704901059339,-2.1914291433761064,-2.4086473659878416,22.62737514735089,4.1340247587363015
3.8524155352154263,14.250357562454395,-2.4614491940115593,-2.401368543763651,23.131369222474106,4.129299450080425
3.8252404659988613,13.99820827803728,-2.7412936928451366,-2.394057948499616,23.664011149708138,4.124565725217786
3.798501595101431,13.740878096096804,-3.0149269305630835,-2.3871492619818184,24.195607257850476,4.120107554276502
3.774903250330856,13.505919699627547,-3.254866480273303,-2.3812952969677066,24.671059332682592,4.116345410405645
3.7649403388027203,13.404457238904582,-3.3556964366326842,-2.3788943235948805,24.873584479766837,4.114807432680127
3.7585326779470587,13.338479074640507,-3.4203913790087155,-2.3773726709924463,25.00440688159173,4.11383445908518
3.7371409357958667,13.114050974373916,-3.635462021230535,-2.3724229048115237,25.444401831290175,4.110680147387353
3.7114987926329333,12.836400666257552,-3.8913068215563986,-2.3667607636298063,25.978487192320305,4.107095941970676
3.686328877986498,12.554434162589775,-4.140196193372298,-2.3615009213207885,26.50991752728019,4.103796009141098
3.6623927570902826,12.277349453188629,-4.374656706007786,-2.3567833562914764,27.022004425283427,4.100867964950998
3.650940988977536,12.141623448024696,-4.486012884582446,-2.354627462482199,27.269344140256234,4.0995423178040955
3.6456086362722018,12.078762138334238,-4.54367255130391,-2.3537516935791505,27.389980492315043,4.099171004000605
3.6587486477852615,12.309468816591151,-4.835660309676617,-2.36352911687545,27.450673443529045,4.1166757752029275
3.6854023736763755,12.772614484004649,-5.419299819518053,-2.383320214375868,27.56996920987973,4.152076214567275
3.7139372062204337,13.261458094270814,-6.031645889095752,-2.4044457806733197,27.69218150039508,4.189817972004227
3.7432404235691363,13.756171779082186,-6.647479711101489,-2.4260728651728884,27.811968650012048,4.228409010374515
3.772920749730036,14.249948592149329,-7.258247906581926,-2.4479084163522056,27.927601582243906,4.267326205222898
3.8034135126192705,14.749824141057926,-7.872570931724828,-2.47026822476688,28.040644756467934,4.3071321718860025
3.834549632234521,15.25272904785647,-8.48654568466242,-2.493022786666747,28.150271649521137,4.347595609673093
3.8662693289974115,15.757490805031882,-9.098659846896357,-2.5161236583824986,28.25614472602682,4.388630194670786
3.8987019468103523,16.265945724407775,-9.711051929254651,-2.539659983969216,28.358559623663467,4.430394021152269
3.931944622631409,16.779321203324013,-10.325072029246467,-2.563696232715171,28.45763384264585,4.473000823655436
3.9658885329274445,17.295655740669872,-10.938254835522057,-2.5881476812731443,28.552868071050423,4.516299859639316
4.000287943728005,17.811060405821014,-11.545936358654298,-2.6128326664809554,28.643498449412487,4.559969596006157
4.034799758912689,18.320447946019158,-12.142188743942597,-2.6375027897199264,28.728700587823614,4.6035718258537015
4.059082208931946,18.674358262507603,-12.553904480918941,-2.65480341876289,28.785329651015818,4.634125462437514
4.036522600257758,18.741934631516347,-12.631454065904876,-2.6403393186091817,28.79633048948226,4.609083293201078
3.6698936903101522,18.76325401386711,-12.64554487681555,-2.4008907126290677,28.805160905879838,4.193121243421133
3.105501883962508,18.79208422913648,-12.664586944041037,-2.0320604026235967,28.81708448454707,3.5527163386744722
2.530482718420705,18.81649602752092,-12.680700962008428,-1.656049576907367,28.827180350542424,2.900179761636863
1.9576918165115607,18.835847577739997,-12.693472578461522,-1.2813037168308636,28.835217547930725,2.2501129653972236
1.3830404638118623,18.85029063161366,-12.703002123935002,-0.9051907640086008,28.84122442269728,1.597888242659802
0.8111133268769591,18.85972763158115,-12.709224109353356,-0.5307557385261694,28.845124365312234,0.9487225649618317
0.2378982341074949,18.864249373635463,-12.712208025568607,-0.15541539190458123,28.847017313898093,0.29807607742785125
-0.3351515385045421,18.863830582173986,-12.711930333032049,0.2198339435473635,28.846827370071395,-0.3523882647027284
-0.9111013449218813,18.858434883990068,-12.708374747978203,0.596957768845002,28.844604165466738,-1.006136712692821
-1.484172943372017,18.848112082627882,-12.701565254279123,0.9721258479179955,28.84030482964868,-1.6565960988350634
-2.0554744268588965,18.832898875774596,-12.691531843054847,1.3460247187479437,28.834011552521616,-2.305012271059505
-2.630142979910489,18.812628648805397,-12.678153924732236,1.7219678403361591,28.8255949966641,-2.9572004155579874
-3.204987401798967,18.787359783296377,-12.661473776153647,2.097827521804184,28.81514847958048,-3.609527059620599
-3.748064789202455,18.75888728753379,-12.642664442109865,2.4526884049238604,28.803353588957048,-4.225733819545845
-4.0425372127091475,18.741576844644783,-12.631228048440292,2.645003620323654,28.796224853445434,-4.559828573662928
-4.066037333086701,18.746544291469856,-12.50422060120587,2.6569792392702745,28.663312486527985,-4.579482891257466
-4.074348855332673,18.766413083346897,-12.036734785541581,2.6501707753343586,28.176097933233677,-4.563208613988606
-4.083690406755044,18.78264055748525,-11.509536334084677,2.642924309916696,27.632823292733114,-4.545296288591988
-4.093127213520431,18.79262803041907,-10.975114766379715,2.6360240549591887,27.088560798708393,-4.527590935671455
-4.102660554471508,18.79633935479649,-10.433406063776957,2.6294659054868617,26.543282713200902,-4.510084454092995
-4.112199253644923,18.79379325129243,-9.889625219473647,2.623303829564412,26.002184148445405,-4.4929333809892755
-4.121723857408914,18.785156300458024,-9.344944727409473,2.6175352608774087,25.466271029988825,-4.4761559975900225
-4.131208894691428,18.77064951378953,-8.800893501516832,2.6121587471465038,24.936851224029184,-4.4597789971305914
-4.14065702494891,18.750481510552028,-8.25739390579842,2.607155532827538,24.413638824842163,-4.4437794164451
-4.150097360778505,18.72476778134236,-7.712835154419747,2.602495614430786,23.89490819729414,-4.428092084990148
-4.159143417080956,18.69503359331714,-7.189652900342836,2.5983378690529606,23.401565550180575,-4.413328424220881
-4.163328176348663,18.681215151204956,-6.9537959357880075,2.5966109390846746,23.179569308893967,-4.406831803847099
-4.180049120792149,18.91520915594872,-7.223107389575497,2.6077007658693603,23.21410723281445,-4.426370382470399
-4.215874800483722,19.410860799370987,-7.790669713900034,2.6314090267718675,23.284339662830348,-4.468094329614153
-4.254578090953685,19.937825591474823,-8.389759224481255,2.6569418370543576,23.354638994231376,-4.512960255177895
-4.294369309401478,20.47069030497969,-8.991006255472508,2.683106661112421,23.42113130402467,-4.558864503094443
-4.335024955593125,21.00609882286816,-9.590502623975642,2.70975092921191,23.483274201036046,-4.605536769634119
-4.3642042756565065,21.384908199667812,-10.01185047194733,2.7288190606673046,23.524408118386585,-4.638893817695901
-4.3451272267348795,21.434581970714547,-10.066266041246319,2.7170222738962795,23.53003416649766,-4.618764001872898
-3.9966083575266307,21.189314071548438,-9.784760727356433,2.4989507989448185,23.509397377958088,-4.244734525028747
-3.473905346998774,20.814938922290175,-9.35479418479862,2.1718555180268555,23.47472552326589,-3.6840952746240476
-2.952665286751514,20.433632102701246,-8.916456342276469,1.8456749496851586,23.435630438190582,-3.125455223285772
-2.4283474561429568,20.04181710678769,-8.465530278301111,1.5176164410023356,23.39161561682962,-2.56400692313455
-1.910885582036056,19.646783200827382,-8.010303178159708,1.1939436700234356,23.343427235133376,-2.010441051439429
-1.399429869314957,19.247965088747915,-7.550035609001043,0.8741698006832597,23.291021692176443,-1.4638883633802862
-0.8945915100406879,18.845918449416544,-7.085281716180746,0.5587192841738698,23.234493337672635,-0.9250413240333376
-0.38742573906836825,18.43338943787691,-6.60754894630574,0.24204851323935636,23.172753792469933,-0.38440768806165904
0.1101178566515986,18.020042854150994,-6.127928504342918,-0.0683387477310963,23.107210546597877,0.14522456679790594
0.5331442332886421,17.66168340196522,-5.711300920713127,-0.33198825631167145,23.04748549709291,0.5949026709876881
0.7307421158705939,17.49206653069124,-5.513832441799039,-0.4550552276109441,23.01831500446311,0.8047430476025071
1.1748857329845073,17.10553039005328,-5.063138965840687,-0.7314453205110085,22.949652389058954,1.2758748549328705
1.6703962316428649,16.66546132536677,-4.548825744292463,-1.0394003358503796,22.86792069203165,1.8005926312901013
2.1627141433004198,16.218736072768806,-4.025365133463459,-1.3449043204470377,22.781179107444444,2.3209122276912377
2.641207310665141,15.775211611895386,-3.5042334107141877,-1.641335899451575,22.691402796524926,2.825572908308132
3.111451859521699,15.330084448614972,-2.9797398691657646,-1.932137671649662,22.597739383873062,3.320452238758314
3.5677775502340974,14.889103412523411,-2.4586240694688377,-2.2138046405176466,22.50155164972646,3.7995980956455075
3.8596370372006015,14.602266485007492,-2.1188305830192915,-2.393650191990175,22.43716441229771,4.105438335031037
3.8839531767848388,14.531529692116528,-2.1347148167792906,-2.410208271356114,22.522715303281846,4.135043643396527
3.8606610570280204,14.325030200191886,-2.3762337962510007,-2.4036470488692223,22.971294649214787,4.130781801590774
3.833380830872729,14.074706015978247,-2.6576590169051286,-2.3962220624909123,23.503696253661612,4.125969770466002
3.8063828524083676,13.817684145023012,-2.934476236778192,-2.3891598905067335,24.03817569317529,4.121407431534636
3.780379540816696,13.56110195563665,-3.199335997211981,-2.3826372911974945,24.56022949764609,4.11721060675965
3.7664143666990246,13.41954453580404,-3.3408097053137182,-2.379251122193405,24.843587203277387,4.115039963379781
3.7597291569170146,13.350832027073418,-3.408333053473746,-2.3776597043589844,24.979978888350995,4.114022063358993
3.7444594594873153,13.191549261790492,-3.562055383425631,-2.3740977809603043,25.293338669142823,4.1117496920156515
3.719114387018327,12.91985105257838,-3.8155651800657977,-2.3684151462082,25.819131528208093,4.1081442845950065
3.6937569947292634,12.63862898215824,-4.066995235105199,-2.363026017131825,26.352363873834918,4.104753530265986
3.6687913828195375,12.352281929172188,-4.312210608720883,-2.3580208754101646,26.88449264462457,4.1016367745545965
3.652570043352772,12.161051169434659,-4.470212482288493,-2.3549342393830317,27.234090594699286,4.099734508505545
3.645878175251908,12.080950391675232,-4.535074675307143,-2.353699786088127,27.379203651537235,4.09897878619983
3.4728309100525663,12.085474965462843,-4.546996082746218,-2.2423391401970756,27.39348572922051,3.9062655995863533
2.9859504059013835,12.111087446567634,-4.566184301319442,-1.9282937982474089,27.404636804006195,3.362707487454969
2.4438089516845807,12.135045023392387,-4.584125140952729,-1.5784064374919569,27.41507893939203,2.7573735362811216
1.898425853027621,12.15430497599876,-4.598538986696718,-1.2262529137199008,27.423449664247293,2.148346375311806
1.3544635555014952,12.168688580585744,-4.609303322183727,-0.8748831263799816,27.42972964867489,1.5408518448240136
0.8120253895237068,12.178238548041389,-4.616449214336051,-0.5244021866858741,27.433903727896308,0.9350197500759861
0.2680814853510368,12.183011396729237,-4.620018822472503,-0.1728910409020124,27.43597814627427,0.327481489908677
-0.2749230037973604,12.182981815120497,-4.619996484487886,0.1780318423305868,27.435960351074332,-0.27901518877384185
-0.8172237176552869,12.17817087241827,-4.616399374337527,0.528480957354756,27.433871288361846,-0.8847174161061632
-1.3619408799280301,12.16852652472734,-4.609185807550785,0.880433902920895,27.42967418463599,-1.4930947103819059
-1.9048674379597348,12.154109051162516,-4.598395159432258,1.2311320156306962,27.423365472811064,-2.0994325132216516
-2.4497043023670058,12.134814294381178,-4.5839544157528636,1.5829308360870522,27.41496679257149,-2.70784746345243
-2.9946373463854066,12.11067018284873,-4.565876732012628,1.934618056957326,27.404461576703316,-3.3162977487191982
-3.470511244904637,12.085612976532818,-4.547106219021918,2.241563349504892,27.393561335287085,-3.847567753400803
-3.645631172510616,12.07598842010332,-4.538057248534423,2.3544283712455316,27.387159553578545,-4.042962780158453
-3.652924507130674,12.142998056267535,-4.352945622826625,2.3537857782126834,27.134954102278144,-4.039438223628376
-3.6681913056185755,12.278210554960143,-3.9643222329778287,2.3526775964364024,26.610939161681777,-4.032259573551849
-3.683976923811089,12.410980173058103,-3.5609528609029395,2.3518587410733995,26.074611158940368,-4.025109793815307
-3.699979082048294,12.538460622091783,-3.15055024673025,2.3513555669176927,25.536532639429645,-4.018132216908801
-3.716207890402017,12.660631078577897,-2.732889909116732,2.351169131287709,24.996499831563938,-4.011320965113097
-3.7325260051979106,12.776445330719948,-2.311560095384973,2.3512985152220347,24.459148960864905,-4.004728964320546
-3.7491141213667647,12.887150447836355,-1.8819451473202276,2.35174387513566,23.918615054198032,-3.9982794082232
-3.7658042827333453,12.99158577655547,-1.4484441899526315,2.3524998236138743,23.380460096551833,-3.9920340473106375
-3.782713877715239,13.090482565957828,-1.0080646902439931,2.3535693602261847,22.840958827600154,-3.9859441769426223
-3.7982443819242016,13.175352432085697,-0.6026323192197417,2.3548116515919797,22.350447049384417,-3.9805518577923373
-3.804542012912625,13.208175919554414,-0.4379807602308978,2.3553844270144944,22.15288626787537,-3.9784180517004035
-3.8101784292112577,13.29136675423067,-0.5109559569431937,2.3586951770785385,22.142453264420638,-3.9838941012983695
-3.8340233580278347,13.685344222825014,-0.9972445512428547,2.3749836988583835,22.23372546765154,-4.013107013584645
-3.8642409041591845,14.177727412635141,-1.6016376573605198,2.3955786362278704,22.344411582405886,-4.049983271353382
-3.883182541223463,14.4825472043867,-1.9739227298618212,2.4084617530669896,22.411042938378618,-4.073017986614295
-3.88854049611927,14.570613077651407,-2.0880081751195876,2.412229238309781,22.436819574495377,-4.079855417598584
-3.8730485152564342,14.434803034051853,-2.248937867723959,2.4078191726004117,22.733933264117848,-4.07699258993401
-3.8459462416570034,14.190207127581491,-2.529308780395373,2.4003185570162264,23.259550380513712,-4.0721320449589085
-3.8189262076794015,13.937222878305635,-2.807212787288403,2.3931213665685203,23.791081917587245,-4.067481505375927
-3.7921793433621414,13.677511283518143,-3.0805500166796644,2.3862836700412307,24.324762453393173,-4.063079694167856
-3.770468978763342,13.459697280158746,-3.301011194242377,2.380950934918961,24.763546612443704,-4.05966124192784
-3.7617007644956653,13.369905515803728,-3.3896678752073464,2.3788539668396154,24.94219964439469,-4.0583212672439855
-3.754075507431677,13.29095199691603,-3.466581658081917,2.3770574021743105,25.098244403240617,-4.057175425176867
-3.731123156239502,13.048356534723244,-3.697003208612477,2.3718044857004026,25.571792952545696,-4.053838304726385
-3.7055067697915085,12.768634681576959,-3.952110517391359,2.366224112101939,26.107210631735988,-4.0503192774903445
-3.6803320485317768,12.484231649771592,-4.200531388032845,2.3610409145536573,26.640607956483368,-4.047081900671152
-3.6581218213964464,12.22519823872784,-4.417715409890756,2.3567589420236974,27.11732295781263,-4.044414116364622
-3.6486301056882207,12.112162173132141,-4.509895556198773,2.3549902803878338,27.32275238201392,-4.043331352259271
-3.6468849224407576,12.098554897975426,-4.568764134783663,2.3554068326745745,27.39523813174968,-4.044738347583864
-3.66471309320665,12.411003563421865,-4.963907950101369,2.3686680936550215,27.47713479533465,-4.068476621627143
-3.692459714029906,12.891553393714867,-5.568644153397135,2.3892571978541075,27.600072385982333,-4.105294176211469
-3.721227385726821,13.382624574716392,-6.182846035648766,2.4105395573838275,27.721900575979276,-4.143304837316325
-3.750445825623175,13.874154026357225,-6.7937789336565135,2.4320879774449193,27.83997303376597,-4.18174456632559
-3.7804003826418966,14.3707289783187,-7.407058315668571,2.4541084801418145,27.955304539547114,-4.220980605307374
-3.811068234029832,14.871669007248398,-8.021710203354719,2.4765788519839553,28.067602006568407,-4.260972570698101
-3.842326301256753,15.374724132730064,-8.634874702741712,2.499403930604916,28.176260675479966,-4.301550707072862
-3.8741684619169177,15.879610699856833,-9.24613732214149,2.522574688747629,28.28114952219328,-4.342698918790278
-3.9068150429963815,16.389567883835646,-9.859313674323456,2.5462460131822393,28.38283412012931,-4.384691823995805
-3.940284204709757,16.90455071042521,-10.474203248378888,2.57042462897388,28.481157390041854,-4.427540506866377
-3.9743569655169466,17.420940174183226,-11.086383450991576,2.5949466202350333,28.57532549809905,-4.470954098164411
-4.008905715304397,17.936680009286448,-11.693387427595304,2.6197158122064432,28.66493348258004,-4.5147626453198315
-4.042915144524414,18.4368759111374,-12.277873208061653,2.6440047282473493,28.747582435546608,-4.55768180829013
-4.0618335197581406,18.711984771754526,-12.597562522541795,2.6574757558710353,28.79124555213403,-4.58146900812881
-4.065467522247212,18.744995729405915,-12.536080265005713,2.6574420269707284,28.696686432458094,-4.58058852977774
-4.073300088353595,18.764193271530402,-12.095673059136141,2.650994291443825,28.23721414459945,-4.565222554622717
-4.082477407516244,18.780894515292857,-11.577964279402037,2.6438251715406906,27.70295349570143,-4.547578653219157
-4.087521409862106,18.787463145868454,-11.292668116845322,2.6400567806264585,27.411168224156068,-4.538040992141214
-4.092337954714812,18.792035686977503,-11.019749100787456,2.6365691971128706,27.13375095180933,-4.529035968098542
-4.095543067068059,18.79416824555835,-10.837878266968143,2.634307423640839,26.94979611734648,-4.523098061684221
-4.0985002872672345,18.79549728352153,-10.669892055794072,2.632261762389616,26.780525063108932,-4.517657256388164
-4.100169067370094,18.795978131190445,-10.575019872874158,2.631124674870998,26.685196717725205,-4.514602831977998
-4.104624864231695,18.796320031209177,-10.321435925168213,2.6281488266458464,26.431335898683542,-4.50650238397213
-4.113607782296881,18.792892947353163,-9.809050905143593,2.6224111565895387,25.922505251683436,-4.490410191489644
-4.12300785221468,18.783529655705877,-9.271259863368371,2.616770685535439,25.394205460482528,-4.473899785384556
-4.1324403211645375,18.768335720543575,-8.730013781412849,2.611471597349948,24.868276579121716,-4.457656231877065
-4.141882275847772,18.747448584110128,-8.186671039075328,2.606516603269782,24.345939458402306,-4.4417070216574475
-4.151329392381577,18.721018291622933,-7.641856531670775,2.6019338355477934,23.827666761496893,-4.426081732820859
-4.160122309501649,18.691533874528876,-7.133162126358957,2.597927411679361,23.348558770650936,-4.411761531510881
-4.163823142681981,18.688115945327947,-6.961748365263071,2.596957333681456,23.180571216475716,-4.407416255456086
-4.18404389260697,18.970808198559105,-7.286966110835274,2.6103657848635367,23.22215362849159,-4.431037645191951
-4.220787595537329,19.478183614678517,-7.867452722747736,2.6346724796091583,23.29354215426966,-4.4738068550961145
-4.259917580476405,20.009797450304838,-8.471231680319747,2.660475729649656,23.363860038931914,-4.519138608410241
-4.299782940045493,20.54245455235624,-9.071626601526892,2.6866775915550054,23.429702492036856,-4.5650981415132845
-4.339948713524396,21.070286172487727,-9.662058506972652,2.7129895701422746,23.490379485981094,-4.611179259106558
-4.366002590070861,21.40805821851171,-10.037521619439815,2.7300105762883446,23.526815693970317,-4.640951421314139
-4.314248730104968,21.429105429975085,-10.05931598361615,2.6977557807448442,23.52996745336274,-4.5857130030608815
-3.8993878341990778,21.258658337619774,-9.859153166222713,2.4384157009256966,23.518500075422402,-4.14114569027515
-3.3309481621639505,21.01989009498346,-9.580057767027673,2.0829771292626638,23.500187774087493,-3.5322624428604956
-2.758652275061295,20.77330267195587,-9.293270891046133,1.7250604631074413,23.478650987206546,-2.919579643923296
-2.1850135643065283,20.519778549224124,-8.999796823590211,1.3662833459682946,23.453878235383694,-2.3058238400704982
-1.6106476733271262,20.259432569896447,-8.699730625735215,1.0070787996011985,23.42580040283469,-1.6916902202096555
-1.0462510137365892,19.997148245985414,-8.398630514799883,0.6541809559227165,23.395006801841063,-1.0886336474150202
-0.4876218952250887,19.73111483763229,-8.094320891615405,0.3050054878801418,23.36131418704742,-0.4921832327730587
0.06938274903445234,19.459359360794874,-7.784476146880444,-0.04299455793251336,23.32447396707708,0.10205929956252419
0.6239039217643517,19.18223931076075,-7.469440185770365,-0.3892368837844363,23.284482588132065,0.693142592175945
1.1766834365514485,18.89932570489386,-7.148669701424105,-0.7341468831664517,23.241322455660523,1.281836530124574
1.7280284608541956,18.61037642568203,-6.821825251415593,-1.077871237973126,23.194897375484828,1.8684304264028806
2.274144944526455,18.31735776210391,-6.491061069151623,-1.4180054621398412,23.145518441836625,2.448859518990481
2.820420967748845,18.017324397416115,-6.15298382500396,-1.7578653699056377,23.09267292162049,3.0288187400917526
3.3617136231174296,17.71304001089025,-5.81063824517589,-2.0942120418972348,23.03682914073781,3.602815406672629
3.8647501792109016,17.423886466719022,-5.48571434039763,-2.4063797093747588,22.981756940600928,4.135607335733393
4.067166372720179,17.303943473885035,-5.354941259156645,-2.531939385955535,22.962386784009368,4.349988109020187
4.051684282790502,17.17598544210683,-5.503442360776264,-2.527517126978866,23.23924533956012,4.346796766346598
4.022525534546992,16.928035557317376,-5.782218760290131,-2.519415513054345,23.766719222847094,4.340951330256927
3.9931821256139854,16.66907134102136,-6.06142610706043,-2.5115724725669644,24.305636859553065,4.335295882868579
3.964584206709967,16.407248252750342,-6.3320879572738695,-2.5042401010591795,24.838842747379747,4.330014459366328
3.9467304280196993,16.23892360576153,-6.50026128872828,-2.4998239317171627,25.175787671808216,4.3268376475696755
3.9391165422928895,16.16597707945043,-6.571779556838429,-2.4979793564177224,25.320442324380384,4.325511919557137
3.9257986291076827,16.036683948613536,-6.6965742859829165,-2.4948096118747825,25.574861194753993,4.323235709440177
3.898698413837796,15.76678867444785,-6.949257637057485,-2.48858765447032,26.09810907846193,4.318776466452368
3.871216535247033,15.483521998615878,-7.203636313914926,-2.4826009026672784,26.636427114346006,4.31450031846371
3.8441009025372543,15.194271201596738,-7.452610454867659,-2.477025615958958,27.175309717940248,4.31053577555854
3.8188504357711897,14.915917787059257,-7.6824980667258975,-2.4721420813593302,27.68415764695056,4.3070823220501735
3.807181036360088,14.784270093666544,-7.788056738373445,-2.4699888925249818,27.921642657094093,4.305566992498519
3.791188890990426,14.722041649901394,-7.838211479884956,-2.462199820939246,28.034605518157722,4.293084082377829
3.4841752995455275,14.739686204751662,-7.850807900483691,-2.2630875882639256,28.042150234172983,3.947814106636606
2.9487167266556966,14.766875219452011,-7.870203067901121,-1.9156333573307933,28.05372765263622,3.345560953608426
2.3927817512959875,14.790296948996577,-7.886906552261863,-1.5546825705284937,28.06373901033126,2.720200657600859
1.8366527479138548,14.808836296787298,-7.9001232780541235,-1.1934304858304012,28.071671549616568,2.0945567401719565
1.2808639609530275,14.822485844593794,-7.909847819240112,-0.8322646803651887,28.077486837617233,1.4692441099598872
0.7237859910775789,14.831281087600765,-7.916115725683045,-0.4701674793955512,28.081260043034007,0.8424474073788034
0.16773532784185083,14.83518476276449,-7.918898285471969,-0.10868472489617162,28.082941169921277,0.21678665283916126
-0.38617823487982267,14.834232189739748,-7.918217855475994,0.25142029139359845,28.082514891503216,-0.4064747531495321
-0.9434638867169849,14.828398712415634,-7.914064155753306,0.6136900360710692,28.080032801614287,-1.0335191817561638
-1.5001731596556653,14.817684173229443,-7.906428145645076,0.9755143349357535,28.075431547345186,-1.659889604290023
-2.05510423034621,14.802139936043005,-7.895352176735713,1.3360751153204657,28.068800361906185,-2.284218331123165
-2.610606987854331,14.781707820398678,-7.880787871319645,1.6968576266893607,28.060085502178143,-2.909134511817751
-3.166318172074215,14.756380154121839,-7.862721870302804,2.0575821516847324,28.04925597718083,-3.5342137073840125
-3.644246851777264,14.730680315069442,-7.8443847043609285,2.367634837981111,28.038302790902268,-4.07173294068753
-3.8019055338701264,14.721587085223227,-7.832415493486541,2.4697470243837536,28.028835992502998,-4.248763902485214
-3.8062334630016696,14.72987305918602,-7.551745327090554,2.465963366516907,27.73996278856831,-4.239542924511689
-3.8142122781860017,14.740559113235888,-7.032707759209474,2.459269688993472,27.210388243173586,-4.222798537237701
-3.8223742948409627,14.745446701604916,-6.499650003739375,2.4527889947566774,26.67259047394832,-4.205999450011189
-3.83059496609666,14.744323032733284,-5.960668571807155,2.446623560828965,26.134876546781186,-4.189402344397692
-3.838796367535313,14.737286832153536,-5.4209128391632895,2.4408218818725187,25.602295942146142,-4.1731529130242
-3.8469440701223387,14.724572289739127,-4.882728171851332,2.43539194365282,25.076959528852004,-4.157302143617556
-3.8551563666930497,14.706106735170739,-4.338347649882247,2.4302443837932945,24.551175197074485,-4.141607880260478
-3.8633508189943546,14.68214842347222,-3.7932685280291043,2.4254229705703354,24.030180798945775,-4.126217980813511
-3.8715428062060457,14.652790062435807,-3.2465216075534626,2.420907386076471,23.51291486997805,-4.111091033667045
-3.8797484483666485,14.618077524000462,-2.6970724396106065,2.416679729160114,22.99829750605304,-4.096186733469021
-3.8869561427893387,14.58329529633442,-2.2130016496666682,2.4132028800862457,22.549110897190438,-4.083291277600286
-3.8902369967204296,14.595345494561439,-2.1113231677149047,2.413251269319501,22.43534814771913,-4.08157325757204
-3.910363897307229,14.91495854564207,-2.499569241871738,2.426909885883205,22.50309035088461,-4.10595774631293
-3.942129484196406,15.412979144040879,-3.1013656527169964,2.4484196095145996,22.605452971463514,-4.144303961306494
-3.975338173504376,15.925459993838093,-3.716590537905476,2.4708447770663247,22.706710155716664,-4.18421302061348
-4.00908524939743,16.437969243798552,-4.327729670478308,2.4935689705426514,22.80381920629403,-4.224584644964134
-4.0429656523715884,16.944372914273828,-4.9275256893704995,2.5163176700514303,22.89567473036568,-4.264931945470376
-4.064124412013215,17.256608989957925,-5.29532559116705,2.5304914449031473,22.950273727446596,-4.290037306201888
-4.067466215410307,17.305646412154285,-5.3529494594689835,2.5327277267767503,22.9587074344286,-4.293996036744735
-4.067466215410307,17.305646412154285,-5.3529494594689835,2.5327277267767503,22.9587074344286,-4.293996036744735
-4.067466215410307,17.305646412154285,-5.3529494594689835,2.5327277267767503,22.9587074344286,-4.293996036744735
-4.067466215410307,17.305646412154285,-5.3529494594689835,2.5327277267767503,22.9587074344286,-4.293996036744735
-4.067466215410307,17.305646412154285,-5.3529494594689835,2.5327277267767503,22.9587074344286,-4.293996036744735
-4.067466215410307,17.305646412154285,-5.3529494594689835,2.5327277267767503,22.9587074344286,-4.293996036744735
-4.06738167355002,17.30548552838233,-5.352541757395453,2.5326749795224317,22.95773433178063,-4.293906814313087
-3.9799052376204664,17.139017237739704,-4.930687729196713,2.478096788349759,21.9508538213572,-4.201587337322932
-3.8932764509635014,16.97416202979727,-4.512921479110343,2.424047461476998,20.953730013103613,-4.110162438817657
-3.8062135058578788,16.808480615185026,-4.093061505285727,2.3697272549946793,19.951608908426767,-4.018279345136901
-3.693735259316896,16.594433698010256,-3.5506365552539676,2.299549964650746,18.656949917290905,-3.899573858532536
-3.5440977961691327,16.309672522710805,-2.8290117436400037,2.2061883412205283,16.934576987122334,-3.741651874296001
-3.3944556053530532,16.02490235062433,-2.1073641329041775,2.1128237681092643,15.212149640046672,-3.583724900648756
-3.245783762725981,15.741978758163974,-1.3903960142845837,2.020064613456136,13.500891297165742,-3.4268219974995335
-3.095944853819365,15.456834230127555,-0.6677997329950153,1.9265773042338457,11.776199664750783,-3.268687414671143
-2.947156315368368,15.173688564669733,0.049731149789279006,1.833745340864638,10.063598117274124,-3.111661354956187
-2.7973920891403683,14.888686158311204,0.7719672747867393,1.7403046275680674,8.339766105313133,-2.9536055895345283
-2.648042192114475,14.604472223422789,1.4922053023417112,1.6471224220417398,6.620703149087748,-2.795987092216374
-2.499042941896953,14.320925571948347,2.2107523400087796,1.5541589916442575,4.905676244784689,-2.6387386548991008
-2.349542423475778,14.036425003454662,2.9317167373758872,1.4608828106007634,3.1848795902695834,-2.4809611971902057
-2.2001262605212735,13.752084964024535,3.6522743315503696,1.3676592605171098,1.4650538929549572,-2.3232727651998544
-2.051006317519136,13.468308633307513,4.371403408675533,1.2746205276247111,-0.2513622221828443,-2.165896953068624
-1.9016665497795988,13.184113974524344,5.091592587872581,1.181444641950368,-1.9703085872267492,-2.008289145834133
-1.7515105786789198,12.89836607483804,5.81571789766375,1.0877595116708143,-3.698649702389847,-1.8498199469960923
-1.6031546546881281,12.616043677828827,6.531162502574978,0.9951974645877726,-5.406271725222195,-1.6932504529868608
-1.4536809496221361,12.331594135344107,7.251997592869006,0.9019380129001283,-7.126759749824959,-1.5355012931264154
-1.3043298459821522,12.047377904260347,7.972241439305476,0.8087550545446099,-8.845836594547269,-1.3778815223912482
-1.1550267884075498,11.763253105186719,8.692253584187064,0.715602073031582,-10.564360414374114,-1.2203124577414433
-1.005657994016329,11.479003208475328,9.412582744052136,0.6224080770841367,-12.283640885049467,-1.0626740168251647
-0.856411798293746,11.194986617917605,10.132320673357034,0.5292905727484419,-14.001510207582541,-0.9051649621241346
-0.7056540096110469,10.908093455017351,10.859348240979335,0.4352299571774089,-15.736778427030668,-0.7460606267053083
-0.5575128935036808,10.626179838964868,11.573756937534798,0.34280193276690096,-17.441927945479314,-0.5897178331925079
-0.40830651038117766,10.342239012073218,12.293302871069198,0.24970926826007148,-19.1593390128187,-0.4322507952743735
-0.2828040465095096,10.103406915061642,12.89853694777263,0.17140592413039515,-20.603910725642812,-0.2998000192169338
-0.1958077585145259,9.937852349413342,13.31807546850725,0.11712730627121665,-21.60526458660572,-0.20798727304778603
-0.10848745704224666,9.77168118377286,13.739176540220717,0.062646530318622,-22.6103479417111,-0.11583257473525449
-0.021760561566192996,9.606639274037683,14.157415918871305,0.008535991511160778,-23.608601012454535,-0.02430413571909487
-0.003172413380321115,9.571265893517175,14.247057033139841,-0.003061503225038769,-23.82255627862804,-0.004686874218898824
-0.003172413380321115,9.571265893517175,14.247057033139841,-0.003061503225038769,-23.82255627862804,-0.004686874218898824
-0.003172413380321115,9.571265893517175,14.247057033139841,-0.003061503225038769,-23.82255627862804,-0.004686874218898824
-0.003172413380321115,9.571265893517175,14.247057033139841,-0.003061503225038769,-23.82255627862804,-0.004686874218898824
-0.003172413380321115,9.571265893517175,14.247057033139841,-0.003061503225038769,-23.82255627862804,-0.004686874218898824
-0.003172413380321115,9.571265893517175,14.247057033139841,-0.003061503225038769,-23.82255627862804,-0.004686874218898824
-0.003172413380321115,9.571265893517175,14.247057033139841,-0.003061503225038769,-23.82255627862804,-0.004686874218898824
-0.003172413380321115,9.571265893517175,14.247057033139841,-0.003061503225038769,-23.82255627862804,-0.004686874218898824
-0.003172413380321115,9.571265893517175,14.247057033139841,-0.003061503225038769,-23.82255627862804,-0.004686874218898824
-0.003172413380321115,9.571265893517175,14.247057033139841,-0.003061503225038769,-23.82255627862804,-0.004686874218898824
-0.003172413380321115,9.571265893517175,14.247057033139841,-0.003061503225038769,-23.82255627862804,-0.004686874218898824
-0.003172413380321115,9.571265893517175,14.247057033139841,-0.003061503225038769,-23.82255627862804,-0.004686874218898824
-0.003172413380321115,9.571265893517175,14.247057033139841,-0.003061503225038769,-23.82255627862804,-0.004686874218898824
-0.003172413380321115,9.571265893517175,14.247057033139841,-0.003061503225038769,-23.82255627862804,-0.004686874218898824
