RAMEL-ESPOL/ARCHIE/manipulator_description/datos.txt
Joint0,Joint1,Joint2,Joint3,Joint4,Joint5 
goals: 0.0,0.0,0.0,0.0,0.0,0.0
state: -0.17587040880217542,-0.17587040880217542,-0.35174081760435083,-0.17587040880217542,-0.35174081760435083,-0.5276112264065262
goals: 0.0,0.0,0.0,0.0,0.0,0.0
goals: 0.0,0.0,0.0,0.0,0.0,0.0
state: 0.0,-0.17587040880217542,-0.35174081760435083,-0.17587040880217542,-0.35174081760435083,-0.5276112264065262
goals: 0.0,0.0,0.0,0.0,0.0,0.0
goals: 0.0,0.0,0.0,0.0,0.0,0.0
state: 0.0,-0.17587040880217542,-0.35174081760435083,-0.17587040880217542,-0.35174081760435083,-0.5276112264065262
goals: 0.0,0.0,0.0,0.0,0.0,0.0
goals: 0.0,0.0,0.0,0.0,0.0,0.0
state: -0.17587040880217542,-0.17587040880217542,-0.35174081760435083,-0.17587040880217542,-0.17587040880217542,-0.5276112264065262
goals: 0.0,0.0,0.0,0.0,0.0,0.0
goals: 0.0,0.0,0.0,0.0,0.0,0.0
state: 0.0,-0.17587040880217542,-0.35174081760435083,-0.17587040880217542,-0.17587040880217542,-0.5276112264065262
goals: 0.0,0.0,0.0,0.0,0.0,0.0
goals: 0.0,0.0,0.0,0.0,0.0,0.0
state: 0.0,-0.17587040880217542,-0.35174081760435083,-0.17587040880217542,-0.17587040880217542,-0.5276112264065262
goals: 0.0,0.0,0.0,0.0,0.0,0.0
goals: 0.0,0.0,0.0,0.0,0.0,0.0
state: -0.17587040880217542,-0.17587040880217542,-0.17587040880217542,-0.17587040880217542,-0.17587040880217542,-0.5276112264065262
goals: 0.0,0.0,0.0,0.0,0.0,0.0
goals: 0.0,0.0,0.0,0.0,0.0,0.0
state: 0.0,-0.17587040880217542,-0.17587040880217542,-0.17587040880217542,-0.17587040880217542,-0.5276112264065262
goals: 0.0,0.0,0.0,0.0,0.0,0.0
goals: 0.0,0.0,0.0,0.0,0.0,0.0
state: 0.0,-0.17587040880217542,-0.17587040880217542,-0.17587040880217542,-0.17587040880217542,-0.5276112264065262
goals: 0.0,0.0,0.0,0.0,0.0,0.0
goals: 0.0,0.0,0.0,0.0,0.0,0.0
state: 0.0,-0.17587040880217542,-0.17587040880217542,-0.17587040880217542,-0.17587040880217542,-0.5276112264065262
goals: 0.0,0.0,0.0,0.0,0.0,0.0
goals: 0.0,0.0,0.0,0.0,0.0,0.0
state: -0.17587040880217542,-0.17587040880217542,-0.17587040880217542,-0.17587040880217542,0.0,-0.5276112264065262
goals: 0.0,0.0,0.0,0.0,0.0,0.0
goals: 0.0,0.0,0.0,0.0,0.0,0.0
state: -0.17587040880217542,-0.17587040880217542,-0.17587040880217542,-0.17587040880217542,0.0,-0.5276112264065262
goals: 0.0,0.0,0.0,0.0,0.0,0.0
goals: 0.0,0.0,0.0,0.0,0.0,0.0
state: 0.0,-0.17587040880217542,-0.17587040880217542,-0.17587040880217542,0.0,-0.5276112264065262
goals: 0.0,0.0,0.0,0.0,0.0,0.0
goals: 0.0,0.0,0.0,0.0,0.0,0.0
state: -0.17587040880217542,-0.17587040880217542,-0.17587040880217542,-0.17587040880217542,0.0,-0.5276112264065262
goals: 0.0,0.0,0.0,0.0,0.0,0.0
goals: 0.0,0.0,0.0,0.0,0.0,0.0
state: -0.17587040880217542,-0.17587040880217542,-0.17587040880217542,-0.17587040880217542,0.0,-0.5276112264065262
goals: 0.0,0.0,0.0,0.0,0.0,0.0
goals: 0.0,0.0,0.0,0.0,0.0,0.0
state: 0.0,-0.17587040880217542,-0.17587040880217542,-0.17587040880217542,0.0,-0.5276112264065262
goals: 0.0,0.0,0.0,0.0,0.0,0.0
goals: 0.0,0.0,0.0,0.0,0.0,0.0
state: 0.0,-0.17587040880217542,-0.17587040880217542,-0.17587040880217542,0.0,-0.5276112264065262
goals: 0.0,0.0,0.0,0.0,0.0,0.0
goals: 0.0,0.0,0.0,0.0,0.0,0.0
state: 0.0,-0.17587040880217542,-0.17587040880217542,-0.17587040880217542,0.0,-0.5276112264065262
goals: 0.0,0.0,0.0,0.0,0.0,0.0
goals: 0.0,0.0,0.0,0.0,0.0,0.0
state: -0.17587040880217542,0.0,-0.17587040880217542,-0.17587040880217542,0.0,-0.5276112264065262
goals: 0.0,0.0,0.0,0.0,0.0,0.0
goals: 0.0,0.0,0.0,0.0,0.0,0.0
state: -0.17587040880217542,0.0,-0.17587040880217542,-0.17587040880217542,0.0,-0.5276112264065262
goals: 0.0,0.0,0.0,0.0,0.0,0.0
goals: 0.0,0.0,0.0,0.0,0.0,0.0
state: -0.17587040880217542,0.0,-0.17587040880217542,-0.17587040880217542,0.0,-0.5276112264065262
goals: 0.0,0.0,0.0,0.0,0.0,0.0
goals: 0.0,0.0,0.0,0.0,0.0,0.0
state: -0.17587040880217542,0.0,-0.17587040880217542,-0.17587040880217542,0.0,-0.5276112264065262
goals: 0.0,0.0,0.0,0.0,0.0,0.0
goals: 0.0,0.0,0.0,0.0,0.0,0.0
state: -0.17587040880217542,0.0,-0.17587040880217542,-0.17587040880217542,0.0,-0.5276112264065262
goals: 0.0,0.0,0.0,0.0,0.0,0.0
goals: 0.0,0.0,0.0,0.0,0.0,0.0
state: -0.17587040880217542,0.0,0.17587040880217542,-0.17587040880217542,0.0,-0.5276112264065262
goals: 0.0,0.0,0.0,0.0,0.0,0.0
goals: 0.0,0.0,0.0,0.0,0.0,0.0
state: -0.17587040880217542,0.0,0.17587040880217542,-0.17587040880217542,0.0,-0.5276112264065262
goals: 0.0,0.0,0.0,0.0,0.0,0.0
goals: 0.0,0.0,0.0,0.0,0.0,0.0
state: -0.17587040880217542,0.0,0.17587040880217542,-0.17587040880217542,0.0,-0.5276112264065262
goals: 0.0,0.0,0.0,0.0,0.0,0.0
goals: 0.0,0.0,0.0,0.0,0.0,0.0
state: 0.0,0.0,0.17587040880217542,-0.17587040880217542,0.0,-0.5276112264065262
goals: 0.0,0.0,0.0,0.0,0.0,0.0
goals: 0.0,0.0,0.0,0.0,0.0,0.0
state: -0.17587040880217542,0.0,0.17587040880217542,-0.17587040880217542,0.0,-0.5276112264065262
goals: 0.0,0.0,0.0,0.0,0.0,0.0
goals: 0.0,0.0,0.0,0.0,0.0,0.0
state: -0.17587040880217542,0.0,0.17587040880217542,-0.17587040880217542,0.0,-0.5276112264065262
goals: 0.0,0.0,0.0,0.0,0.0,0.0
goals: 0.0,0.0,0.0,0.0,0.0,0.0
state: 0.17587040880217542,0.0,0.17587040880217542,-0.17587040880217542,0.0,-0.5276112264065262
goals: 0.0,0.0,0.0,0.0,0.0,0.0
goals: 0.0,0.0,0.0,0.0,0.0,0.0
state: 0.17587040880217542,0.0,0.17587040880217542,-0.17587040880217542,0.0,-0.5276112264065262
goals: 0.0,0.0,0.0,0.0,0.0,0.0
goals: 0.0,0.0,0.0,0.0,0.0,0.0
state: 0.17587040880217542,0.0,0.17587040880217542,-0.17587040880217542,0.0,-0.5276112264065262
goals: 0.0,0.0,0.0,0.0,0.0,0.0
goals: 0.0,0.0,0.0,0.0,0.0,0.0
state: 0.0,0.0,0.17587040880217542,-0.17587040880217542,0.0,-0.5276112264065262
goals: -7.830129370380335e-05,1.0436081066059765e-05,-8.028736081305214e-05,-7.134461313060149e-05,-4.885937055175971e-05,-7.173115811546855e-05
goals: -0.01016769199780408,0.0013551609804201283,-0.010425589635232642,-0.009264343125140592,-0.006344557126426393,-0.00931453731943183
state: 0.0,0.0,0.17587040880217542,-0.17587040880217542,0.0,-0.5276112264065262
goals: -0.01016769199780408,0.0013551609804201283,-0.010425589635232642,-0.009264343125140592,-0.006344557126426393,-0.00931453731943183
goals: -0.01016769199780408,0.0013551609804201283,-0.010425589635232642,-0.009264343125140592,-0.006344557126426393,-0.00931453731943183
state: 0.0,0.0,0.17587040880217542,-0.17587040880217542,0.0,-0.5276112264065262
goals: -0.01016769199780408,0.0013551609804201283,-0.010425589635232642,-0.009264343125140592,-0.006344557126426393,-0.00931453731943183
goals: -0.01016769199780408,0.0013551609804201283,-0.010425589635232642,-0.009264343125140592,-0.006344557126426393,-0.00931453731943183
state: 0.0,0.0,0.17587040880217542,-0.17587040880217542,0.0,-0.5276112264065262
goals: -0.01016769199780408,0.0013551609804201283,-0.010425589635232642,-0.009264343125140592,-0.006344557126426393,-0.00931453731943183
goals: -0.01016769199780408,0.0013551609804201283,-0.010425589635232642,-0.009264343125140592,-0.006344557126426393,-0.00931453731943183
state: 0.0,0.0,0.17587040880217542,-0.17587040880217542,0.0,-0.5276112264065262
goals: -0.01016769199780408,0.0013551609804201283,-0.010425589635232642,-0.009264343125140592,-0.006344557126426393,-0.00931453731943183
goals: -0.01016769199780408,0.0013551609804201283,-0.010425589635232642,-0.009264343125140592,-0.006344557126426393,-0.00931453731943183
state: 0.0,0.0,0.17587040880217542,-0.17587040880217542,0.0,-0.5276112264065262
goals: -0.01016769199780408,0.0013551609804201283,-0.010425589635232642,-0.009264343125140592,-0.006344557126426393,-0.00931453731943183
goals: -0.01016769199780408,0.0013551609804201283,-0.010425589635232642,-0.009264343125140592,-0.006344557126426393,-0.00931453731943183
state: 0.0,0.0,0.17587040880217542,-0.17587040880217542,0.0,-0.5276112264065262
goals: -0.01016769199780408,0.0013551609804201283,-0.010425589635232642,-0.009264343125140592,-0.006344557126426393,-0.00931453731943183
goals: -0.01016769199780408,0.0013551609804201283,-0.010425589635232642,-0.009264343125140592,-0.006344557126426393,-0.00931453731943183
state: 0.0,0.0,0.17587040880217542,-0.17587040880217542,0.0,-0.5276112264065262
goals: -0.01016769199780408,0.0013551609804201283,-0.010425589635232642,-0.009264343125140592,-0.006344557126426393,-0.00931453731943183
goals: -0.01016769199780408,0.0013551609804201283,-0.010425589635232642,-0.009264343125140592,-0.006344557126426393,-0.00931453731943183
state: 0.0,0.0,0.17587040880217542,-0.17587040880217542,0.0,-0.5276112264065262
goals: -0.01016769199780408,0.0013551609804201283,-0.010425589635232642,-0.009264343125140592,-0.006344557126426393,-0.00931453731943183
goals: -0.01016769199780408,0.0013551609804201283,-0.010425589635232642,-0.009264343125140592,-0.006344557126426393,-0.00931453731943183
state: 0.0,0.0,0.17587040880217542,-0.17587040880217542,0.0,-0.5276112264065262
goals: -0.01016769199780408,0.0013551609804201283,-0.010425589635232642,-0.009264343125140592,-0.006344557126426393,-0.00931453731943183
goals: -0.01016769199780408,0.0013551609804201283,-0.010425589635232642,-0.009264343125140592,-0.006344557126426393,-0.00931453731943183
state: 0.0,0.0,0.17587040880217542,-0.17587040880217542,0.0,-0.5276112264065262
goals: -0.01016769199780408,0.0013551609804201283,-0.010425589635232642,-0.009264343125140592,-0.006344557126426393,-0.00931453731943183
goals: -0.01016769199780408,0.0013551609804201283,-0.010425589635232642,-0.009264343125140592,-0.006344557126426393,-0.00931453731943183
state: 0.0,0.0,0.17587040880217542,-0.17587040880217542,0.0,-0.5276112264065262
goals: -0.01016769199780408,0.0013551609804201283,-0.010425589635232642,-0.009264343125140592,-0.006344557126426393,-0.00931453731943183
goals: -0.01016769199780408,0.0013551609804201283,-0.010425589635232642,-0.009264343125140592,-0.006344557126426393,-0.00931453731943183
state: 0.0,0.0,0.17587040880217542,-0.17587040880217542,0.0,-0.5276112264065262
goals: -0.01016769199780408,0.0013551609804201283,-0.010425589635232642,-0.009264343125140592,-0.006344557126426393,-0.00931453731943183
goals: -0.01016769199780408,0.0013551609804201283,-0.010425589635232642,-0.009264343125140592,-0.006344557126426393,-0.00931453731943183
state: 0.0,0.0,0.17587040880217542,-0.17587040880217542,0.0,-0.5276112264065262
goals: -0.01016769199780408,0.0013551609804201283,-0.010425589635232642,-0.009264343125140592,-0.006344557126426393,-0.00931453731943183
goals: -0.01016769199780408,0.0013551609804201283,-0.010425589635232642,-0.009264343125140592,-0.006344557126426393,-0.00931453731943183
state: 0.0,0.0,0.17587040880217542,-0.17587040880217542,0.0,-0.5276112264065262
goals: -0.01016769199780408,0.0013551609804201283,-0.010425589635232642,-0.009264343125140592,-0.006344557126426393,-0.00931453731943183
goals: -0.01016769199780408,0.0013551609804201283,-0.010425589635232642,-0.009264343125140592,-0.006344557126426393,-0.00931453731943183
state: 0.0,0.0,0.17587040880217542,-0.17587040880217542,0.0,-0.5276112264065262
goals: -0.01016769199780408,0.0013551609804201283,-0.010425589635232642,-0.009264343125140592,-0.006344557126426393,-0.00931453731943183
goals: -0.01016769199780408,0.0013551609804201283,-0.010425589635232642,-0.009264343125140592,-0.006344557126426393,-0.00931453731943183
state: 0.0,0.0,0.17587040880217542,-0.17587040880217542,0.0,-0.5276112264065262
goals: -0.01016769199780408,0.0013551609804201283,-0.010425589635232642,-0.009264343125140592,-0.006344557126426393,-0.00931453731943183
goals: -0.01016769199780408,0.0013551609804201283,-0.010425589635232642,-0.009264343125140592,-0.006344557126426393,-0.00931453731943183
state: 0.0,0.0,0.17587040880217542,-0.17587040880217542,0.0,-0.5276112264065262
goals: -0.01016769199780408,0.0013551609804201283,-0.010425589635232642,-0.009264343125140592,-0.006344557126426393,-0.00931453731943183
goals: -0.01016769199780408,0.0013551609804201283,-0.010425589635232642,-0.009264343125140592,-0.006344557126426393,-0.00931453731943183
state: 0.0,0.0,0.0,-0.17587040880217542,0.0,-0.5276112264065262
goals: -0.01016769199780408,0.0013551609804201283,-0.010425589635232642,-0.009264343125140592,-0.006344557126426393,-0.00931453731943183
goals: -0.01016769199780408,0.0013551609804201283,-0.010425589635232642,-0.009264343125140592,-0.006344557126426393,-0.00931453731943183
state: 0.0,0.0,-0.17587040880217542,-0.17587040880217542,0.0,-0.5276112264065262
goals: -0.01016769199780408,0.0013551609804201283,-0.010425589635232642,-0.009264343125140592,-0.006344557126426393,-0.00931453731943183
goals: -0.01016769199780408,0.0013551609804201283,-0.010425589635232642,-0.009264343125140592,-0.006344557126426393,-0.00931453731943183
state: 0.0,0.0,-0.17587040880217542,-0.17587040880217542,0.0,-0.5276112264065262
goals: -0.01016769199780408,0.0013551609804201283,-0.010425589635232642,-0.009264343125140592,-0.006344557126426393,-0.00931453731943183
goals: -0.01016769199780408,0.0013551609804201283,-0.010425589635232642,-0.009264343125140592,-0.006344557126426393,-0.00931453731943183
state: 0.0,0.0,-0.17587040880217542,-0.17587040880217542,0.0,-0.5276112264065262
goals: -0.01016769199780408,0.0013551609804201283,-0.010425589635232642,-0.009264343125140592,-0.006344557126426393,-0.00931453731943183
goals: -0.01016769199780408,0.0013551609804201283,-0.010425589635232642,-0.009264343125140592,-0.006344557126426393,-0.00931453731943183
state: 0.0,0.0,-0.17587040880217542,-0.17587040880217542,0.0,-0.5276112264065262
goals: -0.01016769199780408,0.0013551609804201283,-0.010425589635232642,-0.009264343125140592,-0.006344557126426393,-0.00931453731943183
goals: -0.01016769199780408,0.0013551609804201283,-0.010425589635232642,-0.009264343125140592,-0.006344557126426393,-0.00931453731943183
state: 0.0,0.0,-0.17587040880217542,-0.17587040880217542,0.0,-0.5276112264065262
goals: -0.01016769199780408,0.0013551609804201283,-0.010425589635232642,-0.009264343125140592,-0.006344557126426393,-0.00931453731943183
goals: -0.01016769199780408,0.0013551609804201283,-0.010425589635232642,-0.009264343125140592,-0.006344557126426393,-0.00931453731943183
state: 0.0,0.0,-0.17587040880217542,-0.17587040880217542,-0.17587040880217542,-0.5276112264065262
goals: -0.01016769199780408,0.0013551609804201283,-0.010425589635232642,-0.009264343125140592,-0.006344557126426393,-0.00931453731943183
goals: -0.01016769199780408,0.0013551609804201283,-0.010425589635232642,-0.009264343125140592,-0.006344557126426393,-0.00931453731943183
state: -0.35174081760435083,0.0,-0.17587040880217542,-0.5276112264065262,0.35174081760435083,-0.5276112264065262
goals: -0.01016769199780408,0.0013551609804201283,-0.010425589635232642,-0.009264343125140592,-0.006344557126426393,-0.00931453731943183
goals: -0.01016769199780408,0.0013551609804201283,-0.010425589635232642,-0.009264343125140592,-0.006344557126426393,-0.00931453731943183
state: -0.8793520440108771,-0.17587040880217542,-0.5276112264065262,-0.7034816352087017,0.17587040880217542,-0.7034816352087017
goals: -0.01016769199780408,0.0013551609804201283,-0.010425589635232642,-0.009264343125140592,-0.006344557126426393,-0.00931453731943183
goals: -0.01016769199780408,0.0013551609804201283,-0.010425589635232642,-0.009264343125140592,-0.006344557126426393,-0.00931453731943183
state: 0.0,1.231092861615228,0.35174081760435083,0.5276112264065262,0.35174081760435083,-0.5276112264065262
goals: -0.01016769199780408,0.0013551609804201283,-0.010425589635232642,-0.009264343125140592,-0.006344557126426393,-0.00931453731943183
goals: -0.01016769199780408,0.0013551609804201283,-0.010425589635232642,-0.009264343125140592,-0.006344557126426393,-0.00931453731943183
state: 0.0,0.5276112264065262,-0.17587040880217542,0.0,-0.17587040880217542,-0.5276112264065262
goals: -0.01016769199780408,0.0013551609804201283,-0.010425589635232642,-0.009264343125140592,-0.006344557126426393,-0.00931453731943183
goals: -0.01016769199780408,0.0013551609804201283,-0.010425589635232642,-0.009264343125140592,-0.006344557126426393,-0.00931453731943183
state: -0.17587040880217542,0.5276112264065262,-0.35174081760435083,0.0,-0.17587040880217542,-0.5276112264065262
goals: -0.01016769199780408,0.0013551609804201283,-0.010425589635232642,-0.009264343125140592,-0.006344557126426393,-0.00931453731943183
goals: -0.01016769199780408,0.0013551609804201283,-0.010425589635232642,-0.009264343125140592,-0.006344557126426393,-0.00931453731943183
state: -0.35174081760435083,0.5276112264065262,-0.35174081760435083,0.0,-0.17587040880217542,-0.5276112264065262
goals: -0.01016769199780408,0.0013551609804201283,-0.010425589635232642,-0.009264343125140592,-0.006344557126426393,-0.00931453731943183
goals: -0.01016769199780408,0.0013551609804201283,-0.010425589635232642,-0.009264343125140592,-0.006344557126426393,-0.00931453731943183
state: -0.35174081760435083,0.5276112264065262,-0.35174081760435083,0.0,-0.17587040880217542,-0.5276112264065262
goals: -0.01016769199780408,0.0013551609804201283,-0.010425589635232642,-0.009264343125140592,-0.006344557126426393,-0.00931453731943183
goals: -0.01016769199780408,0.0013551609804201283,-0.010425589635232642,-0.009264343125140592,-0.006344557126426393,-0.00931453731943183
state: -0.35174081760435083,0.35174081760435083,-0.35174081760435083,0.0,-0.17587040880217542,-0.5276112264065262
goals: -0.01016769199780408,0.0013551609804201283,-0.010425589635232642,-0.009264343125140592,-0.006344557126426393,-0.00931453731943183
goals: -0.01016769199780408,0.0013551609804201283,-0.010425589635232642,-0.009264343125140592,-0.006344557126426393,-0.00931453731943183
state: -0.35174081760435083,0.35174081760435083,-0.35174081760435083,0.0,-0.17587040880217542,-0.5276112264065262
goals: -0.01016769199780408,0.0013551609804201283,-0.010425589635232642,-0.009264343125140592,-0.006344557126426393,-0.00931453731943183
goals: -0.01016769199780408,0.0013551609804201283,-0.010425589635232642,-0.009264343125140592,-0.006344557126426393,-0.00931453731943183
state: -0.35174081760435083,0.17587040880217542,-0.35174081760435083,0.0,-0.17587040880217542,-0.5276112264065262
goals: -0.01016769199780408,0.0013551609804201283,-0.010425589635232642,-0.009264343125140592,-0.006344557126426393,-0.00931453731943183
goals: -0.01016769199780408,0.0013551609804201283,-0.010425589635232642,-0.009264343125140592,-0.006344557126426393,-0.00931453731943183
state: -0.17587040880217542,0.17587040880217542,-0.35174081760435083,0.0,-0.17587040880217542,-0.5276112264065262
goals: -0.01016769199780408,0.0013551609804201283,-0.010425589635232642,-0.009264343125140592,-0.006344557126426393,-0.00931453731943183
goals: -0.01016769199780408,0.0013551609804201283,-0.010425589635232642,-0.009264343125140592,-0.006344557126426393,-0.00931453731943183
state: -0.17587040880217542,0.17587040880217542,-0.35174081760435083,0.0,-0.17587040880217542,-0.5276112264065262
goals: -0.01016769199780408,0.0013551609804201283,-0.010425589635232642,-0.009264343125140592,-0.006344557126426393,-0.00931453731943183
goals: -0.01016769199780408,0.0013551609804201283,-0.010425589635232642,-0.009264343125140592,-0.006344557126426393,-0.00931453731943183
state: -0.17587040880217542,0.17587040880217542,-0.35174081760435083,0.0,-0.17587040880217542,-0.5276112264065262
goals: -0.01016769199780408,0.0013551609804201283,-0.010425589635232642,-0.009264343125140592,-0.006344557126426393,-0.00931453731943183
goals: -0.01016769199780408,0.0013551609804201283,-0.010425589635232642,-0.009264343125140592,-0.006344557126426393,-0.00931453731943183
state: -0.35174081760435083,0.17587040880217542,-0.35174081760435083,0.0,-0.17587040880217542,-0.5276112264065262
goals: -0.01016769199780408,0.0013551609804201283,-0.010425589635232642,-0.009264343125140592,-0.006344557126426393,-0.00931453731943183
goals: -0.01016769199780408,0.0013551609804201283,-0.010425589635232642,-0.009264343125140592,-0.006344557126426393,-0.00931453731943183
state: -0.17587040880217542,0.17587040880217542,-0.35174081760435083,0.0,-0.17587040880217542,-0.5276112264065262
goals: -0.01016769199780408,0.0013551609804201283,-0.010425589635232642,-0.009264343125140592,-0.006344557126426393,-0.00931453731943183
goals: -0.01016769199780408,0.0013551609804201283,-0.010425589635232642,-0.009264343125140592,-0.006344557126426393,-0.00931453731943183
state: -0.17587040880217542,0.0,-0.35174081760435083,0.0,-0.17587040880217542,-0.5276112264065262
goals: -0.01016769199780408,0.0013551609804201283,-0.010425589635232642,-0.009264343125140592,-0.006344557126426393,-0.00931453731943183
goals: -0.01016769199780408,0.0013551609804201283,-0.010425589635232642,-0.009264343125140592,-0.006344557126426393,-0.00931453731943183
state: -0.17587040880217542,0.0,-0.35174081760435083,0.0,-0.17587040880217542,-0.5276112264065262
goals: -0.01016769199780408,0.0013551609804201283,-0.010425589635232642,-0.009264343125140592,-0.006344557126426393,-0.00931453731943183
goals: -0.01016769199780408,0.0013551609804201283,-0.010425589635232642,-0.009264343125140592,-0.006344557126426393,-0.00931453731943183
state: -0.17587040880217542,0.0,-0.35174081760435083,0.0,-0.17587040880217542,-0.5276112264065262
goals: -0.01016769199780408,0.0013551609804201283,-0.010425589635232642,-0.009264343125140592,-0.006344557126426393,-0.00931453731943183
goals: -0.01016769199780408,0.0013551609804201283,-0.010425589635232642,-0.009264343125140592,-0.006344557126426393,-0.00931453731943183
state: -0.17587040880217542,0.0,-0.35174081760435083,0.0,-0.17587040880217542,-0.5276112264065262
goals: -0.01016769199780408,0.0013551609804201283,-0.010425589635232642,-0.009264343125140592,-0.006344557126426393,-0.00931453731943183
goals: -0.01016769199780408,0.0013551609804201283,-0.010425589635232642,-0.009264343125140592,-0.006344557126426393,-0.00931453731943183
state: -0.17587040880217542,0.0,-0.35174081760435083,0.0,-0.17587040880217542,-0.5276112264065262
goals: -0.01016769199780408,0.0013551609804201283,-0.010425589635232642,-0.009264343125140592,-0.006344557126426393,-0.00931453731943183
goals: -0.01016769199780408,0.0013551609804201283,-0.010425589635232642,-0.009264343125140592,-0.006344557126426393,-0.00931453731943183
state: -0.35174081760435083,0.0,-0.35174081760435083,0.0,-0.17587040880217542,-0.5276112264065262
goals: -0.01016769199780408,0.0013551609804201283,-0.010425589635232642,-0.009264343125140592,-0.006344557126426393,-0.00931453731943183
goals: -0.01016769199780408,0.0013551609804201283,-0.010425589635232642,-0.009264343125140592,-0.006344557126426393,-0.00931453731943183
state: -0.17587040880217542,0.0,-0.35174081760435083,0.0,-0.17587040880217542,-0.5276112264065262
goals: -0.01016769199780408,0.0013551609804201283,-0.010425589635232642,-0.009264343125140592,-0.006344557126426393,-0.00931453731943183
goals: -0.01016769199780408,0.0013551609804201283,-0.010425589635232642,-0.009264343125140592,-0.006344557126426393,-0.00931453731943183
state: -0.17587040880217542,0.0,-0.35174081760435083,0.0,-0.17587040880217542,-0.5276112264065262
goals: -0.01016769199780408,0.0013551609804201283,-0.010425589635232642,-0.009264343125140592,-0.006344557126426393,-0.00931453731943183
goals: -0.01016769199780408,0.0013551609804201283,-0.010425589635232642,-0.009264343125140592,-0.006344557126426393,-0.00931453731943183
state: -0.35174081760435083,0.0,-0.35174081760435083,0.0,-0.17587040880217542,-0.5276112264065262
goals: -0.01016769199780408,0.0013551609804201283,-0.010425589635232642,-0.009264343125140592,-0.006344557126426393,-0.00931453731943183
goals: -0.01016769199780408,0.0013551609804201283,-0.010425589635232642,-0.009264343125140592,-0.006344557126426393,-0.00931453731943183
state: -0.17587040880217542,0.0,-0.35174081760435083,0.0,-0.17587040880217542,-0.5276112264065262
goals: -0.01016769199780408,0.0013551609804201283,-0.010425589635232642,-0.009264343125140592,-0.006344557126426393,-0.00931453731943183
goals: -0.01016769199780408,0.0013551609804201283,-0.010425589635232642,-0.009264343125140592,-0.006344557126426393,-0.00931453731943183
state: -0.17587040880217542,0.0,-0.35174081760435083,0.0,-0.17587040880217542,-0.5276112264065262
goals: -0.01016769199780408,0.0013551609804201283,-0.010425589635232642,-0.009264343125140592,-0.006344557126426393,-0.00931453731943183
goals: -0.01016769199780408,0.0013551609804201283,-0.010425589635232642,-0.009264343125140592,-0.006344557126426393,-0.00931453731943183
state: -0.17587040880217542,0.0,-0.35174081760435083,0.0,-0.17587040880217542,-0.5276112264065262
goals: -0.01016769199780408,0.0013551609804201283,-0.010425589635232642,-0.009264343125140592,-0.006344557126426393,-0.00931453731943183
goals: -0.01016769199780408,0.0013551609804201283,-0.010425589635232642,-0.009264343125140592,-0.006344557126426393,-0.00931453731943183
state: -0.17587040880217542,0.0,-0.35174081760435083,0.0,-0.17587040880217542,-0.5276112264065262
goals: -0.01016769199780408,0.0013551609804201283,-0.010425589635232642,-0.009264343125140592,-0.006344557126426393,-0.00931453731943183
goals: -0.01016769199780408,0.0013551609804201283,-0.010425589635232642,-0.009264343125140592,-0.006344557126426393,-0.00931453731943183
state: -0.17587040880217542,0.0,-0.35174081760435083,0.0,-0.17587040880217542,-0.5276112264065262
goals: -0.01016769199780408,0.0013551609804201283,-0.010425589635232642,-0.009264343125140592,-0.006344557126426393,-0.00931453731943183
goals: -0.01016769199780408,0.0013551609804201283,-0.010425589635232642,-0.009264343125140592,-0.006344557126426393,-0.00931453731943183
state: -0.17587040880217542,0.0,-0.35174081760435083,0.0,-0.17587040880217542,-0.5276112264065262
goals: -0.01016769199780408,0.0013551609804201283,-0.010425589635232642,-0.009264343125140592,-0.006344557126426393,-0.00931453731943183
goals: -0.01016769199780408,0.0013551609804201283,-0.010425589635232642,-0.009264343125140592,-0.006344557126426393,-0.00931453731943183
state: -0.17587040880217542,0.0,-0.35174081760435083,0.0,-0.17587040880217542,-0.5276112264065262
goals: -0.01016769199780408,0.0013551609804201283,-0.010425589635232642,-0.009264343125140592,-0.006344557126426393,-0.00931453731943183
goals: -0.01016769199780408,0.0013551609804201283,-0.010425589635232642,-0.009264343125140592,-0.006344557126426393,-0.00931453731943183
state: -0.17587040880217542,0.0,-0.35174081760435083,0.0,-0.17587040880217542,-0.5276112264065262
goals: -0.01016769199780408,0.0013551609804201283,-0.010425589635232642,-0.009264343125140592,-0.006344557126426393,-0.00931453731943183
goals: -0.01016769199780408,0.0013551609804201283,-0.010425589635232642,-0.009264343125140592,-0.006344557126426393,-0.00931453731943183
state: -0.17587040880217542,0.0,-0.35174081760435083,0.0,-0.17587040880217542,-0.5276112264065262
goals: -0.01016769199780408,0.0013551609804201283,-0.010425589635232642,-0.009264343125140592,-0.006344557126426393,-0.00931453731943183
goals: -0.01016769199780408,0.0013551609804201283,-0.010425589635232642,-0.009264343125140592,-0.006344557126426393,-0.00931453731943183
state: -0.17587040880217542,0.0,-0.35174081760435083,0.0,-0.17587040880217542,-0.5276112264065262
goals: -0.01016769199780408,0.0013551609804201283,-0.010425589635232642,-0.009264343125140592,-0.006344557126426393,-0.00931453731943183
goals: -0.01016769199780408,0.0013551609804201283,-0.010425589635232642,-0.009264343125140592,-0.006344557126426393,-0.00931453731943183
state: -0.17587040880217542,0.0,-0.35174081760435083,0.0,-0.17587040880217542,-0.5276112264065262
goals: -0.01016769199780408,0.0013551609804201283,-0.010425589635232642,-0.009264343125140592,-0.006344557126426393,-0.00931453731943183
goals: -0.01016769199780408,0.0013551609804201283,-0.010425589635232642,-0.009264343125140592,-0.006344557126426393,-0.00931453731943183
state: -0.17587040880217542,0.0,-0.35174081760435083,0.0,-0.17587040880217542,-0.5276112264065262
goals: -0.01016769199780408,0.0013551609804201283,-0.010425589635232642,-0.009264343125140592,-0.006344557126426393,-0.00931453731943183
goals: -0.01016769199780408,0.0013551609804201283,-0.010425589635232642,-0.009264343125140592,-0.006344557126426393,-0.00931453731943183
state: -0.17587040880217542,0.0,-0.35174081760435083,0.0,-0.17587040880217542,-0.5276112264065262
goals: -0.010137701664479833,0.0014065854887474521,-0.010471588342663684,-0.009264339431156487,-0.006349985570871887,-0.009284547444594225
goals: 0.25418905739654796,0.45297235120160534,-0.41363104319954025,-0.009231756479558147,-0.05477955956967957,0.25503813457459845
state: -0.17587040880217542,0.0,-0.35174081760435083,0.0,-0.17587040880217542,-0.5276112264065262
goals: 0.7782651620578789,1.3384721091928442,-1.1997839373902057,-0.009167002078234237,-0.15417232439700546,0.7791059552477986
goals: 1.312361667846,2.227731330159021,-1.9833835734071454,-0.00910080247395344,-0.2598783829507917,1.3131937680376125
state: 0.35174081760435083,0.8793520440108771,-0.35174081760435083,0.0,-0.17587040880217542,0.17587040880217542
goals: 1.8564930707768827,3.120325201183896,-2.763991591984955,-0.009033146387393711,-0.371911264479207,1.8573160828120288
goals: 2.408316238820827,4.012053160798728,-3.5379162562588116,-0.008964317009536255,-0.4897619251269843,2.4091298234966474
state: 1.5828336792195785,2.638056132032631,-2.110444905626105,0.0,-0.5276112264065262,1.231092861615228
goals: 2.9704099426942325,4.906724788154569,-4.3084500637014616,-0.008893984396268545,-0.6139476506071017,2.971213734638271
goals: 3.5386149112370378,5.797426606766991,-5.069656445030397,-0.008822661629277665,-0.7434911630590495,3.5394086371168827
state: 2.8139265408348066,4.572630628856562,-3.8691489936478587,0.0,-0.5276112264065262,2.286315314428281
goals: 4.11799910327457,6.691783426033329,-5.828062185588487,-0.008749704647501683,-0.8794908979330586,4.11878242017686
goals: 4.705423447104836,7.584568451817167,-6.579222441490588,-0.008675499658267664,-1.0211646218128594,4.706196088911314
state: 4.045019402450034,6.683075534482665,-5.627853081669613,0.0,-0.8793520440108771,3.5174081760435083
goals: 5.302178961524967,8.477435291145452,-7.3245513510108715,-0.008599875580971807,-1.168751892848478,5.3029406606759055
goals: 5.905756640032944,9.366371208053497,-8.060745847197088,-0.00852314310316972,-1.3215428172724415,5.9065071979885815
state: 5.276112264065262,8.44177962250442,-7.210686760889191,0.0,-1.4069632704174033,4.748501037658736
goals: 6.523310493171247,10.26149757334912,-8.796174388321477,-0.008444382610053886,-1.4812908719721853,6.524049602545296
goals: 7.1476233456373786,11.151949490629677,-9.521904994470214,-0.008364504450250951,-1.6460625307059498,7.148350856999062
state: 6.683075534482665,10.37635411932835,-8.617650031306594,0.0,-1.5828336792195785,5.979593899273965
goals: 7.785188122829129,12.046615927430365,-10.24519572719702,-0.00828266813327802,-1.8174892005073748,7.785903791547798
goals: 8.429754520969796,12.93635419662352,-10.958671879623656,-0.008199666017183633,-1.9938023782775585,8.430458244709047
state: 7.738297987295717,12.135058207350104,-10.200483710526175,0.0,-1.9345744968239293,7.210686760889191
goals: 9.087302444152305,13.829065374903132,-11.668698587970125,-0.008114718266441556,-2.176538454776193,9.087994036978447
goals: 9.756594210704051,14.722560482666852,-12.373507686603219,-0.008027971923270944,-2.3652764896359604,9.75727353832747
state: 8.969390848910946,13.89376229537186,-11.783317389745752,0.0,-2.462185723230456,8.265909213702244
goals: 10.435449052787472,15.613546522553975,-13.070529177476082,-0.007939698901358145,-2.5592932880678054,10.436116050138212
goals: 11.130628562254042,16.51036994177816,-13.766270384625143,-0.007849006222811657,-2.760428461710811,11.1312830730366
state: 10.37635411932835,15.828336792195788,-13.190280660163156,0.0,-2.638056132032631,9.848742892921823
goals: 11.832305859029619,17.399937610928284,-14.450598590477773,-0.007757164045069088,-2.9657208211248878,11.83294793500765
goals: 12.550945602697125,18.295089362546335,-15.133418554894206,-0.00766279030466219,-3.1781061974208726,12.551575143110455
state: 11.95918779854793,17.587040880217543,-14.59724393058056,0.0,-3.165667358439157,11.255706163339227
goals: 13.277836335095188,19.18449762742688,-15.806102518365387,-0.007567015469701683,-3.394884098102445,13.27845342550034
goals: 14.018921789977622,20.075059696367386,-16.473922820922603,-0.007469044571735216,-3.6176798817066294,14.0195264481719
state: 13.36615106896533,19.52161537704147,-15.652466383393612,0.0,-3.5174081760435083,12.662669433756628
goals: 14.776084461449559,20.968416133752026,-17.138083290366794,-0.0073686116847455,-3.84693038078544,14.776676712767374
goals: 15.545718364632243,21.859757218020338,-17.795012307855064,-0.007266179075002299,-4.081397192915713,15.546298332797718
state: 14.773114339382737,21.280319465063226,-17.411170471415367,0.0,-3.8691489936478587,14.069632704174033
goals: 16.33434291908528,22.755996442120875,-18.44978966941996,-0.00716086094472468,-4.322914433810164,16.33491066623417
goals: 17.13305848218498,23.646469762699677,-19.094644716037735,-0.0070538291975129185,-4.568588051464257,17.133614250147154
state: 16.355948018602312,23.039023553084977,-18.46639292422842,0.0,-4.396760220054386,15.652466383393612
goals: 17.957097875876535,24.547419913274535,-19.74130728957822,-0.00694302147360311,-4.822931940150154,17.957641725992136
goals: 18.788915630024587,25.439008839128707,-20.375540251348248,-0.00683077749581518,-5.080343934105964,18.789447924466234
state: 18.290522515426247,24.797727641106732,-19.873356194645822,0.0,-4.748501037658736,17.235300062613188
goals: 19.638716005983927,26.331769635238867,-21.004927648940065,-0.006715705829291922,-5.343773726892562,19.63923700691566
goals: 20.504316752754644,27.22275970513858,-21.627413461012797,-0.006598081773566391,-5.61233454439009,20.504826800804434
state: 19.873356194645822,26.556431729128487,-21.280319465063226,0.0,-5.451982672867437,18.818133741832767
goals: 21.39187667083713,28.11755602144736,-22.246887535786385,-0.006477045285854436,-5.887713851603573,21.392376083091694
goals: 22.28289017426994,28.99714244043728,-22.850305521527247,-0.006355105781209435,-6.163938623209349,22.28337953182524
state: 21.632060282667577,28.139265408348066,-22.511412326678453,0.0,-5.803723490471789,20.40096742105235
goals: 23.172860897882703,29.857443259005606,-23.435205290023795,-0.006232881182940074,-6.439394992760401,23.173340849932877
goals: 24.068955999016048,30.70565761261807,-24.00677965785912,-0.006109387886185981,-6.716089713048411,24.06942713770981
state: 23.39076437068933,30.24971031397417,-23.74250518829368,0.0,-6.331334716878314,22.1596715090741
goals: 24.958761760448866,31.53045082385094,-24.5577190035697,-0.005986341176903436,-6.989996966910117,24.959224811215346
goals: 25.849856077785603,32.33938751622729,-25.093429091986987,-0.005862701052003664,-7.26327607251833,25.850311701455706
state: 25.149468458711084,31.832543993193752,-24.62185723230456,0.0,-6.858945943284841,23.91837559709586
goals: 26.74597961083419,33.13606642257765,-25.61654293674353,-0.0057379485611536865,-7.536892956032565,26.746428452620403
goals: 27.63466670257397,33.90983932482425,-26.120370758072315,-0.00561382523493572,-7.806888459065048,27.635109506231768
state: 27.084042955535015,33.41537767241333,-25.852950093919787,0.0,-7.562427578493542,25.325338867513256
goals: 28.53070180135545,34.67393890275886,-26.613803215478033,-0.005488270772805212,-8.077605437800946,28.53113921580088
goals: 29.422185051838635,35.41848530033639,-27.090700818622285,-0.005362955340091916,-8.345302856762345,29.42261780531339
state: 28.842747043556763,34.99821135163291,-26.90817254673284,0.0,-7.914168396097894,27.084042955535015
goals: 30.170338112719982,36.03150427436677,-27.480462614077364,-0.005257484231817776,-8.568600085302439,30.170767496568697
goals: 30.26453595560137,36.12835312169845,-27.765618892088753,-0.005243391686302063,-8.38029764852361,30.26497566854908
state: 30.425580722776346,36.05343380444596,-27.78752459074372,0.0,-8.617650031306594,28.491006225952418
goals: 30.264527028593783,36.19972184894312,-28.641440260549466,-0.0052406208248871634,-7.575845008108773,30.265006574184785
goals: 30.26451724024153,36.27010510059386,-29.599067978839898,-0.005237890840935533,-6.688600542354393,30.26504067517196
state: 30.425580722776346,36.229304213248135,-29.01861745235894,0.0,-8.617650031306594,29.546228678765473
goals: 30.264507453093092,36.33208376230112,-30.553647610639636,-0.0052354886994002816,-5.795999573154505,30.265075002282142
goals: 30.264497586780998,36.385893955121645,-31.51286982623975,-0.005233404148816798,-4.890587551282408,30.26510984786705
state: 30.601451131578518,36.58104503085249,-30.777321540380697,0.0,-6.331334716878314,29.722099087567646
goals: 30.264487705266852,36.43088586617838,-32.4703568253497,-0.005231661376078233,-3.978092464146111,30.26514499751455
goals: 30.264477826775025,36.46678020661815,-33.42421992671325,-0.0052302703339120946,-3.0601237041472618,30.265180395171615
state: 30.24971031397417,36.58104503085249,-32.711896037204625,0.0,-4.572630628856562,29.722099087567646
goals: 30.26446801463909,36.49326350845609,-34.36826250289687,-0.005229242468314865,-2.1425644307287586,30.26521581960041
goals: 30.264458261756346,36.51035167710838,-35.303117602096435,-0.005228576647232602,-1.2247975011116539,30.265251299936473
state: 30.24971031397417,36.58104503085249,-34.822340942830735,0.0,-2.638056132032631,29.722099087567646
goals: 30.26444984981475,36.51755730603511,-36.1065569572887,-0.005228292361777939,-0.4285637756555158,30.265282124793035
goals: 30.264447065596716,36.51838435958535,-36.37188118779348,-0.005228258216790499,-0.16406659897034984,30.265292373819097
state: 30.24971031397417,36.58104503085249,-36.58104503085249,0.0,-0.8793520440108771,29.722099087567646
goals: 30.26444315946333,36.51822572839025,-36.74360678616109,-0.005228261061316779,0.20781763021314492,30.2653067923652
goals: 30.26443377379569,36.511481983489894,-37.63430129788595,-0.005228512718818987,1.105255885920989,30.265341629772482
state: 30.24971031397417,36.58104503085249,-36.75691543965466,0.0,-0.17587040880217542,29.546228678765473
goals: 30.264423983746386,36.494729246799764,-38.559533962940336,-0.005229149300332694,2.047241286699163,30.265378265173307
goals: 30.26441414006384,36.467691772650895,-39.485764361702394,-0.005230182057842494,3.000509158628377,30.265415416836984
state: 30.24971031397417,36.58104503085249,-39.04323075408294,0.0,1.7587040880217542,29.546228678765473
goals: 30.264404335862842,36.43041174794077,-40.40409953228293,-0.005231610010169323,3.956124352930887,30.26545274419017
goals: 30.2643944521778,36.38217651680429,-41.3255314000934,-0.005233461324359979,4.925791450870813,30.26549071281455
state: 30.24971031397417,36.58104503085249,-40.626064433302524,0.0,3.693278584845684,29.722099087567646
goals: 30.26438460752666,36.32330078109082,-42.23885767451109,-0.005235725031717633,5.897993459987748,30.265528880462554
goals: 30.264374699345446,36.25292795476914,-43.153447845228,-0.0052384354459186905,6.882956455993977,30.265567657526592
state: 30.24971031397417,36.58104503085249,-42.73650933892863,0.0,5.979593899273965,29.722099087567646
goals: 30.264364839705774,36.171625349927126,-44.05881702050451,-0.00524157236430879,7.869628235073247,30.26560661797296
goals: 30.264354936945292,36.07843922142877,-44.96325449218563,-0.005245174528429321,8.867251834196574,30.265646135922633
state: 30.073839905171997,36.229304213248135,-44.49521342695038,0.0,7.738297987295717,29.722099087567646
goals: 30.264344998833828,35.9730953001174,-45.86585889128989,-0.005249254893536363,9.875200153539394,30.265686197686648
goals: 30.2643350193693,35.85517751424185,-46.76698008520104,-0.00525383231497891,10.894239132235459,30.265726845445148
state: 30.24971031397417,36.05343380444596,-46.078047106169954,0.0,10.024613301724,29.722099087567646
goals: 30.264325086824563,35.72552324530269,-47.65851471668806,-0.00525887728583446,11.915428031562305,30.265767732988383
goals: 30.264315072064075,35.58216049793776,-48.55188536651763,-0.005264470031658344,12.952161427634,30.265809408551668
state: 30.24971031397417,35.70169298684161,-47.83675119419172,0.0,11.95918779854793,29.722099087567646
goals: 30.26430505744924,35.425889547557155,-49.4395351218873,-0.0052705833636125235,13.996082132246544,30.265851549830042
goals: 30.26429497567932,35.255301606068244,-50.32722673525351,-0.005277276927841708,15.054361685940767,30.265894460381666
state: 30.073839905171997,35.52582257803944,-49.595455282213464,0.0,14.245503112976209,29.722099087567646
goals: 30.26428494123138,35.07206550378651,-51.204717732222214,-0.005284490134508777,16.115088784019765,30.265937670543792
goals: 30.264274992054993,34.8769125327392,-52.06866435514921,-0.005292199016551276,17.17418837681624,30.265981023459133
state: 30.24971031397417,34.99821135163291,-51.705900187839575,0.0,16.355948018602312,29.722099087567646
goals: 30.264265131203068,34.67003152079244,-52.91881877484291,-0.005300401093748956,18.231223807272787,30.266024509122214
goals: 30.26425530200671,34.450258189179316,-53.76003784424223,-0.0053091480740648294,19.292216207088167,30.266068384939814
state: 30.24971031397417,34.64647053402855,-53.28873386705915,0.0,18.290522515426247,29.546228678765473
goals: 30.264245611812672,34.2201297609438,-54.583158565718854,-0.00531834455444354,20.345465355603057,30.266112174973568
goals: 30.26423593745773,33.97683044367304,-55.398655356343525,-0.005328109069932284,21.404261462285707,30.266156440346524
state: 30.24971031397417,34.2947297164242,-55.0474379550809,0.0,20.40096742105235,29.722099087567646
goals: 30.264226327201875,33.72153356108479,-56.20240446937351,-0.0053384013305128875,22.46330745668135,30.266200971033076
goals: 30.26421683930728,33.4559767436584,-56.98958590244312,-0.005349157671637084,23.516045705952262,30.26624549861413
state: 30.073839905171997,33.591248081215504,-56.63027163430048,0.0,22.511412326678453,29.722099087567646
goals: 30.264207370248947,33.17736306367195,-57.76880084890193,-0.005360498435704035,24.573874331156496,30.266290514395777
goals: 30.264197983886483,32.88759280265398,-58.53476995427478,-0.005372353977675919,25.6296136962984,30.266335723807018
state: 30.073839905171997,32.88776644600681,-58.21310531352006,0.0,24.797727641106732,29.722099087567646
goals: 30.264188648861587,32.585794674697965,-59.29006433530935,-0.005384767736038915,26.686706204027715,30.266381283944323
goals: 30.264179348766074,32.27143564376928,-60.035977057054055,-0.0053977703076731835,27.746977955424914,30.266427285607808
state: 30.24971031397417,32.53602562840245,-59.44419817513529,0.0,26.90817254673284,29.722099087567646
goals: 30.264170148318453,31.946813460707578,-60.767337568993675,-0.005411275132138579,28.802960649143976,30.266473414626475
goals: 30.26416099158368,31.61009018000386,-61.48862546242697,-0.005425367397349782,29.86097182198454,30.266519956489194
state: 30.24971031397417,31.832543993193752,-61.02703185435487,0.0,29.01861745235894,29.722099087567646
goals: 30.264151909381052,31.26248367344131,-62.19742246562599,-0.00544000550929552,30.91737533043972,30.266566762156838
goals: 30.264142897406938,30.903981088059346,-62.89410727247642,-0.005455199326530579,31.97256272135492,30.26661385848679
state: 30.24971031397417,31.129062357985053,-62.433995124772274,0.0,31.129062357985053,29.722099087567646
goals: 30.26413393764385,30.533970908478985,-63.580093563541055,-0.005470984777074728,33.02855919066907,30.266661346785877
goals: 30.26412504429554,30.153142808159267,-64.25431425277476,-0.005487342854548337,34.08360797887993,30.26670915928676
state: 30.24971031397417,30.425580722776346,-63.84095839518968,0.0,33.23950726361115,29.546228678765473
goals: 30.264116162269556,29.75915313371938,-64.92092350502614,-0.00550438585540401,35.14420690420817,30.266757604469667
goals: 30.264107399861828,29.356947483530693,-65.57183411702074,-0.005521910771541538,36.19732316502434,30.26680609779937
state: 30.073839905171997,29.722099087567646,-64.89618084800273,0.0,35.17408176043509,29.722099087567646
goals: 30.264098629155324,28.940755909467327,-66.2165691962654,-0.005540180830372097,37.258249816941,30.266855355832195
goals: 30.264089972644204,28.516487116163272,-66.8461429323245,-0.005558948857304873,38.31209234490763,30.266904699748984
state: 30.073839905171997,28.842747043556763,-66.4790145272223,0.0,37.460397074863366,29.722099087567646
goals: 30.264081336478487,28.079707818477864,-67.46743515237532,-0.005578422961369239,39.37016386122688,30.266954670260336
goals: 30.264072777174242,27.633361252585974,-68.0763938364983,-0.005598485178656001,40.42546910981328,30.267004950809422
state: 30.073839905171997,27.78752459074372,-67.88597779763971,0.0,39.57084198048947,29.722099087567646
goals: 30.264064269647168,27.17630415345686,-68.674858106396,-0.0056191997065361205,41.48099047739568,30.267055695096836
goals: 30.264055786477048,26.707107749298274,-69.26475037498756,-0.005640646125746217,42.54007914868041,30.267107080310243
state: 30.073839905171997,26.90817254673284,-69.11707065925494,0.0,41.68128688611557,29.722099087567646
goals: 30.264047382354732,26.228911582819514,-69.84229718445037,-0.005662695335535677,43.595822123144714,30.26715878510993
goals: 30.26403902163286,25.73985120906941,-70.41000329235156,-0.005685447533466129,44.6525886033003,30.267211036204973
state: 30.073839905171997,26.02882050272196,-69.99642270326582,0.0,43.791731791741675,29.722099087567646
goals: 30.2640306742133,25.238178480329356,-70.96988957556482,-0.005709001126002829,45.714147613733644,30.2672640388143
goals: 30.264022448830488,24.730634014161968,-71.51474019229954,-0.005733054118334618,46.76654269511107,30.267317107930538
state: 30.073839905171997,24.97359804990891,-71.05164515607888,0.0,46.078047106169954,29.722099087567646
goals: 30.26401675410156,24.37150184379746,-71.88792918123713,-0.005750211093711432,47.498863853341476,30.26735435269397
goals: 30.264013907326273,24.189585048481046,-72.07323807802338,-0.005758945666134018,47.86608954490341,30.267373128792528
state: 30.073839905171997,24.270116414700208,-71.5792563824854,0.0,47.48501037658736,29.722099087567646
goals: 30.3676214310349,24.09994905687323,-72.10555416065787,-0.0057457710802352015,47.98803613957364,30.37098130422789
goals: 31.173091229526854,23.829724866528277,-71.91846940728928,-0.0056224148644092335,48.071133432335856,31.17640496130731
state: 30.425580722776346,23.91837559709586,-71.93099720008975,0.0,47.83675119419172,29.722099087567646
goals: 32.16747530695712,23.48582341588071,-71.67959055332975,-0.005469633455273504,48.17610511134284,32.17073175887382
goals: 33.166663539581506,23.128739902617298,-71.43062289604163,-0.00531556929387699,48.28417104381344,33.16986207101755
state: 31.832543993193752,23.39076437068933,-71.93099720008975,-0.7034816352087017,48.01262160299389,30.425580722776346
goals: 34.15743736787984,22.763196998253303,-71.17477094242155,-0.005162268224998071,48.393813722743076,34.16057809432981
goals: 35.15368717664522,22.384054758270203,-70.90834391720493,-0.005007588237761295,48.50648163880181,35.15676939292377
state: 34.11885930762203,22.687282735480625,-71.40338597368321,-0.7034816352087017,48.188492011796065,30.777321540380697
goals: 36.15058833697438,21.99297334608497,-70.63239719645983,-0.004852278455477017,48.62157024871277,36.153611605975456
goals: 37.14631343798519,21.590606846433875,-70.34728720225188,-0.00469662902479345,48.73878197678493,37.149277419525525
state: 35.87756339564378,21.983801100271926,-71.05164515607888,-0.7034816352087017,48.188492011796065,31.4808031755894
goals: 38.12153525559302,21.185074795704278,-70.0586991509235,-0.004543683053479385,48.85568333478256,38.12444076285568
goals: 39.09185334823198,20.770262272625594,-69.76222086316082,-0.004391018422768581,48.973976338512195,39.094700264748695
state: 37.81213789246772,21.104449056261046,-70.34816352087017,-0.7034816352087017,48.71610323820259,33.76711849001768
goals: 40.061659473753394,20.34431188403383,-69.45642523416163,-0.0042379532033990615,49.0940910826677,40.064447411616904
goals: 41.02844600205977,19.908310285006998,-69.14198628257735,-0.004084890854527148,49.21561503059792,41.031174718889496
state: 39.92258279809381,20.049226603448,-69.46881147685929,-0.7034816352087017,49.06784405580694,36.58104503085249
goals: 41.99186918302275,19.462445352447833,-68.81893664310141,-0.003931895586583719,49.33839294486657,41.99453845286913
goals: 42.947070451566645,19.009089967862337,-68.48890332012338,-0.0037797524991369422,49.46167911810731,42.94968034778723
state: 41.85715729491775,19.345744968239295,-68.94120025045275,-0.7034816352087017,49.24371446460912,38.69148993647859
goals: 43.85390460151539,18.568208216006074,-68.16644139550499,-0.0036349002280897046,49.580065955780306,43.85645772360756
goals: 44.151460135746824,18.42678038566421,-68.01132227461751,-0.0035864309997941757,49.56636407039559,44.15399250765358
state: 43.791731791741675,18.46639292422842,-68.23771861524406,-0.7034816352087017,49.41958487341129,40.45019402450035
goals: 44.058248930919895,18.54256380935627,-67.410618624709,-0.00359005759788284,48.84988030300168,44.06076003094492
goals: 43.93218253699386,18.68901723167077,-66.5894080408198,-0.003595194987242609,47.88222078613598,43.93466483686553
state: 43.791731791741675,18.46639292422842,-67.71010738883754,-0.5276112264065262,49.41958487341129,40.8019348421047
goals: 43.80614651976243,18.82380454006994,-65.75825223155644,-0.003600595005839368,46.91628217713127,43.80859998405938
goals: 43.67933002654189,18.947713951070178,-64.91163917531196,-0.0036062913132914533,45.94576426704941,43.681754425697754
state: 43.791731791741675,18.46639292422842,-66.12727370961795,-0.5276112264065262,47.13326955898301,41.32954606851122
goals: 43.553180243601595,19.05934108064607,-64.05914105700111,-0.0036122160200524243,44.98164357284684,43.555575671504826
goals: 43.42635481086233,19.159895127923427,-63.191605100275254,-0.003618429193343673,44.013558167503156,43.428721044925666
state: 43.6158613829395,18.46639292422842,-65.0720512568049,-0.5276112264065262,45.19869506215908,41.85715729491775
goals: 43.29994795958813,19.248495359266865,-62.31640243558817,-0.0036248752036170096,43.049759875487496,43.302285020779564
goals: 43.173035672880175,19.32579813878845,-61.427038649877424,-0.0036315988316364075,42.08309795329546,43.17534336069197
state: 43.439990974137324,18.818133741832767,-62.78573594237662,-0.5276112264065262,43.264120565335155,41.85715729491775
goals: 43.045297024301696,19.391833892728823,-60.52100553932852,-0.003638618645374294,41.11103378293306,43.04757505437321
goals: 42.91765081122535,19.446043126279598,-59.604631054313785,-0.0036458841278631787,40.14045477599195,42.91989910342278
state: 43.264120565335155,18.994004150634943,-60.49942062794834,-0.5276112264065262,41.153675659709045,41.85715729491775
goals: 42.79084561168592,19.488252249241075,-58.68331231155867,-0.0036533479511581543,39.176931611531415,42.793064253181015
goals: 42.7045974602053,19.51033742820631,-58.05036034396173,-0.0036585638800629094,38.52189767435919,42.706795868292744
state: 43.08825015653298,18.994004150634943,-58.91658694872876,-0.5276112264065262,39.21910116288512,41.85715729491775
goals: 42.74948505931677,19.680726068205377,-58.10872280915623,-0.0036501954851325714,38.40986982818339,42.751676951175845
goals: 43.032098870961974,20.561262766662527,-58.75294574711324,-0.0036033635388664858,38.17354560378639,43.034267523141494
state: 42.912379747730796,19.16987455943712,-58.21310531352006,-0.5276112264065262,38.51561952767642,41.85715729491775
goals: 43.37245781206708,21.611646095072036,-59.513943028848125,-0.003546980956275169,37.8841470910072,43.37459856004191
goals: 43.71371339437327,22.653949645598395,-60.2610722515652,-0.003490475767667714,37.58896041336934,43.71582627263766
state: 43.264120565335155,21.632060282667577,-58.91658694872876,-0.5276112264065262,37.81213789246772,41.85715729491775
goals: 44.023890392906026,23.592079519238034,-60.92673936639635,-0.00343914398777953,37.31648655906261,44.02597804694892
goals: 44.146887876338425,23.96168013175437,-61.18723687742455,-0.003418797078445434,37.20737909197119,44.14896555896002
state: 43.96760220054385,23.74250518829368,-60.67529103675052,-0.35174081760435083,37.28452666606119,41.85715729491775
goals: 44.15851966028587,23.88553154817959,-61.38403330160922,-0.003420076164703357,37.48032368764728,44.160606414183725
goals: 44.15851380333084,23.51565710095675,-61.94396424941269,-0.0034307930429663906,38.41012908211543,44.16063354135717
state: 43.96760220054385,23.91837559709586,-61.02703185435487,-0.5276112264065262,37.108656257259014,41.68128688611557
goals: 44.15850744257831,23.102265917344123,-62.54595885698811,-0.003442855968231679,39.425514872687806,44.16066341413813
goals: 44.15850106776246,22.675618260334993,-63.142827750602024,-0.003455400835417768,40.449031422683504,44.160693796276654
state: 44.143472609346034,23.039023553084977,-62.258124715970105,-0.5276112264065262,39.21910116288512,41.68128688611557
goals: 44.158494698555955,22.23688499405445,-63.73262892423956,-0.003468402767983903,41.477565861964194,44.16072460839226
goals: 44.15848838808481,21.78979617082041,-64.31045572342407,-0.0034817594411761677,42.502481483740475,44.16075560030398
state: 44.143472609346034,22.33554191787628,-63.665087986387505,-0.5276112264065262,41.32954606851122,41.85715729491775
goals: 44.15848211459731,21.332976692026737,-64.87836294225283,-0.0034955196260950338,43.52720818071346,44.16078688230133
goals: 44.15847581039519,20.861402490738843,-65.44240379723136,-0.0035098450843738774,44.56282323631593,44.16081880570164
state: 43.96760220054385,21.280319465063226,-64.54444003039838,-0.5276112264065262,43.439990974137324,41.68128688611557
goals: 44.15846951850019,20.378125534164706,-65.99861488499982,-0.0035246547587011253,45.60231127998421,44.1608511697404
goals: 44.15846328674156,19.886927308352348,-66.54279910497984,-0.003539842153618622,46.637693725096796,44.16088373502676
state: 44.143472609346034,20.225097012250174,-66.12727370961795,-0.35174081760435083,45.550435879763434,41.68128688611557
goals: 44.158457054582286,19.3831112246655,-67.0802559561384,-0.0035555626213818648,47.67896665925018,44.1609168262079
goals: 44.15845091386248,18.874275151343006,-67.60313126718866,-0.0035715883347016814,48.71067804292883,44.16094995996836
state: 43.96760220054385,19.345744968239295,-67.00662575362882,-0.35174081760435083,47.66088078538953,41.85715729491775
goals: 44.15844719204102,18.559837172003004,-67.9167711130895,-0.0035815669274130843,49.33875586774294,44.160970303908094
goals: 44.1584455868171,18.42280638559482,-68.0512769333195,-0.0035859337139150793,49.610292474195646,44.16097914044346
state: 44.143472609346034,18.642263333030595,-67.53423698003536,-0.35174081760435083,49.06784405580694,41.85715729491775
goals: 44.29087113909138,18.816497901287445,-68.34822095959622,-0.003562895921795436,49.513540308364064,44.29339197709444
goals: 44.62228714117429,19.808106747967322,-69.0695027895565,-0.003504862671492311,49.243201686920614,44.62477527064897
state: 44.3193430181482,18.994004150634943,-68.0618482064419,-0.35174081760435083,49.24371446460912,41.85715729491775
goals: 44.97877050697605,20.8651633555145,-69.83013798450337,-0.0034424765358115708,48.9467679494802,44.98122356341162
goals: 45.341585427522055,21.931020320836424,-70.58853714846492,-0.003379029984574604,48.63929777222999,45.344002923675895
state: 45.022824653356906,21.104449056261046,-69.82055229446364,-0.5276112264065262,49.41958487341129,41.85715729491775
goals: 45.708542106246625,22.99900608927432,-71.33987677423615,-0.0033149166879864952,48.32263928476306,45.71092379478208
goals: 46.07922297267993,24.067775008428807,-72.08323142559449,-0.0032502198337077686,47.99721272301743,46.08156867114476
state: 45.550435879763434,23.214893961887157,-71.40338597368321,-0.5276112264065262,49.06784405580694,41.85715729491775
goals: 46.454390313007465,25.139383037823748,-72.82004641748216,-0.003184816680680331,47.662407423135804,46.456699789596506
goals: 46.83557590603502,26.217971971611107,-73.55311221227514,-0.003118451257300001,47.31687201104295,46.83784880805917
state: 46.60565833257648,25.325338867513256,-72.81034924410062,-0.5276112264065262,48.188492011796065,41.85715729491775
goals: 47.22104541227354,27.29841097059318,-74.27889800965022,-0.003051436574866358,46.96220658917838,47.22328158080343
goals: 47.61068837832525,28.38024242512579,-74.99712078748844,-0.0029838022010671623,46.59858575501778,47.61288769090237
state: 47.309139967785185,27.61165418194154,-74.56905333212238,-0.5276112264065262,47.309139967785185,43.264120565335155
goals: 48.00545093673756,29.465911945482926,-75.70940552093491,-0.002915394562238639,46.22518885109899,48.007613208555846
goals: 48.4047239622191,30.553553357913685,-76.41452589331598,-0.0028463299170584234,45.84265576068453,48.4068490933722
state: 48.01262160299389,29.722099087567646,-75.97601660253977,-0.5276112264065262,46.60565833257648,44.84695424455473
goals: 48.809770231445505,31.646389646629235,-77.11455376837905,-0.0027764008167879095,45.44983533333481,48.81185803353418
goals: 49.22119191317302,32.7457573325902,-77.8102764182815,-0.0027055151877981736,45.04617831211546,49.22324217418062
state: 48.89197364700476,31.832543993193752,-77.38297987295718,-0.5276112264065262,45.7263062885656,45.90217669736778
goals: 49.63519203637822,33.84134950910197,-78.49520917981967,-0.002634337297356878,44.63550705839393,49.6372049184744
goals: 50.025698944915824,34.86512765897598,-79.127726688788,-0.0025673426282676335,44.24423545437388,50.0276769477885
state: 49.77132569101564,34.11885930762203,-78.6140727345724,-0.5276112264065262,44.84695424455473,47.48501037658736
goals: 50.205464681530565,35.33330868141981,-79.41457693923145,-0.0025365503928321416,44.06289970215971,50.20742675490112
goals: 50.226120411314845,35.44334121607426,-79.38563777644363,-0.0025317862499006456,43.92392743498646,50.22807737902175
state: 50.12306650862,35.17408176043509,-79.31755436978112,-0.5276112264065262,44.143472609346034,48.89197364700476
goals: 50.01537844941793,35.29845382089273,-78.60125410946794,-0.0025589691846823488,43.28443699891687,50.017330149249524
goals: 49.76369205238412,35.11567646638736,-77.65293606472093,-0.002591364073107006,42.518903353793156,49.76563697749154
state: 49.94719609981782,35.17408176043509,-79.14168396097894,-0.5276112264065262,43.264120565335155,49.595455282213464
goals: 49.51550573315821,34.925010557608374,-76.70530943155829,-0.002623238052807246,41.76194965709844,49.51744345888432
goals: 49.268487436169345,34.724904712343225,-75.74961182215439,-0.0026548962623533247,41.006364966955815,49.2704174807885
state: 49.41958487341129,34.822340942830735,-77.38297987295718,-0.5276112264065262,41.32954606851122,49.595455282213464
goals: 49.02439594680076,34.51698333805702,-74.79274760964923,-0.0026861184993615486,40.25742919667808,49.026317891838886
goals: 48.7837978665442,34.30207039498869,-73.83721879243164,-0.0027168381600639474,39.51682036492877,48.78571132799219
state: 49.06784405580694,34.470600125226376,-75.44840537613327,-0.5276112264065262,39.746712389291645,49.41958487341129
goals: 48.54550386763373,34.079401389947826,-72.87853760408771,-0.00274721251379665,38.78081523054931,48.5474084330669
goals: 48.310799202405,33.850477202580834,-71.9221217187231,-0.002777082944601522,38.053330547224206,48.31269452104843
state: 48.540232829400416,33.942988898819856,-73.6897012881115,-0.5276112264065262,38.33974911887424,48.89197364700476
goals: 48.078682406913565,33.61463412019567,-70.96416194379086,-0.0028065819859171516,37.3312208621811,48.080568102915585
goals: 47.846553609774816,33.369321095786674,-69.99392073153221,-0.0028360440188453686,36.6062997519586,47.84842920264186
state: 48.188492011796065,33.591248081215504,-71.40338597368321,-0.5276112264065262,37.108656257259014,48.540232829400416
goals: 47.618850545292894,33.11942781261789,-69.03008584382897,-0.002864910100552963,35.89236515786324,47.620715756390815
goals: 47.40346566958266,32.87455123233035,-68.10718013982702,-0.0028921863060110335,35.21434272707051,47.4053206264257
state: 47.48501037658736,33.063636854808976,-69.2929410680571,-0.5276112264065262,35.349952169237255,47.83675119419172
goals: 47.3053164497403,32.76020429405847,-67.68295366819692,-0.0029046075065571808,34.904466263521776,47.307166592596936
goals: 47.21307376819219,32.65115614931344,-67.28214218348873,-0.0029162767733149253,34.6127058199854,47.21491930560976
state: 47.309139967785185,32.53602562840245,-68.0618482064419,-0.5276112264065262,34.64647053402855,47.48501037658736
goals: 47.155653144481555,32.58249782778736,-67.03159800754715,-0.00292353876650259,34.430821774135005,47.1574957751756
goals: 47.189904726360474,32.69610966718414,-67.05931636816727,-0.002917452742054627,34.34492721582693,47.191743166519046
state: 47.13326955898301,32.53602562840245,-67.18249616243101,-0.5276112264065262,33.942988898819856,47.48501037658736
goals: 47.50388124035879,33.55500210944445,-67.6078858066319,-0.002866015243549649,34.03459438730427,47.505695989879975
goals: 47.90086767874857,34.630292693651256,-68.28754280593868,-0.0028010669930627966,33.63894856263319,47.90265278300457
state: 47.309139967785185,33.41537767241333,-67.35836657123318,-0.5276112264065262,33.942988898819856,47.48501037658736
goals: 48.304144769066234,35.71061364247339,-68.96245394209541,-0.002735193605006877,33.23352652499091,48.305900123406964
goals: 48.71109409609223,36.788717154993535,-69.6281159729026,-0.00266882948546726,32.82107292040787,48.71281981510494
state: 48.36436242059823,35.70169298684161,-68.41358902404623,-0.5276112264065262,32.88776644600681,47.66088078538953
goals: 49.12541439624854,37.87412471963543,-70.29040945976782,-0.002601378436555503,32.39794672058114,49.127110353041175
goals: 49.54411606562145,38.95869685280487,-70.94435448634947,-0.002533334273525073,31.967307589840964,49.54578237722581
state: 49.24371446460912,37.988008301269886,-70.17229311206799,-0.5276112264065262,32.1842848107981,48.540232829400416
goals: 49.957391871247864,40.01728258383847,-71.57513001487666,-0.0024662920939142194,31.53948574203254,49.959029358055716
goals: 50.17732785180093,40.57587353153446,-71.90500731011537,-0.002430662946245009,31.310765982600515,50.17895017876189
state: 49.77132569101564,40.098453206896,-71.22751556488103,-0.5276112264065262,31.656673584391577,49.24371446460912
goals: 50.25541032302464,40.75905981675034,-72.04765553484769,-0.0024183045431109725,31.270225769073413,50.25702834807801
goals: 50.25540587463807,40.5093874970753,-72.50103912156551,-0.002423235956616532,31.973281675239704,50.25704201071289
state: 50.12306650862,40.626064433302524,-71.75512679128757,-0.5276112264065262,31.304932766787225,49.41958487341129
goals: 50.25539940463898,40.13491759133868,-73.15512772001054,-0.002430675066450133,33.001840179086635,50.257062152032866
goals: 50.255392959178,39.74835798743898,-73.80035634806104,-0.0024384085527569843,34.033628410697105,50.25708254382524
state: 50.29893691742217,40.098453206896,-72.81034924410062,-0.5276112264065262,32.711896037204625,49.595455282213464
goals: 50.2553865590021,39.351003528540794,-74.43465687811688,-0.0024464158669020917,35.06528339930733,50.2571031255101
goals: 50.25538014939101,38.939401100277024,-75.06341036845079,-0.002454772693747343,36.10563931755416,50.25712408099346
state: 50.29893691742217,39.57084198048947,-74.56905333212238,-0.5276112264065262,34.64647053402855,49.595455282213464
goals: 50.25537378255698,38.51684455651608,-75.68145088337265,-0.0024634185628268288,37.14623637588172,50.2571452478498
goals: 50.25536741306697,38.08028177307657,-76.29315442611944,-0.0024724225876478637,38.19450270170564,50.25716678516928
state: 50.29893691742217,38.51561952767642,-75.8001461937376,-0.5276112264065262,36.75691543965466,49.595455282213464
goals: 50.255361093889945,37.63333853504101,-76.89341456428566,-0.0024817167810150228,39.241706077540776,50.25718852130562
goals: 50.25535475621714,37.17109117413796,-77.48872224186698,-0.0024914110040417633,40.29926111565007,50.25721070216137
state: 50.12306650862,37.460397074863366,-77.20710946415501,-0.5276112264065262,39.04323075408294,49.595455282213464
goals: 50.25534848876371,36.70002621005394,-78.07073351518046,-0.0025013765739249714,41.3523373526692,50.25723302474113
goals: 50.25534220800728,36.213900552072275,-78.6472018702406,-0.002511753208981886,42.41493136532415,50.2572557938649
state: 50.12306650862,36.58104503085249,-78.08646150816588,-0.5276112264065262,41.153675659709045,49.595455282213464
goals: 50.25533647672188,35.75789309836187,-79.16723834324821,-0.0025215732119974266,43.39097529168216,50.25727693071689
goals: 50.2553339283875,35.55130064348591,-79.39660676290974,-0.00252604985340239,43.82693616605739,50.257286441944906
state: 50.12306650862,35.87756339564378,-78.96581355217677,-0.5276112264065262,43.08825015653298,49.595455282213464
goals: 50.25264439231274,35.46437531897137,-79.494609170982,-0.0025283976361595685,44.01186397255409,50.254602194234245
goals: 49.66611354523426,35.79669607113872,-79.69701228389074,-0.0026211840212021636,43.88196269182552,49.668102910006716
state: 50.12306650862,35.349952169237255,-79.31755436978112,-0.5276112264065262,43.6158613829395,49.595455282213464
goals: 48.665837464854185,36.353189496932146,-80.03426265082601,-0.0027790508809736095,43.662748560669755,48.66788012565391
goals: 47.655904989602455,36.902041249235594,-80.36482082788518,-0.0029379626359714033,43.44448550750493,47.658000794094775
state: 48.540232829400416,36.40517462205031,-79.84516559618763,0.0,43.791731791741675,49.41958487341129
goals: 46.642790467313844,37.439589302930365,-80.68659551221604,-0.003096887652267894,43.22874408177698,46.64493892558467
goals: 45.62856456949662,37.96475639836577,-80.99907921104978,-0.0032554943644280522,43.01609399091345,45.63076509636481
state: 46.60565833257648,37.460397074863366,-80.54864723139633,0.0,43.439990974137324,48.188492011796065
goals: 44.603839016280624,38.482281140533665,-81.3052055815734,-0.0034152386909939176,42.8047306157374,44.60609151467681
goals: 43.57416915558745,38.9891618546561,-81.603301425392,-0.0035752394471577622,42.59598227059299,43.576473250267554
state: 44.49521342695038,38.51561952767642,-81.25212886660505,0.0,43.264120565335155,47.309139967785185
goals: 42.54289115076902,39.483729086668525,-81.89250828351179,-0.0037349695848216797,42.39065984220507,42.54524631191636
goals: 41.51124883982411,39.965443090044324,-82.17264093632812,-0.0038942311938796794,42.189117812635445,41.51365449323076
state: 42.033027703719924,39.746712389291645,-81.95561050181375,0.0,42.73650933892863,46.078047106169954
goals: 40.47419084950235,40.43664582383732,-82.44517928710421,-0.004053795909968046,41.99049432685335,40.47664668272385
goals: 39.439525184646406,40.893822228837735,-82.70820989299831,-0.004212456274515366,41.79639069596522,39.442030524719115
state: 40.274323615698165,40.45019402450035,-82.48322172822027,0.0,42.38476852132428,44.67108383575256
goals: 38.389673076901666,41.34458676631856,-82.9662113715412,-0.004372894001364771,41.60367181462693,38.39222810218167
goals: 37.345574278630096,41.779857831906675,-83.21408683983532,-0.004531897767129761,41.41632153824573,37.348178189984594
state: 37.988008301269886,41.32954606851122,-83.0108329546268,0.0,41.68128688611557,42.912379747730796
goals: 36.29671421455696,42.204120524034614,-83.45450806293421,-0.004691065639473113,41.23252698410747,36.29936672718646
goals: 35.27096344821747,42.60651803589517,-83.68146144056396,-0.004846178996041713,41.057130072111526,35.273663019802896
state: 36.05343380444596,42.20889811252209,-83.53844418103331,0.0,41.32954606851122,40.098453206896
goals: 34.74260975087411,42.80898262252944,-83.79525658185037,-0.004925863737613491,40.968485466692584,34.745333386799544
goals: 34.667090442138914,42.76429257564202,-83.45714864389852,-0.004932362126383785,40.675071155707414,34.66980351108743
state: 34.470600125226376,42.73650933892863,-83.7143145898355,0.0,41.153675659709045,37.988008301269886
goals: 34.5106890081937,42.62299366735743,-82.5481067560373,-0.004943159960623944,39.907335613936866,34.51337210569606
goals: 34.35023356115875,42.46733664001181,-81.60365111702724,-0.004954402205526628,39.118544664762105,34.35288568782344
state: 34.2947297164242,42.56063893012645,-83.18670336342898,0.0,39.746712389291645,36.93278584845684
goals: 34.18996400696632,42.30102639223888,-80.64812582181341,-0.004965797054464024,38.32933730316511,34.192584963444645
goals: 34.03154423168171,42.12597260064453,-79.69149790647137,-0.004977222557507145,37.547770808194706,34.03413413650196
state: 34.11885930762203,42.20889811252209,-81.42799927540722,0.0,37.81213789246772,35.70169298684161
goals: 33.87565497549443,41.943339621847834,-78.73819384587037,-0.004988622678788295,36.77710726400406,33.8782140806209
goals: 33.72102668193914,41.751987073292035,-77.78070100050931,-0.00500008449752409,36.01097447390646,33.7235549876465
state: 33.591248081215504,41.85715729491775,-79.49342477858329,0.0,36.229304213248135,34.470600125226376
goals: 33.56819868236026,41.5528503920362,-76.82252736486694,-0.005011563635163696,35.25194496823844,33.57069629417116
goals: 33.4176774657534,41.346954761931855,-75.86714070544046,-0.005023016337958664,34.50246130376953,33.420144591770494
state: 33.23950726361115,41.5054164773134,-77.20710946415501,0.0,34.822340942830735,33.942988898819856
goals: 33.2671819545362,41.131367208115435,-74.90014919258392,-0.005034613270814702,33.75106473665391,33.26961833752335
goals: 33.11829355979843,40.90846904843224,-73.93171988799607,-0.005046230878250848,33.00554093259847,33.120699260659784
state: 33.063636854808976,40.977805250906876,-74.92079414972673,0.0,33.23950726361115,33.76711849001768
goals: 32.971463369468076,40.67924395847752,-72.96503405312664,-0.005057829493181316,32.2680874541831,32.97383854287496
goals: 32.826878745029276,40.44434849519636,-72.00165081773301,-0.00506938911107922,31.539606863753367,32.82922358759002
state: 32.711896037204625,40.626064433302524,-73.33796047050716,0.0,32.00841440199592,33.41537767241333
goals: 32.68366374581574,40.20265403528174,-71.03598116529952,-0.005080975700839406,30.815638810615877,32.68597827186171
goals: 32.541373664287676,39.95357539248705,-70.06511735763306,-0.005092623218365809,30.093860764366685,32.543657791986796
state: 32.53602562840245,40.098453206896,-71.05164515607888,0.0,30.777321540380697,33.23950726361115
goals: 32.39987990519866,39.69699573966183,-69.08820406382148,-0.005104341123433705,29.37353422720912,32.402133521701494
goals: 32.260716509398165,39.43593471220414,-68.11602755431187,-0.005115999408097464,28.66242575633985,32.26293983355248
state: 32.36015521960027,39.57084198048947,-69.11707065925494,0.0,29.01861745235894,33.23950726361115
goals: 32.12273134422568,39.168502715239406,-67.140784512362,-0.005127691170676597,27.95462168700841,32.124924346471396
goals: 32.00066717277193,38.924756488974424,-66.26853959971474,-0.005138145042003673,27.32612919119068,32.002833107551865
state: 32.00841440199592,39.04323075408294,-67.00662575362882,0.0,27.61165418194154,33.41537767241333
goals: 31.957681433108096,38.83730818082729,-65.95921701990426,-0.00514185154002554,27.104257103996332,31.959837780157756
goals: 31.919757844898793,38.75945908391506,-65.68538206430256,-0.0051451324722765835,26.908273174434672,31.921905708872973
state: 31.656673584391577,38.69148993647859,-66.12727370961795,0.0,27.25991336433719,33.41537767241333
goals: 31.944831662333215,38.88665153558398,-65.69078344826657,-0.005140044610373304,26.78648083127088,31.946972596239956
goals: 32.14781474305926,39.714994044194796,-66.18931665861685,-0.005106503044607665,26.45666123585568,32.149932432529326
state: 31.656673584391577,38.86736034528077,-65.95140330081578,0.0,26.38056132032631,33.23950726361115
goals: 32.25263228063206,40.13998792600754,-66.44334468187273,-0.005089203670490214,26.285690080075025,32.25473801044727
goals: 32.257613995316305,40.04340127290616,-66.73073165771727,-0.00509281203637124,26.669663457001608,32.25973852122621
state: 32.1842848107981,39.92258279809381,-65.95140330081578,0.0,25.852950093919787,33.23950726361115
goals: 32.25760537742721,39.75016019881079,-67.3991100155413,-0.005103982223263589,27.631282887891896,32.259777525692826
goals: 32.25759640916086,39.432493136039305,-68.08879006988927,-0.005116150791338346,28.63863000392387,32.25981865539896
state: 32.1842848107981,39.57084198048947,-67.00662575362882,0.0,27.25991336433719,33.23950726361115
goals: 32.25758742956204,39.10147843730098,-68.77323651975662,-0.005128906316567325,29.654091151423234,32.25986040506773
goals: 32.257578513392225,38.7598172315311,-69.44670020286347,-0.005142153631500105,30.66921603918361,32.25990243945214
state: 32.1842848107981,38.86736034528077,-68.41358902404623,0.0,29.19448786116112,33.23950726361115
goals: 32.25756965670951,38.407460963343425,-70.10950289854026,-0.005155902999832768,31.684375001921072,32.259944782821414
goals: 32.25756074027412,38.039499794736614,-70.7704644458558,-0.00517035669749179,32.71329771668999,32.259988023624345
state: 32.1842848107981,38.16387871007206,-69.82055229446364,0.0,31.304932766787225,33.23950726361115
goals: 32.25755191602093,37.662114379237806,-71.41825497765362,-0.005185282618324583,33.738473662825974,32.2600314403774
goals: 32.25754312140012,37.27274177675436,-72.05749557934574,-0.005200791835077719,34.7670868658253,32.260075347183296
state: 32.1842848107981,37.636267483665534,-71.05164515607888,0.0,33.41537767241333,33.23950726361115
goals: 32.25753435006867,36.87106521008392,-72.6886056220844,-0.005216908312077126,35.79987347404119,32.260119789520786
goals: 32.25752558750022,36.456336962967185,-73.31256595238844,-0.005233674420353789,36.8385620502494,32.26016485766574
state: 32.1842848107981,36.75691543965466,-72.63447883529845,0.0,35.52582257803944,33.23950726361115
goals: 32.25751688598175,36.03103986566179,-73.92563280917184,-0.005251001906565236,37.876926003113034,32.26021029539154
goals: 32.25750818754169,35.592339761320986,-74.5318656028052,-0.0052690190787067145,38.92185889984087,32.26025641913873
state: 32.1842848107981,35.87756339564378,-74.04144210571584,0.0,37.81213789246772,33.23950726361115
goals: 32.25749952706419,35.14194398354727,-75.12878296038153,-0.005287669800368032,39.969172033927954,32.26030306087418
goals: 32.25749090103681,34.6796970863251,-75.71661545477217,-0.005306974292772651,41.01925142426019,32.260350252897894
state: 32.1842848107981,34.822340942830735,-75.0966645585289,0.0,39.92258279809381,33.23950726361115
goals: 32.257482274691334,34.203674309494765,-76.29767691949468,-0.0053270284886740545,42.07633566450912,32.26039820427026
goals: 32.25747371749457,33.71773503317964,-76.86727573830517,-0.0053476849267684754,43.13187375831752,32.260446543490275
state: 32.1842848107981,33.942988898819856,-76.32775742014412,0.0,42.033027703719924,33.23950726361115
goals: 32.2574653361924,33.228395769561715,-77.41850719954196,-0.005368676290199676,44.17244448185845,32.26049465816457
goals: 32.257460651836055,32.94908288338879,-77.72369041880017,-0.005380744534475958,44.75694058654484,32.2605218901166
state: 32.1842848107981,33.063636854808976,-77.20710946415501,0.0,44.49521342695038,33.23950726361115
goals: 32.257458619973434,32.826624386838695,-77.85541249111283,-0.0053860555429582745,45.01112115508219,32.26053377945838
goals: 32.74112121207408,32.651699840424314,-77.75115710440065,-0.005312704521902781,45.08176604773369,32.74417156926204
state: 32.1842848107981,32.711896037204625,-77.55885028175935,0.0,44.84695424455473,33.23950726361115
goals: 33.72905971323124,32.29293515963847,-77.52480627672587,-0.0051621835058476,45.21413123967518,33.73205834389986
goals: 34.74810929991105,31.91099235950507,-77.28284055471867,-0.005006375608229821,45.35405940369776,34.75105417348299
state: 33.591248081215504,32.1842848107981,-77.55885028175935,-0.35174081760435083,44.84695424455473,33.23950726361115
goals: 35.76303974329883,31.518534136962778,-77.03314509804979,-0.004850649771076936,45.496774748399545,35.76593065559212
goals: 36.774720849033564,31.115283810045188,-76.77545230334003,-0.004694882706311173,45.642286301435036,36.777557538301316
state: 35.70169298684161,31.656673584391577,-77.20710946415501,-0.5276112264065262,45.19869506215908,34.470600125226376
goals: 37.79228124699306,30.69748288301559,-76.50724841878622,-0.004537671152395243,45.791838400406625,37.79506294481571
goals: 38.80641840787638,30.26882983802203,-76.23079146530598,-0.004380454728902998,45.94399100321962,38.80914483145933
state: 37.460397074863366,30.601451131578518,-76.67949823774848,-0.7034816352087017,45.37456547096125,35.87756339564378
goals: 39.82261040512945,29.82695401970823,-75.94443820649754,-0.004222389694405733,46.09947129472794,39.82528095882242
goals: 40.83722102880053,29.373345625389685,-75.64903220820855,-0.004064045772230131,46.2576327989083,40.839835301671755
state: 39.746712389291645,29.722099087567646,-75.97601660253977,-0.7034816352087017,45.7263062885656,37.636267483665534
goals: 41.84795079070668,28.90904766536354,-75.34513893896874,-0.0039057905797771873,46.41799805930136,41.85050848896585
goals: 42.841077527097084,28.44067257919048,-75.03700799905121,-0.003749793508029503,46.57820473353128,42.843579127622796
state: 41.68128688611557,28.842747043556763,-75.62427578493543,-0.5276112264065262,46.25391751497214,39.39497157168729
goals: 43.82673084706389,27.96381433836994,-74.72167164307386,-0.0035944865510043307,46.73969067752949,43.82917626085975
goals: 44.814386178131734,27.473901766728833,-74.39599008483316,-0.003438385232907647,46.903886927907756,44.81677476807026
state: 43.791731791741675,27.61165418194154,-74.74492374092455,-0.7034816352087017,46.60565833257648,40.626064433302524
goals: 45.79798171368065,26.97388852299283,-74.06179789084985,-0.0032824536589518716,47.069674604518156,45.80031318123822
goals: 46.775977777705414,26.46464283868889,-73.71956379870683,-0.0031269474612417615,47.236654249756945,46.778251910423805
state: 45.7263062885656,26.73230213793066,-74.04144210571584,-0.5276112264065262,46.95739915018084,41.85715729491775
goals: 47.694786625988364,25.97515768759728,-73.38882363130388,-0.002980436522489013,47.39537034507441,47.69700639576912
goals: 48.010960832378,25.831856499368772,-73.24475135422087,-0.002929211842471838,47.39458956781995,48.01316000116451
state: 47.66088078538953,25.677079685117608,-73.51383087930932,-0.5276112264065262,47.309139967785185,43.791731791741675
goals: 48.010965091824225,26.194438775008415,-72.86976929024264,-0.002919849546168713,46.657025228558844,48.01314078855229
goals: 48.010971223700565,26.705072476097172,-72.32409161017765,-0.002906771008536111,45.60071384791041,48.013113530068104
state: 47.66088078538953,26.02882050272196,-73.33796047050716,-0.5276112264065262,47.13326955898301,45.550435879763434
goals: 48.010977410733254,27.20684593385525,-71.76658008430519,-0.002894039612535905,44.54142886478011,48.0130864914634
goals: 48.010983611058904,27.69626573310051,-71.20098095637937,-0.002881735148303123,43.486409938100884,48.01305984893812
state: 47.83675119419172,26.73230213793066,-72.10686760889192,-0.5276112264065262,44.84695424455473,46.95739915018084
goals: 48.010989857573236,28.175863366635948,-70.62428404392479,-0.0028697851393674786,42.4301153925972,48.01303345350227
goals: 48.010996145004015,28.645084488296494,-70.03692314916816,-0.0028581955653661354,41.373533376660504,48.013007322834234
state: 48.01262160299389,28.139265408348066,-71.22751556488103,-0.5276112264065262,42.73650933892863,47.309139967785185
goals: 48.01100246867495,29.103467413131558,-69.43930070496654,-0.0028469699753808676,40.31752800809817,48.01298147075575
goals: 48.011008711342186,29.542792618961727,-68.84266040198345,-0.0028362995007504043,39.281562499744666,48.01295635905267
state: 48.01262160299389,28.842747043556763,-69.82055229446364,-0.5276112264065262,40.45019402450035,47.309139967785185
goals: 48.011014978030786,29.97076921535487,-68.23714635021787,-0.002825987042963677,38.24807185203927,48.01293154712675
goals: 48.01102122603137,30.384600290465347,-67.62696579207991,-0.0028160920191465885,37.224060219234865,48.01290719261253
state: 47.83675119419172,29.722099087567646,-68.41358902404623,-0.5276112264065262,38.33974911887424,47.309139967785185
goals: 48.01102754326971,30.790093682643636,-67.00354355685,-0.0028064687227831817,36.19514459226778,48.01288294564416
goals: 48.011033865477636,31.18303841723367,-66.37319817643282,-0.002797210968968849,35.17185447769443,48.0128590480703
state: 47.83675119419172,30.425580722776346,-67.18249616243101,-0.5276112264065262,36.05343380444596,47.309139967785185
goals: 48.01104018524431,31.563110464801753,-65.73675535115983,-0.0027883193763116295,34.155339605279615,48.01283551696855
goals: 48.011046548269775,31.933081530492522,-65.08964252946454,-0.002779722986134753,33.138255718315456,48.01281217473253
state: 47.83675119419172,31.304932766787225,-65.95140330081578,-0.5276112264065262,34.11885930762203,47.309139967785185
goals: 48.01105291859539,32.29085610110313,-64.4355319831474,-0.0027714648063539376,32.12637060180308,48.01278914686324
goals: 48.01105932630739,32.63814207077275,-63.771360788636294,-0.0027634998764833104,31.11491343803321,48.012766317772076
state: 47.83675119419172,32.1842848107981,-64.89618084800273,-0.5276112264065262,32.00841440199592,47.309139967785185
goals: 48.011065688296405,32.970608825848664,-63.105845943100306,-0.002755921681329064,30.11693183782257,48.01274397293243
goals: 48.011069770191206,33.17751450906947,-62.675696548019026,-0.0027512284992397425,29.479876759774577,48.01272980049888
state: 47.83675119419172,32.88776644600681,-63.31334716878315,-0.5276112264065262,30.073839905171997,47.309139967785185
goals: 48.01107139289755,33.2583864669865,-62.504018183280934,-0.0027493988787135127,29.227326437219716,48.01272420140039
goals: 48.011073059894734,33.34065252173631,-62.32725513788814,-0.002747540461854744,28.968297337179706,48.01271846993465
state: 47.83675119419172,33.063636854808976,-62.9616063511788,-0.5276112264065262,29.546228678765473,47.309139967785185
goals: 47.98137536294602,33.38107589515103,-62.260864976808925,-0.002751329582224411,28.861484706653872,47.983018858426675
goals: 47.28956196631402,33.554288218615035,-62.371894972084434,-0.002856797255901965,28.7993237569475,47.29123001961688
state: 47.83675119419172,33.23950726361115,-62.433995124772274,-0.5276112264065262,28.842747043556763,47.309139967785185
goals: 46.284852370264716,33.79653669113373,-62.526834258112146,-0.0030096972287840143,28.71204671936865,46.28655591093163
goals: 45.27234956833188,34.029563998823285,-62.675498570683935,-0.0031634538119169483,28.627717440013114,45.27408867121682
state: 46.078047106169954,33.76711849001768,-62.433995124772274,-0.5276112264065262,28.842747043556763,47.13326955898301
goals: 44.25493987360083,34.252552176978256,-62.8174124346269,-0.003317614633456841,28.546678334386453,44.25671452253185
goals: 43.239767656680634,34.46394247008199,-62.951633366929464,-0.003471087892905098,28.46954543034961,43.241577599348105
state: 43.96760220054385,34.11885930762203,-62.433995124772274,-0.5276112264065262,28.491006225952418,45.90217669736778
goals: 42.22455698655374,34.66429486425261,-63.07856614034981,-0.003624210934138102,28.396163589026592,42.226402064642656
goals: 41.2115750466908,34.85324361085867,-63.19802508965632,-0.0037766350988389587,28.326712802272716,41.21345503820747
state: 42.033027703719924,34.64647053402855,-62.433995124772274,-0.5276112264065262,28.491006225952418,44.84695424455473
goals: 40.19354474537512,35.03214438188577,-63.310908900282705,-0.003929445973437778,28.260736366185466,40.19545969295135
goals: 39.180445578405084,35.19928274715752,-63.416175523568434,-0.004081137688780058,28.198906262091114,39.182395196346185
state: 39.92258279809381,34.99821135163291,-62.433995124772274,-0.5276112264065262,28.31513581715024,44.49521342695038
goals: 38.1608093012022,35.356563572167545,-63.515061668012464,-0.004233418578202308,28.140554804167635,38.162793710509256
goals: 37.13275450213406,35.50407194337939,-63.60765228905041,-0.004386552953488782,28.0856819668106,37.134773900510844
state: 37.81213789246772,35.17408176043509,-62.78573594237662,-0.5276112264065262,28.139265408348066,42.38476852132428
goals: 36.10990635440478,35.63983621165768,-63.69274192628571,-0.00453850137593989,28.035053346084176,36.11196049017686
goals: 35.08414286310331,35.76500215669277,-63.77107955687472,-0.004690463687325143,27.988272496784848,35.08623177545734
state: 36.05343380444596,35.52582257803944,-63.13747675998097,-0.5276112264065262,27.96339499954589,39.57084198048947
goals: 34.056896364375426,35.87935413620427,-63.84255738507805,-0.0048422169453844225,27.945447203820436,34.059020058343975
goals: 33.03060822131147,35.9826387206889,-63.90704231918385,-0.004993392104740453,27.90669768595592,33.0327666339687
state: 33.591248081215504,35.70169298684161,-63.489217577585315,-0.5276112264065262,27.96339499954589,37.460397074863366
goals: 32.00670480167197,36.07478949309714,-63.96451607445009,-0.0051437731616377404,27.872071995421745,32.0088978365901
goals: 30.97803810287979,36.15643336911495,-64.0153898539995,-0.005294400354511715,27.841354778405933,30.9802659198931
state: 31.656673584391577,36.05343380444596,-63.489217577585315,-0.5276112264065262,27.96339499954589,35.349952169237255
goals: 29.953679598781886,36.226862059190275,-64.0592401634326,-0.005443937057283361,27.814830360381524,29.955942065445957
goals: 28.92987506261889,36.2864275184561,-64.0963018418021,-0.005592926636899053,27.792381809427674,28.93217218769069
state: 29.546228678765473,36.05343380444596,-64.01682880399184,-0.5276112264065262,27.96339499954589,33.591248081215504
goals: 27.902041320906513,36.3353541506585,-64.12672744580573,-0.005742025663296172,27.773937528022397,27.90437328270553
goals: 26.87355364972343,36.37341938662786,-64.15038916236873,-0.005890733304359295,27.7595920901101,26.875920526649548
state: 27.61165418194154,36.229304213248135,-64.01682880399184,-0.5276112264065262,27.61165418194154,32.1842848107981
goals: 25.85158985848048,36.40045881882661,-64.16719315448125,-0.00603800796129471,27.749415645224865,25.853991498701983
goals: 24.826110423529805,36.41679203517965,-64.17734396038735,-0.006185290703553786,27.743293712845393,24.82854703019648
state: 25.325338867513256,36.229304213248135,-64.01682880399184,-0.5276112264065262,27.61165418194154,31.832543993193752
goals: 23.797192742496886,36.42231121180853,-64.18077814405984,-0.006332557399806748,27.741270684480654,23.799664530687544
goals: 22.774799359603374,36.41701365323295,-64.17749516679366,-0.006478376619323104,27.743348106163342,22.777306216736417
state: 23.566634779491505,36.229304213248135,-64.01682880399184,-0.5276112264065262,27.61165418194154,28.139265408348066
goals: 21.74832848233675,36.40088179674434,-64.16748303634094,-0.006624254450421759,27.7495321904002,21.750870672370173
goals: 20.721121562254766,36.37388797281806,-64.15072102024423,-0.006769704492298145,27.759829668558147,20.723699248123808
state: 21.280319465063226,36.229304213248135,-64.01682880399184,-0.5276112264065262,27.435783773139363,25.325338867513256
goals: 19.698689233887364,36.336234708444756,-64.12732905829884,-0.006913941834815733,27.77415758846252,19.701302400114095
goals: 18.67150367757444,36.28756291727675,-64.09707581997279,-0.007058302855353954,27.79264432131247,18.67415265196566
state: 19.16987455943712,36.229304213248135,-64.01682880399184,-0.5276112264065262,27.435783773139363,23.039023553084977
goals: 17.641038653830115,36.22780372517564,-64.05990762824422,-0.007202566206313368,27.815304975625224,17.643723727252222
goals: 16.618371076951913,36.157657269925416,-64.01624706247597,-0.007345177092820832,27.8418612304818,16.621092163225445
state: 17.411170471415367,36.229304213248135,-64.01682880399184,-0.5276112264065262,27.61165418194154,20.928578647458874
goals: 15.595394879981555,36.07667072060299,-63.965797227513846,-0.007487264445550081,27.872469560142957,15.598152188154522
goals: 14.565150210970115,35.98415296135864,-63.90810923951243,-0.007629780921857371,27.90737269184104,14.567944210434023
state: 15.300725565789259,36.229304213248135,-64.01682880399184,-0.5276112264065262,27.61165418194154,18.818133741832767
goals: 13.539391753366324,35.88109440495157,-63.843780090494775,-0.007771090498982726,27.94617636690133,13.542222507099703
goals: 12.611350201064871,35.77842431737867,-63.77962169993697,-0.007898428036287668,27.98475630633041,12.614214408493408
state: 13.190280660163156,36.05343380444596,-64.01682880399184,-0.5276112264065262,27.61165418194154,16.707688836206664
goals: 12.347959232647375,35.72202180311424,-63.81764310109267,-0.007935986272830322,28.07919977060326,12.350839197511148
goals: 12.347950584592532,35.47871477078185,-64.35004803475138,-0.007950330292119038,28.854911734744782,12.350888930023293
state: 12.135058207350104,35.87756339564378,-64.01682880399184,-0.5276112264065262,27.61165418194154,15.124855156987085
goals: 12.34793940378519,35.15298549823836,-65.03308198833878,-0.007969633228772217,29.863674958452506,12.350953974561476
goals: 12.34792832380188,34.81762606081675,-65.70396566875881,-0.007989626929587226,30.869918073856315,12.351019286341126
state: 12.135058207350104,34.99821135163291,-65.0720512568049,-0.5276112264065262,29.370358269963294,13.36615106896533
goals: 12.347917195810005,34.468063997947745,-66.37164663919137,-0.008010597957599746,31.887161104671943,12.351085762129737
goals: 12.347906198792876,34.10991012449751,-67.02534920098621,-0.008032223690703675,32.899017537422154,12.351152348834654
state: 12.31092861615228,34.2947297164242,-66.65488493602447,-0.5276112264065262,31.4808031755894,12.662669433756628
goals: 12.34789520725691,33.739161832488044,-67.67254301750486,-0.008054759501461523,33.916959643417606,12.351219816331652
goals: 12.347884217109785,33.35554262861531,-68.31337131852305,-0.008078239163036488,34.94140714573605,12.35128821635882
state: 12.31092861615228,33.591248081215504,-68.0618482064419,-0.5276112264065262,33.591248081215504,12.662669433756628
goals: 12.347873286018022,32.961024414274,-68.94442122487159,-0.00810255864103204,35.96697526382623,12.351357210404407
goals: 12.347862395305931,32.55496558943499,-69.56675656163662,-0.008127773997816976,36.995369422798206,12.351426932041546
state: 12.31092861615228,32.88776644600681,-68.94120025045275,-0.5276112264065262,35.70169298684161,12.662669433756628
goals: 12.347851498011366,32.135531186806986,-70.18298950455325,-0.008154018200745112,38.03103676566605,12.351497707247361
goals: 12.347840683483275,31.706158520768877,-70.78803673842286,-0.00818109483713064,39.06545666287324,12.351568975533361
state: 12.31092861615228,32.00841440199592,-70.17229311206799,-0.5276112264065262,37.988008301269886,12.662669433756628
goals: 12.347829922782049,31.265810101731496,-71.38354306625601,-0.008209087016535587,40.10131140701183,12.351640939247279
goals: 12.347819163773163,30.812318894796263,-71.97234735789104,-0.008238153448540531,41.14360690280448,12.351713971046129
state: 12.135058207350104,30.95319194918287,-71.5792563824854,-0.5276112264065262,39.92258279809381,12.662669433756628
goals: 12.347808379724583,30.344382622350007,-72.55579489143184,-0.008268402306750515,42.19499070595983,12.351788289207283
goals: 12.347797723351382,29.868689885489598,-73.12562497309321,-0.008299422468977786,43.240513521635016,12.351862859311353
state: 12.31092861615228,30.24971031397417,-72.63447883529845,-0.5276112264065262,42.38476852132428,12.662669433756628
goals: 12.34778705953549,29.37930704545744,-73.68908258578817,-0.008331622431569935,44.29335397146401,12.351938642754005
goals: 12.347776411646487,28.87719881695226,-74.24484851481635,-0.008364965643217063,45.35122812605259,12.35201550815967
state: 12.31092861615228,29.19448786116112,-73.6897012881115,-0.5276112264065262,44.3193430181482,12.662669433756628
goals: 12.347767710869762,28.45684050506575,-74.69383906170374,-0.008393121001406973,46.22057698238117,12.352079230356074
goals: 12.347764241219718,28.286671413824546,-74.87158237916246,-0.008404581759778552,46.568489390096,12.35210487517232
state: 12.31092861615228,28.31513581715024,-74.74492374092455,-0.5276112264065262,46.078047106169954,12.662669433756628
goals: 12.49714227862405,28.22918813264034,-74.89755684742498,-0.008385877023721037,46.65193603969708,12.501481408971216
goals: 13.355550333113989,28.110766725138447,-74.81921352630636,-0.008263501414013837,46.69195084042599,13.359843809852956
state: 12.486799024954456,28.139265408348066,-74.74492374092455,-0.5276112264065262,46.25391751497214,12.662669433756628
goals: 14.382846261759997,27.958605242364815,-74.71840099565912,-0.008116437420994995,46.743225176158695,14.387084988076662
goals: 15.410771159687078,27.79493887339677,-74.60977988124226,-0.007968620986498325,46.79819699621383,15.414954963726217
state: 14.069632704174033,27.78752459074372,-74.74492374092455,-0.5276112264065262,46.42978792377431,12.838539842558804
goals: 16.435724193850152,27.62035249298077,-74.49369834087162,-0.00782057697567006,46.856629842520704,16.439853082535887
goals: 17.461741223500333,27.434160501146728,-74.36965745849095,-0.007671729044647218,46.91871011784195,17.46581497374892
state: 16.180077609800136,27.61165418194154,-74.74492374092455,-0.7034816352087017,46.60565833257648,14.421373521778381
goals: 18.488547337950504,27.236348583973086,-74.23760029207888,-0.007522120019948048,46.98439522219707,18.492565726673654
goals: 19.51100207661374,27.027933546518284,-74.09815746467638,-0.007372507031580812,47.053299321223356,19.514965144540174
state: 18.46639292422842,27.084042955535015,-74.56905333212238,-0.7034816352087017,46.95739915018084,16.180077609800136
goals: 20.535298594324978,26.80765871489819,-73.95043653499523,-0.007221990929106252,47.12578623585697,20.539206033458505
goals: 21.565876151653214,26.574393143250003,-73.79361860022752,-0.007069916597796033,47.202167739156735,21.56972739585485
state: 20.40096742105235,26.90817254673284,-74.21731251451803,-0.5276112264065262,46.95739915018084,18.114652106624067
goals: 22.589343908460503,26.331141696706275,-73.62966474020605,-0.00691826559827723,47.28140090880277,22.593139107568717
goals: 23.61328277609611,26.076172118136167,-73.45734865257289,-0.006765925483482246,47.363991215355924,23.617021652684848
state: 22.511412326678453,26.20469091152414,-73.86557169691368,-0.5276112264065262,47.13326955898301,19.873356194645822
goals: 24.643014716021774,25.808006720707404,-73.2756009581469,-0.006612103591515375,47.45034665478009,24.646696683060604
goals: 25.65052076833441,25.534175686560644,-73.08946915680887,-0.006461004850949403,47.53798621340288,25.654146779671237
state: 24.62185723230456,25.677079685117608,-73.51383087930932,-0.7034816352087017,47.309139967785185,21.80793069146975
goals: 26.6528914628569,25.250450423983352,-72.89603068965425,-0.0063100949131001715,47.62821486593119,26.65646152065835
goals: 27.32750486561067,25.05313382532816,-72.76115463975209,-0.00620820565414454,47.69061697480826,27.331037100019486
state: 26.556431729128487,25.149468458711084,-72.98621965290279,-0.5276112264065262,47.48501037658736,23.74250518829368
goals: 27.357225880190587,25.24080160113996,-72.55456227023842,-0.006193627887423653,47.29635514958419,27.360731400011506
goals: 27.357234009062026,25.729810792602827,-72.0425351986454,-0.006168690596519321,46.29531888818995,27.36067671822625
state: 27.084042955535015,25.149468458711084,-72.81034924410062,-0.5276112264065262,47.48501037658736,25.501209276315436
goals: 27.357242652256463,26.236737792966785,-71.49136928303942,-0.006143077482338382,45.2372259739563,27.360619478233133
goals: 27.35725134401963,26.733095657375664,-70.93018822441863,-0.006118230399881815,44.179687052642,27.36056282559642
state: 27.25991336433719,25.852950093919787,-71.93099720008975,-0.5276112264065262,45.550435879763434,26.73230213793066
goals: 27.35726004877785,27.21683253665241,-70.3613075727532,-0.006094233519445929,43.12706952338786,27.360506974070184
goals: 27.35726886890859,27.693468471752098,-69.7779792610641,-0.006070797462129666,42.06710527827986,27.360451258954942
state: 27.435783773139363,26.90817254673284,-70.87577474727668,-0.5276112264065262,43.439990974137324,26.73230213793066
goals: 27.35727769107138,28.15673889631098,-69.18765704988387,-0.006048214867435592,41.01351264419299,27.360396386945496
goals: 27.357286493966516,28.605698019612273,-68.5918828970632,-0.0060265125896449764,39.968779369691724,27.36034246212632
state: 27.25991336433719,28.139265408348066,-69.64468188566147,-0.5276112264065262,41.153675659709045,26.73230213793066
goals: 27.35729525061366,29.039249408327663,-67.99265257076625,-0.006005724094763411,38.93599765626475,27.360289615994784
goals: 27.35730401486019,29.460279612187662,-67.38642003895991,-0.005985693351732789,37.908734922159056,27.360237494610768
state: 27.435783773139363,28.842747043556763,-68.41358902404623,-0.5276112264065262,39.04323075408294,26.73230213793066
goals: 27.35731251468493,29.856408546725635,-66.7923725831533,-0.005966987580539736,36.9185585333039,27.36018766063861
goals: 27.357316723650055,30.048157074616874,-66.49601230708673,-0.005957981424649076,36.43044973007507,27.360163237995014
state: 27.25991336433719,29.546228678765473,-67.18249616243101,-0.5276112264065262,36.75691543965466,26.73230213793066
goals: 27.357319492445367,30.17271276754416,-66.30026935824047,-0.005952148086054858,36.11015108877802,27.360147262271177
goals: 27.357323320558923,30.342864310200444,-66.02861463310073,-0.0059442007225590805,35.668344821636786,27.36012529087339
state: 27.25991336433719,29.897969496369818,-66.83075534482666,-0.5276112264065262,36.05343380444596,26.73230213793066
goals: 27.357325740500478,30.449197831090512,-65.85627927444881,-0.005939246638962416,35.38967594250646,27.360111470714457
goals: 27.357327605401558,30.53049538828276,-65.72315042565485,-0.005935465453724841,35.175249536836255,27.36010085655727
state: 27.25991336433719,30.24971031397417,-66.30314411842012,-0.5276112264065262,35.349952169237255,26.73230213793066
goals: 27.357326926251616,30.501335469153428,-65.77104333542586,-0.005936819466474853,35.25230236562365,27.360104659055395
goals: 27.35731935443324,30.16908110552666,-66.30601773641301,-0.005952307111801333,36.11953112895753,27.360147666546766
state: 27.435783773139363,30.24971031397417,-65.95140330081578,-0.5276112264065262,34.99821135163291,26.73230213793066
goals: 27.357310464354924,29.767190121272872,-66.92826972472426,-0.005971166741434309,37.14367409999718,27.360198829881806
goals: 27.357301593335308,29.353335266641036,-67.54278548902087,-0.005990733124787167,38.17204471737845,27.3602506236633
state: 27.435783773139363,29.722099087567646,-66.30314411842012,-0.5276112264065262,36.75691543965466,26.73230213793066
goals: 27.357292785973584,28.92964075157546,-68.14647006344906,-0.006010918850012996,39.19942380531066,27.360302799429967
goals: 27.357283987104093,28.49347639078516,-68.74308919557352,-0.006031863098881904,40.23220729663932,27.360355697640866
state: 27.435783773139363,28.842747043556763,-67.71010738883754,-0.5276112264065262,39.04323075408294,26.73230213793066
goals: 27.357275208947218,28.045380536447787,-69.33175280925848,-0.006053555701981982,41.26896676305242,27.360409264558598
goals: 27.357266464069266,27.585985064419198,-69.91158567358801,-0.006075981740992268,42.308195097780015,27.360463440414787
state: 27.435783773139363,27.96339499954589,-69.11707065925494,-0.5276112264065262,41.153675659709045,26.73230213793066
goals: 27.35725774303983,27.11479593808783,-70.48318588822694,-0.006099181589443207,43.350984437096166,27.360518300549383
goals: 27.35724901559022,26.63009284039716,-71.04846574315904,-0.006123258355737997,44.40096738803458,27.360574058614034
state: 27.435783773139363,27.084042955535015,-70.17229311206799,-0.5276112264065262,43.08825015653298,26.73230213793066
goals: 27.357240392912498,26.138152490486878,-71.60024698439125,-0.006147916380129967,45.44468897748369,27.360630015944412
