RAMEL-ESPOL/ARCHIE/manipulator_description/datos.txt
Joint0,Joint1,Joint2,Joint3,Joint4,Joint5 
state: -0.17587040880217542,-0.35174081760435083,-0.17587040880217542,0.0,-0.17587040880217542,0.35174081760435083
goals: 0.0,0.0,0.0,0.0,0.0,0.0
goals: 0.0,0.0,0.0,0.0,0.0,0.0
state: -0.17587040880217542,-0.17587040880217542,-0.17587040880217542,0.0,-0.17587040880217542,0.35174081760435083
goals: 0.0,0.0,0.0,0.0,0.0,0.0
goals: 0.0,0.0,0.0,0.0,0.0,0.0
state: -0.17587040880217542,-0.17587040880217542,-0.17587040880217542,0.0,-0.17587040880217542,0.35174081760435083
goals: 0.0,0.0,0.0,0.0,0.0,0.0
goals: 0.0,0.0,0.0,0.0,0.0,0.0
state: -0.17587040880217542,-0.17587040880217542,-0.17587040880217542,0.0,-0.17587040880217542,0.35174081760435083
goals: 0.0,0.0,0.0,0.0,0.0,0.0
goals: 0.0,0.0,0.0,0.0,0.0,0.0
state: -0.17587040880217542,-0.17587040880217542,-0.17587040880217542,0.0,-0.17587040880217542,0.35174081760435083
goals: 0.0,0.0,0.0,0.0,0.0,0.0
goals: 0.0,0.0,0.0,0.0,0.0,0.0
state: -0.17587040880217542,-0.17587040880217542,-0.17587040880217542,0.0,0.0,0.35174081760435083
goals: 0.0,0.0,0.0,0.0,0.0,0.0
goals: 0.0,0.0,0.0,0.0,0.0,0.0
state: -0.17587040880217542,-0.17587040880217542,-0.17587040880217542,0.0,0.0,0.35174081760435083
goals: 0.0,0.0,0.0,0.0,0.0,0.0
goals: 0.0,0.0,0.0,0.0,0.0,0.0
state: -0.17587040880217542,-0.17587040880217542,-0.17587040880217542,0.0,0.0,0.35174081760435083
goals: 0.0,0.0,0.0,0.0,0.0,0.0
goals: 0.0,0.0,0.0,0.0,0.0,0.0
state: -0.17587040880217542,0.0,-0.17587040880217542,0.0,0.0,0.35174081760435083
goals: 0.0,0.0,0.0,0.0,0.0,0.0
goals: 0.0,0.0,0.0,0.0,0.0,0.0
state: -0.17587040880217542,0.0,-0.17587040880217542,0.0,0.0,0.35174081760435083
goals: 0.0,0.0,0.0,0.0,0.0,0.0
goals: 0.0,0.0,0.0,0.0,0.0,0.0
state: -0.17587040880217542,0.0,-0.17587040880217542,0.0,0.0,0.35174081760435083
goals: 0.0,0.0,0.0,0.0,0.0,0.0
goals: 0.0,0.0,0.0,0.0,0.0,0.0
state: -0.17587040880217542,0.0,-0.17587040880217542,0.0,0.0,0.35174081760435083
goals: 0.0,0.0,0.0,0.0,0.0,0.0
goals: 0.0,0.0,0.0,0.0,0.0,0.0
state: -0.17587040880217542,0.0,-0.17587040880217542,0.0,0.0,0.35174081760435083
goals: 0.0,0.0,0.0,0.0,0.0,0.0
goals: 0.0,0.0,0.0,0.0,0.0,0.0
state: -0.17587040880217542,0.0,-0.17587040880217542,0.0,0.0,0.35174081760435083
goals: 0.0,0.0,0.0,0.0,0.0,0.0
goals: 0.0,0.0,0.0,0.0,0.0,0.0
state: -0.17587040880217542,0.0,-0.17587040880217542,0.0,0.0,0.35174081760435083
goals: 0.0,0.0,0.0,0.0,0.0,0.0
goals: 0.0,0.0,0.0,0.0,0.0,0.0
state: -0.17587040880217542,0.0,-0.17587040880217542,0.0,0.0,0.35174081760435083
goals: 0.0,0.0,0.0,0.0,0.0,0.0
goals: 0.0,0.0,0.0,0.0,0.0,0.0
state: 0.0,0.0,-0.17587040880217542,0.0,0.0,0.35174081760435083
goals: 0.0,0.0,0.0,0.0,0.0,0.0
goals: 0.0,0.0,0.0,0.0,0.0,0.0
state: 0.0,0.0,-0.17587040880217542,0.0,0.0,0.35174081760435083
goals: 0.0,0.0,0.0,0.0,0.0,0.0
goals: 0.0,0.0,0.0,0.0,0.0,0.0
state: 0.0,0.0,-0.17587040880217542,0.0,0.0,0.35174081760435083
goals: 0.0,0.0,0.0,0.0,0.0,0.0
goals: 0.0,0.0,0.0,0.0,0.0,0.0
state: 0.0,0.0,-0.17587040880217542,0.0,0.0,0.35174081760435083
goals: 0.0,0.0,0.0,0.0,0.0,0.0
goals: 0.0,0.0,0.0,0.0,0.0,0.0
state: 0.0,0.0,-0.17587040880217542,0.0,0.0,0.35174081760435083
goals: 0.0,0.0,0.0,0.0,0.0,0.0
goals: 0.0,0.0,0.0,0.0,0.0,0.0
state: 0.0,0.0,-0.17587040880217542,0.0,0.0,0.35174081760435083
goals: 0.0,0.0,0.0,0.0,0.0,0.0
goals: 0.0,0.0,0.0,0.0,0.0,0.0
state: 0.0,0.0,-0.17587040880217542,0.0,0.0,0.35174081760435083
goals: 0.0,0.0,0.0,0.0,0.0,0.0
goals: 0.0,0.0,0.0,0.0,0.0,0.0
state: 0.0,0.0,-0.17587040880217542,0.0,0.0,0.35174081760435083
goals: 0.0,0.0,0.0,0.0,0.0,0.0
goals: 0.0,0.0,0.0,0.0,0.0,0.0
state: 0.0,0.0,-0.17587040880217542,0.0,0.0,0.35174081760435083
goals: 0.0,0.0,0.0,0.0,0.0,0.0
goals: 0.0,0.0,0.0,0.0,0.0,0.0
state: 0.0,0.0,-0.17587040880217542,0.0,0.0,0.35174081760435083
goals: 0.0,0.0,0.0,0.0,0.0,0.0
goals: 0.0,0.0,0.0,0.0,0.0,0.0
state: 0.0,0.0,-0.17587040880217542,0.0,0.0,0.35174081760435083
goals: 0.0,0.0,0.0,0.0,0.0,0.0
goals: 0.0,0.0,0.0,0.0,0.0,0.0
state: 0.0,0.0,-0.17587040880217542,0.0,0.0,0.35174081760435083
goals: 0.0,0.0,0.0,0.0,0.0,0.0
goals: 0.0,0.0,0.0,0.0,0.0,0.0
state: 0.0,0.0,-0.17587040880217542,0.0,0.0,0.35174081760435083
goals: 0.0,0.0,0.0,0.0,0.0,0.0
goals: 0.0,0.0,0.0,0.0,0.0,0.0
state: 0.0,0.0,-0.17587040880217542,0.0,0.0,0.35174081760435083
goals: 0.0,0.0,0.0,0.0,0.0,0.0
goals: -4.004338514400194e-06,-9.44868833833807e-06,4.428680722679738e-06,-3.614763421986468e-06,9.18493773732529e-06,-5.638392987147923e-06
state: 0.0,0.0,-0.17587040880217542,0.0,0.0,0.17587040880217542
goals: -0.004741206674415405,-0.011187411866678744,0.005243635253541789,-0.0042799429671399915,0.010875126552785849,-0.006675955683443767
goals: -0.004741206674415405,-0.011187411866678744,0.005243635253541789,-0.0042799429671399915,0.010875126552785849,-0.006675955683443767
state: 0.0,0.0,-0.17587040880217542,0.0,0.0,0.35174081760435083
goals: -0.004741206674415405,-0.011187411866678744,0.005243635253541789,-0.0042799429671399915,0.010875126552785849,-0.006675955683443767
goals: -0.004741206674415405,-0.011187411866678744,0.005243635253541789,-0.0042799429671399915,0.010875126552785849,-0.006675955683443767
state: 0.0,0.0,-0.17587040880217542,0.0,0.0,0.17587040880217542
goals: -0.004741206674415405,-0.011187411866678744,0.005243635253541789,-0.0042799429671399915,0.010875126552785849,-0.006675955683443767
goals: -0.004741206674415405,-0.011187411866678744,0.005243635253541789,-0.0042799429671399915,0.010875126552785849,-0.006675955683443767
state: 0.0,0.0,0.17587040880217542,0.0,0.0,0.17587040880217542
goals: -0.004741206674415405,-0.011187411866678744,0.005243635253541789,-0.0042799429671399915,0.010875126552785849,-0.006675955683443767
goals: -0.004741206674415405,-0.011187411866678744,0.005243635253541789,-0.0042799429671399915,0.010875126552785849,-0.006675955683443767
state: 0.0,0.0,0.17587040880217542,0.0,0.0,0.17587040880217542
goals: -0.004741206674415405,-0.011187411866678744,0.005243635253541789,-0.0042799429671399915,0.010875126552785849,-0.006675955683443767
goals: -0.004741206674415405,-0.011187411866678744,0.005243635253541789,-0.0042799429671399915,0.010875126552785849,-0.006675955683443767
state: 0.0,0.0,0.17587040880217542,0.0,0.0,0.17587040880217542
goals: -0.004741206674415405,-0.011187411866678744,0.005243635253541789,-0.0042799429671399915,0.010875126552785849,-0.006675955683443767
goals: -0.004741206674415405,-0.011187411866678744,0.005243635253541789,-0.0042799429671399915,0.010875126552785849,-0.006675955683443767
state: 0.0,0.0,0.17587040880217542,0.0,0.0,0.17587040880217542
goals: -0.004741206674415405,-0.011187411866678744,0.005243635253541789,-0.0042799429671399915,0.010875126552785849,-0.006675955683443767
goals: -0.004741206674415405,-0.011187411866678744,0.005243635253541789,-0.0042799429671399915,0.010875126552785849,-0.006675955683443767
state: 0.0,0.0,0.17587040880217542,0.0,0.0,0.17587040880217542
goals: -0.004741206674415405,-0.011187411866678744,0.005243635253541789,-0.0042799429671399915,0.010875126552785849,-0.006675955683443767
goals: -0.004741206674415405,-0.011187411866678744,0.005243635253541789,-0.0042799429671399915,0.010875126552785849,-0.006675955683443767
state: 0.0,0.0,0.17587040880217542,0.0,0.0,0.17587040880217542
goals: -0.004741206674415405,-0.011187411866678744,0.005243635253541789,-0.0042799429671399915,0.010875126552785849,-0.006675955683443767
goals: -0.004741206674415405,-0.011187411866678744,0.005243635253541789,-0.0042799429671399915,0.010875126552785849,-0.006675955683443767
state: 0.0,0.0,0.17587040880217542,0.0,0.0,0.35174081760435083
goals: -0.004741206674415405,-0.011187411866678744,0.005243635253541789,-0.0042799429671399915,0.010875126552785849,-0.006675955683443767
goals: -0.004741206674415405,-0.011187411866678744,0.005243635253541789,-0.0042799429671399915,0.010875126552785849,-0.006675955683443767
state: 0.0,0.0,0.17587040880217542,0.0,0.0,0.35174081760435083
goals: -0.004741206674415405,-0.011187411866678744,0.005243635253541789,-0.0042799429671399915,0.010875126552785849,-0.006675955683443767
goals: -0.004741206674415405,-0.011187411866678744,0.005243635253541789,-0.0042799429671399915,0.010875126552785849,-0.006675955683443767
state: 0.0,0.0,0.17587040880217542,0.0,0.0,0.17587040880217542
goals: -0.004741206674415405,-0.011187411866678744,0.005243635253541789,-0.0042799429671399915,0.010875126552785849,-0.006675955683443767
goals: -0.004741206674415405,-0.011187411866678744,0.005243635253541789,-0.0042799429671399915,0.010875126552785849,-0.006675955683443767
state: 0.0,0.0,0.17587040880217542,0.0,0.0,0.17587040880217542
goals: -0.004741206674415405,-0.011187411866678744,0.005243635253541789,-0.0042799429671399915,0.010875126552785849,-0.006675955683443767
goals: -0.004741206674415405,-0.011187411866678744,0.005243635253541789,-0.0042799429671399915,0.010875126552785849,-0.006675955683443767
state: 0.0,0.0,0.17587040880217542,0.0,0.0,0.17587040880217542
goals: -0.004741206674415405,-0.011187411866678744,0.005243635253541789,-0.0042799429671399915,0.010875126552785849,-0.006675955683443767
goals: -0.004741206674415405,-0.011187411866678744,0.005243635253541789,-0.0042799429671399915,0.010875126552785849,-0.006675955683443767
state: 0.0,0.0,0.17587040880217542,0.0,0.0,0.17587040880217542
goals: -0.004741206674415405,-0.011187411866678744,0.005243635253541789,-0.0042799429671399915,0.010875126552785849,-0.006675955683443767
goals: -0.004741206674415405,-0.011187411866678744,0.005243635253541789,-0.0042799429671399915,0.010875126552785849,-0.006675955683443767
state: 0.0,0.0,0.17587040880217542,0.0,0.0,0.17587040880217542
goals: -0.004741206674415405,-0.011187411866678744,0.005243635253541789,-0.0042799429671399915,0.010875126552785849,-0.006675955683443767
goals: -0.004741206674415405,-0.011187411866678744,0.005243635253541789,-0.0042799429671399915,0.010875126552785849,-0.006675955683443767
state: 0.0,0.0,0.17587040880217542,0.0,0.0,0.17587040880217542
goals: -0.004741206674415405,-0.011187411866678744,0.005243635253541789,-0.0042799429671399915,0.010875126552785849,-0.006675955683443767
goals: -0.004741206674415405,-0.011187411866678744,0.005243635253541789,-0.0042799429671399915,0.010875126552785849,-0.006675955683443767
state: 0.0,0.0,0.17587040880217542,0.0,0.0,0.17587040880217542
goals: -0.004741206674415405,-0.011187411866678744,0.005243635253541789,-0.0042799429671399915,0.010875126552785849,-0.006675955683443767
goals: -0.004741206674415405,-0.011187411866678744,0.005243635253541789,-0.0042799429671399915,0.010875126552785849,-0.006675955683443767
state: 0.0,0.0,0.17587040880217542,0.0,0.0,0.17587040880217542
goals: -0.004741206674415405,-0.011187411866678744,0.005243635253541789,-0.0042799429671399915,0.010875126552785849,-0.006675955683443767
goals: -0.004741206674415405,-0.011187411866678744,0.005243635253541789,-0.0042799429671399915,0.010875126552785849,-0.006675955683443767
state: 0.0,0.0,0.17587040880217542,0.0,0.0,0.17587040880217542
goals: -0.004741206674415405,-0.011187411866678744,0.005243635253541789,-0.0042799429671399915,0.010875126552785849,-0.006675955683443767
goals: -0.004741206674415405,-0.011187411866678744,0.005243635253541789,-0.0042799429671399915,0.010875126552785849,-0.006675955683443767
state: 0.0,0.0,0.17587040880217542,0.0,0.0,0.17587040880217542
goals: -0.004741206674415405,-0.011187411866678744,0.005243635253541789,-0.0042799429671399915,0.010875126552785849,-0.006675955683443767
goals: -0.004741206674415405,-0.011187411866678744,0.005243635253541789,-0.0042799429671399915,0.010875126552785849,-0.006675955683443767
state: 0.0,0.0,0.17587040880217542,0.0,0.0,0.17587040880217542
goals: -0.004741206674415405,-0.011187411866678744,0.005243635253541789,-0.0042799429671399915,0.010875126552785849,-0.006675955683443767
goals: -0.004741206674415405,-0.011187411866678744,0.005243635253541789,-0.0042799429671399915,0.010875126552785849,-0.006675955683443767
state: 0.0,0.0,0.17587040880217542,0.17587040880217542,0.0,0.35174081760435083
goals: -0.004741206674415405,-0.011187411866678744,0.005243635253541789,-0.0042799429671399915,0.010875126552785849,-0.006675955683443767
goals: -0.004741206674415405,-0.011187411866678744,0.005243635253541789,-0.0042799429671399915,0.010875126552785849,-0.006675955683443767
state: 0.0,0.17587040880217542,0.5276112264065262,0.5276112264065262,0.5276112264065262,0.17587040880217542
goals: -0.004741206674415405,-0.011187411866678744,0.005243635253541789,-0.0042799429671399915,0.010875126552785849,-0.006675955683443767
goals: -0.004741206674415405,-0.011187411866678744,0.005243635253541789,-0.0042799429671399915,0.010875126552785849,-0.006675955683443767
state: 0.17587040880217542,0.35174081760435083,0.8793520440108771,0.5276112264065262,0.7034816352087017,-0.8793520440108771
goals: -0.004741206674415405,-0.011187411866678744,0.005243635253541789,-0.0042799429671399915,0.010875126552785849,-0.006675955683443767
goals: -0.004741206674415405,-0.011187411866678744,0.005243635253541789,-0.0042799429671399915,0.010875126552785849,-0.006675955683443767
state: 0.0,0.0,0.5276112264065262,0.35174081760435083,0.35174081760435083,-0.7034816352087017
goals: -0.004741206674415405,-0.011187411866678744,0.005243635253541789,-0.0042799429671399915,0.010875126552785849,-0.006675955683443767
goals: -0.004741206674415405,-0.011187411866678744,0.005243635253541789,-0.0042799429671399915,0.010875126552785849,-0.006675955683443767
state: -0.17587040880217542,-0.17587040880217542,0.35174081760435083,0.0,0.35174081760435083,-0.7034816352087017
goals: -0.004741206674415405,-0.011187411866678744,0.005243635253541789,-0.0042799429671399915,0.010875126552785849,-0.006675955683443767
goals: -0.004741206674415405,-0.011187411866678744,0.005243635253541789,-0.0042799429671399915,0.010875126552785849,-0.006675955683443767
state: 0.0,-0.17587040880217542,0.5276112264065262,0.0,0.35174081760435083,-0.7034816352087017
goals: -0.004741206674415405,-0.011187411866678744,0.005243635253541789,-0.0042799429671399915,0.010875126552785849,-0.006675955683443767
goals: -0.004741206674415405,-0.011187411866678744,0.005243635253541789,-0.0042799429671399915,0.010875126552785849,-0.006675955683443767
state: 0.0,-0.17587040880217542,0.5276112264065262,0.0,0.35174081760435083,-0.7034816352087017
goals: -0.004741206674415405,-0.011187411866678744,0.005243635253541789,-0.0042799429671399915,0.010875126552785849,-0.006675955683443767
goals: -0.004741206674415405,-0.011187411866678744,0.005243635253541789,-0.0042799429671399915,0.010875126552785849,-0.006675955683443767
state: 0.0,-0.17587040880217542,0.35174081760435083,0.0,0.35174081760435083,-0.7034816352087017
goals: -0.004741206674415405,-0.011187411866678744,0.005243635253541789,-0.0042799429671399915,0.010875126552785849,-0.006675955683443767
goals: -0.004741206674415405,-0.011187411866678744,0.005243635253541789,-0.0042799429671399915,0.010875126552785849,-0.006675955683443767
state: 0.0,-0.17587040880217542,0.35174081760435083,0.0,0.17587040880217542,-0.7034816352087017
goals: -0.004741206674415405,-0.011187411866678744,0.005243635253541789,-0.0042799429671399915,0.010875126552785849,-0.006675955683443767
goals: -0.004741206674415405,-0.011187411866678744,0.005243635253541789,-0.0042799429671399915,0.010875126552785849,-0.006675955683443767
state: 0.0,-0.17587040880217542,0.17587040880217542,0.0,0.17587040880217542,-0.7034816352087017
goals: -0.004741206674415405,-0.011187411866678744,0.005243635253541789,-0.0042799429671399915,0.010875126552785849,-0.006675955683443767
goals: -0.004741206674415405,-0.011187411866678744,0.005243635253541789,-0.0042799429671399915,0.010875126552785849,-0.006675955683443767
state: -0.17587040880217542,-0.17587040880217542,0.17587040880217542,0.0,0.17587040880217542,-0.7034816352087017
goals: -0.004741206674415405,-0.011187411866678744,0.005243635253541789,-0.0042799429671399915,0.010875126552785849,-0.006675955683443767
goals: -0.004741206674415405,-0.011187411866678744,0.005243635253541789,-0.0042799429671399915,0.010875126552785849,-0.006675955683443767
state: -0.17587040880217542,-0.17587040880217542,0.17587040880217542,0.0,0.17587040880217542,-0.7034816352087017
goals: -0.004741206674415405,-0.011187411866678744,0.005243635253541789,-0.0042799429671399915,0.010875126552785849,-0.006675955683443767
goals: -0.004741206674415405,-0.011187411866678744,0.005243635253541789,-0.0042799429671399915,0.010875126552785849,-0.006675955683443767
state: 0.0,-0.17587040880217542,0.17587040880217542,0.0,0.17587040880217542,-0.7034816352087017
goals: -0.004741206674415405,-0.011187411866678744,0.005243635253541789,-0.0042799429671399915,0.010875126552785849,-0.006675955683443767
goals: -0.004741206674415405,-0.011187411866678744,0.005243635253541789,-0.0042799429671399915,0.010875126552785849,-0.006675955683443767
state: 0.0,-0.17587040880217542,0.17587040880217542,0.0,0.17587040880217542,-0.7034816352087017
goals: -0.004741206674415405,-0.011187411866678744,0.005243635253541789,-0.0042799429671399915,0.010875126552785849,-0.006675955683443767
goals: -0.004741206674415405,-0.011187411866678744,0.005243635253541789,-0.0042799429671399915,0.010875126552785849,-0.006675955683443767
state: -0.17587040880217542,-0.17587040880217542,0.0,0.0,0.17587040880217542,-0.7034816352087017
goals: -0.004741206674415405,-0.011187411866678744,0.005243635253541789,-0.0042799429671399915,0.010875126552785849,-0.006675955683443767
goals: -0.004741206674415405,-0.011187411866678744,0.005243635253541789,-0.0042799429671399915,0.010875126552785849,-0.006675955683443767
state: -0.17587040880217542,-0.17587040880217542,0.0,0.0,0.0,-0.7034816352087017
goals: -0.004741206674415405,-0.011187411866678744,0.005243635253541789,-0.0042799429671399915,0.010875126552785849,-0.006675955683443767
goals: -0.004741206674415405,-0.011187411866678744,0.005243635253541789,-0.0042799429671399915,0.010875126552785849,-0.006675955683443767
state: -0.17587040880217542,-0.17587040880217542,0.0,0.0,0.0,-0.7034816352087017
goals: -0.004741206674415405,-0.011187411866678744,0.005243635253541789,-0.0042799429671399915,0.010875126552785849,-0.006675955683443767
goals: -0.004741206674415405,-0.011187411866678744,0.005243635253541789,-0.0042799429671399915,0.010875126552785849,-0.006675955683443767
state: -0.17587040880217542,-0.17587040880217542,0.0,0.0,0.0,-0.7034816352087017
goals: -0.004741206674415405,-0.011187411866678744,0.005243635253541789,-0.0042799429671399915,0.010875126552785849,-0.006675955683443767
goals: -0.004741206674415405,-0.011187411866678744,0.005243635253541789,-0.0042799429671399915,0.010875126552785849,-0.006675955683443767
state: -0.17587040880217542,-0.17587040880217542,0.0,0.0,0.17587040880217542,-0.7034816352087017
goals: -0.004741206674415405,-0.011187411866678744,0.005243635253541789,-0.0042799429671399915,0.010875126552785849,-0.006675955683443767
goals: -0.004741206674415405,-0.011187411866678744,0.005243635253541789,-0.0042799429671399915,0.010875126552785849,-0.006675955683443767
state: -0.17587040880217542,-0.17587040880217542,0.0,0.0,0.0,-0.7034816352087017
goals: -0.004741206674415405,-0.011187411866678744,0.005243635253541789,-0.0042799429671399915,0.010875126552785849,-0.006675955683443767
goals: -0.004741206674415405,-0.011187411866678744,0.005243635253541789,-0.0042799429671399915,0.010875126552785849,-0.006675955683443767
state: -0.17587040880217542,-0.17587040880217542,0.0,0.0,0.0,-0.7034816352087017
goals: -0.004741206674415405,-0.011187411866678744,0.005243635253541789,-0.0042799429671399915,0.010875126552785849,-0.006675955683443767
goals: -0.004741206674415405,-0.011187411866678744,0.005243635253541789,-0.0042799429671399915,0.010875126552785849,-0.006675955683443767
state: -0.17587040880217542,-0.17587040880217542,0.0,0.0,0.0,-0.7034816352087017
goals: -0.004741206674415405,-0.011187411866678744,0.005243635253541789,-0.0042799429671399915,0.010875126552785849,-0.006675955683443767
goals: -0.004741206674415405,-0.011187411866678744,0.005243635253541789,-0.0042799429671399915,0.010875126552785849,-0.006675955683443767
state: -0.17587040880217542,-0.17587040880217542,0.0,0.0,0.0,-0.7034816352087017
goals: -0.004741206674415405,-0.011187411866678744,0.005243635253541789,-0.0042799429671399915,0.010875126552785849,-0.006675955683443767
goals: -0.004741206674415405,-0.011187411866678744,0.005243635253541789,-0.0042799429671399915,0.010875126552785849,-0.006675955683443767
state: -0.17587040880217542,-0.17587040880217542,0.0,0.0,0.0,-0.7034816352087017
goals: -0.004741206674415405,-0.011187411866678744,0.005243635253541789,-0.0042799429671399915,0.010875126552785849,-0.006675955683443767
goals: -0.004741206674415405,-0.011187411866678744,0.005243635253541789,-0.0042799429671399915,0.010875126552785849,-0.006675955683443767
state: -0.17587040880217542,-0.17587040880217542,0.0,0.0,0.0,-0.7034816352087017
goals: -0.004730795776610027,-0.011169549610473789,0.005227655921561319,-0.0042799435323603524,0.010873243163483494,-0.006665544862814029
goals: 0.24469872588763739,0.41528856413882853,-0.3755964331512717,-0.004293473862454423,-0.034771938482698196,0.2427621011159305
state: -0.17587040880217542,0.0,-0.7034816352087017,0.0,0.0,-0.7034816352087017
goals: 0.6763116876403635,1.1462341704457615,-1.02516460208246,-0.00431683118176637,-0.11616875131881187,0.674371692109026
goals: 1.1138633489672298,1.878325711969876,-1.6717523765765492,-0.0043404379528395156,-0.20169224999784816,1.1119197777152197
state: 0.7034816352087017,1.231092861615228,-1.9345744968239293,0.0,-0.17587040880217542,0.17587040880217542
goals: 1.5566912568902982,2.6102750314387944,-2.3142173164277753,-0.004364255617841873,-0.29119669075190036,1.55474390803395
goals: 2.003576506839099,3.3399468155674867,-2.950708310641605,-0.004388216232217644,-0.38439781868215717,2.0016251876729263
state: 1.4069632704174033,2.638056132032631,-3.165667358439157,0.0,-0.35174081760435083,1.0552224528130525
goals: 2.4572035510047474,4.071563285555364,-3.5849150691926805,-0.004412460946013043,-0.4818282702576968,2.4552480431164287
goals: 2.9155612523343852,4.80170142337487,-4.21387016657698,-0.004436879270384851,-0.5830323643169193,2.9136013537773158
state: 2.462185723230456,4.22088981125221,-4.22088981125221,0.0,-0.7034816352087017,1.9345744968239293
goals: 3.3816892106346064,5.534997284175245,-4.84155761151831,-0.004461629823330276,-0.6886622905592771,3.379724687872827
goals: 3.8526249126832868,6.266584704034909,-5.463804259961327,-0.004486551914001515,-0.7980248961174067,3.850655559190834
state: 3.3415377672413324,5.803723490471789,-5.803723490471789,0.0,-0.7034816352087017,2.9897969496369825
goals: 4.328880850468047,6.997130242436401,-6.081203857988622,-0.004511669887006669,-0.9111930210792898,4.3269064534763775
goals: 4.812705024718037,7.729874294882008,-6.696489874630532,-0.00453709872718348,-1.0286737004839792,4.810725345429345
state: 4.396760220054386,7.386557169691368,-7.034816352087017,0.0,-1.0552224528130525,3.693278584845684
goals: 5.300350296417218,8.458980945628609,-7.304778180762811,-0.004562638279160665,-1.149514975711888,5.298365135606565
goals: 5.796371709974548,9.191079305937537,-7.911609144147065,-0.004588523603227939,-1.2748058081206208,5.7943808156422225
state: 5.451982672867437,8.969390848910946,-7.914168396097894,0.0,-1.231092861615228,4.924371446460912
goals: 6.298075435559879,9.921962082838844,-8.513485870808447,-0.0046146100391305876,-1.4038356757425667,6.296078584551177
goals: 6.80815047662526,10.655319404672793,-9.113441996833465,-0.004641033245069882,-1.5372612028171682,6.8061474117654415
state: 6.331334716878314,10.37635411932835,-8.969390848910946,0.0,-1.4069632704174033,5.803723490471789
goals: 7.32299650971961,11.385776272948561,-9.707088542904009,-0.004667602743161458,-1.6740962024790311,7.320987016181893
goals: 7.846342403785439,12.118425768097762,-10.298575803377267,-0.0046945068907357475,-1.815283643634881,7.844326218823055
state: 7.562427578493542,11.783317389745752,-10.200483710526175,0.0,-1.7587040880217542,6.858945943284841
goals: 8.374239936543365,12.847551801520456,-10.883304950831583,-0.004721538629436887,-1.9597060789906962,8.37221684678532
goals: 8.912110478969716,13.58041653133812,-11.467103695181423,-0.004748970948116842,-2.1087982237222516,8.910080198598035
state: 8.617650031306594,13.542021477767507,-11.783317389745752,0.0,-2.110444905626105,7.914168396097894
goals: 9.456109870421031,14.311515277169384,-12.04557653499576,-0.004776602585074623,-2.261450717091399,9.454072162982074
goals: 10.00777224505624,15.042712225671966,-12.620217657232377,-0.004804506886139454,-2.418033638138186,10.005726852347388
state: 9.497002075317472,14.948984748184909,-12.662669433756628,0.0,-2.462185723230456,8.793520440108772
goals: 10.566202660371117,15.77260906269398,-13.189943476400726,-0.004832633705662327,-2.578232218857675,10.564149335782325
goals: 11.134156434098323,16.50454812621374,-13.757362852237769,-0.004861116235195231,-2.7427800787967644,11.132094890488714
state: 10.903965345734875,16.355948018602312,-14.069632704174033,0.0,-2.462185723230456,10.024613301724
goals: 11.710561833282526,17.236846575168762,-14.321157775794681,-0.004889894451607695,-2.9113123386478996,11.708491797196054
goals: 12.293290919804381,17.966592051875153,-14.879109730904336,-0.004918856786170436,-3.0831350556029156,12.2912121488349
state: 11.95918779854793,17.93878169782189,-14.948984748184909,0.0,-2.8139265408348066,11.255706163339227
goals: 12.885731760505,18.697788225968026,-15.434294824641121,-0.004948165745547025,-3.2591759672496647,12.883643960924056
goals: 13.48776194811045,19.429960257754434,-15.986339344846497,-0.004977808109491242,-3.4393339464383055,13.48566482656422
state: 13.190280660163156,19.345744968239295,-16.180077609800136,0.0,-3.165667358439157,12.486799024954456
goals: 14.098959590317824,20.16229153994446,-16.534625021985526,-0.005007755965256373,-3.6234106404274073,14.096852859015707
goals: 14.718649931485178,20.893704123823674,-17.078357271846514,-0.005037969330467639,-3.8111226563617397,14.71653331296827
state: 14.421373521778381,20.928578647458874,-17.411170471415367,0.0,-3.5174081760435083,13.717891886569682
goals: 15.34600856930232,21.623000200900048,-17.616676127583606,-0.005068401479075868,-4.0021321158450975,15.343881799792523
goals: 15.984618932578499,22.35405203804612,-18.152449294861235,-0.005099218508314021,-4.197443770720745,15.982481690223059
state: 15.652466383393612,22.511412326678453,-18.290522515426247,0.0,-3.8691489936478587,14.948984748184909
goals: 16.63632213155208,23.08853444442582,-18.686869885468298,-0.005130499242105917,-4.397539422147102,16.634174062806014
goals: 17.299091075213177,23.82374125634788,-19.217942979021515,-0.0051621361601522225,-4.601707730230995,17.296931859207977
state: 17.059429653811016,23.91837559709586,-19.345744968239295,0.0,-4.396760220054386,16.180077609800136
goals: 17.969481640011892,24.555580594879395,-19.742740507379043,-0.0051939565453427506,-4.808784710906843,17.96731101488866
goals: 18.652558649532025,25.289272942810822,-20.265024842827312,-0.005226191595700794,-5.020228747542282,18.650376268217144
state: 18.642263333030595,25.325338867513256,-20.40096742105235,0.0,-4.748501037658736,17.587040880217543
goals: 19.345104353565215,26.02101079403856,-20.7820934738936,-0.00525867925802252,-5.234934683721956,19.34290992520366
goals: 20.04674883621862,26.75015138276569,-21.293534796478337,-0.0052913932201636435,-5.452671344566255,20.04454207861605
state: 19.873356194645822,26.90817254673284,-21.632060282667577,0.0,-5.276112264065262,18.818133741832767
goals: 20.762207534550658,27.481235255765778,-21.802545790245016,-0.005324542237286813,-5.67478255675641,20.75998808414557
goals: 21.49136231519807,28.213669053466756,-22.308694912677552,-0.005358107375038743,-5.901106507130892,21.48912981135888
state: 21.456189873865398,28.31513581715024,-22.33554191787628,0.0,-5.979593899273965,20.225097012250174
goals: 22.22154408235445,28.934590090277666,-22.803178988985056,-0.005391497425587459,-6.127583007241763,22.219298395551927
goals: 22.95411659599038,29.645500915102126,-23.287200423444705,-0.005424771777154,-6.354512275415677,22.951857579097602
state: 22.8631531442828,29.722099087567646,-23.39076437068933,0.0,-6.331334716878314,21.632060282667577
goals: 23.683786180717515,30.341512915741333,-23.757624569589428,-0.00545768877513121,-6.580140055923986,23.681513790634092
goals: 24.417806661565027,31.02973926179566,-24.219432823588193,-0.005490573482678171,-6.806598518097899,24.415520729438892
state: 24.270116414700208,31.129062357985053,-24.270116414700208,0.0,-6.683075534482665,23.214893961887157
goals: 25.145843078702534,31.700750601849222,-24.666484743481927,-0.005522962141143135,-7.03059818175795,25.14354363388233
goals: 25.885040578709898,32.370444704394316,-25.109509927879824,-0.005555613492139496,-7.25730816500513,25.8827273386911
state: 25.852950093919787,32.36015521960027,-24.97359804990891,0.0,-7.210686760889191,24.62185723230456
goals: 26.608588385121458,33.01484358249879,-25.532836655694496,-0.005587343828157285,-7.478420709075023,26.60626157530394
goals: 27.343027034776075,33.65789851849896,-25.95238704585998,-0.005619317725100952,-7.701966455431856,27.34068639028063
state: 27.25991336433719,33.76711849001768,-26.02882050272196,0.0,-7.562427578493542,26.02882050272196
goals: 28.07160787743865,34.28502713702708,-26.358767358485526,-0.0056508020001918265,-7.922755829426287,28.069253454860206
goals: 28.805932293957213,34.90641112532957,-26.75872305049893,-0.005682296385974083,-8.144225713580466,28.80356393705437
state: 28.66687663475459,34.822340942830735,-26.90817254673284,0.0,-7.914168396097894,27.61165418194154
goals: 29.533760102328326,35.51189488374208,-27.145861645409266,-0.005713274627169587,-8.362612289529622,29.531377893521086
goals: 30.184735236324087,36.04481706252501,-27.48449922358876,-0.005740780126850633,-8.556934090769223,30.182340608834032
state: 30.073839905171997,35.87756339564378,-27.61165418194154,0.0,-8.44177962250442,28.842747043556763
goals: 30.26465321137597,36.13036877511673,-27.76527974033973,-0.005743271470927319,-8.361709864419103,30.262268866436038
goals: 30.26464511221287,36.19222543717353,-28.519299747612024,-0.0057406639348849264,-7.66954652001349,30.26229806646309
state: 30.425580722776346,36.229304213248135,-28.842747043556763,0.0,-8.617650031306594,29.546228678765473
goals: 30.264636790522236,36.25051696477156,-29.292297358290284,-0.005738209266594355,-6.954840437770806,30.26232822708929
goals: 30.264628381527096,36.30390951285681,-30.071553993871632,-0.00573596307906139,-6.228976351126744,30.2623588713626
state: 30.425580722776346,36.58104503085249,-30.073839905171997,0.0,-7.562427578493542,29.370358269963294
goals: 30.264619972848617,36.351668391140514,-30.84885970599976,-0.005733955648881883,-5.499429518140216,30.262389686973652
goals: 30.264611564007637,36.393702337497146,-31.62419668564001,-0.005732190202480052,-4.766126485720566,30.262420680202684
state: 30.425580722776346,36.58104503085249,-31.4808031755894,0.0,-5.979593899273965,29.546228678765473
goals: 30.26460312794084,36.430023129514964,-32.39998762704009,-0.005730665704747004,-4.0266563372113255,30.262451956326355
goals: 30.264594662151627,36.4604847277296,-33.17637715104073,-0.005729387813406045,-3.280728412307813,30.262483531273674
state: 30.601451131578518,36.58104503085249,-33.23950726361115,0.0,-4.045019402450034,29.546228678765473
goals: 30.264586165640605,36.48492682731429,-33.953368625862126,-0.00572836284682862,-2.5281790379634677,30.26251541579417
goals: 30.26457765050084,36.5031600388046,-34.72977051098285,-0.005727598410718245,-1.7700103652342396,30.262547571360116
state: 30.425580722776346,36.58104503085249,-34.99821135163291,0.0,-2.638056132032631,29.546228678765473
goals: 30.264569147719346,36.51500861529516,-35.502687916322884,-0.005727101614750628,-1.0089415372916979,30.262579886471105
goals: 30.264561369264587,36.520195217471006,-36.20764194219048,-0.00572688394568676,-0.3091741144359358,30.26260963384314
state: 30.425580722776346,36.58104503085249,-36.229304213248135,0.0,-0.8793520440108771,29.546228678765473
goals: 30.264559243930897,36.520661942011145,-36.39989931075957,-0.00572686427705731,-0.11738347063646518,30.262617793161922
goals: 30.264555173268896,36.52040685745197,-36.76769329928623,-0.005726874724567071,0.2506656020085513,30.26263345884319
state: 30.425580722776346,36.58104503085249,-36.58104503085249,0.0,-0.35174081760435083,29.546228678765473
goals: 30.26454684093923,36.51513459775389,-37.51871889195268,-0.0057270950496173725,1.006963453465276,30.26266568368258
goals: 30.264538394419123,36.503190758253965,-38.27748547266274,-0.005727594855071142,1.7776738727474384,30.26269857203606
state: 30.425580722776346,36.58104503085249,-38.33974911887424,0.0,1.231092861615228,29.546228678765473
goals: 30.264529943978694,36.484488173455816,-39.03396590047089,-0.005728377977327812,2.5528568844176776,30.262731705003166
goals: 30.264521529427476,36.45904828137735,-39.7845433658326,-0.00572944380155869,3.3288742409177687,30.26276493112078
state: 30.425580722776346,36.58104503085249,-39.92258279809381,0.0,2.638056132032631,29.546228678765473
goals: 30.264513084047483,36.42656937896981,-40.535102806937175,-0.005730805362161679,4.1119125834781185,30.262798519718118
goals: 30.264504635013804,36.387005601371165,-41.28314254581785,-0.005732465096627209,4.899516098996831,30.262832370474957
state: 30.425580722776346,36.58104503085249,-41.32954606851122,0.0,4.396760220054386,29.546228678765473
goals: 30.264496166976084,36.34014802001395,-42.02993997854535,-0.005734432408531825,5.69317111211008,30.26286655234673
goals: 30.26448768809953,36.28589333517367,-42.7746883553023,-0.00573671240792298,6.492174172725606,30.262901040393302
state: 30.24971031397417,36.40517462205031,-42.912379747730796,0.0,6.15546430807614,29.546228678765473
goals: 30.26447922181544,36.22428263162087,-43.51525889494619,-0.005739304267023135,7.294355414932902,30.262935746065548
goals: 30.264470741871726,36.155010999643615,-44.25387499660025,-0.005742221855728496,8.102243147563788,30.262970784073673
state: 30.073839905171997,36.229304213248135,-44.3193430181482,0.0,7.738297987295717,29.546228678765473
goals: 30.26446221021566,36.077565915982596,-44.99374113850471,-0.0057454880005662415,8.91955437211292,30.26300632214588
goals: 30.264453672317806,35.992164901736245,-45.730806230610035,-0.005749094938595253,9.742020477437423,30.2630421813632
state: 30.24971031397417,36.05343380444596,-45.7263062885656,0.0,9.497002075317472,29.546228678765473
goals: 30.264445151278377,35.89893698173682,-46.46300723268551,-0.005753038747066582,10.567449398476853,30.26307827191211
goals: 30.264436614597795,35.79741018030992,-47.19306168166418,-0.005757341103834846,11.399030647834476,30.263114739377087
state: 30.073839905171997,35.87756339564378,-47.309139967785185,0.0,11.07983575453705,29.546228678765473
goals: 30.264428039375375,35.68711537463369,-47.922818042735905,-0.0057620238669431525,12.239081813518748,30.263151692815807
goals: 30.264419443385542,35.5680731729136,-48.650648231666665,-0.005767088371570968,13.085954203092022,30.26318906756624
state: 30.073839905171997,35.52582257803944,-48.71610323820259,0.0,12.838539842558804,29.546228678765473
goals: 30.264410887941008,35.44104030222119,-49.37129545046766,-0.0057725047080648614,13.93363429150135,30.263226604685393
goals: 30.26440225282524,35.304048960673896,-50.09478037206961,-0.005778359420912049,14.794110553544408,30.26326484311212
state: 30.24971031397417,35.17408176043509,-50.12306650862,0.0,14.59724393058056,29.546228678765473
goals: 30.264393632887742,35.15838047942411,-50.81303231843399,-0.005784600695211223,15.658030980041993,30.2633033762201
goals: 30.264385085305268,35.00501230844914,-51.521267367744905,-0.0057911894262368275,16.519634199208134,30.2633419525167
state: 30.073839905171997,34.822340942830735,-51.5300297790374,0.0,16.180077609800136,29.546228678765473
goals: 30.264376646174167,34.844753051797234,-52.216542814890815,-0.00579809349881787,17.375168901887857,30.263380407081467
goals: 30.26436823629046,34.67619523767415,-52.90540433926375,-0.005805376428269861,18.2325882392569,30.263419101499142
state: 30.073839905171997,34.822340942830735,-52.936993049454806,0.0,17.93878169782189,29.546228678765473
goals: 30.264359883861626,34.49992360775556,-53.58552764019074,-0.005813016144814131,19.088983168970337,30.26345790996387
goals: 30.264351569911355,34.31557431685472,-54.25845248377015,-0.005821031740375518,19.94625730231052,30.263496924001274
state: 30.073839905171997,34.470600125226376,-54.3439563198722,0.0,19.52161537704147,29.546228678765473
goals: 30.26434330319258,34.1233643182264,-54.9234592332337,-0.0058294173067375415,20.80347404925546,30.263536106586578
goals: 30.2643350657302,33.92288593842123,-55.58197733008816,-0.005838194376459898,21.662470524758653,30.26357554764996
state: 30.073839905171997,33.76711849001768,-55.57504918148744,0.0,21.456189873865398,29.546228678765473
goals: 30.264326895548912,33.71511029040333,-56.23096734922449,-0.00584732422657728,22.519236190752135,30.263615068391477
goals: 30.264318752524368,33.49906161860275,-56.87361684608647,-0.005856853706681094,23.377934358243863,30.26365486632638
state: 30.073839905171997,33.41537767241333,-56.982012451904836,0.0,23.039023553084977,29.546228678765473
goals: 30.264310623760114,33.274356986035045,-57.51090440201216,-0.005866804215216853,24.239926545554198,30.263695011954795
goals: 30.264302617754467,33.04411690487373,-58.13436117672846,-0.0058770415368467645,25.09362340025243,30.263734969502423
state: 30.073839905171997,32.88776644600681,-58.21310531352006,0.0,24.797727641106732,29.546228678765473
goals: 30.264294628961284,32.805435265734204,-58.7522481391934,-0.0058876989657114555,25.950192000665496,30.263775265498698
goals: 30.2642866593924,32.55833006771655,-59.36437080239024,-0.005898780773494166,26.80941986067674,30.263815897776475
state: 30.073839905171997,32.53602562840245,-59.44419817513529,0.0,26.556431729128487,29.546228678765473
goals: 30.2642787663252,32.30463764346954,-59.96633997383558,-0.005910209340226146,27.665081455162316,30.26385657750914
goals: 30.26427087887545,32.04211934246365,-60.56356221810875,-0.005922090568882314,28.524821999220293,30.263897674383816
state: 30.073839905171997,32.00841440199592,-60.67529103675052,0.0,28.491006225952418,29.546228678765473
goals: 30.264263042889628,31.77230030873666,-61.15254763483925,-0.005934360914279938,29.383626448449156,30.263938956016172
goals: 30.26425525834437,31.495260135159697,-61.73331884974694,-0.005947021922125656,30.24143783569765,30.263980425098318
state: 30.073839905171997,31.304932766787225,-61.73051348956357,0.0,30.073839905171997,29.546228678765473
goals: 30.264247552132904,31.212085939699126,-62.30391491370753,-0.005960028858185976,31.095208093879247,30.264021938445048
goals: 30.26423984485916,30.919901753130805,-62.87021745555142,-0.005973519589231046,31.953694821035718,30.26406392852868
state: 30.073839905171997,30.777321540380697,-62.78573594237662,0.0,31.656673584391577,29.546228678765473
goals: 30.264232165973674,30.619779641211522,-63.430023701800664,-0.005987451264875348,32.8136231779367,30.264106244363695
goals: 30.264224570609862,30.313981799065285,-63.97934994519938,-0.006001724499656985,33.66874726221131,30.264148583667613
state: 30.073839905171997,30.24971031397417,-63.84095839518968,0.0,33.591248081215504,29.546228678765473
goals: 30.26421697866635,29.999348869913728,-64.52400484584922,-0.006016492939488404,34.528035090726114,30.264191396884325
goals: 30.264209465236902,29.679051663641662,-65.05861349873375,-0.006031614139337113,35.38294094859243,30.264234264928564
state: 30.073839905171997,29.546228678765473,-65.0720512568049,0.0,35.17408176043509,29.546228678765473
goals: 30.264201961010592,29.350207656934167,-65.58812690362147,-0.006047230676085893,36.24129835888165,30.26427758707342
goals: 30.26419447448719,29.013153938653222,-66.11191126317736,-0.006063334359091004,37.10213643539798,30.264321324356935
state: 30.073839905171997,28.842747043556763,-66.12727370961795,0.0,36.93278584845684,29.546228678765473
goals: 30.264187085007695,28.67158810065022,-66.62446202514559,-0.006079754825848114,37.956253034048075,30.264365014251783
goals: 30.26417969308078,28.321002223987453,-67.1327094639773,-0.006096715684416193,38.81508634820281,30.264409248148606
state: 30.073839905171997,28.139265408348066,-67.18249616243101,0.0,38.69148993647859,29.546228678765473
goals: 30.26417235287309,27.963977237162652,-67.63291918471197,-0.00611410007486838,39.6723210544136,30.26445370987885
goals: 30.2641650497936,27.59988868349595,-68.12611250169812,-0.0061319457556159645,40.529602923705994,30.264498491576774
state: 30.073839905171997,27.435783773139363,-68.0618482064419,0.0,40.45019402450035,29.546228678765473
goals: 30.26415779848141,27.22955487866977,-68.61132972329433,-0.006150220097129128,41.38515394875876,30.26454350713482
goals: 30.264150559255402,26.85099303642201,-69.09123243337274,-0.006169029276853314,42.243618499698385,30.264589009528702
state: 30.073839905171997,26.73230213793066,-69.11707065925494,0.0,42.38476852132428,29.722099087567646
goals: 30.264143375239065,26.4665115359919,-69.56297324538042,-0.006188267019853023,43.09984081074076,30.264634733908622
goals: 30.264136196672087,26.073489507211146,-70.02982539993566,-0.006208073352520555,43.95971499266261,30.264681004164213
state: 30.073839905171997,26.02882050272196,-69.99642270326582,0.0,43.791731791741675,29.722099087567646
goals: 30.264129092403167,25.67577667413079,-70.48733679859788,-0.006228262748540105,44.81493922298562,30.264727381338258
goals: 30.264121999786546,25.2699593780366,-70.93957405194391,-0.006249017025740569,45.672993770988256,30.2647742785288
state: 30.073839905171997,25.149468458711084,-71.05164515607888,0.0,45.550435879763434,29.722099087567646
goals: 30.264114932759064,24.856840358566128,-71.38563537944181,-0.006270305431217603,46.53217411650348,30.264821613919764
goals: 30.264108052406804,24.446167576098116,-71.81550966399804,-0.006291630000574732,47.37272118209257,30.264868296161048
state: 30.073839905171997,24.270116414700208,-71.75512679128757,0.0,46.95739915018084,29.722099087567646
goals: 30.2641047068417,24.243442843062514,-72.02295197782517,-0.006302216767487349,47.78288822825004,30.264891212686567
goals: 30.264102944527416,24.135853625965353,-72.13180547586252,-0.006307851553113604,47.99933094301106,30.264903342222706
state: 30.073839905171997,24.270116414700208,-71.93099720008975,0.0,47.48501037658736,29.722099087567646
goals: 30.747355650850647,23.97462135709374,-72.02127161776482,-0.006330673475408592,48.05000162650845,30.74816805284875
goals: 31.55695346831668,23.69946506530644,-71.83051123090065,-0.006368628683480502,48.13435089495894,31.55778587860673
state: 31.304932766787225,23.74250518829368,-71.93099720008975,-0.35174081760435083,47.83675119419172,30.073839905171997
goals: 32.36121219925757,23.418641702222157,-71.63524111858901,-0.006406049496887749,48.2198575897574,32.36206451209095
goals: 33.17242695680657,23.127802329746025,-71.4323867152228,-0.0064435050908137935,48.3077953733112,33.173299368669916
state: 32.88776644600681,23.214893961887157,-71.75512679128757,-0.7034816352087017,48.01262160299389,30.425580722776346
goals: 33.977247345384846,22.831691396992124,-71.22520652083857,-0.006480376672384915,48.3966790751715,33.97813971975642
goals: 34.78841568769675,22.525585995640927,-71.01034385359193,-0.00651724588921241,48.48787417948777,34.78932820164602
state: 34.470600125226376,22.687282735480625,-71.40338597368321,-0.7034816352087017,48.01262160299389,30.425580722776346
goals: 35.596514185571195,22.212957126135773,-70.79017717195873,-0.006553680703439589,48.580288698297636,35.5974467798228
goals: 36.40349390376675,21.89307187929612,-70.5641403522914,-0.006589769107342615,48.6740893061092,36.40444656457596
state: 35.87756339564378,21.983801100271926,-71.05164515607888,-0.7034816352087017,48.01262160299389,30.95319194918287
goals: 37.211276037297445,21.565134439723185,-70.33161425643269,-0.00662559486858361,48.769452568822885,37.212248795673155
goals: 38.01989295725144,21.229067923762383,-70.09248275849419,-0.0066611561144420805,48.86633924401688,38.020885841826136
state: 37.460397074863366,21.104449056261046,-70.52403392967234,-0.7034816352087017,48.188492011796065,31.656673584391577
goals: 38.81661845964258,20.890280104045534,-69.85055103161666,-0.0066958969242205384,48.96314749970322,38.81763117880723
goals: 39.22025354021095,20.71572810251436,-69.72556257719893,-0.006713383757147498,49.01268673466662,39.221276308473506
state: 38.86736034528077,20.7527082386567,-69.82055229446364,-0.5276112264065262,49.24371446460912,34.822340942830735
goals: 39.865193320573724,20.432736444373663,-69.52243475528066,-0.006741165326228812,49.0925116176995,39.86623214485312
goals: 40.65381496083371,20.07983612446298,-69.26827527423428,-0.006774867938273559,49.1912046487378,40.65487341434771
state: 40.45019402450035,19.873356194645822,-69.46881147685929,-0.7034816352087017,49.24371446460912,37.108656257259014
goals: 41.44100224267022,19.72000787042067,-69.00815058071704,-0.006808212579926055,49.290860296841274,41.44208028196244
goals: 42.22626315011082,19.353481068427808,-68.74216835855881,-0.006841177706531236,49.39135689307281,42.22736071554
state: 41.85715729491775,19.16987455943712,-68.94120025045275,-0.7034816352087017,49.41958487341129,38.16387871007206
goals: 43.010513469394496,18.979826284733964,-68.46995676363753,-0.006873800788064508,49.49275197441183,43.01163051997916
goals: 43.78828024467681,18.601714365599285,-68.19340969034954,-0.006905855751633563,49.59426892958594,43.78941659936921
state: 43.6158613829395,18.290522515426247,-68.23771861524406,-0.7034816352087017,49.595455282213464,39.57084198048947
goals: 44.156302656518186,18.422259783483458,-68.04219012542771,-0.006920322980958174,49.62248122383563,44.157446716415585
goals: 44.07901423300878,18.518976972541825,-67.54472173873319,-0.0069000313907990225,49.02830042506794,44.0801152960667
state: 43.791731791741675,18.46639292422842,-67.71010738883754,-0.7034816352087017,49.595455282213464,40.626064433302524
goals: 43.976281489591166,18.640747589059405,-66.87762106035612,-0.006873531745858335,48.2394354770748,43.977325817766605
goals: 43.87256535293203,18.75583957880744,-66.19731580385063,-0.0068473150143662075,47.44404463531581,43.873552873019065
state: 43.791731791741675,18.46639292422842,-66.65488493602447,-0.5276112264065262,48.540232829400416,40.626064433302524
goals: 43.76927813797106,18.862637219777206,-65.51297579785141,-0.006821731823231217,46.65291336319355,43.770209540231605
goals: 43.66565594860243,18.961955087096893,-64.81950838928289,-0.006796581874026122,45.86013447965133,43.666531493982866
state: 43.791731791741675,18.46639292422842,-65.42379207440925,-0.5276112264065262,46.78152874137866,40.8019348421047
goals: 43.56214330261804,19.053354790627186,-64.11982359698575,-0.0067719647469489845,45.06905636623217,43.56296347977191
goals: 43.45826793082799,19.137237800942867,-63.41066013774099,-0.0067477602461315485,44.27601629824535,43.459032964175016
state: 43.6158613829395,18.46639292422842,-64.3685696215962,-0.5276112264065262,45.022824653356906,40.8019348421047
goals: 43.35468822136623,19.213076920330472,-62.6964609101812,-0.006724112918633187,43.48598433145435,43.355398672364075
goals: 43.25071493987109,19.281377418610916,-61.97241689196719,-0.006700857015475896,42.69364621614427,43.251370994630825
state: 43.439990974137324,18.642263333030595,-62.78573594237662,-0.5276112264065262,43.439990974137324,40.8019348421047
goals: 43.14639279889555,19.342036575014937,-61.23871402048788,-0.006677998888129001,41.89929060768118,43.146994658575785
goals: 43.04125060380707,19.39520629542348,-60.49186561179607,-0.006655434625995845,41.099278945172365,43.04179821865585
state: 43.439990974137324,18.818133741832767,-61.02703185435487,-0.5276112264065262,41.68128688611557,40.8019348421047
goals: 42.93716265726558,19.439974457439174,-59.74515744225898,-0.0066335566387478685,40.30780901211261,42.937656931052665
goals: 42.8340739535421,19.47660490710851,-58.998358874495906,-0.006612332033080309,39.524386328547315,42.83451573951109
state: 43.264120565335155,18.994004150634943,-59.62006858393746,-0.5276112264065262,39.92258279809381,40.8019348421047
goals: 42.73361370618805,19.504928388102062,-58.263600358275085,-0.006592066021442645,38.76131050063655,42.73400465839664
goals: 42.698601352349804,19.521167183315967,-57.99368967564417,-0.006584666177798983,38.47516317225049,42.69897334699288
state: 42.912379747730796,18.994004150634943,-58.56484613112441,-0.5276112264065262,38.69148993647859,40.8019348421047
goals: 42.86278917941885,20.034454599415103,-58.370527676344935,-0.006587720611765525,38.33870367756171,42.86315430191598
goals: 43.13539433021511,20.880973355529658,-58.98775094031017,-0.006592716585346105,38.10939143275997,43.13574783701486
state: 42.912379747730796,20.40096742105235,-58.21310531352006,-0.5276112264065262,38.16387871007206,40.8019348421047
goals: 43.41420160954839,21.739486968431052,-59.60832191702107,-0.006597732490910509,37.87143163993625,43.414542978315716
goals: 43.69504948219629,22.59697229535473,-60.22274689657443,-0.006602693410417301,37.62835398711768,43.695378368913865
state: 43.439990974137324,22.33554191787628,-59.62006858393746,-0.5276112264065262,37.81213789246772,40.8019348421047
goals: 43.975900033915785,23.447240800478692,-60.82669306591355,-0.0066075664101908176,37.382014322492175,43.976216190892785
goals: 44.1299272377181,23.910526754059735,-61.153549492821284,-0.006610202994656361,37.24557528231709,44.13023631120131
state: 43.791731791741675,23.566634779491505,-60.49942062794834,-0.5276112264065262,37.28452666606119,40.8019348421047
goals: 44.159069616749655,23.916228946233513,-61.34200723679448,-0.006615019834065345,37.4283290328628,44.15939085378096
goals: 44.1590627925573,23.60683423298214,-61.81315830025128,-0.006631436197788041,38.20887480814725,44.15943471918437
state: 43.791731791741675,23.74250518829368,-61.554643080761394,-0.35174081760435083,37.28452666606119,40.8019348421047
goals: 44.15905554371473,23.270180128007038,-62.30953254819829,-0.0066494034727748695,39.04190315953819,44.159481832505364
goals: 44.15904832212837,22.926523398191392,-62.79979535010109,-0.00666785766911258,39.87582268971146,44.15952931224738
state: 43.96760220054385,23.039023553084977,-62.433995124772274,-0.35174081760435083,39.21910116288512,40.8019348421047
goals: 44.15904113842198,22.576413912703373,-63.28323204703749,-0.006686776874220377,40.709368870578736,44.15957709436157
goals: 44.15903396248198,22.21839656944834,-63.76185941059003,-0.006706248056138331,41.54601357581032,44.15962538730338
state: 43.96760220054385,22.33554191787628,-63.489217577585315,-0.35174081760435083,40.977805250906876,40.8019348421047
goals: 44.1590267774549,21.851562717777288,-64.23675007531509,-0.006726330522206495,42.38773809060747,44.15967431844862
goals: 44.15901964622506,21.4791363752602,-64.7037383382432,-0.006746856736274627,43.227152694444364,44.15972346822059
state: 43.96760220054385,21.632060282667577,-64.19269921279403,-0.5276112264065262,42.73650933892863,40.8019348421047
goals: 44.15901254984486,21.10022089056062,-65.16409705882491,-0.006767884056878375,44.0664268981037,44.159772970535776
goals: 44.15900543314448,20.711833559811605,-65.62136941301914,-0.006789588471336757,44.912086581398114,44.15982322310029
state: 43.96760220054385,20.7527082386567,-65.42379207440925,-0.5276112264065262,44.49521342695038,40.8019348421047
goals: 44.15899833592552,20.316084380450295,-66.07294868713971,-0.006811863399157886,45.759415033213095,44.159873959969204
goals: 44.15899124184748,19.91204223123225,-66.51984718129236,-0.006834772281481961,46.610355674894386,44.15992531043172
state: 44.143472609346034,20.049226603448,-66.4790145272223,-0.35174081760435083,46.078047106169954,40.977805250906876
goals: 44.15898420715566,19.50296363157677,-66.95853289036454,-0.006858140399127167,47.45811998192339,44.159976874628406
goals: 44.158977197876176,19.086967833940523,-67.39115794803588,-0.006882084542307283,48.306740835514695,44.160028905889945
state: 43.96760220054385,19.16987455943712,-66.83075534482666,-0.35174081760435083,47.83675119419172,41.85715729491775
goals: 44.15897037287753,18.67380365858418,-67.80807111130396,-0.0069060479609794265,49.13681817244459,44.16008021137867
goals: 44.158967126989765,18.474486648439754,-68.00483559826789,-0.006917673759222112,49.53289966873881,44.160104838503464
state: 43.96760220054385,18.46639292422842,-67.71010738883754,-0.35174081760435083,48.89197364700476,41.85715729491775
goals: 44.17829551499166,18.477122265384015,-68.10204336417861,-0.006921181765097164,49.62747062295094,44.179440194157166
goals: 44.408582311372264,19.16910472170256,-68.60796910566745,-0.006924170257478095,49.44139966828685,44.40971741901201
state: 44.3193430181482,19.16987455943712,-68.41358902404623,-0.35174081760435083,49.24371446460912,41.85715729491775
goals: 44.69904436191303,20.035946955005596,-69.236572230969,-0.006927811411001042,49.20314257749262,44.70016711169788
goals: 44.991695109853666,20.902698157142684,-69.85939063348594,-0.0069313406361048045,48.95919163485389,44.992805096112995
state: 44.84695424455473,20.928578647458874,-69.82055229446364,-0.5276112264065262,49.41958487341129,41.85715729491775
goals: 45.285443540409744,21.766121129028875,-70.47416136337078,-0.006934748076731031,48.71052115694783,45.28654040961164
goals: 45.583869203984115,22.636647712572287,-71.08830466543179,-0.0069380769361315885,48.454119323840864,45.584952443584264
state: 45.37456547096125,22.687282735480625,-71.22751556488103,-0.5276112264065262,49.24371446460912,41.85715729491775
goals: 45.887385036395585,23.515260951521206,-71.70239603691567,-0.006941331044026535,48.189578562235894,45.888454110072615
goals: 46.190646601102586,24.386433023095183,-72.30560751464006,-0.006944455676418991,47.92159906393261,46.191701224698804
state: 46.078047106169954,24.44598682350238,-72.10686760889192,-0.5276112264065262,48.71610323820259,41.85715729491775
goals: 46.4975068887024,25.261225630999405,-72.90566772022699,-0.0069474941444839814,47.64684750636436,46.49854659956552
goals: 46.80912633388756,26.142775456604536,-73.50465998401165,-0.006950458627960382,47.36427046510851,46.81015061110367
state: 46.78152874137866,26.20469091152414,-73.33796047050716,-0.7034816352087017,48.188492011796065,42.033027703719924
goals: 47.12366832381339,27.025738690391403,-74.09890749621886,-0.0069533329340784895,47.07553505385398,47.124676736846965
goals: 47.4406953365965,27.908813906373382,-74.68755358438023,-0.006956115767863402,46.78108605294278,47.441687479755146
state: 47.309139967785185,27.96339499954589,-74.74492374092455,-0.5276112264065262,47.309139967785185,43.439990974137324
goals: 47.76081480818641,28.793615138475232,-75.27169122065052,-0.006958815174035073,46.480402361943945,47.761790247360345
goals: 48.08356740198814,29.678789790543835,-75.85044205876808,-0.006961429991826792,46.17395825898002,48.08452572975649
state: 48.01262160299389,29.722099087567646,-75.97601660253977,-0.5276112264065262,46.78152874137866,44.49521342695038
goals: 48.412559160895434,30.57404472070527,-76.43008850860373,-0.0069639907615802734,45.85832906808981,48.41349977775388
goals: 48.741203221287265,31.461368975620797,-76.9989850596538,-0.0069664490677161985,45.53988064614209,48.74212588530467
state: 48.71610323820259,31.304932766787225,-77.03123905535284,-0.5276112264065262,46.078047106169954,45.550435879763434
goals: 49.075004705152104,32.35557379466428,-77.56667407937407,-0.006968849543463418,45.213343773693744,49.075908878150194
goals: 49.41274584672659,33.253209858563245,-78.13090606595692,-0.006971185124992947,44.8799183440399,49.41363105775007
state: 49.24371446460912,33.23950726361115,-78.26233191696805,-0.5276112264065262,45.37456547096125,46.95739915018084
goals: 49.75474989279544,34.15497808253848,-78.69208851091932,-0.00697346029561378,44.539310912111716,49.75561565386861
goals: 50.08455820474871,35.01782365788608,-79.2237855387404,-0.0069755738400772834,44.208141454367485,50.085404982035094
state: 49.77132569101564,35.17408176043509,-79.31755436978112,-0.5276112264065262,44.67108383575256,48.188492011796065
goals: 50.23432442893624,35.4074737423449,-79.46221558621322,-0.006976508836132662,44.0569119125406,50.23516251442104
goals: 50.207407386752244,35.43154325740806,-79.31644285959067,-0.006971210872325887,43.887071380131914,50.208233330518105
state: 50.29893691742217,35.52582257803944,-79.49342477858329,-0.5276112264065262,44.143472609346034,49.595455282213464
goals: 50.00987207486258,35.29532954265912,-78.58074974043006,-0.006949344699192681,43.28760451183118,50.010654063823225
goals: 49.80412434914039,35.14650983040051,-77.80624767453143,-0.006926822790757189,42.66193520449529,49.80486071863932
state: 50.12306650862,34.99821135163291,-78.6140727345724,-0.5276112264065262,42.73650933892863,49.595455282213464
goals: 49.59963524430186,34.99155333558427,-77.02805626217386,-0.00690469122461646,42.03871324229926,49.60032642971266
goals: 49.397503124165105,34.831450034906446,-76.2504636941862,-0.00688305882558006,41.42123677004431,49.398149791351855
state: 49.41958487341129,34.64647053402855,-77.20710946415501,-0.5276112264065262,41.32954606851122,49.595455282213464
goals: 49.19772339947434,34.666407205041324,-75.47362903145643,-0.006861913528804488,40.80945757257635,49.198326200501654
goals: 49.00076122843675,34.497041273025744,-74.69956875899726,-0.006841292649848344,40.204775678829286,49.00132090492728
state: 49.06784405580694,34.470600125226376,-75.62427578493543,-0.5276112264065262,40.098453206896,49.41958487341129
goals: 48.80349595276098,34.32076368648913,-73.91606086490663,-0.006820862505381859,39.59755782663987,48.80401255345699
goals: 48.607884603683964,34.139358566829614,-73.13084877487026,-0.0068008210204511975,38.993763196800266,48.60835859638439
state: 48.71610323820259,34.11885930762203,-74.04144210571584,-0.5276112264065262,39.04323075408294,49.06784405580694
goals: 48.415166185297835,33.9541699355605,-72.34907901190736,-0.006781285350210248,38.39719421297681,48.41559829714241
goals: 48.223419092991016,33.76351006960768,-71.5630873856677,-0.006762052355426289,37.8018745292906,48.22380962396001
state: 48.36436242059823,33.591248081215504,-72.2827380176941,-0.5276112264065262,37.636267483665534,48.71610323820259
goals: 48.03382257698848,33.568671591303485,-70.77779281829982,-0.006743233460456118,37.21143037149769,48.0341720741766
goals: 47.84651524700116,33.36998153602836,-69.9939407187939,-0.006724833770399144,36.62628010479863,47.84682427845219
state: 47.83675119419172,33.23950726361115,-70.69990433847451,-0.5276112264065262,36.75691543965466,48.188492011796065
goals: 47.66106385134502,33.167148235552965,-69.20987152630407,-0.00670680283633321,36.045055864107496,47.66133288308121
goals: 47.47541695287594,32.95797202240147,-68.4169059421601,-0.0066889372638367734,35.461278147212624,47.47564600160939
state: 47.66088078538953,32.88776644600681,-69.11707065925494,-0.5276112264065262,35.349952169237255,47.83675119419172
goals: 47.303136758413146,32.75833605945613,-67.67371026373843,-0.006672521889305057,34.917729238193516,47.30332875044945
goals: 47.247011454284554,32.6921455502229,-67.43005372839069,-0.0066672079929303435,34.74026673081915,47.24719138306965
state: 47.309139967785185,32.53602562840245,-68.0618482064419,-0.5276112264065262,34.470600125226376,47.48501037658736
goals: 47.166645212883886,32.596376029157426,-67.0798323838476,-0.006659627889809839,34.48581994432651,47.16680787542872
goals: 47.14678740363687,32.577179063232336,-66.98523476653546,-0.006657521867778881,34.41042053729038,47.1469449953659
state: 47.13326955898301,32.53602562840245,-67.53423698003536,-0.5276112264065262,33.942988898819856,47.309139967785185
goals: 47.332053431882834,33.08549429479759,-67.31091943509196,-0.006660217701980511,34.22777836301132,47.3322010418582
goals: 47.652848158409085,33.959475326364704,-67.86674140749703,-0.006664839143278222,33.90959917602955,47.652978325203385
state: 47.13326955898301,33.41537767241333,-67.35836657123318,-0.5276112264065262,33.76711849001768,47.48501037658736
goals: 47.977211030107405,34.83530422343904,-68.41850001711015,-0.006669455373852628,33.58550850801483,47.9773233617661
goals: 48.30848847043053,35.721749235644296,-68.97163735626482,-0.006674115143149961,33.25217999017069,48.30858239027522
state: 48.01262160299389,35.349952169237255,-68.0618482064419,-0.5276112264065262,33.23950726361115,47.48501037658736
goals: 48.64117835663418,36.60389911180842,-69.51682243422547,-0.006678742812606472,32.915194228184525,48.641253595258775
goals: 48.977183044741615,37.48674292771415,-70.05720212839721,-0.0066833675118775525,32.57270890334272,48.97723923074551
state: 48.71610323820259,37.28452666606119,-69.46881147685929,-0.5276112264065262,32.53602562840245,48.188492011796065
goals: 49.3168011201138,38.37092981457732,-70.59318630331832,-0.006687995535787459,32.22448472936173,49.316837868258524
goals: 49.65943457373735,39.25478031879933,-71.12377948535222,-0.006692621019475987,31.87120572327716,49.65945153654341
state: 49.41958487341129,39.04323075408294,-70.69990433847451,-0.5276112264065262,32.00841440199592,48.71610323820259
goals: 50.007872611889184,40.14528916674489,-71.65315668456296,-0.006697283543119297,31.510051991251817,50.00786928291468
goals: 50.20379816013558,40.64238020963071,-71.94639652841478,-0.006699888284189142,31.3061883607391,50.203783348599465
state: 50.12306650862,40.274323615698165,-71.40338597368321,-0.5276112264065262,31.304932766787225,49.41958487341129
goals: 50.256279032389116,40.75102996284771,-72.06882176066793,-0.006701774202887609,31.31996050798028,50.25626555345459
goals: 50.256271892548426,40.50280098021059,-72.51902931315757,-0.006714082433771678,32.01839704187885,50.25630355298676
state: 50.12306650862,40.45019402450035,-72.45860842649627,-0.5276112264065262,31.304932766787225,49.595455282213464
goals: 50.256263335447855,40.19706670800285,-73.05468914194932,-0.0067293196052948725,32.859791141388094,50.25634958459696
goals: 50.25625487503532,39.88587992786096,-73.58004745525733,-0.00674491702044024,33.69633623334447,50.256395632813415
state: 50.12306650862,39.92258279809381,-73.51383087930932,-0.5276112264065262,32.53602562840245,49.595455282213464
goals: 50.2562464085429,39.56551578581155,-74.101497385833,-0.006761068342821846,34.538150304454554,50.25644226179045
goals: 50.256237918533415,39.23518087660392,-74.62003425213416,-0.0067778228207993445,35.387022078423186,50.256489584232135
state: 50.12306650862,39.21910116288512,-74.56905333212238,-0.5276112264065262,34.470600125226376,49.595455282213464
goals: 50.25622944713402,38.896419462495004,-75.13302482314808,-0.00679511141661627,36.2387740619877,50.256537380068046
goals: 50.25622106479627,38.55213866951245,-75.63623168726004,-0.006812793245824873,37.0862617175186,50.256585255190764
state: 50.29893691742217,38.69148993647859,-75.44840537613327,-0.5276112264065262,36.05343380444596,49.595455282213464
goals: 50.25621264683207,38.1972204251476,-76.13712711676057,-0.00683114002911151,37.942075389791476,50.256633930971596
goals: 50.25620427775613,37.83516777493588,-76.63063854809337,-0.00684998067745191,38.79763946973006,50.25668293236654
state: 50.12306650862,37.81213789246772,-76.67949823774848,-0.5276112264065262,37.988008301269886,49.595455282213464
goals: 50.256195938017825,37.4651827133377,-77.11792772010875,-0.006869365671107835,39.6549137017203,50.25673238073723
goals: 50.25618760621412,37.08629811927927,-77.60022223115335,-0.006889355908455517,40.51609280517803,50.25678241459009
state: 50.12306650862,36.93278584845684,-77.55885028175935,-0.5276112264065262,39.92258279809381,49.595455282213464
goals: 50.25617927346874,36.69804362586651,-78.07798873560526,-0.006909987625358666,41.38211380137301,50.25683310264401
goals: 50.25617101041688,36.303748937370415,-78.54718184638732,-0.006931094058451853,42.24560159897099,50.25688402369667
state: 50.12306650862,36.229304213248135,-78.43820232577023,-0.5276112264065262,41.68128688611557,49.595455282213464
goals: 50.25616273681212,35.89960915468824,-79.0123556298429,-0.006952889718492691,43.114915163401406,50.256935682133026
goals: 50.25615619593865,35.57344263047232,-79.37680365480408,-0.006970600982569539,43.80552971121053,50.2569770094579
state: 50.12306650862,35.52582257803944,-79.31755436978112,-0.5276112264065262,43.08825015653298,49.595455282213464
goals: 50.25615411373326,35.46836993837912,-79.49220414749928,-0.006976329687051717,44.02600289556007,50.256990257448756
goals: 49.86581514137325,35.685825585750976,-79.6319073128176,-0.00696155199221443,43.94827517786811,49.86664110654589
state: 49.77132569101564,35.52582257803944,-79.31755436978112,-0.5276112264065262,43.439990974137324,49.595455282213464
goals: 49.04593280937763,36.145010300154844,-79.91068668241566,-0.0069298143793815065,43.76792171717488,49.04673617454528
goals: 48.22299338210936,36.59721405880372,-80.18382521811593,-0.006897667259471604,43.588908389861125,48.2237741606462
state: 48.540232829400416,36.58104503085249,-79.84516559618763,-0.17587040880217542,43.439990974137324,49.06784405580694
goals: 47.400312032269966,37.04062871594042,-80.45030827261837,-0.006865240667220185,43.412028481724974,47.401070333470734
goals: 46.568195182084345,37.480391406030186,-80.71328413893518,-0.006832149633021073,43.23529375460084,46.56893085637349
state: 46.78152874137866,37.460397074863366,-80.54864723139633,0.0,43.439990974137324,48.01262160299389
goals: 45.73366398832567,37.91266145229946,-80.97051012275406,-0.006798669022264288,43.06030174454231,45.734377083421016
goals: 44.90092257260553,38.335306537640776,-81.2207961564569,-0.006764968994879007,42.88799443584274,44.901613253910696
state: 45.19869506215908,38.16387871007206,-81.07625845780287,0.17587040880217542,43.264120565335155,47.309139967785185
goals: 44.06284041629835,38.751944813511344,-81.46635562295181,-0.00673076090747341,42.716967498988275,44.06350866163087
goals: 43.22383710919742,39.160334659341736,-81.70593061162936,-0.006696223586717782,42.54820436534782,43.22448301941879
state: 43.264120565335155,39.21910116288512,-81.42799927540722,0.0,43.08825015653298,46.78152874137866
goals: 42.381404567481766,39.56168160761237,-81.94029443624397,-0.006661253174223574,42.381272966421776,42.38202818081366
goals: 41.54079463072529,39.95350960400396,-82.16807069426206,-0.006626068430268668,42.21727262815492,41.541396127671575
state: 41.68128688611557,39.92258279809381,-81.95561050181375,0.17587040880217542,42.73650933892863,45.90217669736778
goals: 40.69275464680744,40.34009540864022,-82.39180644765459,-0.0065902807232860825,42.05447421322193,40.693333968472444
goals: 39.84142898022338,40.719433399619845,-82.61039166005489,-0.006554060888509415,41.893773047814264,39.84198618120186
state: 39.746712389291645,40.8019348421047,-82.48322172822027,0.0,42.73650933892863,44.67108383575256
goals: 38.99387775710773,41.08843399731718,-82.8221146032214,-0.006517711023593561,41.73654655267235,38.99441307759147
goals: 38.139246455237725,41.451819252920785,-83.0297454833159,-0.0064807652973894675,41.58084353379306,38.139759858115966
state: 37.988008301269886,41.32954606851122,-82.83496254582462,0.0,42.033027703719924,43.08825015653298
goals: 37.28094810457833,41.808020092862456,-83.23243586254164,-0.006443367110934178,41.42738441463135,37.28143964490741
goals: 36.4237950640402,42.15504602189166,-83.42911230899462,-0.006405726187310686,41.27708596675848,36.42426492178737
state: 36.58104503085249,42.20889811252209,-83.36257377223114,0.0,41.5054164773134,40.626064433302524
goals: 35.56658361499673,42.49344545867236,-83.62014813841093,-0.006367791533777431,41.12977315652616,35.56703194084027
goals: 34.835519232897134,42.775243567663395,-83.77866618984879,-0.006335210223232605,41.0065362282159,34.83594931663069
state: 34.64647053402855,42.912379747730796,-83.7143145898355,0.0,41.32954606851122,38.69148993647859
goals: 34.70976656074893,42.80234762333294,-83.70484217103743,-0.006327828051788342,40.90561555467079,34.710188493953154
goals: 34.59058845450152,42.69775214479657,-83.01554223374806,-0.006310217140367604,40.32091810588598,34.59097203838042
state: 34.470600125226376,42.73650933892863,-83.7143145898355,0.0,40.8019348421047,37.108656257259014
goals: 34.45778755480404,42.574166005085296,-82.23970660273112,-0.006290852373657547,39.668676420192604,34.45812858228361
goals: 34.32694797728392,42.44514486133834,-81.46725058471446,-0.006272036875592653,39.02524923043345,34.327247250395544
state: 34.2947297164242,42.38476852132428,-82.48322172822027,0.0,39.04323075408294,35.87756339564378
goals: 34.19681181839121,42.30965816042167,-80.6908938891442,-0.006253577988058552,38.38438687323566,34.197069724042706
goals: 34.067853787169184,42.16834206017181,-79.91354275047127,-0.006235534045997431,37.748359397468406,34.06807085154992
state: 33.942988898819856,42.033027703719924,-81.25212886660505,0.0,37.81213789246772,34.64647053402855
goals: 33.93981060131758,42.02106487211478,-79.133704625189,-0.00621785896121595,37.115805963667015,33.93998725570306
goals: 33.81247083125431,41.8676992929984,-78.35014248607601,-0.006200515971321023,36.48561686034873,33.81260742987926
state: 33.591248081215504,41.68128688611557,-79.49342477858329,0.0,36.40517462205031,34.11885930762203
goals: 33.686396820017734,41.70906466775051,-77.56640087600671,-0.006183573441562321,35.86051725264964,33.68649388356621
goals: 33.56141838805937,41.545118101152546,-76.78154388545248,-0.006166999550276602,35.23961413636127,33.561476373283284
state: 33.41537767241333,41.5054164773134,-77.55885028175935,0.0,35.17408176043509,33.76711849001768
goals: 33.43761128292015,41.376120206582776,-75.99616135804477,-0.006150795978526292,34.62323673744416,33.43763066029195
goals: 33.31559302400519,41.20312757934513,-75.21435197269389,-0.006135033737935164,34.014427103602934,33.31557444624517
state: 33.063636854808976,41.153675659709045,-75.8001461937376,0.0,33.942988898819856,33.76711849001768
goals: 33.19409533056349,41.024502140577226,-74.42811004211194,-0.006119541149137773,33.40681770060061,33.19403904677021
goals: 33.073816198989235,40.84138253379631,-73.64201862430508,-0.00610440109756857,32.80385290230165,33.073722666796634
state: 32.88776644600681,40.8019348421047,-74.21731251451803,0.0,32.711896037204625,33.41537767241333
goals: 32.954057380761945,40.65281732769858,-72.85158177133003,-0.0060895197615313795,32.20198823287783,32.95392683375247
goals: 32.835370953392655,40.45977409446539,-72.06049701983355,-0.006074960393838098,31.603953624719995,32.835203788408066
state: 32.711896037204625,40.098453206896,-72.63447883529845,0.0,31.656673584391577,33.41537767241333
goals: 32.717466004994115,40.26189639758475,-71.26690450171948,-0.0060606815460173885,31.008245663287507,32.71726252179903
goals: 32.60108677621551,40.06058432742234,-70.47593936891533,-0.006046766724094361,30.41859936697544,32.60084749649816
state: 32.53602562840245,39.92258279809381,-70.87577474727668,0.0,30.425580722776346,33.41537767241333
goals: 32.485297074067795,39.85435249819924,-69.6813459553159,-0.0060330980342463624,29.830244510008903,32.48502222467309
goals: 32.37125764596936,39.64541817911912,-68.8912208564824,-0.006019806244417406,29.249060351439237,32.37094780365681
state: 32.1842848107981,39.57084198048947,-69.2929410680571,0.0,29.370358269963294,33.41537767241333
goals: 32.258276324671485,39.43269735032431,-68.10094725994814,-0.006006803580535519,28.67151413900536,32.257931847246496
goals: 32.14494958609292,39.213570296581466,-67.30067834391697,-0.005993926208346658,28.09037884761416,32.14457039569214
state: 32.00841440199592,38.86736034528077,-67.71010738883754,0.0,28.139265408348066,33.41537767241333
goals: 32.0327978250822,38.991007862611,-66.50113309166463,-0.005981344439588424,27.513402527708266,32.032384304235116
goals: 31.95322218677032,38.82963051570724,-65.92920244073409,-0.005972514713667983,27.102853831854834,31.952784318175258
state: 31.656673584391577,38.69148993647859,-66.30314411842012,0.0,27.25991336433719,33.41537767241333
goals: 31.923516170451375,38.768648082341905,-65.71470478180333,-0.005969239228980074,26.9493403259802,31.923069214610056
goals: 31.913951090908615,38.76111746585056,-65.61710602742825,-0.005967646383786955,26.85927274184148,31.91349888261317
state: 31.832543993193752,38.69148993647859,-65.77553289201362,0.0,26.90817254673284,33.41537767241333
goals: 32.06921934708166,39.396190101825255,-66.00024973538264,-0.005970676549116053,26.60733482463699,32.068754176967005
goals: 32.23166647827725,40.05621315564224,-66.39563123736892,-0.005973849184505372,26.342683859040246,32.231187668300485
state: 32.00841440199592,39.57084198048947,-65.77553289201362,0.0,26.20469091152414,33.41537767241333
goals: 32.2577989794302,40.12888132896262,-66.53732892239817,-0.005975817839807292,26.411711855302993,32.25732436779082
goals: 32.25779180446687,39.90925266225068,-67.04794351995253,-0.005985515478530422,27.141955118539308,32.2573591048607
state: 32.1842848107981,39.746712389291645,-66.4790145272223,0.0,26.02882050272196,33.41537767241333
goals: 32.25778376600352,39.65513382117297,-67.61623935050017,-0.005996784642466767,27.96436978899687,32.25739842317467
goals: 32.25777574698219,39.393055246443645,-68.17913386278849,-0.006008461716914366,28.78934287483473,32.25743807836754
state: 32.1842848107981,39.21910116288512,-67.53423698003536,0.0,27.61165418194154,33.23950726361115
goals: 32.257767795451215,39.12463486326107,-68.73326191426611,-0.006020479498125266,29.611891308310003,32.257477836409876
goals: 32.257759791292685,38.84575065534,-69.28694782468935,-0.006033028454339349,30.444461425446015,32.25751830757886
state: 32.1842848107981,38.69148993647859,-68.7653298416506,0.0,29.546228678765473,33.23950726361115
goals: 32.257751823624076,38.55939028237971,-69.83395662523147,-0.006045980696602725,31.277830597729693,32.257559053828494
goals: 32.257743937842484,38.26729102735663,-70.37120735825982,-0.006059262760809177,32.107180584558996,32.25759984405519
state: 32.1842848107981,38.16387871007206,-69.82055229446364,0.0,31.304932766787225,33.41537767241333
goals: 32.2577360499001,37.966383365059215,-70.90443258855139,-0.00607302001666996,32.94131347590917,32.25764111749648
goals: 32.2577281283742,37.655321194080706,-71.43567155697535,-0.006087321709283703,33.783614614050826,32.25768305368081
state: 32.1842848107981,37.636267483665534,-71.05164515607888,0.0,33.063636854808976,33.41537767241333
goals: 32.25772028073372,37.33830642671187,-71.9576940598851,-0.006101981516975888,34.62265188306331,32.257725092009
goals: 32.25771247369414,37.01410258557049,-72.47275202897931,-0.0061170625485867805,35.4619136920222,32.257767412286036
state: 32.1842848107981,36.75691543965466,-72.10686760889192,0.0,34.64647053402855,33.41537767241333
goals: 32.2577046414531,36.67991991275939,-72.98514484142714,-0.006132702396631772,36.308489175982494,32.2578103822804
goals: 32.25769680982697,36.33673378094263,-73.49310811572622,-0.006148864337739949,37.15963858078165,32.25785387577534
state: 32.1842848107981,36.229304213248135,-72.98621965290279,0.0,36.40517462205031,33.41537767241333
goals: 32.257689060500056,35.9881853439797,-73.99135959233111,-0.006165384074453318,38.00643849302825,32.25789744389615
goals: 32.25768130840174,35.63050582539523,-74.48538286272583,-0.006182447733659466,38.858141280667006,32.257941570164824
state: 32.1842848107981,35.52582257803944,-74.3931829233202,0.0,38.33974911887424,33.41537767241333
goals: 32.25767353785915,35.26285527138065,-74.97610526985741,-0.0062001053543037365,39.71651424045037,32.25798635986042
goals: 32.257665806725235,34.8879292659218,-75.45983851808832,-0.006218236905691753,40.57517349276459,32.25803149141246
state: 32.1842848107981,34.822340942830735,-75.27253496733107,0.0,40.098453206896,33.41537767241333
goals: 32.25765815173731,34.507637049618616,-75.93433263339163,-0.006236757491290196,41.42995982298934,32.25807675195491
goals: 32.25765046895403,34.11682542763155,-76.40602130216645,-0.006255927461808949,42.29246011234404,32.258122765297095
state: 32.1842848107981,33.942988898819856,-76.32775742014412,0.0,41.85715729491775,33.41537767241333
goals: 32.25764278258975,33.71659573741721,-76.87333875102328,-0.006275704691759604,43.16000724998656,32.25816940515999
goals: 32.25763516137948,33.31056479648603,-77.33211031046876,-0.006295920186095649,44.024809748925456,32.25821626263543
state: 32.1842848107981,33.23950726361115,-77.20710946415501,0.0,43.6158613829395,33.23950726361115
goals: 32.25762865142598,32.95643406336254,-77.72033487268638,-0.006313677431969272,44.76716504302142,32.25825678300048
goals: 32.25762642620468,32.83383403329668,-77.85225928478114,-0.006319852478086709,45.02168948475277,32.25827074017133
state: 32.1842848107981,32.88776644600681,-77.55885028175935,0.0,44.49521342695038,33.23950726361115
goals: 32.5775143543642,32.71136321235331,-77.79110272155444,-0.0063350861724932915,45.082985174799695,32.57816783481691
goals: 33.39162079824683,32.41809209966954,-77.60626268611834,-0.006372467159246827,45.19136883884334,33.392294533344966
state: 33.063636854808976,32.53602562840245,-77.55885028175935,0.0,44.67108383575256,33.23950726361115
goals: 34.222698519374475,32.11077994120687,-77.41192669589445,-0.006410343596454518,45.30429637183931,34.223393012671664
goals: 35.05590729660393,31.79460346608088,-77.21129329999248,-0.006448027601831404,45.41979045671556,35.056622682051334
state: 34.822340942830735,31.832543993193752,-77.55885028175935,-0.7034816352087017,45.022824653356906,33.76711849001768
goals: 35.889960891628135,31.469969083485676,-77.00456103003806,-0.006485457652552379,45.53764329287069,35.89069726940325
goals: 36.72188946560407,31.138011351087542,-76.79239648337432,-0.006522499274476151,45.65738709855512,36.722646858812475
state: 36.229304213248135,31.129062357985053,-77.20710946415501,-0.7034816352087017,45.022824653356906,35.17408176043509
goals: 37.55382504832493,30.797870551657144,-76.57419376241114,-0.006559246634977637,45.779275570352375,37.55460353128415
goals: 38.3880172249784,30.44855128166005,-76.34924948692421,-0.00659579592382735,45.9036005991333,38.388816926770076
state: 37.988008301269886,30.601451131578518,-76.67949823774848,-0.7034816352087017,45.19869506215908,35.52582257803944
goals: 39.21598224722463,30.0936216778903,-76.11980434267628,-0.0066317755334831755,46.02903524621792,39.21680307787455
goals: 40.03348644278101,29.73510083280354,-75.8871265164863,-0.006667008399573371,46.154828869833395,40.03432819933329
state: 39.57084198048947,29.546228678765473,-76.15188701134196,-0.7034816352087017,45.90217669736778,37.108656257259014
goals: 40.42164732888156,29.56204864971405,-75.77448834357499,-0.006683635152233801,46.215219353439714,40.42249904269335
goals: 41.10942978368326,29.250935755828696,-75.57144886010836,-0.006712933536867276,46.32325096260889,41.1102991732219
state: 40.8019348421047,29.19448786116112,-75.8001461937376,-0.7034816352087017,46.078047106169954,38.86736034528077
goals: 41.928645870144685,28.872860877322967,-75.32377454391276,-0.006747558033847179,46.45360154632921,41.929536364930705
goals: 42.735857718739325,28.492297108112034,-75.07343235940975,-0.006781383056152636,46.58377368592446,42.736769061221516
state: 42.38476852132428,28.31513581715024,-75.27253496733107,-0.7034816352087017,46.42978792377431,40.274323615698165
goals: 43.54229049617531,28.10409575890127,-74.8169907454802,-0.006814883668637252,46.715483829146734,43.54322271383655
goals: 44.351689274383325,27.706373893973527,-74.55313072841444,-0.006848211972437725,46.84929570938684,44.352642487961205
state: 44.143472609346034,27.61165418194154,-74.56905333212238,-0.7034816352087017,46.60565833257648,40.8019348421047
goals: 45.155214378356085,27.30346964964211,-74.28466396402658,-0.006881003202310428,46.983683395345636,45.15618847498275
goals: 45.95470621392508,26.894559376569156,-74.01098924934541,-0.006913335494636335,47.11886922525478,45.95570112359444
state: 45.7263062885656,26.73230213793066,-74.21731251451803,-0.7034816352087017,46.95739915018084,41.85715729491775
goals: 46.754243485943874,26.477566322331814,-73.73065025954331,-0.006945373514946014,47.255473376816695,46.75525924012252
goals: 47.5511668189826,26.053864240587856,-73.44449950166832,-0.00697700956195941,47.392974772721914,47.5522033750094
state: 47.48501037658736,25.852950093919787,-73.51383087930932,-0.7034816352087017,47.309139967785185,42.73650933892863
goals: 48.01164121969008,25.808124918822948,-73.27322350943714,-0.006994993764421316,47.46740917295627,48.012689409112326
goals: 48.01164586200036,26.070056604557074,-73.00386501145192,-0.006979999879718961,46.93611899032933,48.01265658749758
state: 47.66088078538953,26.02882050272196,-73.33796047050716,-0.5276112264065262,47.309139967785185,44.67108383575256
goals: 48.01165346846636,26.49199159399496,-72.55876953927206,-0.006955999927365459,46.0690885304805,48.01260337719306
goals: 48.011661080387796,26.90528104929069,-72.10873793486043,-0.006932673372613928,45.2057674725178,48.01255081979762
state: 47.83675119419172,26.556431729128487,-72.45860842649627,-0.5276112264065262,46.25391751497214,45.7263062885656
goals: 48.01166877726073,27.31414722961938,-71.6490382009438,-0.0069097716745156685,44.33720156001124,48.01249836119133
goals: 48.01167647679947,27.71413157525096,-71.18455631368576,-0.0068875345362515656,43.47273532883619,48.012446556731255
state: 47.83675119419172,27.084042955535015,-71.75512679128757,-0.5276112264065262,44.49521342695038,47.13326955898301
goals: 48.011684262604746,28.109490302070085,-70.71022108743422,-0.006865715450871364,42.6030413774746,48.012394838503404
goals: 48.01169204193307,28.495445050904653,-70.23166404325615,-0.006844568271301394,41.73852958614567,48.01234381611755
state: 48.01262160299389,28.139265408348066,-71.05164515607888,-0.5276112264065262,42.73650933892863,47.309139967785185
goals: 48.01169974527891,28.86876226145397,-69.7532862157386,-0.006824256015271094,40.88683454972274,48.01229391912651
goals: 48.011707472132855,29.23442510775135,-69.26900700430899,-0.006804494930147407,40.03689249362217,48.012244481274664
state: 48.01262160299389,28.842747043556763,-69.82055229446364,-0.5276112264065262,40.626064433302524,47.309139967785185
goals: 48.011715181124124,29.590538080222785,-68.78146634417439,-0.006785377007944852,39.19323886261669,48.012195753006566
goals: 48.011722898140896,29.938386240460638,-68.28908728022012,-0.006766822871482685,38.35301164000541,48.01214755505368
state: 48.01262160299389,29.722099087567646,-68.94120025045275,-0.5276112264065262,38.86736034528077,47.309139967785185
goals: 48.01173065542998,30.279415284802553,-67.78982382702769,-0.006748746784110388,37.51271914403898,48.01209967730192
goals: 48.01173846559284,30.61409890471072,-67.28284037787851,-0.0067311162407078795,36.67105207653946,48.012052038269466
state: 48.01262160299389,30.073839905171997,-67.88597779763971,-0.5276112264065262,37.28452666606119,47.309139967785185
goals: 48.011746232126974,30.938362029532847,-66.77444665315252,-0.006714137048223675,35.83839522852021,48.01200521401865
goals: 48.011754033859596,31.25558628506187,-66.2595429380655,-0.006697623263424941,35.006267259420085,48.01195871515357
state: 48.01262160299389,30.95319194918287,-66.65488493602447,-0.5276112264065262,35.349952169237255,47.309139967785185
goals: 48.01176187838921,31.56603115729768,-65.73761876076404,-0.006681554461465922,34.173898211387446,48.011912491406925
goals: 48.0117697840799,31.870332880296022,-65.20742342073522,-0.006665891417898054,33.33940114985724,48.01186643225795
state: 47.83675119419172,31.656673584391577,-65.59966248321143,-0.5276112264065262,33.76711849001768,47.309139967785185
goals: 48.011777653458395,32.16478008842863,-64.67552948287104,-0.006650817779138925,32.51306000533158,48.01182109548239
goals: 48.01178553050181,32.451144704426845,-64.13904190452003,-0.006636234933881421,31.690207812436565,48.0117762127551
state: 48.01262160299389,32.36015521960027,-64.54444003039838,-0.5276112264065262,32.00841440199592,47.309139967785185
goals: 48.01179344896672,32.73065771958282,-63.595679114193324,-0.006622073777635467,30.86733200839759,48.01173158440727
goals: 48.01180141294212,33.003408292115864,-63.04514962713343,-0.006608324115715225,30.04405195023879,48.011687183705924
state: 48.01262160299389,32.88776644600681,-63.489217577585315,-0.5276112264065262,30.425580722776346,47.309139967785185
goals: 48.011808121867915,33.226724907209025,-62.578273219776065,-0.0065971168429246885,29.353858928982795,48.01165014840595
goals: 48.01181026279364,33.29675602960744,-62.42869372408992,-0.006593611592372313,29.134248311276828,48.01163839953682
state: 48.01262160299389,33.23950726361115,-62.9616063511788,-0.5276112264065262,29.370358269963294,47.309139967785185
goals: 48.01181204681682,33.35465893527037,-62.303832460603324,-0.006590716739052061,28.951484142441853,48.01162863475046
goals: 47.961107369628046,33.38806753142384,-62.267596519038776,-0.006587972605236642,28.881842793349172,47.96091914897623
state: 47.83675119419172,33.23950726361115,-62.60986553357445,-0.5276112264065262,29.01861745235894,47.309139967785185
goals: 47.297179572093675,33.55424596395379,-62.374115815357655,-0.006565346888952721,28.82222534179104,47.296982191955415
goals: 46.47365343279404,33.75368209079587,-62.5017043612188,-0.0065369811253905025,28.750429295695326,46.47344477423185
state: 46.78152874137866,33.41537767241333,-62.258124715970105,-0.5276112264065262,28.842747043556763,47.309139967785185
goals: 45.65297125652174,33.94508967533252,-62.623901799747,-0.006508382600313783,28.681270316715363,45.65275145011539
goals: 44.82599199479489,34.13058403102581,-62.74208624418367,-0.006479231791358463,28.614011770683312,44.82576104780026
state: 45.022824653356906,33.942988898819856,-62.258124715970105,-0.5276112264065262,28.842747043556763,46.078047106169954
goals: 44.003390310503725,34.307773597375494,-62.85476102444043,-0.006449904927646644,28.549547881672673,44.00314837445083
goals: 43.17724241529812,34.47840371571936,-62.96306318250448,-0.006420121131751946,28.48727083825648,43.17698953575932
state: 43.264120565335155,34.11885930762203,-62.258124715970105,-0.5276112264065262,28.491006225952418,45.022824653356906
goals: 42.34573721687308,34.64275609824132,-63.06719405731882,-0.006389810875654864,28.42710037290111,42.34547341686341
goals: 41.51351935982967,34.799857381769016,-63.16655971427187,-0.006359140958860265,28.369415624127388,41.51324472420472
state: 41.5054164773134,34.64647053402855,-62.433995124772274,-0.5276112264065262,28.491006225952418,44.67108383575256
goals: 40.68009446953981,34.949799835107555,-63.26124169767348,-0.006328093161233342,28.314205894255828,40.67980907674364
goals: 39.84534332116676,35.092594668792756,-63.351269020467825,-0.0062966626850934565,28.261488989301814,39.84504724812212
state: 39.92258279809381,34.822340942830735,-62.78573594237662,-0.5276112264065262,28.31513581715024,44.67108383575256
goals: 39.01538616905167,35.22726307014515,-63.436046781686834,-0.006265083211400283,28.211648448630754,39.01507956988599
goals: 38.182502548843225,35.35510291262313,-63.51641261602583,-0.006233063239755702,28.16422449758589,38.18218547883946
state: 38.16387871007206,35.17408176043509,-62.78573594237662,-0.5276112264065262,28.31513581715024,42.912379747730796
goals: 37.34822369819259,35.47584240670072,-63.59221378995398,-0.0062006602651293735,28.119336095790246,37.347896231874536
goals: 36.51651187885021,35.58894201655146,-63.66312964376862,-0.006168030048255689,28.077201880127827,36.516174139100826
state: 36.58104503085249,35.349952169237255,-63.13747675998097,-0.5276112264065262,28.139265408348066,40.45019402450035
goals: 35.68444689519245,35.69484522264413,-63.72945530894918,-0.0061350605098644964,28.037673673830867,35.68409896754028
goals: 34.85378727681839,35.79335814706666,-63.79108502257909,-0.006101823133941853,28.00083948546806,34.853429267139
state: 34.99821135163291,35.70169298684161,-63.489217577585315,-0.5276112264065262,27.96339499954589,38.51561952767642
goals: 34.011153182088066,35.88594497992568,-63.84894815389926,-0.006067777581208899,27.966165276776586,34.01078503442102
goals: 33.17143397251635,35.97086513335229,-63.901969571312925,-0.006033521349317156,27.934315623018886,33.17105581024766
state: 33.063636854808976,35.87756339564378,-63.665087986387505,-0.5276112264065262,27.96339499954589,36.75691543965466
goals: 32.329866716570365,36.048627969042954,-63.95048006421894,-0.0059988620346823045,27.905112228116455,32.32947860476765
goals: 31.490922583099593,36.118842339314014,-63.99424716042127,-0.00596398548061317,27.878713505208122,31.490524638145207
state: 31.4808031755894,36.05343380444596,-63.665087986387505,-0.5276112264065262,27.78752459074372,34.99821135163291
goals: 30.64642945517591,36.18216478492363,-64.03369037894204,-0.0059285515254445245,27.854882901572864,30.64602169658118
goals: 29.80725631199373,36.23778749543088,-64.06831582563369,-0.005893017383470363,27.833933705008512,29.80683888399059
state: 29.897969496369818,36.05343380444596,-64.01682880399184,-0.5276112264065262,27.78752459074372,33.591248081215504
goals: 28.967940119423606,36.28614857727367,-64.09840463274632,-0.005857155998092358,27.81570925396969,28.96751310083641
goals: 28.12609846914583,36.32735809243761,-64.1240323127695,-0.005820865343614204,27.80017513092808,28.12566191016797
state: 27.96339499954589,36.229304213248135,-64.01682880399184,-0.5276112264065262,27.78752459074372,33.063636854808976
goals: 27.285027236533242,36.36123832658252,-64.14509435411468,-0.005784287810674612,27.78740434847543,27.28458122307654
goals: 26.44760955435432,36.387735893732355,-64.16156257757847,-0.0057475526225605434,27.77742195036883,26.447154202182436
state: 26.38056132032631,36.229304213248135,-64.01682880399184,-0.5276112264065262,27.61165418194154,31.832543993193752
goals: 25.60453612280421,36.407123250538774,-64.17361019910622,-0.005710251591866658,27.770129214302155,25.604071442088514
goals: 24.76568527526186,36.419158002659024,-64.18108940596474,-0.0056728223193752815,27.76562016802144,24.76521138354176
state: 24.62185723230456,36.40517462205031,-64.01682880399184,-0.5276112264065262,27.61165418194154,31.832543993193752
goals: 23.923673128749847,36.423961395659155,-64.18407731440472,-0.005634937275626562,27.76385108949238,23.923190060146514
goals: 23.084679474438172,36.42149708696109,-64.18255201805552,-0.005596875788403326,27.764836071782433,23.084187328167044
state: 23.039023553084977,36.40517462205031,-64.01682880399184,-0.5276112264065262,27.61165418194154,27.61165418194154
goals: 22.24387755030085,36.411766434263164,-64.17651402821528,-0.005558420943496719,27.76857453107555,22.243376370851056
goals: 21.402556193898544,36.394752599492016,-64.16595145419946,-0.0055196317719159544,27.775071340961052,21.40204603743672
state: 21.280319465063226,36.40517462205031,-64.01682880399184,-0.5276112264065262,27.61165418194154,25.325338867513256
goals: 20.560757536009657,36.3704408465494,-64.15085264455114,-0.00548051105807946,27.784329580853807,20.56023845674606
goals: 19.721151796878917,36.338926751733766,-64.13127341548407,-0.005441185236331207,27.796309345405042,19.720623874568464
state: 19.873356194645822,36.40517462205031,-64.19269921279403,-0.5276112264065262,27.61165418194154,23.39076437068933
goals: 18.87940100998717,36.300043270186464,-64.10710535033067,-0.005401452563109728,27.811069492387805,18.87886427603401
goals: 18.038868713585707,36.25392766991353,-64.07842805176259,-0.005361472716277033,27.828552174857833,18.03832323197117
state: 17.93878169782189,36.40517462205031,-64.19269921279403,-0.5276112264065262,27.61165418194154,21.632060282667577
goals: 17.20097465066107,36.200700798009905,-64.04531001203941,-0.005321316737603667,27.84870496260165,17.200420497016093
goals: 16.35984576765915,36.13997360961028,-64.00750130133066,-0.0052807042752396295,27.8716672760825,16.35928295402853
state: 16.180077609800136,36.40517462205031,-64.19269921279403,-0.5276112264065262,27.61165418194154,19.873356194645822
goals: 15.518491617256169,36.07190894243524,-63.96509421370688,-0.005239780225703125,27.897368410663006,15.517920184025167
goals: 14.675354047089964,35.99634340571228,-63.91797673860518,-0.005198469164356999,27.925859823794067,14.674774015829511
state: 14.59724393058056,36.05343380444596,-64.19269921279403,-0.5276112264065262,27.61165418194154,17.93878169782189
goals: 13.836158028621014,35.91380710750762,-63.86646839388152,-0.005157054228712204,27.95693062973822,13.835569476077914
goals: 12.997164874459346,35.82397359014807,-63.81035352389734,-0.005115354566179552,27.990691821331726,12.996567836047127
state: 12.838539842558804,35.70169298684161,-64.19269921279403,-0.5276112264065262,27.61165418194154,16.355948018602312
goals: 12.37235162263716,35.75231140409044,-63.76555021428031,-0.00508410948599845,28.017582186350722,12.371748284439477
goals: 12.347395476271238,35.631956286211974,-64.02412817838696,-0.005087413924170402,28.396516522003107,12.34681059567033
state: 12.135058207350104,35.70169298684161,-64.19269921279403,-0.5276112264065262,27.61165418194154,14.773114339382737
goals: 12.347388437006064,35.37373872012263,-64.58063334063822,-0.00509746727453302,29.211239249458366,12.34684400555569
goals: 12.34738137355572,35.106301911195004,-65.13505880323731,-0.005107929365297028,30.033101520085463,12.346877897658418
state: 12.135058207350104,35.17408176043509,-65.24792166560708,-0.5276112264065262,29.01861745235894,12.838539842558804
goals: 12.347374328507874,34.83116221450752,-65.684002073075,-0.005118745983628238,30.857184485701854,12.346912077146468
goals: 12.34736731235898,34.54872871801611,-66.22663126343397,-0.0051299057927788995,31.682247171635463,12.346946498572688
state: 12.135058207350104,34.64647053402855,-66.12727370961795,-0.5276112264065262,30.95319194918287,12.662669433756628
goals: 12.347360279452618,34.25710037420821,-66.76643329049843,-0.005141489299717962,32.51367754157687,12.346981394452298
goals: 12.347353284012831,33.95847932575919,-67.29921017948354,-0.005153414534845275,33.34507547807277,12.347016503700786
state: 12.135058207350104,33.76711849001768,-67.18249616243101,-0.5276112264065262,32.53602562840245,12.662669433756628
goals: 12.347346303868708,33.65193219445915,-67.8266431606997,-0.005165724073574719,34.179055589640335,12.34705194300271
goals: 12.347339385838719,33.33957641542989,-68.3452109071591,-0.0051783379676910235,35.0099791141762,12.347087477886987
state: 12.135058207350104,33.23950726361115,-68.23771861524406,-0.5276112264065262,34.2947297164242,12.662669433756628
goals: 12.34733243108768,33.01691556847649,-68.86229177439193,-0.0051914438993622995,35.84972082739162,12.34712362405903
goals: 12.347325483763091,32.6858622267111,-69.37452316170571,-0.005204971448742012,36.69300555548775,12.347160165356312
state: 12.135058207350104,32.53602562840245,-69.46881147685929,-0.5276112264065262,36.05343380444596,12.662669433756628
goals: 12.347318597919273,32.34904296437213,-69.87793086989853,-0.005218819134300295,37.53323252503179,12.347196821768827
goals: 12.347311746834864,32.00525538522566,-70.37450644492507,-0.005233041890674814,38.3735956782084,12.347233737251244
state: 12.135058207350104,31.832543993193752,-70.34816352087017,-0.5276112264065262,37.81213789246772,12.662669433756628
goals: 12.347304855056809,31.65062462086422,-70.86966109077082,-0.005247807732287626,39.223381087399204,12.34727133020352
goals: 12.347298004746849,31.28930448503292,-71.3574410438885,-0.005262951571729534,40.0724811753237,12.347309163844676
state: 12.31092861615228,31.129062357985053,-71.40338597368321,-0.5276112264065262,39.57084198048947,12.662669433756628
goals: 12.347291189988162,30.92105661893248,-71.83829038544906,-0.005278489919552321,40.921578381950944,12.347347274704259
goals: 12.347284402511713,30.545482668295215,-72.31280283393158,-0.005294446594362136,41.771664780026384,12.347385714382913
state: 12.31092861615228,30.425580722776346,-72.10686760889192,-0.5276112264065262,41.32954606851122,12.662669433756628
goals: 12.347277587395268,30.159471050161404,-72.78476740310754,-0.0053109626143656415,42.62964096627235,12.347424806206618
goals: 12.347270822163921,29.767385540585916,-73.24878726332037,-0.005327859829088751,43.48574633498923,12.347464115568535
state: 12.135058207350104,29.722099087567646,-73.33796047050716,-0.5276112264065262,42.912379747730796,12.662669433756628
goals: 12.347264058765088,29.36647272168523,-73.70815971913338,-0.005345265027059357,44.34603160861607,12.347503928769294
goals: 12.347257336941851,28.959106827163502,-74.16018019264679,-0.005363083692892238,45.20541797555499,12.347544019917628
state: 12.31092861615228,28.842747043556763,-74.21731251451803,-0.5276112264065262,44.67108383575256,12.662669433756628
goals: 12.347250652541302,28.54512665564584,-74.6051593270659,-0.005381330632076149,46.06437728038546,12.347584417833499
goals: 12.347247200296376,28.327831205976103,-74.83319180971007,-0.005390964836427391,46.50970521212154,12.347605493259353
state: 12.135058207350104,28.491006225952418,-74.74492374092455,-0.5276112264065262,45.90217669736778,12.662669433756628
goals: 12.361026689466863,28.248343934114686,-74.91260581615839,-0.005395169445873434,46.668605797738934,12.36139404625925
goals: 12.951218799806021,28.168639948595864,-74.85990042124314,-0.005427282246374931,46.695574654792274,12.95160013349457
state: 12.486799024954456,28.139265408348066,-74.74492374092455,-0.5276112264065262,46.078047106169954,12.662669433756628
goals: 13.784919457278058,28.049658024436543,-74.78113679445116,-0.005472417381768484,46.735750697732776,13.78532056616892
goals: 14.614289340471062,27.92385424039199,-74.69774619644453,-0.005517052867738713,46.778121556809985,14.61471015944203
state: 14.421373521778381,27.96339499954589,-74.74492374092455,-0.5276112264065262,46.25391751497214,13.190280660163156
goals: 15.447010085250023,27.790062567331614,-74.60893533870149,-0.005561601180482745,46.8230595833591,15.447450732609166
goals: 16.28098697810774,27.648541756562874,-74.51485303610507,-0.0056059465756191145,46.87045494841535,16.281447523438505
state: 15.828336792195788,27.78752459074372,-74.74492374092455,-0.7034816352087017,46.42978792377431,14.59724393058056
goals: 17.112789463090724,27.49987089788304,-74.41586127867208,-0.005649905642796685,46.92009073243598,17.113269894766262
goals: 17.943628741757472,27.343859092996617,-74.31180934353704,-0.005693542440749239,46.97200705166989,17.94412907746359
state: 17.587040880217543,27.435783773139363,-74.56905333212238,-0.5276112264065262,46.60565833257648,15.652466383393612
goals: 18.77874237118034,27.17945970263426,-74.20197219584904,-0.0057371289039014044,47.026525236597685,18.77926275478281
goals: 19.609718790927943,27.008308262316017,-74.08741529685946,-0.005780224422416622,47.0830756589671,19.610259164701564
state: 19.345744968239295,27.084042955535015,-74.3931829233202,-0.7034816352087017,46.95739915018084,17.059429653811016
goals: 20.441863686270686,26.829332731988977,-73.96739355451608,-0.005823104064491045,47.14198498890404,20.44242412010068
goals: 21.275641227698586,26.64237462477379,-73.84176948918135,-0.005865788769923679,47.203274209812896,21.276221802931282
state: 20.928578647458874,26.556431729128487,-74.04144210571584,-0.7034816352087017,47.13326955898301,18.642263333030595
goals: 22.107158395069423,26.4482933470532,-73.71108937265915,-0.005908077912686348,47.266630399037716,22.107759098887442
goals: 22.936758031461505,26.247044380800226,-73.57529249459843,-0.00594998941135686,47.33203735013805,22.937378858812217
state: 22.687282735480625,26.20469091152414,-73.86557169691368,-0.7034816352087017,47.309139967785185,20.225097012250174
