RAMEL-ESPOL/ARCHIE/manipulator_description/datos.txt
Joint0,Joint1,Joint2,Joint3,Joint4,Joint5 
state: 0.17587040880217542,-0.35174081760435083,-0.5276112264065262,-0.35174081760435083,0.0,0.35174081760435083
goals: 0.0,0.0,0.0,0.0,0.0,0.0
goals: 0.0,0.0,0.0,0.0,0.0,0.0
state: 0.17587040880217542,-0.35174081760435083,-0.5276112264065262,-0.35174081760435083,0.0,0.35174081760435083
goals: 0.0,0.0,0.0,0.0,0.0,0.0
goals: 0.0,0.0,0.0,0.0,0.0,0.0
state: 0.17587040880217542,-0.35174081760435083,-0.5276112264065262,-0.17587040880217542,0.0,0.35174081760435083
goals: 0.0,0.0,0.0,0.0,0.0,0.0
goals: 0.0,0.0,0.0,0.0,0.0,0.0
state: 0.17587040880217542,-0.35174081760435083,-0.35174081760435083,-0.17587040880217542,0.0,0.35174081760435083
goals: 0.0,0.0,0.0,0.0,0.0,0.0
goals: 0.0,0.0,0.0,0.0,0.0,0.0
state: 0.17587040880217542,-0.35174081760435083,-0.35174081760435083,-0.35174081760435083,0.0,0.35174081760435083
goals: 0.0,0.0,0.0,0.0,0.0,0.0
goals: 0.0,0.0,0.0,0.0,0.0,0.0
state: 0.0,-0.35174081760435083,-0.35174081760435083,-0.35174081760435083,0.0,0.35174081760435083
goals: 0.0,0.0,0.0,0.0,0.0,0.0
goals: 0.0,0.0,0.0,0.0,0.0,0.0
state: 0.0,-0.17587040880217542,-0.35174081760435083,-0.35174081760435083,0.0,0.35174081760435083
goals: 0.0,0.0,0.0,0.0,0.0,0.0
goals: 0.0,0.0,0.0,0.0,0.0,0.0
state: 0.0,-0.17587040880217542,-0.35174081760435083,-0.35174081760435083,0.0,0.35174081760435083
goals: 0.0,0.0,0.0,0.0,0.0,0.0
goals: 0.0,0.0,0.0,0.0,0.0,0.0
state: 0.0,-0.17587040880217542,-0.35174081760435083,-0.17587040880217542,0.0,0.35174081760435083
goals: 0.0,0.0,0.0,0.0,0.0,0.0
goals: 0.0,0.0,0.0,0.0,0.0,0.0
state: 0.0,-0.17587040880217542,-0.35174081760435083,-0.17587040880217542,0.0,0.35174081760435083
goals: 0.0,0.0,0.0,0.0,0.0,0.0
goals: 0.0,0.0,0.0,0.0,0.0,0.0
state: 0.0,-0.17587040880217542,-0.35174081760435083,-0.35174081760435083,0.0,0.35174081760435083
goals: 0.0,0.0,0.0,0.0,0.0,0.0
goals: 0.0,0.0,0.0,0.0,0.0,0.0
state: 0.0,-0.17587040880217542,-0.35174081760435083,-0.17587040880217542,0.0,0.35174081760435083
goals: 0.0,0.0,0.0,0.0,0.0,0.0
goals: 0.0,0.0,0.0,0.0,0.0,0.0
state: 0.0,-0.17587040880217542,-0.17587040880217542,-0.17587040880217542,0.0,0.35174081760435083
goals: 0.0,0.0,0.0,0.0,0.0,0.0
goals: 0.0,0.0,0.0,0.0,0.0,0.0
state: 0.0,-0.17587040880217542,-0.17587040880217542,-0.35174081760435083,0.0,0.35174081760435083
goals: 0.0,0.0,0.0,0.0,0.0,0.0
goals: 0.0,0.0,0.0,0.0,0.0,0.0
state: 0.17587040880217542,0.0,-0.17587040880217542,-0.17587040880217542,0.0,0.35174081760435083
goals: 0.0,0.0,0.0,0.0,0.0,0.0
goals: 0.0,0.0,0.0,0.0,0.0,0.0
state: 0.17587040880217542,0.0,-0.17587040880217542,-0.17587040880217542,0.0,0.35174081760435083
goals: 0.0,0.0,0.0,0.0,0.0,0.0
goals: 0.0,0.0,0.0,0.0,0.0,0.0
state: 0.0,0.0,-0.17587040880217542,-0.35174081760435083,0.0,0.35174081760435083
goals: 0.0,0.0,0.0,0.0,0.0,0.0
goals: 0.0,0.0,0.0,0.0,0.0,0.0
state: 0.17587040880217542,0.0,0.0,-0.35174081760435083,0.0,0.35174081760435083
goals: 0.0,0.0,0.0,0.0,0.0,0.0
goals: 0.0,0.0,0.0,0.0,0.0,0.0
state: 0.0,0.0,-0.17587040880217542,-0.17587040880217542,0.0,0.35174081760435083
goals: 0.0,0.0,0.0,0.0,0.0,0.0
goals: 0.0,0.0,0.0,0.0,0.0,0.0
state: 0.17587040880217542,0.0,0.0,-0.35174081760435083,0.0,0.35174081760435083
goals: 0.0,0.0,0.0,0.0,0.0,0.0
goals: 0.0,0.0,0.0,0.0,0.0,0.0
state: 0.0,0.0,0.0,-0.17587040880217542,0.0,0.35174081760435083
goals: 0.0,0.0,0.0,0.0,0.0,0.0
goals: 0.0,0.0,0.0,0.0,0.0,0.0
state: 0.0,0.0,0.0,-0.35174081760435083,0.0,0.35174081760435083
goals: 0.0,0.0,0.0,0.0,0.0,0.0
goals: 0.0,0.0,0.0,0.0,0.0,0.0
state: 0.0,0.0,0.0,-0.35174081760435083,0.0,0.35174081760435083
goals: 0.0,0.0,0.0,0.0,0.0,0.0
goals: 0.0,0.0,0.0,0.0,0.0,0.0
state: 0.0,0.0,0.0,-0.17587040880217542,0.0,0.35174081760435083
goals: 0.0,0.0,0.0,0.0,0.0,0.0
goals: 0.0,0.0,0.0,0.0,0.0,0.0
state: 0.0,0.0,0.0,-0.17587040880217542,0.0,0.35174081760435083
goals: 0.0,0.0,0.0,0.0,0.0,0.0
goals: 0.0,0.0,0.0,0.0,0.0,0.0
state: 0.0,0.0,0.0,-0.17587040880217542,0.0,0.35174081760435083
goals: 0.0,0.0,0.0,0.0,0.0,0.0
goals: 0.0,0.0,0.0,0.0,0.0,0.0
state: 0.0,0.0,-0.17587040880217542,-0.35174081760435083,0.0,0.35174081760435083
goals: 0.0,0.0,0.0,0.0,0.0,0.0
goals: 0.0,0.0,0.0,0.0,0.0,0.0
state: 0.0,0.0,0.0,-0.35174081760435083,0.0,0.35174081760435083
goals: 0.0,0.0,0.0,0.0,0.0,0.0
goals: 0.0,0.0,0.0,0.0,0.0,0.0
state: 0.0,0.0,0.0,-0.35174081760435083,0.0,0.35174081760435083
goals: 0.0,0.0,0.0,0.0,0.0,0.0
goals: 0.0,0.0,0.0,0.0,0.0,0.0
state: 0.0,0.0,0.0,-0.17587040880217542,0.0,0.35174081760435083
goals: 0.0,0.0,0.0,0.0,0.0,0.0
goals: 0.0,0.0,0.0,0.0,0.0,0.0
state: 0.0,0.0,0.0,-0.35174081760435083,0.0,0.35174081760435083
goals: 0.0,0.0,0.0,0.0,0.0,0.0
goals: 0.0,0.0,0.0,0.0,0.0,0.0
state: 0.0,0.0,0.0,-0.17587040880217542,0.0,0.35174081760435083
goals: 0.0,0.0,0.0,0.0,0.0,0.0
goals: 0.0,0.0,0.0,0.0,0.0,0.0
state: 0.0,0.0,0.0,-0.35174081760435083,0.0,0.35174081760435083
goals: 0.0,0.0,0.0,0.0,0.0,0.0
goals: 1.5668358674645367e-07,0.0008242369963785642,0.0008243035770138473,-9.346956326404319e-08,-1.7813970189509347e-07,-1.843354780435381e-07
state: 0.0,0.0,0.0,-0.35174081760435083,-0.17587040880217542,0.17587040880217542
goals: 0.0003672734042632726,1.9320487478344095,1.9322048158507614,-0.00021909687803188773,-0.000417567507280314,-0.00043209068641696964
goals: 0.0007329038453777816,3.8554546566898464,3.855766094566908,-0.00043721364671625107,-0.000833267065456176,-0.0008622484556489036
state: -0.17587040880217542,4.22088981125221,3.8691489936478587,-0.17587040880217542,-0.17587040880217542,0.17587040880217542
goals: 0.0010977606445961713,5.7747908075957035,5.775257286584497,-0.0006548688994776349,-0.0012480870398823294,-0.0012914960488265557
goals: 0.0016358377307387332,8.605355581556069,8.606050709345741,-0.0009758586807845945,-0.0018598479378321973,-0.0019245342563247519
state: 0.17587040880217542,8.617650031306594,8.44177962250442,-0.17587040880217542,0.0,0.17587040880217542
goals: 0.0022907103829966978,12.050325658613522,12.051299065948117,-0.0013665228343897136,-0.002604398285924885,-0.0026949803886752665
goals: 0.0029431883961197423,15.482698690830718,15.48394936013974,-0.0017557584664836536,-0.0033462260750661285,-0.0034626092702923538
state: 0.17587040880217542,16.00420720099796,15.652466383393612,-0.17587040880217542,-0.17587040880217542,0.17587040880217542
goals: 0.003598261228721196,18.928721820402973,18.93025085432093,-0.002146542037633829,-0.0040910040160257845,-0.00423329091128853
goals: 0.004252186389114942,22.368707598437965,22.370514509276603,-0.0025366409651512408,-0.004834477123536069,-0.005002622336161639
state: 0.0,22.8631531442828,22.8631531442828,-0.17587040880217542,0.0,0.17587040880217542
goals: 0.004906389026769295,25.810153050894478,25.812237956564122,-0.0029269054216746137,-0.00557826570580356,-0.005772280208140934
goals: 0.005558123132232778,29.23861274268061,29.24097459421088,-0.003315697275798622,-0.006319247717212348,-0.006539033895508945
state: -0.17587040880217542,29.722099087567646,29.546228678765473,-0.17587040880217542,-0.17587040880217542,0.17587040880217542
goals: 0.006214277666997976,32.69032618711566,32.69296686291001,-0.0037071261361646397,-0.007065255487696522,-0.007310988140034277
goals: 0.006868374899097873,36.13121715164264,36.13413577747729,-0.004097327713024959,-0.007808924230263897,-0.008080522004236671
state: 0.17587040880217542,36.75691543965466,36.58104503085249,-0.17587040880217542,-0.17587040880217542,0.17587040880217542
goals: 0.007498164325073306,39.44423643844882,39.44742268504036,-0.004473028472859451,-0.008524956476714146,-0.00882145816299214
goals: 0.007864710623281307,41.37246023101197,41.375802236645676,-0.004691691595915185,-0.008941697308663484,-0.009252693421951327
state: 0.35174081760435083,42.20889811252209,41.85715729491775,-0.17587040880217542,-0.17587040880217542,0.17587040880217542
goals: 0.008229846974018955,43.29326696801655,43.29676413355374,-0.004909513615081126,-0.009356835116152686,-0.009682269902563906
goals: 0.0085960465173066,45.21966664970778,45.22331942693819,-0.005127969881556421,-0.009773181708862128,-0.010113097210471326
state: 0.35174081760435083,45.7263062885656,45.7263062885656,-0.17587040880217542,-0.17587040880217542,0.17587040880217542
goals: 0.008716109901025986,45.85126236963507,45.85496616622575,-0.005199593669812012,-0.009909686468731447,-0.010254349665134955
goals: 0.008716109901025986,45.85126236963507,45.85496616622575,-0.005199593669812012,-0.009909686468731447,-0.010254349665134955
state: -0.7034816352087017,46.42978792377431,46.078047106169954,-0.17587040880217542,-0.17587040880217542,0.17587040880217542
goals: 0.008716109901025986,45.85126236963507,45.85496616622575,-0.005199593669812012,-0.009909686468731447,-0.010254349665134955
goals: 0.008716109901025986,45.85126236963507,45.85496616622575,-0.005199593669812012,-0.009909686468731447,-0.010254349665134955
state: 0.7034816352087017,46.25391751497214,46.078047106169954,-0.17587040880217542,-0.17587040880217542,0.17587040880217542
goals: 0.008716109901025986,45.85126236963507,45.85496616622575,-0.005199593669812012,-0.009909686468731447,-0.010254349665134955
goals: 0.008716109901025986,45.85126236963507,45.85496616622575,-0.005199593669812012,-0.009909686468731447,-0.010254349665134955
state: -0.7034816352087017,46.25391751497214,46.078047106169954,0.0,-0.17587040880217542,0.17587040880217542
goals: 0.008716109901025986,45.85126236963507,45.85496616622575,-0.005199593669812012,-0.009909686468731447,-0.010254349665134955
goals: 0.008716109901025986,45.85126236963507,45.85496616622575,-0.005199593669812012,-0.009909686468731447,-0.010254349665134955
state: 0.5276112264065262,46.078047106169954,46.078047106169954,-0.17587040880217542,-0.17587040880217542,0.17587040880217542
goals: 0.008716109901025986,45.85126236963507,45.85496616622575,-0.005199593669812012,-0.009909686468731447,-0.010254349665134955
goals: 0.008716109901025986,45.85126236963507,45.85496616622575,-0.005199593669812012,-0.009909686468731447,-0.010254349665134955
state: -0.5276112264065262,46.078047106169954,46.078047106169954,-0.17587040880217542,-0.17587040880217542,0.17587040880217542
goals: 0.008716109901025986,45.85126236963507,45.85496616622575,-0.005199593669812012,-0.009909686468731447,-0.010254349665134955
goals: 0.008716109901025986,45.85126236963507,45.85496616622575,-0.005199593669812012,-0.009909686468731447,-0.010254349665134955
state: 0.5276112264065262,45.90217669736778,46.078047106169954,-0.17587040880217542,-0.17587040880217542,0.17587040880217542
goals: 0.008716109901025986,45.85126236963507,45.85496616622575,-0.005199593669812012,-0.009909686468731447,-0.010254349665134955
goals: 0.008716109901025986,45.85126236963507,45.85496616622575,-0.005199593669812012,-0.009909686468731447,-0.010254349665134955
state: -0.5276112264065262,45.90217669736778,46.078047106169954,-0.17587040880217542,-0.17587040880217542,0.17587040880217542
goals: 0.008716109901025986,45.85126236963507,45.85496616622575,-0.005199593669812012,-0.009909686468731447,-0.010254349665134955
goals: 0.008716109901025986,45.85126236963507,45.85496616622575,-0.005199593669812012,-0.009909686468731447,-0.010254349665134955
state: 0.35174081760435083,45.90217669736778,46.078047106169954,0.0,-0.17587040880217542,0.17587040880217542
goals: 0.008716109901025986,45.85126236963507,45.85496616622575,-0.005199593669812012,-0.009909686468731447,-0.010254349665134955
goals: 0.008716109901025986,45.85126236963507,45.85496616622575,-0.005199593669812012,-0.009909686468731447,-0.010254349665134955
state: -0.35174081760435083,45.90217669736778,46.078047106169954,-0.17587040880217542,-0.17587040880217542,0.17587040880217542
goals: 0.008716109901025986,45.85126236963507,45.85496616622575,-0.005199593669812012,-0.009909686468731447,-0.010254349665134955
goals: 0.008716109901025986,45.85126236963507,45.85496616622575,-0.005199593669812012,-0.009909686468731447,-0.010254349665134955
state: 0.17587040880217542,45.90217669736778,46.078047106169954,0.0,-0.17587040880217542,0.17587040880217542
goals: 0.008716109901025986,45.85126236963507,45.85496616622575,-0.005199593669812012,-0.009909686468731447,-0.010254349665134955
goals: 0.008716109901025986,45.85126236963507,45.85496616622575,-0.005199593669812012,-0.009909686468731447,-0.010254349665134955
state: 0.35174081760435083,45.90217669736778,46.078047106169954,-0.17587040880217542,-0.17587040880217542,0.17587040880217542
goals: 0.008716109901025986,45.85126236963507,45.85496616622575,-0.005199593669812012,-0.009909686468731447,-0.010254349665134955
goals: 0.008716109901025986,45.85126236963507,45.85496616622575,-0.005199593669812012,-0.009909686468731447,-0.010254349665134955
state: -0.7034816352087017,45.90217669736778,46.078047106169954,0.0,-0.17587040880217542,0.17587040880217542
goals: 0.008716109901025986,45.85126236963507,45.85496616622575,-0.005199593669812012,-0.009909686468731447,-0.010254349665134955
goals: 0.008716109901025986,45.85126236963507,45.85496616622575,-0.005199593669812012,-0.009909686468731447,-0.010254349665134955
state: 1.231092861615228,45.90217669736778,46.078047106169954,-0.17587040880217542,-0.17587040880217542,0.17587040880217542
goals: 0.008716109901025986,45.85126236963507,45.85496616622575,-0.005199593669812012,-0.009909686468731447,-0.010254349665134955
goals: 0.008716109901025986,45.85126236963507,45.85496616622575,-0.005199593669812012,-0.009909686468731447,-0.010254349665134955
state: -1.231092861615228,45.7263062885656,46.078047106169954,0.0,-0.17587040880217542,0.17587040880217542
goals: 0.008716109901025986,45.85126236963507,45.85496616622575,-0.005199593669812012,-0.009909686468731447,-0.010254349665134955
goals: 0.008716109901025986,45.85126236963507,45.85496616622575,-0.005199593669812012,-0.009909686468731447,-0.010254349665134955
state: 0.8793520440108771,45.7263062885656,46.078047106169954,-0.17587040880217542,-0.17587040880217542,0.17587040880217542
goals: 0.008716109901025986,45.85126236963507,45.85496616622575,-0.005199593669812012,-0.009909686468731447,-0.010254349665134955
goals: 0.008716109901025986,45.85126236963507,45.85496616622575,-0.005199593669812012,-0.009909686468731447,-0.010254349665134955
state: -0.5276112264065262,45.7263062885656,45.7263062885656,0.0,-0.17587040880217542,0.17587040880217542
goals: 0.008716109901025986,45.85126236963507,45.85496616622575,-0.005199593669812012,-0.009909686468731447,-0.010254349665134955
goals: 0.008716109901025986,45.85126236963507,45.85496616622575,-0.005199593669812012,-0.009909686468731447,-0.010254349665134955
state: 0.17587040880217542,45.7263062885656,45.7263062885656,0.0,-0.17587040880217542,0.17587040880217542
goals: 0.008716109901025986,45.85126236963507,45.85496616622575,-0.005199593669812012,-0.009909686468731447,-0.010254349665134955
goals: 0.008716109901025986,45.85126236963507,45.85496616622575,-0.005199593669812012,-0.009909686468731447,-0.010254349665134955
state: 0.0,45.7263062885656,45.7263062885656,0.0,-0.17587040880217542,0.17587040880217542
goals: 0.008716109901025986,45.85126236963507,45.85496616622575,-0.005199593669812012,-0.009909686468731447,-0.010254349665134955
goals: 0.008716109901025986,45.85126236963507,45.85496616622575,-0.005199593669812012,-0.009909686468731447,-0.010254349665134955
state: 0.0,45.7263062885656,45.7263062885656,0.0,-0.17587040880217542,0.17587040880217542
goals: 0.008716109901025986,45.85126236963507,45.85496616622575,-0.005199593669812012,-0.009909686468731447,-0.010254349665134955
goals: 0.008716109901025986,45.85126236963507,45.85496616622575,-0.005199593669812012,-0.009909686468731447,-0.010254349665134955
state: -0.17587040880217542,45.7263062885656,45.7263062885656,0.0,-0.17587040880217542,0.17587040880217542
goals: 0.008716109901025986,45.85126236963507,45.85496616622575,-0.005199593669812012,-0.009909686468731447,-0.010254349665134955
goals: 0.008716109901025986,45.85126236963507,45.85496616622575,-0.005199593669812012,-0.009909686468731447,-0.010254349665134955
state: 0.0,45.7263062885656,45.7263062885656,0.0,-0.17587040880217542,0.17587040880217542
goals: 0.008716109901025986,45.85126236963507,45.85496616622575,-0.005199593669812012,-0.009909686468731447,-0.010254349665134955
goals: 0.008716109901025986,45.85126236963507,45.85496616622575,-0.005199593669812012,-0.009909686468731447,-0.010254349665134955
state: 0.0,45.7263062885656,45.7263062885656,0.0,-0.17587040880217542,0.17587040880217542
goals: 0.008716109901025986,45.85126236963507,45.85496616622575,-0.005199593669812012,-0.009909686468731447,-0.010254349665134955
goals: 0.008716109901025986,45.85126236963507,45.85496616622575,-0.005199593669812012,-0.009909686468731447,-0.010254349665134955
state: 0.0,45.7263062885656,45.7263062885656,0.0,-0.17587040880217542,0.17587040880217542
goals: 0.008716109901025986,45.85126236963507,45.85496616622575,-0.005199593669812012,-0.009909686468731447,-0.010254349665134955
goals: 0.008716109901025986,45.85126236963507,45.85496616622575,-0.005199593669812012,-0.009909686468731447,-0.010254349665134955
state: 0.0,45.7263062885656,45.7263062885656,0.0,-0.17587040880217542,0.17587040880217542
goals: 0.008716109901025986,45.85126236963507,45.85496616622575,-0.005199593669812012,-0.009909686468731447,-0.010254349665134955
goals: 0.008716109901025986,45.85126236963507,45.85496616622575,-0.005199593669812012,-0.009909686468731447,-0.010254349665134955
state: 0.0,45.7263062885656,45.7263062885656,0.0,-0.17587040880217542,0.17587040880217542
goals: 0.008716109901025986,45.85126236963507,45.85496616622575,-0.005199593669812012,-0.009909686468731447,-0.010254349665134955
goals: 0.008716109901025986,45.85126236963507,45.85496616622575,-0.005199593669812012,-0.009909686468731447,-0.010254349665134955
state: 0.0,45.7263062885656,45.7263062885656,0.0,-0.17587040880217542,0.17587040880217542
goals: 0.008716109901025986,45.85126236963507,45.85496616622575,-0.005199593669812012,-0.009909686468731447,-0.010254349665134955
goals: 0.008716109901025986,45.85126236963507,45.85496616622575,-0.005199593669812012,-0.009909686468731447,-0.010254349665134955
state: 0.0,45.7263062885656,45.7263062885656,0.0,-0.17587040880217542,0.17587040880217542
goals: 0.008716109901025986,45.85126236963507,45.85496616622575,-0.005199593669812012,-0.009909686468731447,-0.010254349665134955
goals: 0.008716109901025986,45.85126236963507,45.85496616622575,-0.005199593669812012,-0.009909686468731447,-0.010254349665134955
state: 0.0,45.7263062885656,45.7263062885656,0.0,-0.17587040880217542,0.17587040880217542
goals: 0.008716109901025986,45.85126236963507,45.85496616622575,-0.005199593669812012,-0.009909686468731447,-0.010254349665134955
goals: 0.008716109901025986,45.85126236963507,45.85496616622575,-0.005199593669812012,-0.009909686468731447,-0.010254349665134955
state: 0.0,45.7263062885656,45.7263062885656,0.0,-0.17587040880217542,0.17587040880217542
goals: 0.008716109901025986,45.85126236963507,45.85496616622575,-0.005199593669812012,-0.009909686468731447,-0.010254349665134955
goals: 0.008716109901025986,45.85126236963507,45.85496616622575,-0.005199593669812012,-0.009909686468731447,-0.010254349665134955
state: 0.0,45.7263062885656,45.7263062885656,0.0,-0.17587040880217542,0.17587040880217542
goals: 0.008716109901025986,45.85126236963507,45.85496616622575,-0.005199593669812012,-0.009909686468731447,-0.010254349665134955
goals: 0.008716109901025986,45.85126236963507,45.85496616622575,-0.005199593669812012,-0.009909686468731447,-0.010254349665134955
state: 0.0,45.7263062885656,45.7263062885656,0.0,-0.17587040880217542,0.17587040880217542
goals: 0.008716109901025986,45.85126236963507,45.85496616622575,-0.005199593669812012,-0.009909686468731447,-0.010254349665134955
goals: 0.008716109901025986,45.85126236963507,45.85496616622575,-0.005199593669812012,-0.009909686468731447,-0.010254349665134955
state: 0.0,45.7263062885656,45.7263062885656,0.0,-0.17587040880217542,0.17587040880217542
goals: 0.008716109901025986,45.85126236963507,45.85496616622575,-0.005199593669812012,-0.009909686468731447,-0.010254349665134955
goals: 0.008716109901025986,45.85126236963507,45.85496616622575,-0.005199593669812012,-0.009909686468731447,-0.010254349665134955
state: 0.0,45.7263062885656,45.7263062885656,0.0,-0.17587040880217542,0.17587040880217542
goals: 0.008716109901025986,45.85126236963507,45.85496616622575,-0.005199593669812012,-0.009909686468731447,-0.010254349665134955
goals: 0.008716109901025986,45.85126236963507,45.85496616622575,-0.005199593669812012,-0.009909686468731447,-0.010254349665134955
state: 0.0,45.7263062885656,45.7263062885656,0.0,-0.17587040880217542,0.17587040880217542
goals: 0.008716109901025986,45.85126236963507,45.85496616622575,-0.005199593669812012,-0.009909686468731447,-0.010254349665134955
goals: 0.008716109901025986,45.85126236963507,45.85496616622575,-0.005199593669812012,-0.009909686468731447,-0.010254349665134955
state: 0.0,45.7263062885656,45.7263062885656,0.0,-0.17587040880217542,0.17587040880217542
goals: 0.008716109901025986,45.85126236963507,45.85496616622575,-0.005199593669812012,-0.009909686468731447,-0.010254349665134955
goals: 0.008716109901025986,45.85126236963507,45.85496616622575,-0.005199593669812012,-0.009909686468731447,-0.010254349665134955
state: 0.0,45.7263062885656,45.7263062885656,0.0,-0.17587040880217542,0.17587040880217542
goals: 0.008716109901025986,45.85126236963507,45.85496616622575,-0.005199593669812012,-0.009909686468731447,-0.010254349665134955
goals: 0.008716109901025986,45.85126236963507,45.85496616622575,-0.005199593669812012,-0.009909686468731447,-0.010254349665134955
state: 0.17587040880217542,45.7263062885656,45.7263062885656,0.0,-0.17587040880217542,0.17587040880217542
goals: 0.008716109901025986,45.85126236963507,45.85496616622575,-0.005199593669812012,-0.009909686468731447,-0.010254349665134955
goals: 0.008716109901025986,45.85126236963507,45.85496616622575,-0.005199593669812012,-0.009909686468731447,-0.010254349665134955
state: 0.0,45.7263062885656,45.7263062885656,0.0,-0.17587040880217542,0.17587040880217542
goals: 0.008716109901025986,45.85126236963507,45.85496616622575,-0.005199593669812012,-0.009909686468731447,-0.010254349665134955
goals: 0.008716109901025986,45.85126236963507,45.85496616622575,-0.005199593669812012,-0.009909686468731447,-0.010254349665134955
state: 0.0,45.7263062885656,45.7263062885656,0.0,-0.17587040880217542,0.17587040880217542
goals: 0.008716109901025986,45.85126236963507,45.85496616622575,-0.005199593669812012,-0.009909686468731447,-0.010254349665134955
goals: 0.008716109901025986,45.85126236963507,45.85496616622575,-0.005199593669812012,-0.009909686468731447,-0.010254349665134955
state: 0.0,45.7263062885656,45.7263062885656,0.0,-0.17587040880217542,0.17587040880217542
goals: 0.008716109901025986,45.85126236963507,45.85496616622575,-0.005199593669812012,-0.009909686468731447,-0.010254349665134955
goals: 0.008716109901025986,45.85126236963507,45.85496616622575,-0.005199593669812012,-0.009909686468731447,-0.010254349665134955
state: 0.17587040880217542,45.7263062885656,45.7263062885656,0.0,-0.17587040880217542,0.17587040880217542
goals: 0.008716109901025986,45.85126236963507,45.85496616622575,-0.005199593669812012,-0.009909686468731447,-0.010254349665134955
goals: 0.008716109901025986,45.85126236963507,45.85496616622575,-0.005199593669812012,-0.009909686468731447,-0.010254349665134955
state: -0.17587040880217542,45.7263062885656,45.7263062885656,0.0,-0.17587040880217542,0.17587040880217542
goals: 0.008716109901025986,45.85126236963507,45.85496616622575,-0.005199593669812012,-0.009909686468731447,-0.010254349665134955
goals: 0.008716109901025986,45.85126236963507,45.85496616622575,-0.005199593669812012,-0.009909686468731447,-0.010254349665134955
state: 0.0,45.7263062885656,45.7263062885656,0.0,-0.17587040880217542,0.17587040880217542
goals: 0.008716109901025986,45.85126236963507,45.85496616622575,-0.005199593669812012,-0.009909686468731447,-0.010254349665134955
goals: 0.008716109901025986,45.85126236963507,45.85496616622575,-0.005199593669812012,-0.009909686468731447,-0.010254349665134955
state: 0.17587040880217542,45.7263062885656,45.7263062885656,0.0,-0.17587040880217542,0.17587040880217542
goals: 0.008716109901025986,45.85126236963507,45.85496616622575,-0.005199593669812012,-0.009909686468731447,-0.010254349665134955
goals: 0.008716109901025986,45.85126236963507,45.85496616622575,-0.005199593669812012,-0.009909686468731447,-0.010254349665134955
state: 0.0,45.7263062885656,45.7263062885656,0.0,-0.17587040880217542,0.17587040880217542
goals: 0.008716109901025986,45.85126236963507,45.85496616622575,-0.005199593669812012,-0.009909686468731447,-0.010254349665134955
goals: 0.008716109901025986,45.85126236963507,45.85496616622575,-0.005199593669812012,-0.009909686468731447,-0.010254349665134955
state: 0.0,45.7263062885656,45.7263062885656,0.0,-0.17587040880217542,0.17587040880217542
goals: 0.008716109901025986,45.85126236963507,45.85496616622575,-0.005199593669812012,-0.009909686468731447,-0.010254349665134955
goals: 0.008716109901025986,45.85126236963507,45.85496616622575,-0.005199593669812012,-0.009909686468731447,-0.010254349665134955
state: 0.17587040880217542,45.7263062885656,45.7263062885656,0.0,-0.17587040880217542,0.17587040880217542
goals: 0.008716101214704416,45.851250463594035,45.85494726215235,-0.005199591003555972,-0.009891826316174397,-0.010254324644362798
goals: 0.008510947334789375,45.56234408750964,45.40502706878949,-0.005137466198853292,0.4179837255313574,-0.009651712633137681
state: 0.0,45.550435879763434,45.37456547096125,0.0,0.0,0.17587040880217542
goals: 0.00812923601060232,44.98120641959948,44.5499641611671,-0.005026292216043393,1.247359013957984,-0.00846573755217659
goals: 0.007757812663366121,44.35571330816049,43.696636348928706,-0.004923369920401605,2.0980310753247697,-0.007225332803788901
state: 0.0,44.3193430181482,43.6158613829395,0.0,1.4069632704174033,0.17587040880217542
goals: 0.007402190078429436,43.694683156473445,42.86151321637087,-0.004829297413466214,2.9551839774246713,-0.005951464875382204
goals: 0.00706124588700346,42.997210636522375,42.046176774998415,-0.004742742318688148,3.8182327795608897,-0.004644902407017202
state: 0.0,42.912379747730796,41.68128688611557,0.0,3.165667358439157,0.17587040880217542
goals: 0.006733486955331039,42.26130222377784,41.25107353318881,-0.00466233563481003,4.687842067184341,-0.0033044114242805995
goals: 0.00641568984625981,41.47989966614454,40.47214861656898,-0.004586355167726595,5.570037157252732,-0.0019200741795569955
state: 0.17587040880217542,41.32954606851122,40.274323615698165,0.0,5.1002418552630875,0.17587040880217542
goals: 0.006107036695825313,40.65030462221239,39.71104602631115,-0.004513698672088387,6.465052018244293,-0.0004904968166161162
goals: 0.005805695597191157,39.76630726362097,38.966936360319316,-0.004443013988053607,7.376415924380251,0.000991302159175162
state: 0.0,39.57084198048947,38.69148993647859,0.0,7.034816352087017,0.17587040880217542
goals: 0.005509365238517209,38.81853380481797,38.237980093868515,-0.004372796538285151,8.30984755726582,0.002536561107914566
goals: 0.005221739970039684,37.816937746054975,37.537254887339074,-0.0043029149572669885,9.251967975105044,0.004124960185965863
state: 0.0,37.636267483665534,37.108656257259014,0.0,8.793520440108772,0.17587040880217542
goals: 0.004955851402207127,36.81282633832933,36.89960542526473,-0.004235749538211954,10.155043432913704,0.005675246416180717
goals: 0.004709010562044084,35.80754302980202,36.320248786086026,-0.0041701933154846375,11.021324521738515,0.00718856121908465
state: 0.0,35.52582257803944,36.229304213248135,0.0,10.728094936932699,0.17587040880217542
goals: 0.0044786790313597075,34.80092542679624,35.794217586228285,-0.00410531291505944,11.853938264025977,0.0086680041717647
goals: 0.004263053998713544,33.79414763091906,35.31787949830785,-0.0040404680250211026,12.654512660412863,0.010114396609344696
state: -0.17587040880217542,33.41537767241333,35.17408176043509,0.0,12.31092861615228,0.35174081760435083
goals: 0.004061077422361374,32.790701664446104,34.88890765246824,-0.0039753278574896,13.422713712080402,0.011525175507044488
goals: 0.003870122982246347,31.784866357019848,34.50152630758669,-0.003909085425691641,14.16495769971915,0.012910467565992404
state: 0.0,31.4808031755894,34.470600125226376,0.0,13.89376229537186,0.17587040880217542
goals: 0.003689274944769137,30.778005746762993,34.153611149929375,-0.0038414804876181754,14.881844089976504,0.014270068052943589
goals: 0.0035173262651746915,29.769008096028013,33.84242652282028,-0.0037721569203550587,15.575586322815177,0.015606988840718854
state: 0.0,29.546228678765473,33.76711849001768,0.0,15.300725565789259,0.17587040880217542
goals: 0.0033545802260764057,28.765183816830213,33.56781886616798,-0.0037014067315667316,16.242629180607352,0.01691312538484942
goals: 0.0031995108122078496,27.76236196161278,33.32634467587934,-0.003628779659327053,16.88715739089353,0.018195440316514298
state: 0.0,27.25991336433719,33.41537767241333,0.0,16.707688836206664,0.17587040880217542
goals: 0.003050306485092541,26.752809180604974,33.114627911273615,-0.003553559980113619,17.51504011540317,0.019464837977256386
goals: 0.0029085372298927855,25.75121766644832,32.9340958822877,-0.0034767360944745556,18.118141466470114,0.020703972493525114
state: 0.0,25.501209276315436,32.88776644600681,0.0,17.93878169782189,0.17587040880217542
goals: 0.002771657311259294,24.743403986211863,32.78066197997874,-0.003397137594262685,18.705928803580235,0.0219314471361953
goals: 0.002640456183249167,23.738352305794322,32.654523648549485,-0.003315392646163425,19.273855001184938,0.02313713912983406
state: 0.0,23.214893961887157,32.53602562840245,0.0,18.994004150634943,0.17587040880217542
goals: 0.0025140656926322946,22.73267450770982,32.55397411572063,-0.003231178285296593,19.824609943293652,0.02432601709401275
goals: 0.0023920950112183703,21.7260755035563,32.47795153041294,-0.0031444213372316477,20.358967927757906,0.025499169903975216
state: 0.0,21.456189873865398,32.36015521960027,0.0,20.049226603448,0.17587040880217542
goals: 0.002274361989368477,20.719715714122877,32.42556734103112,-0.0030551866488955663,20.87689368141544,0.026655951992862702
goals: 0.002161058552695793,19.717989430559378,32.39596881616039,-0.002963857734753412,21.376786203966997,0.027792094374121983
state: 0.0,19.52161537704147,32.1842848107981,0.0,21.280319465063226,0.17587040880217542
goals: 0.0020508144342200447,18.711091709215285,32.38804321327484,-0.0028695210535087346,21.864025876117683,0.02891932707222412
goals: 0.0019442475737832044,17.706717239533802,32.40116229700025,-0.002772875757307693,22.335288793896744,0.030029556406017736
state: 0.0,17.235300062613188,32.1842848107981,0.0,22.1596715090741,0.17587040880217542
goals: 0.0018398444907966798,16.69231979987102,32.43499877460661,-0.0026726787147408272,22.796726350517144,0.031137040937618588
goals: 0.001737821704816285,15.671214639096618,32.48926507815215,-0.0025691901309987495,23.24687616535589,0.032238343084476796
state: 0.0,15.476595974591435,32.1842848107981,0.0,23.214893961887157,0.17587040880217542
goals: 0.0016380875315279613,14.643799074114748,32.563678692950454,-0.0024624001466317727,23.68567025674835,0.03333327604460719
goals: 0.0015414496736951228,13.620072737442968,32.65698733323238,-0.002353341455687644,24.109138785356222,0.03441160352547102
state: 0.0,13.36615106896533,32.1842848107981,0.0,24.094246005898032,0.17587040880217542
goals: 0.0014469519401468704,12.591561222494928,32.76942926740346,-0.0022411130900099885,24.521096373283022,0.03548267699768022
goals: 0.0013548891312372873,11.562878811517749,32.90010759636648,-0.002126207691953701,24.919905977800873,0.036542022935319815
state: 0.0,11.07983575453705,32.1842848107981,0.0,24.797727641106732,0.17587040880217542
goals: 0.0012641891375445233,10.523149530829274,33.050200282050476,-0.002007377342073987,25.30986065195439,0.03760105121966717
goals: 0.001175813614333771,9.484484926629209,33.21774756119028,-0.0018859796244032586,25.686502682188834,0.03864764105300689
state: 0.17587040880217542,8.969390848910946,32.53602562840245,0.0,25.501209276315436,0.17587040880217542
goals: 0.0010887907192391759,8.436579793514426,33.40416942787752,-0.00176079253115925,26.053678263539922,0.03969241329115913
goals: 0.00100365560601887,7.386831085798822,33.608002827498986,-0.001632672063647564,26.408837213595305,0.04072816965849654
state: 0.0,6.858945943284841,33.063636854808976,0.0,26.38056132032631,0.17587040880217542
goals: 0.0009201014291230327,6.332535572989594,33.82952568540071,-0.0015012805955521202,26.753011759779856,0.041757818242647134
goals: 0.0008383095569835687,5.277030630326705,34.06779502405077,-0.0013670299837936783,27.085228954176255,0.04277833702969696
state: 0.0,5.1002418552630875,33.76711849001768,0.0,27.084042955535015,0.17587040880217542
goals: 0.0007574862110810694,4.210878892274578,34.32485758047715,-0.0012286935278241016,27.408459140184167,0.043798989922060196
goals: 0.0006779755438304728,3.1392557081911003,34.599491340927145,-0.0010869014348301946,27.721052232580995,0.04481489526186404
state: 0.0,2.8139265408348066,34.11885930762203,0.0,27.61165418194154,0.17587040880217542
goals: 0.0006004208139888938,2.0719102416005355,34.88889809377888,-0.0009429609223762494,28.02033172634427,0.045817083851296285
goals: 0.0005235498722213473,0.9921602660330987,35.19747100644291,-0.0007946140114296792,28.31101581057005,0.04682138942249395
state: 0.0,0.8793520440108771,35.17408176043509,0.0,28.31513581715024,0.17587040880217542
goals: 0.00044819257584926734,-0.08768228458891852,35.52166979903262,-0.0006435286457840312,28.589749831187017,0.04781646470359693
goals: 0.0003739518982906677,-1.1724528439002375,35.8627731372308,-0.0004890341250508652,28.85785952105222,0.04880696109601773
state: 0.17587040880217542,-1.231092861615228,35.87756339564378,0.0,28.842747043556763,0.17587040880217542
goals: 0.0003006689253823059,-2.2638407885688565,36.22128976851417,-0.0003308722634170312,29.115725807582358,0.04979452772190673
goals: 0.00022887243609929383,-3.3531681851433555,36.59420950931673,-0.00017031048725247246,29.361369915834945,0.05077149869468173
state: -0.17587040880217542,-3.3415377672413324,36.75691543965466,0.0,29.19448786116112,0.17587040880217542
goals: 0.00015804514460877658,-4.447465745541407,36.9837574784629,-6.329362627844763e-06,29.59646838048965,0.05174437836667958
goals: 8.777763640768417e-05,-5.5526165673304,37.39211965428289,0.00016198224230221618,29.82216412017836,0.052718439609105355
state: 0.0,-5.1002418552630875,37.81213789246772,0.0,30.073839905171997,0.17587040880217542
goals: 1.9043887549704335e-05,-6.652612880702634,37.81327538267317,0.0003321774673740645,30.035223622038057,0.05367972787774488
goals: -4.9079212473308325e-05,-7.761511701431978,38.252472666814654,0.0005064144597887239,30.238429302120863,0.05464069797325231
state: -0.17587040880217542,-8.969390848910946,37.636267483665534,0.0,30.24971031397417,0.35174081760435083
goals: -0.00011464224897273322,-8.846437004854529,38.69619939086912,0.000679442790911707,30.426102763402795,0.05557322273470805
goals: -0.00014939300854002152,-9.428572150529419,38.939944282425834,0.0007733165883566218,30.52229602674315,0.056070522926923855
state: -0.17587040880217542,-10.024613301724,38.51561952767642,0.0,30.24971031397417,0.17587040880217542
goals: -0.45752580764406203,-9.156273001938668,38.54329485647334,0.23787760563810045,30.641681323682715,-0.4026267232370008
goals: -1.5081754561767111,-8.518523889133785,37.638108361615174,0.7830183044182168,30.90458869644031,-1.4582402282470923
state: -0.8793520440108771,-9.321131666515297,37.460397074863366,0.0,30.777321540380697,-0.35174081760435083
goals: -2.608874075249855,-7.8691390141661515,36.71382788245597,1.354786205020962,31.16953862511894,-2.5668477434687422
goals: -3.724143703767363,-7.230261470240512,35.80156095598542,1.9347328105124633,31.427459839764364,-3.6928147005540692
state: -3.5174081760435083,-8.090038804900068,35.87756339564378,0.8793520440108771,31.129062357985053,-1.4069632704174033
goals: -4.840866310975882,-6.609378675816124,34.9117864591326,2.5159884916704836,31.67529347434655,-4.822900227454484
goals: -5.969193769936419,-6.000743873490867,34.036050690986094,3.1037645298259764,31.915498278030693,-5.967283796923416
state: -5.627853081669613,-6.858945943284841,33.942988898819856,1.231092861615228,31.832543993193752,-2.8139265408348066
goals: -7.105829854525329,-5.406210791475508,33.176778905010345,3.6962794562107173,32.147416705177484,-7.122582667721529
goals: -8.248526220617943,-4.826907395181577,32.33538663142546,4.292290854752477,32.3707014008426,-8.286455434675831
state: -8.090038804900068,-5.451982672867437,32.1842848107981,1.7587040880217542,32.1842848107981,-4.22088981125221
goals: -9.401298674394987,-4.260795968074347,31.50869126763484,4.893820710924654,32.586224575085325,-9.46294216732165
goals: -10.5499992004432,-3.7145981375571244,30.706348100836927,5.493409010585476,32.79154547091628,-10.63752638897252
state: -10.37635411932835,-4.22088981125221,30.601451131578518,2.638056132032631,32.711896037204625,-5.803723490471789
goals: -11.702343639868523,-3.184281314890749,29.922320229224823,6.095003486543753,32.98831932530216,-11.81800421849746
goals: -12.86197416365195,-2.6680836095023377,29.15381905315795,6.7004268546614645,33.1772980065919,-13.008048705905354
state: -12.838539842558804,-3.165667358439157,29.01861745235894,3.693278584845684,33.063636854808976,-7.562427578493542
goals: -14.020227986658805,-2.169673143341058,28.406161536074354,7.305076516569033,33.357248721086386,-14.198701699617065
goals: -15.178011403695827,-1.6883154265105305,27.678164688366717,7.90934603548456,33.528573225404756,-15.390808785376748
state: -15.124855156987085,-1.9345744968239293,27.435783773139363,4.748501037658736,33.41537767241333,-11.07983575453705
goals: -16.3404520381664,-1.22168159855191,26.966184268092793,8.515831167511045,33.69221385604271,-16.589582561679325
goals: -17.50477528020894,-0.7707523229442794,26.271579102599713,9.123002656051915,33.84792828057216,-17.792103869685207
state: -17.411170471415367,-1.0552224528130525,26.20469091152414,5.803723490471789,33.76711849001768,-13.89376229537186
goals: -18.66763379709634,-0.33657356071042444,25.59587994584523,9.729035527369085,33.99547783030349,-18.994845366807382
goals: -19.84367732120913,0.08632300067961822,24.930400532347676,10.341473684980647,34.1367413635635,-20.21293297148015
state: -19.697485785843647,0.0,24.797727641106732,7.034816352087017,34.11885930762203,-16.00420720099796
goals: -21.015783853007516,0.491831755918179,24.284580901866015,10.951323640732351,34.269896321638264,-21.428554971453874
goals: -22.185150793215406,0.8807199229316931,23.65721071539127,11.559129695731093,34.395270580585176,-22.642893493994094
state: -22.1596715090741,0.7034816352087017,23.566634779491505,8.265909213702244,34.2947297164242,-17.93878169782189
goals: -23.355385602625322,1.2544316092094063,23.045923314181813,12.166689589593101,34.51345100284791,-23.859631950495718
goals: -24.53513658803519,1.6157182827307384,22.446047264020923,12.778404741131006,34.62539310639633,-25.087724940867286
state: -24.44598682350238,1.4069632704174033,22.33554191787628,9.321131666515297,34.470600125226376,-18.290522515426247
goals: -25.711079352941393,1.9605721597570998,21.864120736265573,13.387281400631775,34.72995029014003,-26.313258602863808
goals: -26.88425868186946,2.2895970844651847,21.299159747097942,13.993789504299995,34.827438330766185,-27.537258535073715
state: -26.90817254673284,2.110444905626105,21.280319465063226,10.37635411932835,34.64647053402855,-20.225097012250174
goals: -28.064134757328432,2.605533777008906,20.746365944918466,14.602737260026283,34.91877197813531,-28.76955150515511
goals: -29.223979760325786,2.901620641023896,20.217712420447306,15.200271168396764,35.00214179597104,-29.98215520690061
state: -29.19448786116112,2.638056132032631,20.049226603448,11.607446980943578,34.99821135163291,-24.270116414700208
goals: -30.384012373056162,3.1835228051754005,19.703340012650703,15.796750360614434,35.07925084577588,-31.19614221788398
goals: -31.547804368210997,3.452161808561672,19.201464361983625,16.393952313187178,35.15056067667158,-32.4151972617261
state: -31.4808031755894,3.165667358439157,19.16987455943712,12.662669433756628,34.99821135163291,-27.435783773139363
goals: -32.70243713597772,3.7047652357833005,18.71732575522333,16.985174729489977,35.21540023970341,-33.6257507369099
goals: -33.863189896818156,3.944832708644024,18.244238300595953,17.5781735435822,35.27477726077139,-34.843781322101236
state: -33.942988898819856,3.8691489936478587,18.114652106624067,13.89376229537186,35.17408176043509,-30.24971031397417
goals: -35.0222507398214,4.170763260007739,17.785251212800897,18.16887867671069,35.32838522997897,-36.061062755042826
goals: -36.178445876977385,4.382492486176924,17.34055374908515,18.75662895359667,35.376322249977,-37.276323627365834
state: -36.229304213248135,4.22088981125221,17.059429653811016,14.948984748184909,35.349952169237255,-32.53602562840245
goals: -37.32950500376189,4.579822077501075,16.9106986730133,19.340216097199047,35.4186679573558,-38.48713646361891
goals: -38.48422895122954,4.7643509372529795,16.49220588882133,19.924035637921406,35.45586916958109,-39.70272791277077
state: -38.51561952767642,4.924371446460912,16.180077609800136,16.00420720099796,35.349952169237255,-35.17408176043509
goals: -39.636178735082915,4.935091164339331,16.087274063017066,20.504744606230307,35.48776064759965,-40.91629817202194
goals: -40.791762836142965,5.093033083187369,15.693497944436109,21.085536875631526,35.514745576772555,-42.13456208871005
state: -40.8019348421047,4.924371446460912,15.652466383393612,17.235300062613188,35.349952169237255,-37.81213789246772
goals: -41.94231621506814,5.237054266723417,15.313684166541329,21.66197604520446,35.5366707666583,-43.3483642161876
goals: -43.09264091327378,5.367880258369502,14.946040531561946,22.2364134176052,35.553762100290236,-44.56274145274611
state: -43.08825015653298,5.451982672867437,14.59724393058056,18.642263333030595,35.52582257803944,-40.098453206896
goals: -44.23947756806582,5.48522949787084,14.591439333087346,22.80716424941965,35.56609150232112,-45.77422711741282
goals: -45.392421640765676,5.59005787050129,14.24685279722464,23.378931178453204,35.57384164057992,-46.99293942436864
state: -45.37456547096125,5.451982672867437,14.069632704174033,19.697485785843647,35.52582257803944,-42.73650933892863
goals: -46.53672611519518,5.681077498209515,13.916560491085868,23.94434206656464,35.577019761961466,-48.203268206550256
goals: -47.6859775241267,5.759432835409485,13.5965138500984,24.510033566253405,35.575715593210504,-49.419564010281334
state: -47.83675119419172,5.803723490471789,13.542021477767507,20.928578647458874,35.52582257803944,-45.19869506215908
goals: -48.83248716190541,5.824563538828278,13.288799128390991,25.07219334377292,35.570132765492104,-50.63366968616322
goals: -49.98082182423697,5.876729026841664,12.992128435853429,25.632977774692016,35.56027883762208,-51.85040670161776
state: -50.12306650862,5.979593899273965,12.662669433756628,21.983801100271926,35.52582257803944,-47.66088078538953
goals: -50.90203604046266,5.909109245676743,12.762446655824368,26.081158712411618,35.54933482033246,-52.826989737686624
goals: -51.34940751271318,5.921791484440747,12.653562487934039,26.29826951853243,35.543091025201754,-53.30140607566442
state: -51.5300297790374,5.979593899273965,12.662669433756628,22.687282735480625,35.52582257803944,-49.41958487341129
goals: -52.02414878804656,5.937146181188875,12.492635451879684,26.625005961979564,35.53244234553422,-54.0171293783064
goals: -51.80017179615765,6.07822305800314,12.36030872658832,26.519557633617435,35.57472280341167,-53.78906802693149
state: -52.2335114142461,5.979593899273965,12.31092861615228,23.214893961887157,35.52582257803944,-50.826548143828695
goals: -50.82250523445104,6.585594454200981,11.918508333814145,26.055888529082164,35.73018745219413,-52.78632162656426
goals: -49.67004311407826,7.1667535320727955,11.414730500223888,25.506579798953425,35.90837317677875,-51.60300223694422
state: -50.65067773502651,7.210686760889191,11.07983575453705,23.39076437068933,35.87756339564378,-51.354159370235216
goals: -48.505508835979654,7.735778010464325,10.923823958254072,24.948571133145187,36.08297343968654,-50.405939074231114
goals: -47.33996176331957,8.287343074689328,10.450199939868517,24.3871880012979,36.25237294384213,-49.20655364523185
state: -48.188492011796065,8.44177962250442,10.024613301724,23.74250518829368,36.229304213248135,-51.00241855263087
goals: -46.162914233253254,8.826501708901592,9.989339761089752,23.81740945161789,36.41813826908566,-47.994106042069
goals: -44.981943831573375,9.34979905681824,9.544031363476204,23.24292450438237,36.5792186359197,-46.776446809083424
state: -45.7263062885656,9.497002075317472,9.321131666515297,23.74250518829368,36.40517462205031,-49.595455282213464
goals: -43.79567723101176,9.857990205281677,9.113456786653163,22.6631091345419,36.735852583979394,-45.55221185160986
goals: -42.610588195370546,10.348550903580504,8.69958204758783,22.081167333937724,36.88720735988009,-44.32812685449854
state: -43.439990974137324,10.37635411932835,8.617650031306594,22.687282735480625,36.93278584845684,-48.188492011796065
goals: -41.4224432795081,10.823527508457714,8.300489393721282,21.49513944954531,37.03402886870798,-43.099899438727626
goals: -40.22058603069575,11.28713724582961,7.912504021428329,20.899767583497383,37.177563363967806,-41.856536556433845
state: -40.8019348421047,11.607446980943578,7.738297987295717,21.983801100271926,37.108656257259014,-46.25391751497214
goals: -39.02503871200205,11.73180858464874,7.541811236296922,20.305025033099824,37.31546296879838,-40.61879653122471
goals: -37.822985775731695,12.162597176852428,7.184038816105265,19.704613424525174,37.4492853134634,-39.37346158586474
state: -38.33974911887424,12.135058207350104,7.034816352087017,21.456189873865398,37.28452666606119,-43.791731791741675
goals: -36.617670779637194,12.578422451704979,6.839957489716877,19.10018175464114,37.57862949487085,-38.123919910200044
goals: -35.40150632730822,12.981899778928824,6.507265582448184,18.488004977192073,37.70441852531324,-36.86235823676413
state: -36.05343380444596,12.838539842558804,6.331334716878314,20.928578647458874,37.81213789246772,-41.153675659709045
goals: -34.186927328753406,13.368979924232995,6.18918524662015,17.87437362754167,37.82531797986074,-35.60169999768878
goals: -32.97105686580659,13.740839980501663,5.884617439149629,17.25791505067511,37.94167987187503,-34.339001351398714
state: -33.591248081215504,13.89376229537186,5.627853081669613,20.049226603448,37.81213789246772,-38.86736034528077
goals: -31.74850223709531,14.099212112628678,5.592036016327708,16.635936115052786,38.05397385006394,-33.068686503399
goals: -30.525019213572765,14.442504564195358,5.312616037139601,16.01146186326718,38.161802406389945,-31.796785596224616
state: -30.95319194918287,14.421373521778381,5.276112264065262,18.994004150634943,37.988008301269886,-36.229304213248135
goals: -29.296159989473406,14.772065470180458,5.045161281009019,15.38226911735033,38.26551450916069,-30.51869784136501
goals: -28.062571475737897,15.08774328705444,4.789705019256157,14.748729684043973,38.36498314146569,-29.235115980405045
state: -28.31513581715024,14.948984748184909,4.572630628856562,17.76291128901972,38.16387871007206,-33.76711849001768
goals: -26.830417717686,15.38810965544488,4.547289590652991,14.114115883517233,38.459860229533795,-27.952501096433423
goals: -25.588669379790197,15.675896033675233,4.3156278864391515,13.472795317482333,38.55093224233392,-26.659391751419555
state: -26.02882050272196,15.828336792195788,4.22088981125221,16.355948018602312,38.51561952767642,-31.129062357985053
goals: -24.35239901146476,15.947713822757143,4.097368172250554,12.832610929739193,38.637043494295206,-25.37150547491031
goals: -23.112186066705444,16.205844096996014,3.8905771775211115,12.188799099744596,38.71901981509183,-24.07907324303167
state: -23.566634779491505,16.355948018602312,3.8691489936478587,15.124855156987085,38.51561952767642,-28.66687663475459
goals: -21.860547938764714,16.451735541232903,3.6940300411860365,11.537515120868898,38.7972454735719,-22.774311617280077
goals: -20.614789885336464,16.68204400159044,3.5103351812561243,10.887824377212537,38.87057288215247,-21.475279719724096
state: -21.104449056261046,16.531818427404488,3.165667358439157,13.89376229537186,38.69148993647859,-26.20469091152414
goals: -19.36347516174956,16.899043578958754,3.3375922578369757,10.233871782562389,38.9398317232514,-20.170091119971882
goals: -18.118108157435625,17.100879779176672,3.177219642271961,9.58174089835783,39.004348654152636,-18.87076586573938
state: -18.290522515426247,17.235300062613188,3.165667358439157,12.486799024954456,39.04323075408294,-23.74250518829368
goals: -16.869980986441817,17.28914250557627,3.027899322560906,8.926950988360533,39.06455486708107,-17.56824117116917
goals: -15.610790596855809,17.464975692265302,2.88865695740451,8.265230417218163,39.12092192978667,-16.25388136365944
state: -15.828336792195788,17.411170471415367,2.9897969496369825,11.07983575453705,39.04323075408294,-21.104449056261046
goals: -14.35530754277589,17.626299416923917,2.7611015278767663,7.60440080057774,39.172668460046594,-14.943118736163898
goals: -13.09543498663788,17.774248358904153,2.6442819973131453,6.940292064657378,39.22019151932003,-13.627527148151916
state: -13.36615106896533,17.76291128901972,2.638056132032631,10.024613301724,39.21910116288512,-18.642263333030595
goals: -11.834469125815694,17.908438568202715,2.5384571992173157,6.274722089709293,39.26336782940951,-12.310571034772046
goals: -10.574966815555385,18.028682443409295,2.4437464860378393,5.609116538758411,39.302034219208345,-10.994939248755022
state: -10.903965345734875,17.93878169782189,2.286315314428281,8.793520440108772,39.21910116288512,-15.300725565789259
goals: -9.318160390299276,18.135014242520246,2.3600716431878292,4.944229146676006,39.33631818624355,-9.681948829250434
goals: -8.059633848004049,18.227885697020415,2.2870548571677585,4.277801951763418,39.36628369645009,-8.367005026324188
state: -8.090038804900068,18.290522515426247,2.110444905626105,7.386557169691368,39.21910116288512,-12.838539842558804
goals: -6.794733856871907,18.307564259134622,2.2244650712456484,3.607447901607751,39.39196212115915,-7.045265027470944
goals: -5.539268490245194,18.373159295951506,2.172966038743892,2.9416390221424,39.41316447942623,-5.7332726316068205
state: -5.627853081669613,18.46639292422842,2.110444905626105,5.979593899273965,39.21910116288512,-10.200483710526175
goals: -4.281365348004216,18.425438754673884,2.1319500984458144,2.274161078181316,39.430013039551824,-4.418639831132603
goals: -3.023634625052364,18.464295858544176,2.1014710326267827,1.6064885786608925,39.44259331483973,-3.1041179257484477
state: -3.3415377672413324,18.46639292422842,1.9345744968239293,4.748501037658736,39.39497157168729,-8.265909213702244
goals: -1.7657943026210352,18.489758653195548,2.0815110932825305,0.9385523980452325,39.45078373636492,-1.7894309870101925
goals: -0.5015691137176727,18.501872249779243,2.0720122729482466,0.26710710732049264,39.45472365333048,-0.4680419726321354
state: -0.5276112264065262,18.46639292422842,1.9345744968239293,3.3415377672413324,39.57084198048947,-5.276112264065262
goals: 0.7569519417986629,18.500513765462102,2.073075269144764,-0.40134329710082534,39.45430752762637,0.8473935748981976
goals: 2.0099467670512263,18.485859238237293,2.08457006412077,-1.0668072687196863,39.44952941195911,2.1570403961740503
state: 1.7587040880217542,18.46639292422842,1.9345744968239293,1.9345744968239293,39.57084198048947,-2.110444905626105
goals: 3.2689978669205155,18.457761135519586,2.106601131074237,-1.7353531337534986,39.44047028647915,3.472984814247775
goals: 4.52740630498027,18.416259242016697,2.1391605695310982,-2.403335010184168,39.427019440499706,4.788202753982196
state: 4.396760220054386,18.46639292422842,1.9345744968239293,0.7034816352087017,39.57084198048947,0.7034816352087017
goals: 5.765403269827124,18.36232110603803,2.1814856182308136,-3.0601868019533307,39.409618527787664,6.08201617920192
goals: 7.002597899613234,18.29539438901938,2.23403176708039,-3.7162371970530974,39.3880329305375,7.374899180411828
state: 6.683075534482665,18.46639292422842,1.9345744968239293,-0.7034816352087017,39.57084198048947,3.3415377672413324
goals: 8.237873321870381,18.215537231836162,2.2967794162682633,-4.370809771328685,39.36222502726326,8.665662504373376
goals: 9.468362921029112,18.123000641076107,2.369537766574361,-5.022318232266112,39.33240962337913,9.951295735025075
state: 9.145261257713123,18.46639292422842,1.9345744968239293,-1.9345744968239293,39.57084198048947,5.803723490471789
goals: 10.704274649798325,18.016947462211466,2.4530000046784997,-5.676081393730531,39.298250596070915,11.242441102634006
goals: 11.939481044677123,17.897762837701123,2.546896281402076,-6.328770642126371,39.25985551189621,12.53267393027037
state: 11.607446980943578,18.290522515426247,1.9345744968239293,-2.9897969496369825,39.39497157168729,8.265909213702244
goals: 13.164008935836113,17.766524288047737,2.6503985590623405,-6.975056053664728,39.217672391095604,13.811562771917785
goals: 14.388179218647863,17.62221846934287,2.7643549370335108,-7.620303077990465,39.17127384510778,15.08986171510213
state: 14.069632704174033,17.93878169782189,1.9345744968239293,-4.396760220054386,39.39497157168729,10.903965345734875
goals: 15.606741276406435,17.465481743561803,2.888286562835829,-8.261688707392997,39.12100354690923,16.362075852305374
goals: 16.831968075543937,17.294619124874245,3.0235857466802667,-8.905585407646797,39.0662693130087,17.640992459683776
state: 16.531818427404488,17.411170471415367,2.110444905626105,-5.451982672867437,39.39497157168729,13.36615106896533
goals: 18.05870619342371,17.110112063790897,3.1699294256355084,-9.549185508790213,39.00717749073428,18.921201920277255
goals: 19.2809313128535,16.912810410222754,3.326680061751579,-10.18927400896325,38.94414128901465,20.196404754748592
state: 18.994004150634943,17.235300062613188,2.462185723230456,-7.034816352087017,39.21910116288512,16.00420720099796
goals: 20.497819511774004,16.702888412221615,3.493760165236836,-10.825345771487763,38.877169915491365,21.46571657760916
goals: 21.706640082432695,16.480911526708336,3.6707824364948882,-11.455904382279815,38.806397091203955,22.726264246745448
state: 21.456189873865398,16.707688836206664,2.9897969496369825,-8.265909213702244,38.86736034528077,18.642263333030595
goals: 22.919850213423658,16.24452509578223,3.859672092979088,-12.087401709259522,38.731214918949455,23.991026502711247
goals: 24.1370374167373,15.993522310982598,4.060675442501225,-12.719519272084721,38.65151261578144,25.259537606762102
state: 24.094246005898032,16.00420720099796,3.693278584845684,-9.497002075317472,38.86736034528077,21.104449056261046
goals: 25.15877655249897,15.772009057362338,4.238436142534177,-13.248955508615849,38.58127337280452,26.324031501617824
goals: 25.627584157596555,15.667037416420406,4.322799910368159,-13.49149678636133,38.54798990793559,26.812347793483667
state: 25.325338867513256,15.652466383393612,4.045019402450034,-10.552224528130523,38.69148993647859,23.214893961887157
goals: 26.613849672370844,15.439307591222061,4.50608238490369,-14.000972566874472,38.47593003688179,27.839438378465523
goals: 27.813690278878628,15.149544224780007,4.739822048501974,-14.619278916639711,38.38439953749472,29.088516480917573
state: 27.78752459074372,15.300725565789259,4.22088981125221,-11.255706163339227,38.51561952767642,25.149468458711084
goals: 29.015211826659836,14.845215630957671,4.985953352005428,-15.236731797933036,38.28843966409968,30.338844097081527
goals: 30.220645779250077,14.525469438396696,5.245270759290235,-15.854373078786583,38.18774116634849,31.592700512811927
state: 29.897969496369818,14.421373521778381,4.924371446460912,-12.486799024954456,38.33974911887424,27.61165418194154
goals: 31.425965677636775,14.19111317277921,5.517207315616683,-16.470087745469268,38.08269606521928,32.84587825084198
goals: 32.63504807506364,13.84079217389054,5.802981738452792,-17.085754347023823,37.972838953939345,34.10236290568479
state: 32.53602562840245,13.717891886569682,5.627853081669613,-13.542021477767507,37.988008301269886,29.722099087567646
goals: 33.84862729514177,13.473917081512598,6.103197080911231,-17.701648233014815,37.858004096070324,35.36287460309673
goals: 35.06909403688214,13.089309129544102,6.418960701603329,-18.31885366242331,37.73778127860574,36.629838252875615
state: 34.99821135163291,13.01441025136098,6.331334716878314,-15.124855156987085,37.81213789246772,31.832543993193752
goals: 36.286203204025725,12.689884985944573,6.7479969558963155,-18.9321396504234,37.61321990172906,37.89259323969269
goals: 37.48847543978805,12.279505449194286,7.087243744946701,-19.535673128594848,37.48547096682389,39.13919341177078
state: 37.460397074863366,12.135058207350104,7.034816352087017,-16.355948018602312,37.460397074863366,34.822340942830735
goals: 38.6969989860592,11.850873880026025,7.442862323051503,-20.139986951656972,37.352276407257406,40.39146800758993
goals: 39.89865587674451,11.408369747041844,7.811374928308459,-20.73842142383713,37.21494765185548,41.63576584364975
state: 39.746712389291645,11.255706163339227,7.738297987295717,-17.235300062613188,37.108656257259014,37.460397074863366
goals: 41.094169232306875,10.95170937623131,8.193136567058378,-21.331342603873313,37.073520023857604,42.87282176335603
goals: 42.29010914846265,10.478194825400173,8.590563170428046,-21.921927507923876,36.927106459973686,44.10937771351745
state: 42.20889811252209,10.37635411932835,8.617650031306594,-18.46639292422842,36.75691543965466,39.746712389291645
goals: 43.477198660278816,9.991363470708604,9.000840000304404,-22.505543850703877,36.77680141748091,45.33579643152493
goals: 44.665574584187496,9.48689400040831,9.427772079455302,-23.087123344732742,36.62127258695023,46.56250232195916
state: 44.49521342695038,9.321131666515297,9.321131666515297,-20.049226603448,36.93278584845684,41.85715729491775
goals: 45.847380562477106,8.96789769209279,9.868901975912443,-23.662760846769416,36.46147529482621,47.78133106815889
goals: 47.02517587866454,8.433135639040822,10.325453045988407,-24.233663048925354,36.29702221335519,48.99487272185105
state: 47.13326955898301,8.265909213702244,10.37635411932835,-21.280319465063226,36.40517462205031,44.3193430181482
goals: 48.19360310203628,7.884974180800122,10.795581676757715,-24.797177380600314,36.12857471735901,50.19754602226376
goals: 49.36138594365459,7.319185981971731,11.283083513468771,-25.357524656978665,35.9549341656005,51.39830172623577
state: 49.24371446460912,7.034816352087017,11.4315765721414,-22.33554191787628,36.05343380444596,47.13326955898301
goals: 50.51878174693145,6.740357962647491,11.784201996475462,-25.909969421078504,35.77743573183085,52.58705265919672
goals: 51.594852520422386,6.18571650760512,12.266642505206153,-26.42092176865478,35.60745765878093,53.69102262834267
state: 51.5300297790374,5.979593899273965,12.31092861615228,-23.39076437068933,35.52582257803944,49.41958487341129
goals: 52.05834683646521,5.937821199342821,12.484582414972566,-26.64012643971498,35.5317043939269,54.16588722321487
goals: 51.55341244745704,5.926934590265282,12.60448207865855,-26.395734824202695,35.539875778879285,53.630253423443946
state: 52.05764100544392,5.803723490471789,12.486799024954456,-23.74250518829368,35.349952169237255,51.17828896143304
goals: 50.47638710372507,5.8952227497904675,12.867637534194754,-25.872864439606392,35.55460812216591,52.48817725091514
goals: 49.329260506748945,5.8487664169854785,13.15902274188712,-25.313678192418216,35.56629110742644,51.27242124969119
state: 50.12306650862,5.803723490471789,12.838539842558804,-23.74250518829368,35.52582257803944,51.705900187839575
goals: 48.18262560566129,5.789278894396392,13.461775471753821,-24.752428368107626,35.57372573071269,50.05787740240303
goals: 47.03834208337275,5.716921126423703,13.775413145282688,-24.190104469410763,35.57684915760483,48.84652865712148
state: 47.66088078538953,5.627853081669613,13.717891886569682,-23.91837559709586,35.52582257803944,50.474807326224344
goals: 45.88870015624732,5.631163053878141,14.102153039734695,-23.622987915882483,35.57562035331761,47.63023162846773
goals: 44.74110279308678,5.532498700479572,14.44002194383284,-23.054773923041964,35.569906964362126,46.416840421765144
state: 45.37456547096125,5.451982672867437,14.421373521778381,-23.91837559709586,35.52582257803944,49.06784405580694
goals: 43.58720519960882,5.420131811884164,14.791626925660404,-22.481384806756896,35.55955042139429,45.197555086054386
goals: 42.4396870262654,5.2952827285673205,15.153200046848973,-21.909187171819948,35.54457096120283,43.98579397232823
state: 43.08825015653298,5.276112264065262,14.948984748184909,-23.039023553084977,35.349952169237255,48.188492011796065
goals: 41.28548257655374,5.156500263210737,15.528979299719948,-21.331714155015668,35.524639198266236,42.76778581434517
goals: 40.1389877248272,5.00550753545439,15.9143607285646,-20.75627356580203,35.50003107127865,41.55873620097723
state: 40.626064433302524,4.924371446460912,15.828336792195788,-22.33554191787628,35.52582257803944,45.90217669736778
goals: 38.98109554824972,4.839684309082867,16.315964652511834,-20.17331615165659,35.470150948730335,40.338527545180945
goals: 37.83102986253299,4.661675337760113,16.72732255426282,-19.592579203617714,35.43536365824289,39.12744803693019
state: 38.33974911887424,4.572630628856562,16.707688836206664,-21.632060282667577,35.52582257803944,43.96760220054385
goals: 36.67431163241288,4.469206419486258,17.153746620863885,-19.006823908787684,35.39513369139548,37.910276015764715
goals: 35.51886313085472,4.26343773426856,17.592572218169234,-18.42011940880662,35.349586274210786,36.69538309135096
state: 35.87756339564378,4.22088981125221,17.411170471415367,-20.928578647458874,35.349952169237255,41.32954606851122
goals: 34.36294827358002,4.0440015681876185,18.044632034601428,-17.831642273148013,35.29848268342253,35.480980064038455
goals: 33.206328221696154,3.8107561000628816,18.510212333558048,-17.241367547869256,35.241808390032396,34.26683603456291
state: 33.591248081215504,3.693278584845684,18.290522515426247,-20.049226603448,35.17408176043509,38.51561952767642
goals: 32.046925146997765,3.5631286513940252,18.990424752202497,-16.648284651928662,35.17924961240311,33.05081506776891
goals: 30.88787572584472,3.3016468739843177,19.484232178598603,-16.05406609098309,35.11083206227065,31.836245893124147
state: 31.304932766787225,3.165667358439157,19.345744968239295,-18.818133741832767,35.17408176043509,35.87756339564378
goals: 29.728616434738505,3.026077520765601,19.99210674014547,-15.458495586810779,35.03639167500718,30.622575583331464
goals: 28.566717064062587,2.7356742674510204,20.51541290025366,-14.860393505009315,34.95561510680742,29.4073036451743
state: 28.842747043556763,2.638056132032631,20.576837829854522,-17.76291128901972,34.822340942830735,33.76711849001768
goals: 27.40388373431329,2.430667310243697,21.053716274610764,-14.2607061935089,34.86844833959906,28.192262465026655
goals: 26.2421628839749,2.111456028975541,21.60635667997232,-13.660555202458669,34.77483939173236,26.97964493193168
state: 26.556431729128487,1.9345744968239293,21.632060282667577,-16.707688836206664,34.64647053402855,32.00841440199592
goals: 25.062982459699935,1.772482040876437,22.182770001857328,-13.050420023738097,34.67312596685211,25.750117981789714
goals: 23.89139764421103,1.4205920955787195,22.77123736409278,-12.443320386005952,34.56516017443924,24.52988385371528
state: 23.91837559709586,1.4069632704174033,22.8631531442828,-15.476595974591435,34.64647053402855,29.897969496369818
goals: 22.7185818268132,1.0530796925714665,23.3764087081441,-11.834767878391789,34.45001734991607,23.309791061143436
goals: 21.55453650430977,0.6730395303249764,23.9933260629545,-11.23003724743905,34.32857432042011,22.100285600256875
state: 21.80793069146975,0.5276112264065262,24.094246005898032,-14.421373521778381,34.2947297164242,26.38056132032631
goals: 20.382575376610273,0.2748416114795719,24.631193538107475,-10.620539431309647,34.19892195700971,20.8840850652903
goals: 19.21396460658077,-0.13799252440229565,25.2843806556234,-10.012208351967256,34.062074729620164,19.672950993630288
state: 19.345744968239295,-0.35174081760435083,25.149468458711084,-13.01441025136098,34.11885930762203,23.74250518829368
goals: 18.05333714501953,-0.563819006203108,25.9504644035038,-9.407542557456841,33.91849540108801,18.471724298711024
goals: 16.88806705318283,-1.0074407485638226,26.637057815159686,-8.800045097350678,33.766454747073915,17.267396553147943
state: 16.88355924500884,-1.0552224528130525,26.556431729128487,-11.783317389745752,33.591248081215504,21.280319465063226
goals: 15.726522166257135,-1.4659417421827468,27.339713501550854,-8.194156993772808,33.606829767102724,16.06868667180513
goals: 14.572139881628182,-1.9380005258866912,28.056581003667212,-7.591753929876005,33.43997398743276,14.879193986557343
state: 14.773114339382737,-2.286315314428281,27.96339499954589,-10.728094936932699,33.23950726361115,18.818133741832767
goals: 13.412316108801795,-2.4290148338387567,28.795957610214483,-6.986338750652762,33.26384862462043,13.686006372339985
goals: 12.254240799237115,-2.93631154122342,29.553874137831464,-6.381744281133857,33.07934801445365,12.496586377737705
state: 12.135058207350104,-3.165667358439157,29.546228678765473,-9.321131666515297,33.23950726361115,16.355948018602312
goals: 11.103063725167244,-3.457755956500751,30.327307719159,-5.780738103759014,32.887102326237574,11.316295916477706
goals: 9.951393951752705,-3.9968792430248206,31.12164576893239,-5.179540859547445,32.68569702116401,10.137626441536426
state: 10.024613301724,-4.22088981125221,31.304932766787225,-8.090038804900068,32.53602562840245,14.245503112976209
goals: 8.807641313330898,-4.549915129659953,31.93149976540355,-4.5826205399522095,32.476429690453315,8.969253384333898
goals: 7.666880089487926,-5.119348596343745,32.760695305738004,-3.9874824066814707,32.25826164166468,7.8062056990489515
state: 7.738297987295717,-5.451982672867437,33.063636854808976,-7.210686760889191,32.1842848107981,11.607446980943578
goals: 6.531092429286087,-5.704375096275741,33.608232977321705,-3.3952357932808748,32.031388040132015,6.6505771238762375
goals: 5.404754083848929,-6.302728858324279,34.47104223980173,-2.8082852470613395,31.796596922501696,5.50697601417985
state: 5.276112264065262,-6.50720512568049,34.470600125226376,-5.979593899273965,32.00841440199592,9.321131666515297
goals: 4.288008939760035,-6.914270248147711,35.349157905134376,-2.2267713107411256,31.553868039680175,4.37558933933705
goals: 3.174439676814146,-7.542609370750285,36.247963971261285,-1.6474129170865135,31.30173270295232,3.2499513853949358
state: 3.3415377672413324,-7.562427578493542,36.58104503085249,-4.748501037658736,31.4808031755894,6.858945943284841
goals: 2.0754118583203445,-8.181322644788573,37.15851379553771,-1.0761945435274005,31.042560587679752,2.1416513065891745
goals: 0.9789173551059809,-8.837391888276738,38.09098305840762,-0.5069276999496208,30.773496381527004,1.0386040331090112
state: 0.8793520440108771,-9.145261257713123,38.33974911887424,-3.5174081760435083,30.95319194918287,4.924371446460912
goals: 0.12191072356345752,-9.363559428239363,38.837026068515556,-0.062484766614132804,30.555669017932157,0.17843392059279248
goals: -0.00015230950341327235,-9.43947117767552,38.94453946047775,0.0007811359122403676,30.524105635589173,0.056059113484646664
state: -0.17587040880217542,-9.672872484119647,38.86736034528077,-2.8139265408348066,30.777321540380697,2.8139265408348066
goals: -0.00015230950341327235,-9.43947117767552,38.94453946047775,0.0007811359122403676,30.524105635589173,0.056059113484646664
goals: -0.00015230950341327235,-9.43947117767552,38.94453946047775,0.0007811359122403676,30.524105635589173,0.056059113484646664
state: -0.17587040880217542,-9.672872484119647,38.86736034528077,-2.462185723230456,30.601451131578518,1.231092861615228
goals: -0.00015230950341327235,-9.43947117767552,38.94453946047775,0.0007811359122403676,30.524105635589173,0.056059113484646664
goals: -0.00015230950341327235,-9.43947117767552,38.94453946047775,0.0007811359122403676,30.524105635589173,0.056059113484646664
state: -0.17587040880217542,-9.672872484119647,38.86736034528077,-2.462185723230456,30.601451131578518,0.35174081760435083
goals: -0.00015230950341327235,-9.43947117767552,38.94453946047775,0.0007811359122403676,30.524105635589173,0.056059113484646664
goals: -0.00015219496608320814,-9.438914300515275,38.944609039660186,0.000781088304050133,30.523798136428137,0.05605865157304556
state: -0.17587040880217542,-9.672872484119647,38.86736034528077,-2.286315314428281,30.601451131578518,0.35174081760435083
goals: 0.0002879871873501511,-7.298761500926581,39.21201106781325,0.0005981237134942663,29.34203806915697,0.054283464014946034
goals: 0.0007278670826589576,-5.16007827152926,39.47922948008161,0.000415284758504425,28.161089476360214,0.0525094954178104
state: -0.35174081760435083,-5.803723490471789,39.39497157168729,-1.9345744968239293,28.31513581715024,0.35174081760435083
goals: 0.0011674861572164975,-3.0226631450222063,39.746289448857134,0.00023255421536543178,26.980841110835645,0.05073657867102565
goals: 0.0016883495414627705,-0.49024055291303703,40.06270374292098,1.605394362374638e-05,25.582475586007174,0.04863601600174973
state: -0.35174081760435083,-0.7034816352087017,39.92258279809381,-0.5276112264065262,25.325338867513256,0.35174081760435083
goals: 0.002395620793393423,2.9484916584716894,40.492357161955475,-0.00027792797729713045,23.683659571452257,0.045783698803435934
goals: 0.0031050275275284795,6.397606522089319,40.92330784456163,-0.000572797525360818,21.77911041307529,0.042922769530756466
state: -0.5276112264065262,6.683075534482665,40.977805250906876,-0.17587040880217542,21.80793069146975,0.35174081760435083
goals: 0.0038125977452699235,9.837792296531875,41.353142879464755,-0.000866903713375976,19.87949176294345,0.04006924664887855
goals: 0.004519810316113982,13.276239202184017,41.782760650889635,-0.0011608612431194775,17.980833289906965,0.037217166102446256
state: -0.35174081760435083,13.542021477767507,41.85715729491775,-0.17587040880217542,17.93878169782189,0.35174081760435083
goals: 0.005226213745870355,16.710752087452626,42.21188688496746,-0.0014544824480786692,16.08434712353662,0.034368348698738865
goals: 0.005936568248528044,20.164474974001795,42.643413318369504,-0.0017497459423265276,14.177253484461538,0.03150359722001082
state: -0.35174081760435083,20.576837829854522,42.73650933892863,0.0,14.245503112976209,0.35174081760435083
goals: 0.006641124472665747,23.59000679939468,43.07141741124966,-0.002042599344190896,12.285726523772649,0.028662229315121
goals: 0.0073476691614862664,27.025206482115763,43.5006294574395,-0.0023362792644038345,10.388861118217232,0.025812842235130307
state: -0.17587040880217542,27.435783773139363,43.6158613829395,0.0,10.37635411932835,0.35174081760435083
goals: 0.00805634195404545,30.470752943184383,43.931134284927715,-0.002630843744852049,8.486282377857695,0.0229548728370021
goals: 0.008762831364504228,33.905683864121926,44.360312750596556,-0.002924500688252449,6.589565378501804,0.020105708686222037
state: -0.17587040880217542,34.64647053402855,44.49521342695038,0.0,6.331334716878314,0.35174081760435083
goals: 0.009472919152957369,37.358109993982744,44.79167716034843,-0.0032196533209970634,4.683187788893638,0.01724203282524403
goals: 0.009957178775886715,39.712566165493364,45.08585538705282,-0.003420938999984547,3.3830926348625088,0.015289087548364931
state: 0.17587040880217542,41.153675659709045,45.37456547096125,0.0,3.3415377672413324,0.35174081760435083
goals: 0.010396564862921566,41.84884851345621,45.35277382047617,-0.0036035727003361612,2.203469772549139,0.013517110404760918
goals: 0.010836975997525769,43.99011461282323,45.6203149502012,-0.0037866324684130643,1.0210949579472344,0.011740999400487227
state: 0.0,44.84695424455473,45.550435879763434,0.0,0.7034816352087017,0.35174081760435083
goals: 0.011220983914129293,45.8571499103087,45.853592230812616,-0.003946247870090661,-0.009853747761126156,0.010192353980746237
goals: 0.011220983914129293,45.8571499103087,45.853592230812616,-0.003946247870090661,-0.009853747761126156,0.010192353980746237
state: 0.0,46.25391751497214,45.90217669736778,0.0,-0.7034816352087017,0.35174081760435083
goals: 0.011220983914129293,45.8571499103087,45.853592230812616,-0.003946247870090661,-0.009853747761126156,0.010192353980746237
goals: 0.011220983914129293,45.8571499103087,45.853592230812616,-0.003946247870090661,-0.009853747761126156,0.010192353980746237
state: -0.17587040880217542,46.25391751497214,45.90217669736778,0.0,-0.5276112264065262,0.35174081760435083
goals: 0.011220983914129293,45.8571499103087,45.853592230812616,-0.003946247870090661,-0.009853747761126156,0.010192353980746237
goals: 0.011220983914129293,45.8571499103087,45.853592230812616,-0.003946247870090661,-0.009853747761126156,0.010192353980746237
state: -0.17587040880217542,46.078047106169954,45.90217669736778,0.0,-0.5276112264065262,0.35174081760435083
goals: 0.011220983914129293,45.8571499103087,45.853592230812616,-0.003946247870090661,-0.009853747761126156,0.010192353980746237
goals: 0.011220983914129293,45.8571499103087,45.853592230812616,-0.003946247870090661,-0.009853747761126156,0.010192353980746237
state: -0.17587040880217542,46.078047106169954,45.90217669736778,0.0,-0.5276112264065262,0.35174081760435083
goals: 0.011220983914129293,45.8571499103087,45.853592230812616,-0.003946247870090661,-0.009853747761126156,0.010192353980746237
goals: 0.011220983914129293,45.8571499103087,45.853592230812616,-0.003946247870090661,-0.009853747761126156,0.010192353980746237
state: -0.17587040880217542,46.078047106169954,45.90217669736778,0.0,-0.5276112264065262,0.35174081760435083
goals: 0.011220983914129293,45.8571499103087,45.853592230812616,-0.003946247870090661,-0.009853747761126156,0.010192353980746237
goals: 0.011220983914129293,45.8571499103087,45.853592230812616,-0.003946247870090661,-0.009853747761126156,0.010192353980746237
state: -0.17587040880217542,46.078047106169954,45.90217669736778,0.0,-0.5276112264065262,0.35174081760435083
goals: 0.011220983914129293,45.8571499103087,45.853592230812616,-0.003946247870090661,-0.009853747761126156,0.010192353980746237
goals: 0.011220983914129293,45.8571499103087,45.853592230812616,-0.003946247870090661,-0.009853747761126156,0.010192353980746237
state: 0.0,46.078047106169954,46.078047106169954,0.0,-0.5276112264065262,0.35174081760435083
goals: 0.011220983914129293,45.8571499103087,45.853592230812616,-0.003946247870090661,-0.009853747761126156,0.010192353980746237
goals: 0.011220983914129293,45.8571499103087,45.853592230812616,-0.003946247870090661,-0.009853747761126156,0.010192353980746237
state: -0.17587040880217542,46.078047106169954,45.90217669736778,0.0,-0.5276112264065262,0.35174081760435083
goals: 0.011220983914129293,45.8571499103087,45.853592230812616,-0.003946247870090661,-0.009853747761126156,0.010192353980746237
goals: 0.011220983914129293,45.8571499103087,45.853592230812616,-0.003946247870090661,-0.009853747761126156,0.010192353980746237
state: -0.17587040880217542,45.90217669736778,45.90217669736778,0.0,-0.5276112264065262,0.35174081760435083
goals: 0.011220983914129293,45.8571499103087,45.853592230812616,-0.003946247870090661,-0.009853747761126156,0.010192353980746237
goals: 0.011220983914129293,45.8571499103087,45.853592230812616,-0.003946247870090661,-0.009853747761126156,0.010192353980746237
state: -0.17587040880217542,45.90217669736778,45.90217669736778,0.0,-0.5276112264065262,0.35174081760435083
goals: 0.011220983914129293,45.8571499103087,45.853592230812616,-0.003946247870090661,-0.009853747761126156,0.010192353980746237
goals: 0.011220983914129293,45.8571499103087,45.853592230812616,-0.003946247870090661,-0.009853747761126156,0.010192353980746237
state: 0.17587040880217542,45.90217669736778,45.90217669736778,0.0,-0.5276112264065262,0.35174081760435083
goals: 0.011220983914129293,45.8571499103087,45.853592230812616,-0.003946247870090661,-0.009853747761126156,0.010192353980746237
goals: 0.011220983914129293,45.8571499103087,45.853592230812616,-0.003946247870090661,-0.009853747761126156,0.010192353980746237
state: -0.17587040880217542,45.90217669736778,45.90217669736778,0.0,-0.5276112264065262,0.35174081760435083
goals: 0.011220983914129293,45.8571499103087,45.853592230812616,-0.003946247870090661,-0.009853747761126156,0.010192353980746237
goals: 0.011220983914129293,45.8571499103087,45.853592230812616,-0.003946247870090661,-0.009853747761126156,0.010192353980746237
state: -0.5276112264065262,45.90217669736778,45.90217669736778,0.0,-0.5276112264065262,0.35174081760435083
goals: 0.011220983914129293,45.8571499103087,45.853592230812616,-0.003946247870090661,-0.009853747761126156,0.010192353980746237
goals: 0.011220983914129293,45.8571499103087,45.853592230812616,-0.003946247870090661,-0.009853747761126156,0.010192353980746237
state: 0.5276112264065262,45.7263062885656,45.90217669736778,0.0,-0.5276112264065262,0.35174081760435083
goals: 0.011220983914129293,45.8571499103087,45.853592230812616,-0.003946247870090661,-0.009853747761126156,0.010192353980746237
goals: 0.011220983914129293,45.8571499103087,45.853592230812616,-0.003946247870090661,-0.009853747761126156,0.010192353980746237
state: -0.35174081760435083,45.7263062885656,45.90217669736778,0.0,-0.5276112264065262,0.35174081760435083
goals: 0.011220983914129293,45.8571499103087,45.853592230812616,-0.003946247870090661,-0.009853747761126156,0.010192353980746237
goals: 0.011220983914129293,45.8571499103087,45.853592230812616,-0.003946247870090661,-0.009853747761126156,0.010192353980746237
state: 0.5276112264065262,45.7263062885656,45.90217669736778,0.0,-0.5276112264065262,0.35174081760435083
goals: 0.011220983914129293,45.8571499103087,45.853592230812616,-0.003946247870090661,-0.009853747761126156,0.010192353980746237
goals: 0.011220983914129293,45.8571499103087,45.853592230812616,-0.003946247870090661,-0.009853747761126156,0.010192353980746237
state: -0.7034816352087017,45.7263062885656,45.90217669736778,0.0,-0.5276112264065262,0.35174081760435083
goals: 0.011220983914129293,45.8571499103087,45.853592230812616,-0.003946247870090661,-0.009853747761126156,0.010192353980746237
goals: 0.011220983914129293,45.8571499103087,45.853592230812616,-0.003946247870090661,-0.009853747761126156,0.010192353980746237
state: 0.8793520440108771,45.7263062885656,45.90217669736778,0.0,-0.35174081760435083,0.35174081760435083
goals: 0.011220983914129293,45.8571499103087,45.853592230812616,-0.003946247870090661,-0.009853747761126156,0.010192353980746237
goals: 0.011220983914129293,45.8571499103087,45.853592230812616,-0.003946247870090661,-0.009853747761126156,0.010192353980746237
state: -1.231092861615228,45.7263062885656,45.90217669736778,0.0,-0.35174081760435083,0.35174081760435083
goals: 0.011220983914129293,45.8571499103087,45.853592230812616,-0.003946247870090661,-0.009853747761126156,0.010192353980746237
goals: 0.011220983914129293,45.8571499103087,45.853592230812616,-0.003946247870090661,-0.009853747761126156,0.010192353980746237
state: 1.0552224528130525,45.7263062885656,45.90217669736778,0.0,-0.35174081760435083,0.35174081760435083
goals: 0.011220983914129293,45.8571499103087,45.853592230812616,-0.003946247870090661,-0.009853747761126156,0.010192353980746237
goals: 0.011220983914129293,45.8571499103087,45.853592230812616,-0.003946247870090661,-0.009853747761126156,0.010192353980746237
state: -1.0552224528130525,45.7263062885656,45.7263062885656,0.0,-0.35174081760435083,0.35174081760435083
goals: 0.011220983914129293,45.8571499103087,45.853592230812616,-0.003946247870090661,-0.009853747761126156,0.010192353980746237
goals: 0.011220983914129293,45.8571499103087,45.853592230812616,-0.003946247870090661,-0.009853747761126156,0.010192353980746237
state: 0.7034816352087017,45.7263062885656,45.90217669736778,0.0,-0.35174081760435083,0.35174081760435083
goals: 0.011220983914129293,45.8571499103087,45.853592230812616,-0.003946247870090661,-0.009853747761126156,0.010192353980746237
goals: 0.011220983914129293,45.8571499103087,45.853592230812616,-0.003946247870090661,-0.009853747761126156,0.010192353980746237
state: -0.7034816352087017,45.7263062885656,45.7263062885656,0.0,-0.35174081760435083,0.35174081760435083
goals: 0.011220983914129293,45.8571499103087,45.853592230812616,-0.003946247870090661,-0.009853747761126156,0.010192353980746237
goals: 0.011220983914129293,45.8571499103087,45.853592230812616,-0.003946247870090661,-0.009853747761126156,0.010192353980746237
state: 0.7034816352087017,45.7263062885656,45.90217669736778,0.0,-0.35174081760435083,0.35174081760435083
goals: 0.011220983914129293,45.8571499103087,45.853592230812616,-0.003946247870090661,-0.009853747761126156,0.010192353980746237
goals: 0.011220983914129293,45.8571499103087,45.853592230812616,-0.003946247870090661,-0.009853747761126156,0.010192353980746237
state: -0.7034816352087017,45.7263062885656,45.7263062885656,0.0,-0.35174081760435083,0.35174081760435083
goals: 0.011220983914129293,45.8571499103087,45.853592230812616,-0.003946247870090661,-0.009853747761126156,0.010192353980746237
goals: 0.011220983914129293,45.8571499103087,45.853592230812616,-0.003946247870090661,-0.009853747761126156,0.010192353980746237
state: 0.5276112264065262,45.7263062885656,45.7263062885656,0.0,-0.35174081760435083,0.35174081760435083
goals: 0.011220983914129293,45.8571499103087,45.853592230812616,-0.003946247870090661,-0.009853747761126156,0.010192353980746237
goals: 0.011220983914129293,45.8571499103087,45.853592230812616,-0.003946247870090661,-0.009853747761126156,0.010192353980746237
state: -0.5276112264065262,45.7263062885656,45.7263062885656,0.0,-0.17587040880217542,0.35174081760435083
goals: 0.011220983914129293,45.8571499103087,45.853592230812616,-0.003946247870090661,-0.009853747761126156,0.010192353980746237
goals: 0.011220983914129293,45.8571499103087,45.853592230812616,-0.003946247870090661,-0.009853747761126156,0.010192353980746237
state: 0.35174081760435083,45.7263062885656,45.7263062885656,0.0,-0.17587040880217542,0.35174081760435083
goals: 0.011220983914129293,45.8571499103087,45.853592230812616,-0.003946247870090661,-0.009853747761126156,0.010192353980746237
goals: 0.011220983914129293,45.8571499103087,45.853592230812616,-0.003946247870090661,-0.009853747761126156,0.010192353980746237
state: 0.17587040880217542,45.7263062885656,45.7263062885656,0.0,-0.17587040880217542,0.35174081760435083
goals: 0.011220983914129293,45.8571499103087,45.853592230812616,-0.003946247870090661,-0.009853747761126156,0.010192353980746237
goals: 0.011220983914129293,45.8571499103087,45.853592230812616,-0.003946247870090661,-0.009853747761126156,0.010192353980746237
state: -0.5276112264065262,45.7263062885656,45.7263062885656,0.0,-0.17587040880217542,0.35174081760435083
goals: 0.011220983914129293,45.8571499103087,45.853592230812616,-0.003946247870090661,-0.009853747761126156,0.010192353980746237
goals: 0.011220983914129293,45.8571499103087,45.853592230812616,-0.003946247870090661,-0.009853747761126156,0.010192353980746237
state: 1.0552224528130525,45.7263062885656,45.7263062885656,0.0,-0.17587040880217542,0.35174081760435083
goals: 0.011220983914129293,45.8571499103087,45.853592230812616,-0.003946247870090661,-0.009853747761126156,0.010192353980746237
goals: 0.011220983914129293,45.8571499103087,45.853592230812616,-0.003946247870090661,-0.009853747761126156,0.010192353980746237
state: -1.231092861615228,45.7263062885656,45.7263062885656,0.0,-0.17587040880217542,0.35174081760435083
goals: 0.011220983914129293,45.8571499103087,45.853592230812616,-0.003946247870090661,-0.009853747761126156,0.010192353980746237
goals: 0.011220983914129293,45.8571499103087,45.853592230812616,-0.003946247870090661,-0.009853747761126156,0.010192353980746237
state: 0.5276112264065262,45.7263062885656,45.7263062885656,0.0,-0.17587040880217542,0.35174081760435083
goals: 0.011220983914129293,45.8571499103087,45.853592230812616,-0.003946247870090661,-0.009853747761126156,0.010192353980746237
goals: 0.011220983914129293,45.8571499103087,45.853592230812616,-0.003946247870090661,-0.009853747761126156,0.010192353980746237
state: -0.5276112264065262,45.7263062885656,45.7263062885656,0.0,-0.17587040880217542,0.35174081760435083
goals: 0.011220983914129293,45.8571499103087,45.853592230812616,-0.003946247870090661,-0.009853747761126156,0.010192353980746237
goals: 0.011220983914129293,45.8571499103087,45.853592230812616,-0.003946247870090661,-0.009853747761126156,0.010192353980746237
state: 0.0,45.7263062885656,45.7263062885656,0.0,-0.17587040880217542,0.35174081760435083
goals: 0.011220983914129293,45.8571499103087,45.853592230812616,-0.003946247870090661,-0.009853747761126156,0.010192353980746237
goals: 0.011220983914129293,45.8571499103087,45.853592230812616,-0.003946247870090661,-0.009853747761126156,0.010192353980746237
state: 0.0,45.7263062885656,45.7263062885656,0.0,-0.17587040880217542,0.35174081760435083
goals: 0.011220983914129293,45.8571499103087,45.853592230812616,-0.003946247870090661,-0.009853747761126156,0.010192353980746237
goals: 0.011220983914129293,45.8571499103087,45.853592230812616,-0.003946247870090661,-0.009853747761126156,0.010192353980746237
state: 0.0,45.7263062885656,45.7263062885656,0.0,-0.17587040880217542,0.35174081760435083
goals: 0.011220983914129293,45.8571499103087,45.853592230812616,-0.003946247870090661,-0.009853747761126156,0.010192353980746237
goals: 0.011220983914129293,45.8571499103087,45.853592230812616,-0.003946247870090661,-0.009853747761126156,0.010192353980746237
state: 0.0,45.7263062885656,45.7263062885656,0.0,-0.17587040880217542,0.35174081760435083
goals: 0.011220983914129293,45.8571499103087,45.853592230812616,-0.003946247870090661,-0.009853747761126156,0.010192353980746237
goals: 0.011220983914129293,45.8571499103087,45.853592230812616,-0.003946247870090661,-0.009853747761126156,0.010192353980746237
state: 0.0,45.7263062885656,45.7263062885656,0.0,-0.17587040880217542,0.35174081760435083
goals: 0.011220983914129293,45.8571499103087,45.853592230812616,-0.003946247870090661,-0.009853747761126156,0.010192353980746237
goals: 0.011220983914129293,45.8571499103087,45.853592230812616,-0.003946247870090661,-0.009853747761126156,0.010192353980746237
state: 0.0,45.7263062885656,45.7263062885656,0.0,-0.17587040880217542,0.35174081760435083
goals: 0.011220983914129293,45.8571499103087,45.853592230812616,-0.003946247870090661,-0.009853747761126156,0.010192353980746237
goals: 0.011220983914129293,45.8571499103087,45.853592230812616,-0.003946247870090661,-0.009853747761126156,0.010192353980746237
state: 0.5276112264065262,45.7263062885656,45.7263062885656,0.0,-0.17587040880217542,0.35174081760435083
goals: 0.011220983914129293,45.8571499103087,45.853592230812616,-0.003946247870090661,-0.009853747761126156,0.010192353980746237
goals: 0.011220983914129293,45.8571499103087,45.853592230812616,-0.003946247870090661,-0.009853747761126156,0.010192353980746237
state: 0.0,45.7263062885656,45.7263062885656,0.0,-0.17587040880217542,0.35174081760435083
goals: 0.011220983914129293,45.8571499103087,45.853592230812616,-0.003946247870090661,-0.009853747761126156,0.010192353980746237
goals: 0.011220983914129293,45.8571499103087,45.853592230812616,-0.003946247870090661,-0.009853747761126156,0.010192353980746237
state: -0.35174081760435083,45.7263062885656,45.7263062885656,0.0,-0.17587040880217542,0.35174081760435083
goals: 0.011220983914129293,45.8571499103087,45.853592230812616,-0.003946247870090661,-0.009853747761126156,0.010192353980746237
goals: 0.011220983914129293,45.8571499103087,45.853592230812616,-0.003946247870090661,-0.009853747761126156,0.010192353980746237
state: -0.17587040880217542,45.7263062885656,45.7263062885656,0.0,-0.17587040880217542,0.35174081760435083
goals: 0.011220983914129293,45.8571499103087,45.853592230812616,-0.003946247870090661,-0.009853747761126156,0.010192353980746237
goals: 0.011220983914129293,45.8571499103087,45.853592230812616,-0.003946247870090661,-0.009853747761126156,0.010192353980746237
state: 0.0,45.7263062885656,45.7263062885656,0.0,-0.17587040880217542,0.35174081760435083
goals: 0.011220983914129293,45.8571499103087,45.853592230812616,-0.003946247870090661,-0.009853747761126156,0.010192353980746237
goals: 0.011220983914129293,45.8571499103087,45.853592230812616,-0.003946247870090661,-0.009853747761126156,0.010192353980746237
state: 0.0,45.7263062885656,45.7263062885656,0.0,-0.17587040880217542,0.35174081760435083
goals: 0.011220983914129293,45.8571499103087,45.853592230812616,-0.003946247870090661,-0.009853747761126156,0.010192353980746237
goals: 0.011220983914129293,45.8571499103087,45.853592230812616,-0.003946247870090661,-0.009853747761126156,0.010192353980746237
state: 0.0,45.7263062885656,45.7263062885656,0.0,-0.17587040880217542,0.35174081760435083
goals: 0.011220983914129293,45.8571499103087,45.853592230812616,-0.003946247870090661,-0.009853747761126156,0.010192353980746237
goals: 0.011220983914129293,45.8571499103087,45.853592230812616,-0.003946247870090661,-0.009853747761126156,0.010192353980746237
state: 0.0,45.7263062885656,45.7263062885656,0.0,-0.17587040880217542,0.35174081760435083
goals: 0.011220983914129293,45.8571499103087,45.853592230812616,-0.003946247870090661,-0.009853747761126156,0.010192353980746237
goals: 0.011220983914129293,45.8571499103087,45.853592230812616,-0.003946247870090661,-0.009853747761126156,0.010192353980746237
state: 0.5276112264065262,45.550435879763434,45.7263062885656,0.0,-0.17587040880217542,0.35174081760435083
goals: 0.011220983914129293,45.8571499103087,45.853592230812616,-0.003946247870090661,-0.009853747761126156,0.010192353980746237
goals: 0.011220983914129293,45.8571499103087,45.853592230812616,-0.003946247870090661,-0.009853747761126156,0.010192353980746237
state: 0.7034816352087017,45.550435879763434,45.7263062885656,0.0,-0.17587040880217542,0.35174081760435083
goals: 0.011220983914129293,45.8571499103087,45.853592230812616,-0.003946247870090661,-0.009853747761126156,0.010192353980746237
goals: 0.011220983914129293,45.8571499103087,45.853592230812616,-0.003946247870090661,-0.009853747761126156,0.010192353980746237
state: -0.35174081760435083,45.550435879763434,45.7263062885656,0.0,-0.17587040880217542,0.35174081760435083
goals: 0.011220983914129293,45.8571499103087,45.853592230812616,-0.003946247870090661,-0.009853747761126156,0.010192353980746237
goals: 0.011220983914129293,45.8571499103087,45.853592230812616,-0.003946247870090661,-0.009853747761126156,0.010192353980746237
state: 0.35174081760435083,45.7263062885656,45.7263062885656,0.0,-0.17587040880217542,0.35174081760435083
goals: 0.011220983914129293,45.8571499103087,45.853592230812616,-0.003946247870090661,-0.009853747761126156,0.010192353980746237
goals: 0.011220983914129293,45.8571499103087,45.853592230812616,-0.003946247870090661,-0.009853747761126156,0.010192353980746237
state: 0.17587040880217542,45.7263062885656,45.7263062885656,0.0,-0.17587040880217542,0.35174081760435083
goals: 0.011220983914129293,45.8571499103087,45.853592230812616,-0.003946247870090661,-0.009853747761126156,0.010192353980746237
goals: 0.011220983914129293,45.8571499103087,45.853592230812616,-0.003946247870090661,-0.009853747761126156,0.010192353980746237
state: -0.35174081760435083,45.550435879763434,45.7263062885656,0.0,-0.17587040880217542,0.35174081760435083
goals: 0.011220983914129293,45.8571499103087,45.853592230812616,-0.003946247870090661,-0.009853747761126156,0.010192353980746237
goals: 0.011220983914129293,45.8571499103087,45.853592230812616,-0.003946247870090661,-0.009853747761126156,0.010192353980746237
state: 0.35174081760435083,45.7263062885656,45.7263062885656,0.0,-0.17587040880217542,0.35174081760435083
goals: 0.011220983914129293,45.8571499103087,45.853592230812616,-0.003946247870090661,-0.009853747761126156,0.010192353980746237
goals: 0.011220983914129293,45.8571499103087,45.853592230812616,-0.003946247870090661,-0.009853747761126156,0.010192353980746237
state: -0.35174081760435083,45.7263062885656,45.7263062885656,0.0,-0.17587040880217542,0.35174081760435083
goals: 0.011220983914129293,45.8571499103087,45.853592230812616,-0.003946247870090661,-0.009853747761126156,0.010192353980746237
goals: 0.011220983914129293,45.8571499103087,45.853592230812616,-0.003946247870090661,-0.009853747761126156,0.010192353980746237
state: 0.35174081760435083,45.7263062885656,45.7263062885656,0.0,-0.17587040880217542,0.35174081760435083
goals: 0.011220983914129293,45.8571499103087,45.853592230812616,-0.003946247870090661,-0.009853747761126156,0.010192353980746237
goals: 0.011220983914129293,45.8571499103087,45.853592230812616,-0.003946247870090661,-0.009853747761126156,0.010192353980746237
state: -0.17587040880217542,45.7263062885656,45.7263062885656,0.0,-0.17587040880217542,0.35174081760435083
goals: 0.011220983914129293,45.8571499103087,45.853592230812616,-0.003946247870090661,-0.009853747761126156,0.010192353980746237
goals: 0.011220983914129293,45.8571499103087,45.853592230812616,-0.003946247870090661,-0.009853747761126156,0.010192353980746237
state: -0.35174081760435083,45.7263062885656,45.7263062885656,0.0,-0.17587040880217542,0.35174081760435083
goals: 0.011220983914129293,45.8571499103087,45.853592230812616,-0.003946247870090661,-0.009853747761126156,0.010192353980746237
goals: 0.011220983914129293,45.8571499103087,45.853592230812616,-0.003946247870090661,-0.009853747761126156,0.010192353980746237
state: 0.7034816352087017,45.550435879763434,45.7263062885656,0.0,-0.17587040880217542,0.35174081760435083
goals: 0.011220983914129293,45.8571499103087,45.853592230812616,-0.003946247870090661,-0.009853747761126156,0.010192353980746237
goals: 0.011220983914129293,45.8571499103087,45.853592230812616,-0.003946247870090661,-0.009853747761126156,0.010192353980746237
state: -1.0552224528130525,45.7263062885656,45.7263062885656,0.0,-0.17587040880217542,0.35174081760435083
goals: 0.011220983914129293,45.8571499103087,45.853592230812616,-0.003946247870090661,-0.009853747761126156,0.010192353980746237
goals: 0.011220983914129293,45.8571499103087,45.853592230812616,-0.003946247870090661,-0.009853747761126156,0.010192353980746237
state: 1.231092861615228,45.7263062885656,45.7263062885656,0.0,-0.17587040880217542,0.35174081760435083
goals: 0.011220983914129293,45.8571499103087,45.853592230812616,-0.003946247870090661,-0.009853747761126156,0.010192353980746237
goals: 0.011220983914129293,45.8571499103087,45.853592230812616,-0.003946247870090661,-0.009853747761126156,0.010192353980746237
state: -1.231092861615228,45.7263062885656,45.7263062885656,0.0,-0.17587040880217542,0.35174081760435083
goals: 0.011220983914129293,45.8571499103087,45.853592230812616,-0.003946247870090661,-0.009853747761126156,0.010192353980746237
goals: 0.011220983914129293,45.8571499103087,45.853592230812616,-0.003946247870090661,-0.009853747761126156,0.010192353980746237
state: 0.8793520440108771,45.7263062885656,45.7263062885656,0.0,-0.17587040880217542,0.35174081760435083
goals: 0.011220983914129293,45.8571499103087,45.853592230812616,-0.003946247870090661,-0.009853747761126156,0.010192353980746237
goals: 0.011220983914129293,45.8571499103087,45.853592230812616,-0.003946247870090661,-0.009853747761126156,0.010192353980746237
state: -0.8793520440108771,45.7263062885656,45.7263062885656,0.0,-0.17587040880217542,0.35174081760435083
goals: 0.011220983914129293,45.8571499103087,45.853592230812616,-0.003946247870090661,-0.009853747761126156,0.010192353980746237
goals: 0.011220983914129293,45.8571499103087,45.853592230812616,-0.003946247870090661,-0.009853747761126156,0.010192353980746237
state: 0.7034816352087017,45.7263062885656,45.7263062885656,0.0,-0.17587040880217542,0.35174081760435083
goals: 0.011220983914129293,45.8571499103087,45.853592230812616,-0.003946247870090661,-0.009853747761126156,0.010192353980746237
goals: 0.011220983914129293,45.8571499103087,45.853592230812616,-0.003946247870090661,-0.009853747761126156,0.010192353980746237
state: -0.7034816352087017,45.7263062885656,45.7263062885656,0.0,-0.17587040880217542,0.35174081760435083
goals: 0.011220983914129293,45.8571499103087,45.853592230812616,-0.003946247870090661,-0.009853747761126156,0.010192353980746237
goals: 0.011220983914129293,45.8571499103087,45.853592230812616,-0.003946247870090661,-0.009853747761126156,0.010192353980746237
state: 0.5276112264065262,45.7263062885656,45.7263062885656,0.0,-0.17587040880217542,0.35174081760435083
goals: 0.011220983914129293,45.8571499103087,45.853592230812616,-0.003946247870090661,-0.009853747761126156,0.010192353980746237
goals: 0.011220983914129293,45.8571499103087,45.853592230812616,-0.003946247870090661,-0.009853747761126156,0.010192353980746237
state: -0.5276112264065262,45.7263062885656,45.7263062885656,0.0,-0.17587040880217542,0.35174081760435083
goals: 0.011220983914129293,45.8571499103087,45.853592230812616,-0.003946247870090661,-0.009853747761126156,0.010192353980746237
goals: 0.011220983914129293,45.8571499103087,45.853592230812616,-0.003946247870090661,-0.009853747761126156,0.010192353980746237
state: 0.5276112264065262,45.7263062885656,45.7263062885656,0.0,-0.17587040880217542,0.35174081760435083
goals: 0.011220983914129293,45.8571499103087,45.853592230812616,-0.003946247870090661,-0.009853747761126156,0.010192353980746237
goals: 0.011220983914129293,45.8571499103087,45.853592230812616,-0.003946247870090661,-0.009853747761126156,0.010192353980746237
state: -0.5276112264065262,45.7263062885656,45.7263062885656,0.0,-0.17587040880217542,0.35174081760435083
goals: 0.011220983914129293,45.8571499103087,45.853592230812616,-0.003946247870090661,-0.009853747761126156,0.010192353980746237
goals: 0.011220983914129293,45.8571499103087,45.853592230812616,-0.003946247870090661,-0.009853747761126156,0.010192353980746237
state: 0.5276112264065262,45.7263062885656,45.7263062885656,0.0,-0.17587040880217542,0.35174081760435083
goals: 0.011220983914129293,45.8571499103087,45.853592230812616,-0.003946247870090661,-0.009853747761126156,0.010192353980746237
goals: 0.011220983914129293,45.8571499103087,45.853592230812616,-0.003946247870090661,-0.009853747761126156,0.010192353980746237
state: -0.35174081760435083,45.7263062885656,45.7263062885656,0.0,-0.17587040880217542,0.35174081760435083
goals: 0.011220983914129293,45.8571499103087,45.853592230812616,-0.003946247870090661,-0.009853747761126156,0.010192353980746237
goals: 0.011220983914129293,45.8571499103087,45.853592230812616,-0.003946247870090661,-0.009853747761126156,0.010192353980746237
state: 0.5276112264065262,45.7263062885656,45.7263062885656,0.0,-0.17587040880217542,0.35174081760435083
goals: 0.011220983914129293,45.8571499103087,45.853592230812616,-0.003946247870090661,-0.009853747761126156,0.010192353980746237
goals: 0.011220983914129293,45.8571499103087,45.853592230812616,-0.003946247870090661,-0.009853747761126156,0.010192353980746237
state: -0.5276112264065262,45.7263062885656,45.7263062885656,0.0,-0.17587040880217542,0.35174081760435083
goals: 0.011220983914129293,45.8571499103087,45.853592230812616,-0.003946247870090661,-0.009853747761126156,0.010192353980746237
goals: 0.011220983914129293,45.8571499103087,45.853592230812616,-0.003946247870090661,-0.009853747761126156,0.010192353980746237
state: 0.5276112264065262,45.7263062885656,45.7263062885656,0.0,-0.17587040880217542,0.35174081760435083
goals: 0.011220983914129293,45.8571499103087,45.853592230812616,-0.003946247870090661,-0.009853747761126156,0.010192353980746237
goals: 0.011220983914129293,45.8571499103087,45.853592230812616,-0.003946247870090661,-0.009853747761126156,0.010192353980746237
