RAMEL-ESPOL/ARCHIE/manipulator_master/src/datos.txt
Joint0,Joint1,Joint2,Joint3,Joint4,Joint5 
-0.0015339807878856412,-0.009203884727313847,-0.01227184630308513,0.006135923151542565,0.0,0.0030679615757712823
-0.0015339807878856412,-0.009203884727313847,-0.01227184630308513,0.006135923151542565,0.0,0.0030679615757712823
-0.0015339807878856412,-0.009203884727313847,-0.01227184630308513,0.0046019423636569235,0.0,0.0030679615757712823
-0.0015339807878856412,-0.009203884727313847,-0.01227184630308513,0.006135923151542565,0.0,0.0030679615757712823
-0.0015339807878856412,-0.009203884727313847,-0.01227184630308513,0.006135923151542565,0.0,0.0030679615757712823
-0.0015339807878856412,-0.009203884727313847,-0.01227184630308513,0.006135923151542565,0.0,0.0030679615757712823
-0.0015339807878856412,-0.007669903939428206,-0.01227184630308513,0.006135923151542565,0.0,0.0030679615757712823
-0.0015339807878856412,-0.009203884727313847,-0.01227184630308513,0.006135923151542565,0.0,0.0030679615757712823
-0.0015339807878856412,-0.007669903939428206,-0.01227184630308513,0.0046019423636569235,0.0,0.0030679615757712823
-0.0015339807878856412,-0.007669903939428206,-0.01227184630308513,0.006135923151542565,0.0,0.0030679615757712823
-0.0015339807878856412,-0.007669903939428206,-0.01227184630308513,0.0046019423636569235,0.0,0.0030679615757712823
-0.0015339807878856412,-0.007669903939428206,-0.01227184630308513,0.0046019423636569235,0.0,0.0030679615757712823
-0.0015339807878856412,-0.009203884727313847,-0.01227184630308513,0.0046019423636569235,0.0,0.0030679615757712823
-0.0015339807878856412,-0.007669903939428206,-0.01227184630308513,0.0046019423636569235,0.0,0.0030679615757712823
-0.0015339807878856412,-0.007669903939428206,-0.01227184630308513,0.006135923151542565,0.0,0.0030679615757712823
-0.0015339807878856412,-0.009203884727313847,-0.01227184630308513,0.0046019423636569235,0.0,0.0030679615757712823
-0.0015339807878856412,-0.009203884727313847,-0.01227184630308513,0.0046019423636569235,0.0,0.0030679615757712823
-0.0015339807878856412,-0.007669903939428206,-0.01227184630308513,0.0046019423636569235,0.0,0.0030679615757712823
-0.0015339807878856412,-0.007669903939428206,-0.01227184630308513,0.0046019423636569235,0.0,0.0030679615757712823
-0.0015339807878856412,-0.009203884727313847,-0.01227184630308513,0.0046019423636569235,0.0,0.0030679615757712823
-0.0015339807878856412,-0.007669903939428206,-0.01227184630308513,0.0046019423636569235,0.0,0.0030679615757712823
-0.0015339807878856412,-0.007669903939428206,-0.01227184630308513,0.006135923151542565,0.0,0.0030679615757712823
-0.0015339807878856412,-0.007669903939428206,-0.01227184630308513,0.0046019423636569235,0.0,0.0030679615757712823
-0.0015339807878856412,-0.007669903939428206,-0.01227184630308513,0.0046019423636569235,0.0,0.0030679615757712823
-0.0015339807878856412,-0.007669903939428206,-0.01227184630308513,0.0046019423636569235,0.0,0.0030679615757712823
-0.0015339807878856412,-0.007669903939428206,-0.01227184630308513,0.0046019423636569235,0.0,0.0030679615757712823
-0.0015339807878856412,-0.007669903939428206,-0.01227184630308513,0.0046019423636569235,0.0,0.0030679615757712823
-0.0015339807878856412,-0.007669903939428206,-0.01227184630308513,0.0046019423636569235,0.0,0.0030679615757712823
-0.0015339807878856412,-0.007669903939428206,-0.01227184630308513,0.0046019423636569235,0.0,0.0030679615757712823
-0.0015339807878856412,-0.007669903939428206,-0.01227184630308513,0.0046019423636569235,0.0,0.0030679615757712823
-0.0015339807878856412,-0.009203884727313847,-0.01227184630308513,0.0046019423636569235,0.0,0.0030679615757712823
-0.0015339807878856412,-0.007669903939428206,-0.01227184630308513,0.0046019423636569235,0.0,0.0030679615757712823
-0.0015339807878856412,-0.007669903939428206,-0.01227184630308513,0.0046019423636569235,0.0,0.0030679615757712823
-0.0015339807878856412,-0.009203884727313847,-0.01227184630308513,0.0046019423636569235,0.0,0.0030679615757712823
-0.0015339807878856412,-0.007669903939428206,-0.01227184630308513,0.0046019423636569235,0.0,0.0030679615757712823
-0.0015339807878856412,-0.007669903939428206,-0.01227184630308513,0.0046019423636569235,0.0,0.0030679615757712823
-0.0015339807878856412,-0.007669903939428206,-0.01227184630308513,0.0046019423636569235,0.0,0.0030679615757712823
-0.0015339807878856412,-0.007669903939428206,-0.01227184630308513,0.0046019423636569235,0.0,0.0030679615757712823
-0.0015339807878856412,-0.007669903939428206,-0.01227184630308513,0.0046019423636569235,0.0,0.0030679615757712823
-0.0015339807878856412,-0.007669903939428206,-0.01227184630308513,0.0046019423636569235,0.0,0.0030679615757712823
-0.0015339807878856412,-0.007669903939428206,-0.01227184630308513,0.0046019423636569235,0.0,0.0030679615757712823
-0.0015339807878856412,-0.007669903939428206,-0.01227184630308513,0.0046019423636569235,0.0,0.0030679615757712823
-0.0015339807878856412,-0.007669903939428206,-0.01227184630308513,0.0046019423636569235,0.0,0.0030679615757712823
-0.0015339807878856412,-0.007669903939428206,-0.01227184630308513,0.0046019423636569235,0.0,0.0030679615757712823
-0.0015339807878856412,-0.007669903939428206,-0.01227184630308513,0.0046019423636569235,0.0,0.0030679615757712823
-0.0015339807878856412,-0.007669903939428206,-0.01227184630308513,0.0046019423636569235,0.0,0.0030679615757712823
-0.0015339807878856412,-0.007669903939428206,-0.01227184630308513,0.0046019423636569235,0.0,0.0030679615757712823
-0.0015339807878856412,-0.007669903939428206,-0.01227184630308513,0.0046019423636569235,0.0,0.0030679615757712823
-0.0015339807878856412,-0.007669903939428206,-0.01227184630308513,0.0046019423636569235,0.0,0.0030679615757712823
-0.0015339807878856412,-0.007669903939428206,-0.01227184630308513,0.0046019423636569235,0.0,0.0030679615757712823
-0.0015339807878856412,-0.007669903939428206,-0.01227184630308513,0.0046019423636569235,0.0,0.0030679615757712823
-0.0015339807878856412,-0.007669903939428206,-0.01227184630308513,0.0046019423636569235,0.0,0.0030679615757712823
-0.0015339807878856412,-0.007669903939428206,-0.01227184630308513,0.0046019423636569235,0.0,0.0030679615757712823
-0.0015339807878856412,-0.007669903939428206,-0.01227184630308513,0.0046019423636569235,0.0,0.0030679615757712823
-0.0015339807878856412,-0.007669903939428206,-0.01227184630308513,0.0046019423636569235,0.0,0.0030679615757712823
-0.0015339807878856412,-0.007669903939428206,-0.01227184630308513,0.0046019423636569235,0.0,0.0030679615757712823
-0.0015339807878856412,-0.007669903939428206,-0.01227184630308513,0.0046019423636569235,0.0,0.0030679615757712823
-0.0015339807878856412,-0.007669903939428206,-0.01227184630308513,0.0046019423636569235,0.0,0.0030679615757712823
-0.0015339807878856412,-0.007669903939428206,-0.01227184630308513,0.0046019423636569235,0.0,0.0030679615757712823
-0.0015339807878856412,-0.007669903939428206,-0.01227184630308513,0.0046019423636569235,0.0,0.0030679615757712823
-0.0015339807878856412,-0.007669903939428206,-0.01227184630308513,0.0046019423636569235,0.0,0.0030679615757712823
-0.0015339807878856412,-0.006135923151542565,-0.01227184630308513,0.0046019423636569235,0.0,0.0030679615757712823
-0.0015339807878856412,-0.006135923151542565,-0.01227184630308513,0.0046019423636569235,0.0,0.0030679615757712823
-0.0015339807878856412,-0.007669903939428206,-0.01227184630308513,0.0046019423636569235,0.0,0.0030679615757712823
-0.0015339807878856412,-0.007669903939428206,-0.01227184630308513,0.0046019423636569235,0.0,0.0030679615757712823
-0.0015339807878856412,-0.006135923151542565,-0.01227184630308513,0.0046019423636569235,0.0,0.0030679615757712823
-0.0015339807878856412,-0.006135923151542565,-0.01227184630308513,0.0046019423636569235,0.0,0.0030679615757712823
-0.0015339807878856412,-0.006135923151542565,-0.01227184630308513,0.0046019423636569235,0.0,0.0030679615757712823
-0.0015339807878856412,-0.006135923151542565,-0.01227184630308513,0.0046019423636569235,0.0,0.0030679615757712823
-0.0015339807878856412,-0.006135923151542565,-0.01227184630308513,0.0046019423636569235,0.0,0.0030679615757712823
-0.0015339807878856412,-0.0046019423636569235,-0.01227184630308513,0.0046019423636569235,0.0,0.0030679615757712823
-0.0015339807878856412,-0.0046019423636569235,-0.01227184630308513,0.0046019423636569235,0.0,0.0030679615757712823
-0.0015339807878856412,-0.0046019423636569235,-0.01227184630308513,0.0046019423636569235,0.0,0.0030679615757712823
-0.0015339807878856412,-0.0046019423636569235,-0.01227184630308513,0.0046019423636569235,0.0,0.0030679615757712823
-0.0015339807878856412,-0.0046019423636569235,-0.01227184630308513,0.0046019423636569235,0.0,0.0030679615757712823
-0.0015339807878856412,-0.0046019423636569235,-0.01227184630308513,0.0046019423636569235,0.0,0.0030679615757712823
-0.0015339807878856412,-0.0046019423636569235,-0.01227184630308513,0.0046019423636569235,0.0,0.0030679615757712823
-0.0015339807878856412,-0.0046019423636569235,-0.01227184630308513,0.0046019423636569235,0.0,0.0030679615757712823
-0.0015339807878856412,-0.0046019423636569235,-0.01227184630308513,0.0046019423636569235,0.0,0.0030679615757712823
-0.0015339807878856412,-0.0046019423636569235,-0.01227184630308513,0.0046019423636569235,0.0,0.0030679615757712823
-0.0015339807878856412,-0.0046019423636569235,-0.01227184630308513,0.0046019423636569235,0.0,0.0030679615757712823
-0.0015339807878856412,-0.0046019423636569235,-0.01227184630308513,0.0046019423636569235,0.0,0.0030679615757712823
-0.0015339807878856412,-0.0030679615757712823,-0.01227184630308513,0.0046019423636569235,0.0,0.0030679615757712823
-0.0015339807878856412,-0.0030679615757712823,-0.01227184630308513,0.0046019423636569235,0.0,0.0030679615757712823
-0.0015339807878856412,-0.0030679615757712823,-0.01227184630308513,0.0046019423636569235,0.0,0.0030679615757712823
-0.0015339807878856412,-0.0030679615757712823,-0.01227184630308513,0.0046019423636569235,0.0,0.0030679615757712823
-0.0015339807878856412,-0.0030679615757712823,-0.01227184630308513,0.0046019423636569235,0.0,0.0030679615757712823
-0.0015339807878856412,-0.0030679615757712823,-0.010737865515199488,0.0046019423636569235,0.0,0.0030679615757712823
-0.0015339807878856412,-0.0030679615757712823,-0.01227184630308513,0.0046019423636569235,0.0,0.0030679615757712823
-0.0015339807878856412,-0.0030679615757712823,-0.01227184630308513,0.0046019423636569235,0.0,0.0030679615757712823
-0.0015339807878856412,-0.0030679615757712823,-0.01227184630308513,0.0046019423636569235,0.0,0.0030679615757712823
-0.0015339807878856412,-0.0030679615757712823,-0.01227184630308513,0.0046019423636569235,0.0,0.0030679615757712823
-0.0015339807878856412,-0.0030679615757712823,-0.01227184630308513,0.0046019423636569235,0.0,0.0030679615757712823
-0.0015339807878856412,-0.0030679615757712823,-0.01227184630308513,0.0046019423636569235,0.0,0.0030679615757712823
-0.0015339807878856412,-0.0030679615757712823,-0.010737865515199488,0.0046019423636569235,0.0,0.0030679615757712823
-0.0015339807878856412,-0.0030679615757712823,-0.01227184630308513,0.0046019423636569235,0.0,0.0030679615757712823
-0.0015339807878856412,-0.0030679615757712823,-0.01227184630308513,0.0046019423636569235,0.0,0.0030679615757712823
-0.0015339807878856412,-0.0030679615757712823,-0.01227184630308513,0.0046019423636569235,0.0,0.0030679615757712823
-0.0015339807878856412,-0.0030679615757712823,-0.01227184630308513,0.0046019423636569235,0.0,0.0030679615757712823
-0.0015339807878856412,-0.0030679615757712823,-0.01227184630308513,0.0046019423636569235,0.0,0.0030679615757712823
-0.0015339807878856412,-0.0030679615757712823,-0.010737865515199488,0.0046019423636569235,0.0,0.0030679615757712823
-0.0015339807878856412,-0.0030679615757712823,-0.010737865515199488,0.0046019423636569235,0.0,0.0030679615757712823
-0.0015339807878856412,-0.0030679615757712823,-0.010737865515199488,0.0046019423636569235,0.0,0.0030679615757712823
-0.0015339807878856412,-0.0030679615757712823,-0.01227184630308513,0.0046019423636569235,0.0,0.0030679615757712823
-0.0015339807878856412,-0.0030679615757712823,-0.010737865515199488,0.0046019423636569235,0.0,0.0030679615757712823
-0.0015339807878856412,-0.0030679615757712823,-0.010737865515199488,0.0046019423636569235,0.0,0.0030679615757712823
-0.0015339807878856412,-0.0030679615757712823,-0.010737865515199488,0.0046019423636569235,0.0,0.0030679615757712823
-0.0015339807878856412,-0.0030679615757712823,-0.01227184630308513,0.0046019423636569235,0.0,0.0030679615757712823
-0.0015339807878856412,-0.0030679615757712823,-0.010737865515199488,0.0046019423636569235,0.0,0.0030679615757712823
-0.0015339807878856412,-0.0030679615757712823,-0.010737865515199488,0.0030679615757712823,0.0,0.0030679615757712823
-0.0015339807878856412,-0.0030679615757712823,-0.010737865515199488,0.0046019423636569235,0.0,0.0030679615757712823
-0.0015339807878856412,-0.0030679615757712823,-0.010737865515199488,0.0046019423636569235,0.0,0.0030679615757712823
-0.0015339807878856412,-0.0030679615757712823,-0.010737865515199488,0.0046019423636569235,0.0,0.0030679615757712823
-0.0015339807878856412,-0.0030679615757712823,-0.010737865515199488,0.0030679615757712823,0.0,0.0030679615757712823
-0.0015339807878856412,-0.0030679615757712823,-0.010737865515199488,0.0046019423636569235,0.0,0.0030679615757712823
-0.0015339807878856412,-0.0015339807878856412,-0.010737865515199488,0.0046019423636569235,0.0,0.0030679615757712823
-0.0015339807878856412,-0.0030679615757712823,-0.010737865515199488,0.0046019423636569235,0.0,0.0030679615757712823
-0.0015339807878856412,-0.0030679615757712823,-0.010737865515199488,0.0046019423636569235,0.0,0.0030679615757712823
-0.0015339807878856412,-0.0030679615757712823,-0.010737865515199488,0.0046019423636569235,0.0,0.0030679615757712823
-0.0015339807878856412,-0.0030679615757712823,-0.010737865515199488,0.0046019423636569235,0.0,0.0030679615757712823
-0.0015339807878856412,-0.0030679615757712823,-0.010737865515199488,0.0046019423636569235,0.0,0.0030679615757712823
-0.0015339807878856412,-0.0030679615757712823,-0.010737865515199488,0.0046019423636569235,0.0,0.0030679615757712823
-0.0015339807878856412,-0.0015339807878856412,-0.010737865515199488,0.0046019423636569235,0.0,0.0030679615757712823
-0.0015339807878856412,-0.0030679615757712823,-0.010737865515199488,0.0046019423636569235,0.0,0.0030679615757712823
-0.0015339807878856412,-0.0030679615757712823,-0.010737865515199488,0.0046019423636569235,0.0,0.0030679615757712823
-0.0015339807878856412,-0.0030679615757712823,-0.010737865515199488,0.0046019423636569235,0.0,0.0030679615757712823
-0.0015339807878856412,-0.0015339807878856412,-0.010737865515199488,0.0046019423636569235,0.0,0.0030679615757712823
-0.0015339807878856412,-0.0030679615757712823,-0.010737865515199488,0.0046019423636569235,0.0,0.0030679615757712823
-0.0015339807878856412,-0.0015339807878856412,-0.010737865515199488,0.0046019423636569235,0.0,0.0030679615757712823
-0.0015339807878856412,-0.0015339807878856412,-0.010737865515199488,0.0046019423636569235,0.0,0.0030679615757712823
-0.0015339807878856412,-0.0015339807878856412,-0.010737865515199488,0.0046019423636569235,0.0,0.0030679615757712823
-0.0015339807878856412,-0.0015339807878856412,-0.009203884727313847,0.0046019423636569235,0.0,0.0030679615757712823
-0.0015339807878856412,-0.0015339807878856412,-0.009203884727313847,0.0046019423636569235,0.0,0.0030679615757712823
-0.0015339807878856412,-0.0015339807878856412,-0.010737865515199488,0.0046019423636569235,0.0,0.0030679615757712823
-0.0015339807878856412,-0.0015339807878856412,-0.009203884727313847,0.0046019423636569235,0.0,0.0030679615757712823
-0.0015339807878856412,-0.0015339807878856412,-0.009203884727313847,0.0046019423636569235,0.0,0.0030679615757712823
-0.0015339807878856412,-0.0015339807878856412,-0.009203884727313847,0.0046019423636569235,0.0,0.0030679615757712823
-0.0015339807878856412,-0.0015339807878856412,-0.009203884727313847,0.0046019423636569235,0.0,0.0030679615757712823
-0.0015339807878856412,-0.0015339807878856412,-0.009203884727313847,0.0046019423636569235,0.0,0.0030679615757712823
-0.0015339807878856412,-0.0015339807878856412,-0.009203884727313847,0.0046019423636569235,0.0,0.0030679615757712823
-0.0015339807878856412,-0.0015339807878856412,-0.009203884727313847,0.0046019423636569235,0.0,0.0030679615757712823
-0.0015339807878856412,-0.0015339807878856412,-0.009203884727313847,0.0046019423636569235,0.0,0.0030679615757712823
-0.0015339807878856412,-0.0015339807878856412,-0.009203884727313847,0.0046019423636569235,0.0,0.0030679615757712823
-0.0015339807878856412,-0.0015339807878856412,-0.009203884727313847,0.0046019423636569235,0.0,0.0030679615757712823
-0.0015339807878856412,-0.0015339807878856412,-0.009203884727313847,0.0030679615757712823,0.0,0.0030679615757712823
-0.0015339807878856412,-0.0015339807878856412,-0.007669903939428206,0.0046019423636569235,0.0,0.0030679615757712823
-0.0015339807878856412,-0.0015339807878856412,-0.007669903939428206,0.0046019423636569235,0.0,0.0030679615757712823
-0.0015339807878856412,-0.0015339807878856412,-0.007669903939428206,0.0046019423636569235,0.0,0.0030679615757712823
-0.0015339807878856412,-0.0015339807878856412,-0.007669903939428206,0.0046019423636569235,0.0,0.0030679615757712823
-0.0015339807878856412,-0.0015339807878856412,-0.007669903939428206,0.0046019423636569235,0.0,0.0030679615757712823
-0.0015339807878856412,-0.0015339807878856412,-0.007669903939428206,0.0046019423636569235,0.0,0.0030679615757712823
-0.0015339807878856412,-0.0015339807878856412,-0.007669903939428206,0.0046019423636569235,0.0,0.0030679615757712823
-0.0015339807878856412,-0.0015339807878856412,-0.007669903939428206,0.0046019423636569235,0.0,0.0030679615757712823
-0.0015339807878856412,-0.0015339807878856412,-0.0046019423636569235,0.0030679615757712823,0.0,0.0030679615757712823
-0.0015339807878856412,-0.0015339807878856412,-0.0030679615757712823,0.0046019423636569235,0.0,0.0030679615757712823
-0.0015339807878856412,-0.0015339807878856412,-0.0030679615757712823,0.0046019423636569235,0.0,0.0030679615757712823
-0.0015339807878856412,-0.0015339807878856412,-0.0030679615757712823,0.0046019423636569235,0.0,0.0030679615757712823
-0.0015339807878856412,-0.0015339807878856412,-0.0030679615757712823,0.0046019423636569235,0.0,0.0030679615757712823
-0.0015339807878856412,-0.0015339807878856412,-0.0030679615757712823,0.0046019423636569235,0.0,0.0030679615757712823
-0.0015339807878856412,-0.0015339807878856412,-0.0030679615757712823,0.0046019423636569235,0.0,0.0030679615757712823
-0.0015339807878856412,-0.0015339807878856412,-0.0030679615757712823,0.0030679615757712823,0.0,0.0030679615757712823
-0.0015339807878856412,-0.0015339807878856412,-0.0030679615757712823,0.0046019423636569235,0.0,0.0030679615757712823
-0.0015339807878856412,-0.0015339807878856412,-0.0030679615757712823,0.0046019423636569235,0.0,0.0030679615757712823
-0.0015339807878856412,-0.0015339807878856412,-0.0015339807878856412,0.0030679615757712823,0.0,0.0030679615757712823
-0.0015339807878856412,-0.0015339807878856412,-0.0030679615757712823,0.0030679615757712823,0.0,0.0030679615757712823
-0.0015339807878856412,-0.0015339807878856412,-0.0030679615757712823,0.0030679615757712823,0.0,0.0030679615757712823
-0.0015339807878856412,-0.0015339807878856412,-0.0015339807878856412,0.0030679615757712823,0.0,0.0030679615757712823
-0.0015339807878856412,-0.0015339807878856412,-0.0015339807878856412,0.0030679615757712823,0.0,0.0030679615757712823
-0.0015339807878856412,-0.0015339807878856412,-0.0015339807878856412,0.0030679615757712823,0.0,0.0030679615757712823
-0.0015339807878856412,-0.0015339807878856412,-0.0030679615757712823,0.0030679615757712823,0.0,0.0030679615757712823
-0.0015339807878856412,-0.0015339807878856412,-0.0030679615757712823,0.0030679615757712823,0.0,0.0030679615757712823
-0.0015339807878856412,-0.0015339807878856412,-0.0015339807878856412,0.0030679615757712823,0.0,0.0030679615757712823
-0.0015339807878856412,-0.0015339807878856412,-0.0030679615757712823,0.0046019423636569235,0.0,0.0030679615757712823
-0.0015339807878856412,-0.0015339807878856412,-0.0015339807878856412,0.0030679615757712823,0.0,0.0030679615757712823
-0.0015339807878856412,-0.0015339807878856412,-0.0030679615757712823,0.0030679615757712823,0.0,0.0030679615757712823
-0.0015339807878856412,-0.0015339807878856412,-0.0015339807878856412,0.0030679615757712823,0.0,0.0030679615757712823
-0.0015339807878856412,-0.0015339807878856412,-0.0030679615757712823,0.0046019423636569235,0.0,0.0030679615757712823
-0.0015339807878856412,-0.0015339807878856412,-0.0030679615757712823,0.0046019423636569235,0.0,0.0030679615757712823
-0.0015339807878856412,-0.0015339807878856412,-0.0030679615757712823,0.0030679615757712823,0.0,0.0030679615757712823
-0.0015339807878856412,-0.0015339807878856412,-0.0030679615757712823,0.0030679615757712823,0.0,0.0030679615757712823
-0.0015339807878856412,-0.0015339807878856412,-0.0030679615757712823,0.0030679615757712823,0.0,0.0030679615757712823
-0.0015339807878856412,-0.0015339807878856412,-0.0030679615757712823,0.0030679615757712823,0.0,0.0030679615757712823
-0.0015339807878856412,-0.0015339807878856412,-0.0030679615757712823,0.0030679615757712823,0.0,0.0030679615757712823
-0.0015339807878856412,-0.0015339807878856412,-0.0015339807878856412,0.0046019423636569235,0.0,0.0030679615757712823
-0.0015339807878856412,-0.0015339807878856412,-0.0030679615757712823,0.0046019423636569235,0.0,0.0030679615757712823
-0.0015339807878856412,-0.0015339807878856412,-0.0030679615757712823,0.0030679615757712823,0.0,0.0030679615757712823
-0.0015339807878856412,-0.0015339807878856412,-0.0030679615757712823,0.0046019423636569235,0.0,0.0030679615757712823
-0.0015339807878856412,-0.0015339807878856412,-0.0030679615757712823,0.0046019423636569235,0.0,0.0030679615757712823
-0.0015339807878856412,-0.0015339807878856412,-0.0030679615757712823,0.0030679615757712823,0.0,0.0030679615757712823
-0.0015339807878856412,-0.0015339807878856412,-0.0030679615757712823,0.0030679615757712823,0.0,0.0030679615757712823
-0.0015339807878856412,-0.0015339807878856412,-0.0030679615757712823,0.0046019423636569235,0.0,0.0030679615757712823
-0.0015339807878856412,-0.0015339807878856412,-0.0030679615757712823,0.0046019423636569235,0.0,0.0030679615757712823
-0.0015339807878856412,-0.0015339807878856412,-0.0030679615757712823,0.0046019423636569235,0.0,0.0030679615757712823
-0.0015339807878856412,0.0,-0.0030679615757712823,0.0030679615757712823,0.0,0.0030679615757712823
-0.0015339807878856412,0.0,-0.0030679615757712823,0.0030679615757712823,0.0,0.0030679615757712823
-0.0015339807878856412,0.0,-0.0030679615757712823,0.0030679615757712823,0.0,0.0030679615757712823
-0.0015339807878856412,0.0,-0.0015339807878856412,0.0046019423636569235,0.0,0.0030679615757712823
-0.0015339807878856412,0.0,-0.0030679615757712823,0.0030679615757712823,0.0,0.0030679615757712823
-0.0015339807878856412,0.0,-0.0030679615757712823,0.0030679615757712823,0.0,0.0030679615757712823
-0.0015339807878856412,0.0,-0.0030679615757712823,0.0030679615757712823,0.0,0.0030679615757712823
-0.0015339807878856412,0.0,-0.0030679615757712823,0.0046019423636569235,0.0,0.0030679615757712823
-0.0015339807878856412,0.0,-0.0015339807878856412,0.0046019423636569235,0.0,0.0030679615757712823
-0.0015339807878856412,0.0,-0.0015339807878856412,0.0046019423636569235,0.0,0.0030679615757712823
-0.0015339807878856412,0.0,-0.0030679615757712823,0.0046019423636569235,0.0,0.0030679615757712823
-0.0015339807878856412,0.0,-0.0030679615757712823,0.0030679615757712823,0.0,0.0030679615757712823
-0.0015339807878856412,0.0,-0.0030679615757712823,0.0046019423636569235,0.0,0.0030679615757712823
-0.0015339807878856412,0.0,-0.0030679615757712823,0.0046019423636569235,0.0,0.0030679615757712823
-0.0015339807878856412,0.0,-0.0030679615757712823,0.0030679615757712823,0.0,0.0030679615757712823
-0.0015339807878856412,0.0,-0.0030679615757712823,0.0030679615757712823,0.0,0.0030679615757712823
-0.0015339807878856412,0.0,-0.0015339807878856412,0.0030679615757712823,0.0,0.0030679615757712823
-0.0015339807878856412,0.0,-0.0015339807878856412,0.0046019423636569235,0.0,0.0030679615757712823
-0.0015339807878856412,0.0,-0.0030679615757712823,0.0030679615757712823,0.0,0.0030679615757712823
-0.0015339807878856412,0.0,-0.0015339807878856412,0.0030679615757712823,0.0,0.0030679615757712823
-0.0015339807878856412,0.0,-0.0030679615757712823,0.0030679615757712823,0.0,0.0030679615757712823
-0.0015339807878856412,0.0,-0.0030679615757712823,0.0030679615757712823,0.0,0.0030679615757712823
-0.0015339807878856412,0.0,-0.0030679615757712823,0.0046019423636569235,0.0,0.0030679615757712823
-0.0015339807878856412,0.0,-0.0030679615757712823,0.0030679615757712823,0.0,0.0030679615757712823
-0.0015339807878856412,0.0,-0.0030679615757712823,0.0030679615757712823,0.0,0.0030679615757712823
-0.0015339807878856412,0.0,-0.0030679615757712823,0.0046019423636569235,0.0,0.0030679615757712823
-0.0015339807878856412,0.0,-0.0030679615757712823,0.0030679615757712823,0.0,0.0030679615757712823
-0.0015339807878856412,0.0,-0.0030679615757712823,0.0030679615757712823,0.0,0.0030679615757712823
-0.0015339807878856412,0.0,-0.0015339807878856412,0.0030679615757712823,0.0,0.0030679615757712823
-0.0015339807878856412,0.0,-0.0030679615757712823,0.0046019423636569235,0.0,0.0030679615757712823
-0.0015339807878856412,0.0,-0.0030679615757712823,0.0030679615757712823,0.0,0.0030679615757712823
-0.0015339807878856412,0.0,-0.0030679615757712823,0.0046019423636569235,0.0,0.0030679615757712823
-0.0015339807878856412,0.0,-0.0015339807878856412,0.0030679615757712823,0.0,0.0030679615757712823
-0.0015339807878856412,0.0,-0.0030679615757712823,0.0030679615757712823,0.0,0.0030679615757712823
-0.0015339807878856412,0.0,-0.0030679615757712823,0.0030679615757712823,0.0,0.0030679615757712823
-0.0015339807878856412,0.0,-0.0030679615757712823,0.0046019423636569235,0.0,0.0030679615757712823
-0.0015339807878856412,0.0,-0.0015339807878856412,0.0030679615757712823,0.0,0.0030679615757712823
-0.0015339807878856412,0.0,-0.0030679615757712823,0.0030679615757712823,0.0,0.0030679615757712823
-0.0015339807878856412,0.0,-0.0030679615757712823,0.0030679615757712823,0.0,0.0030679615757712823
-0.0015339807878856412,0.0,-0.0030679615757712823,0.0030679615757712823,0.0,0.0030679615757712823
-0.0015339807878856412,0.0,-0.0030679615757712823,0.0046019423636569235,0.0,0.0030679615757712823
-0.0015339807878856412,0.0,-0.0030679615757712823,0.0046019423636569235,0.0,0.0030679615757712823
-0.0015339807878856412,0.0,-0.0030679615757712823,0.0046019423636569235,0.0,0.0030679615757712823
-0.0015339807878856412,0.0,-0.0030679615757712823,0.0046019423636569235,0.0,0.0030679615757712823
-0.0015339807878856412,0.0,-0.0030679615757712823,0.0046019423636569235,0.0,0.0030679615757712823
-0.0015339807878856412,0.0,-0.0030679615757712823,0.0046019423636569235,0.0,0.0030679615757712823
-0.0015339807878856412,0.0,-0.0030679615757712823,0.0030679615757712823,0.0,0.0030679615757712823
-0.0015339807878856412,0.0,-0.0015339807878856412,0.0030679615757712823,0.0,0.0030679615757712823
-0.0015339807878856412,0.0,-0.0015339807878856412,0.0046019423636569235,0.0,0.0030679615757712823
-0.0015339807878856412,0.0,-0.0030679615757712823,0.0030679615757712823,0.0,0.0030679615757712823
-0.0015339807878856412,0.0,-0.0015339807878856412,0.0030679615757712823,0.0,0.0030679615757712823
-0.0015339807878856412,0.0,-0.0015339807878856412,0.0030679615757712823,0.0,0.0030679615757712823
-0.0015339807878856412,0.0,-0.0030679615757712823,0.0046019423636569235,0.0,0.0030679615757712823
-0.0015339807878856412,0.0,-0.0015339807878856412,0.0046019423636569235,0.0,0.0030679615757712823
-0.0015339807878856412,0.0,-0.0030679615757712823,0.0030679615757712823,0.0,0.0030679615757712823
-0.0030679615757712823,0.0,-0.0030679615757712823,0.0030679615757712823,0.0,0.0030679615757712823
-0.0015339807878856412,0.0,-0.0015339807878856412,0.0030679615757712823,0.0,0.0030679615757712823
-0.0015339807878856412,0.0,-0.0030679615757712823,0.0030679615757712823,0.0,0.0030679615757712823
-0.0015339807878856412,0.0,-0.0030679615757712823,0.0030679615757712823,0.0,0.0030679615757712823
-0.0015339807878856412,0.0,-0.0030679615757712823,0.0030679615757712823,0.0,0.0030679615757712823
-0.0015339807878856412,0.0,-0.0015339807878856412,0.0030679615757712823,0.0,0.0030679615757712823
-0.0015339807878856412,0.0,-0.0030679615757712823,0.0046019423636569235,0.0,0.0030679615757712823
-0.0015339807878856412,0.0,-0.0015339807878856412,0.0046019423636569235,0.0,0.0030679615757712823
-0.0015339807878856412,0.0,-0.0030679615757712823,0.0030679615757712823,0.0,0.0030679615757712823
-0.0015339807878856412,0.0,-0.0015339807878856412,0.0046019423636569235,0.0,0.0030679615757712823
-0.0015339807878856412,0.0,-0.0015339807878856412,0.0030679615757712823,0.0,0.0030679615757712823
-0.0015339807878856412,0.0,-0.0030679615757712823,0.0046019423636569235,0.0,0.0030679615757712823
-0.0015339807878856412,0.0,-0.0015339807878856412,0.0030679615757712823,0.0,0.0030679615757712823
-0.0030679615757712823,0.0,-0.0015339807878856412,0.0046019423636569235,0.0,0.0030679615757712823
-0.0015339807878856412,0.0,-0.0015339807878856412,0.0030679615757712823,0.0,0.0030679615757712823
-0.0030679615757712823,0.0,-0.0015339807878856412,0.0046019423636569235,0.0,0.0030679615757712823
-0.0015339807878856412,0.0,-0.0015339807878856412,0.0046019423636569235,0.0,0.0030679615757712823
-0.0015339807878856412,0.0,-0.0015339807878856412,0.0030679615757712823,0.0,0.0030679615757712823
-0.0015339807878856412,0.0,-0.0015339807878856412,0.0030679615757712823,0.0,0.0030679615757712823
-0.0015339807878856412,0.0,-0.0015339807878856412,0.0046019423636569235,0.0,0.0030679615757712823
-0.0030679615757712823,0.0,-0.0015339807878856412,0.0030679615757712823,0.0,0.0030679615757712823
-0.0015339807878856412,0.0,-0.0015339807878856412,0.0046019423636569235,0.0,0.0030679615757712823
-0.0015339807878856412,0.0,-0.0015339807878856412,0.0030679615757712823,0.0,0.0030679615757712823
-0.0015339807878856412,0.0,-0.0015339807878856412,0.0030679615757712823,0.0,0.0030679615757712823
-0.0015339807878856412,0.0,-0.0015339807878856412,0.0030679615757712823,0.0,0.0030679615757712823
-0.0015339807878856412,0.0,-0.0015339807878856412,0.0046019423636569235,0.0,0.0030679615757712823
-0.0030679615757712823,0.0,-0.0015339807878856412,0.0046019423636569235,0.0,0.0030679615757712823
-0.0015339807878856412,0.0,-0.0015339807878856412,0.0030679615757712823,0.0,0.0030679615757712823
-0.0015339807878856412,0.0,-0.0015339807878856412,0.0030679615757712823,0.0,0.0030679615757712823
-0.0015339807878856412,0.0,-0.0015339807878856412,0.0030679615757712823,0.0,0.0030679615757712823
-0.0015339807878856412,0.0,-0.0015339807878856412,0.0030679615757712823,0.0,0.0030679615757712823
-0.0015339807878856412,0.0,-0.0015339807878856412,0.0030679615757712823,0.0,0.0030679615757712823
-0.0015339807878856412,0.0,-0.0015339807878856412,0.0046019423636569235,0.0,0.0030679615757712823
-0.0015339807878856412,0.0015339807878856412,-0.0015339807878856412,0.0030679615757712823,0.0,0.0030679615757712823
-0.0015339807878856412,0.0,-0.0015339807878856412,0.0030679615757712823,0.0,0.0030679615757712823
-0.0015339807878856412,0.0,-0.0015339807878856412,0.0030679615757712823,0.0,0.0030679615757712823
-0.0015339807878856412,0.0,-0.0015339807878856412,0.0030679615757712823,0.0,0.0030679615757712823
-0.0030679615757712823,0.0,-0.0015339807878856412,0.0030679615757712823,0.0,0.0030679615757712823
-0.0015339807878856412,0.0,-0.0015339807878856412,0.0030679615757712823,0.0,0.0030679615757712823
-0.0015339807878856412,0.0,-0.0015339807878856412,0.0046019423636569235,0.0,0.0030679615757712823
-0.0030679615757712823,0.0,-0.0015339807878856412,0.0030679615757712823,0.0,0.0030679615757712823
-0.0015339807878856412,0.0,-0.0015339807878856412,0.0030679615757712823,0.0,0.0030679615757712823
-0.0015339807878856412,0.0,-0.0015339807878856412,0.0046019423636569235,0.0,0.0030679615757712823
-0.0015339807878856412,0.0,-0.0015339807878856412,0.0030679615757712823,0.0,0.0030679615757712823
-0.0015339807878856412,0.0,-0.0015339807878856412,0.0046019423636569235,0.0,0.0030679615757712823
-0.0015339807878856412,0.0,-0.0015339807878856412,0.0046019423636569235,0.0,0.0030679615757712823
-0.0015339807878856412,0.0,-0.0015339807878856412,0.0046019423636569235,0.0,0.0030679615757712823
-0.0015339807878856412,0.0,-0.0015339807878856412,0.0030679615757712823,0.0,0.0030679615757712823
-0.0015339807878856412,0.0,-0.0015339807878856412,0.0030679615757712823,0.0,0.0030679615757712823
-0.0030679615757712823,0.0,-0.0015339807878856412,0.0030679615757712823,0.0,0.0030679615757712823
-0.0015339807878856412,0.0,-0.0015339807878856412,0.0046019423636569235,0.0,0.0030679615757712823
-0.0015339807878856412,0.0,-0.0015339807878856412,0.0030679615757712823,0.0,0.0030679615757712823
-0.0015339807878856412,0.0,-0.0015339807878856412,0.0030679615757712823,0.0,0.0030679615757712823
-0.0015339807878856412,0.0,-0.0015339807878856412,0.0046019423636569235,0.0,0.0030679615757712823
-0.0015339807878856412,0.0,-0.0015339807878856412,0.0046019423636569235,0.0,0.0030679615757712823
-0.0015339807878856412,0.0,-0.0015339807878856412,0.0030679615757712823,0.0,0.0030679615757712823
-0.0015339807878856412,0.0,-0.0015339807878856412,0.0030679615757712823,0.0,0.0030679615757712823
-0.0015339807878856412,0.0,-0.0015339807878856412,0.0030679615757712823,0.0,0.0030679615757712823
-0.0015339807878856412,0.0,-0.0015339807878856412,0.0030679615757712823,0.0,0.0030679615757712823
-0.0015339807878856412,0.0,-0.0015339807878856412,0.0030679615757712823,0.0,0.0030679615757712823
-0.0015339807878856412,0.0,-0.0015339807878856412,0.0030679615757712823,0.0,0.0030679615757712823
-0.0015339807878856412,0.0,-0.0015339807878856412,0.0046019423636569235,0.0,0.0030679615757712823
-0.0015339807878856412,0.0,-0.0015339807878856412,0.0030679615757712823,0.0,0.0030679615757712823
-0.0015339807878856412,0.0,0.0,0.0030679615757712823,0.0,0.0030679615757712823
-0.0030679615757712823,0.0015339807878856412,-0.0015339807878856412,0.0030679615757712823,0.0,0.0030679615757712823
-0.0015339807878856412,0.0,-0.0015339807878856412,0.0030679615757712823,0.0,0.0030679615757712823
-0.0030679615757712823,0.0,-0.0015339807878856412,0.0030679615757712823,0.0,0.0030679615757712823
-0.0015339807878856412,0.0,-0.0015339807878856412,0.0030679615757712823,0.0,0.0030679615757712823
-0.0030679615757712823,0.0,-0.0015339807878856412,0.0046019423636569235,0.0,0.0030679615757712823
-0.0030679615757712823,0.0,-0.0015339807878856412,0.0046019423636569235,0.0,0.0030679615757712823
-0.0015339807878856412,0.0,-0.0015339807878856412,0.0030679615757712823,0.0,0.0030679615757712823
-0.0015339807878856412,0.0,-0.0015339807878856412,0.0030679615757712823,0.0,0.0030679615757712823
-0.0015339807878856412,0.0,-0.0015339807878856412,0.0046019423636569235,0.0,0.0030679615757712823
-0.0030679615757712823,0.0,-0.0015339807878856412,0.0030679615757712823,0.0,0.0030679615757712823
-0.0030679615757712823,0.0,-0.0015339807878856412,0.0030679615757712823,0.0,0.0030679615757712823
-0.0015339807878856412,0.0,-0.0015339807878856412,0.0046019423636569235,0.0,0.0030679615757712823
-0.0015339807878856412,0.0,-0.0015339807878856412,0.0046019423636569235,0.0,0.0030679615757712823
-0.0015339807878856412,0.0,0.0,0.0030679615757712823,0.0,0.0030679615757712823
-0.0015339807878856412,0.0,-0.0015339807878856412,0.0030679615757712823,0.0,0.0030679615757712823
-0.0015339807878856412,0.0,0.0,0.0046019423636569235,0.0,0.0030679615757712823
-0.0015339807878856412,0.0,-0.0015339807878856412,0.0030679615757712823,0.0,0.0030679615757712823
-0.0015339807878856412,0.0,-0.0015339807878856412,0.0046019423636569235,0.0,0.0030679615757712823
-0.0030679615757712823,0.0,-0.0015339807878856412,0.0030679615757712823,0.0,0.0030679615757712823
-0.0030679615757712823,0.0,-0.0015339807878856412,0.0046019423636569235,0.0,0.0030679615757712823
-0.0030679615757712823,0.0,0.0,0.0046019423636569235,0.0,0.0030679615757712823
-0.0030679615757712823,0.0,0.0,0.0030679615757712823,0.0,0.0030679615757712823
-0.0015339807878856412,0.0,-0.0015339807878856412,0.0030679615757712823,0.0,0.0030679615757712823
-0.0030679615757712823,0.0,0.0,0.0030679615757712823,0.0,0.0030679615757712823
-0.0015339807878856412,0.0,0.0,0.0030679615757712823,0.0,0.0030679615757712823
-0.0030679615757712823,0.0,0.0,0.0046019423636569235,0.0,0.0030679615757712823
-0.0030679615757712823,0.0,-0.0015339807878856412,0.0030679615757712823,0.0,0.0030679615757712823
-0.0030679615757712823,0.0,-0.0015339807878856412,0.0046019423636569235,0.0,0.0030679615757712823
-0.0030679615757712823,0.0,-0.0015339807878856412,0.0030679615757712823,0.0,0.0030679615757712823
-0.0015339807878856412,0.0,-0.0015339807878856412,0.0030679615757712823,0.0,0.0030679615757712823
-0.0030679615757712823,0.0,-0.0015339807878856412,0.0030679615757712823,0.0,0.0030679615757712823
-0.0030679615757712823,0.0,-0.0015339807878856412,0.0030679615757712823,0.0,0.0030679615757712823
-0.0015339807878856412,0.0,-0.0015339807878856412,0.0046019423636569235,0.0,0.0030679615757712823
-0.0015339807878856412,0.0,0.0,0.0030679615757712823,0.0,0.0030679615757712823
-0.0030679615757712823,0.0,0.0,0.0046019423636569235,0.0,0.0030679615757712823
-0.0030679615757712823,0.0,0.0,0.0030679615757712823,0.0,0.0030679615757712823
-0.0030679615757712823,0.0,-0.0015339807878856412,0.0030679615757712823,0.0,0.0030679615757712823
-0.0015339807878856412,0.0,0.0,0.0046019423636569235,0.0,0.0030679615757712823
-0.0015339807878856412,0.0,-0.0015339807878856412,0.0046019423636569235,0.0,0.0030679615757712823
-0.0030679615757712823,0.0,-0.0015339807878856412,0.0046019423636569235,0.0,0.0030679615757712823
-0.0030679615757712823,0.0,0.0,0.0046019423636569235,0.0,0.0030679615757712823
-0.0030679615757712823,0.0,0.0,0.0030679615757712823,0.0,0.0030679615757712823
-0.0015339807878856412,0.0,-0.0015339807878856412,0.0030679615757712823,0.0,0.0030679615757712823
-0.0030679615757712823,0.0,-0.0015339807878856412,0.0030679615757712823,0.0,0.0030679615757712823
-0.0015339807878856412,0.0,0.0,0.0030679615757712823,0.0,0.0030679615757712823
-0.0015339807878856412,0.0,-0.0015339807878856412,0.0030679615757712823,0.0,0.0030679615757712823
-0.0015339807878856412,0.0,-0.0015339807878856412,0.0030679615757712823,0.0,0.0030679615757712823
-0.0015339807878856412,0.0,0.0,0.0030679615757712823,0.0,0.0030679615757712823
-0.0030679615757712823,0.0,-0.0015339807878856412,0.0030679615757712823,0.0,0.0030679615757712823
-0.0015339807878856412,0.0,-0.0015339807878856412,0.0030679615757712823,0.0,0.0030679615757712823
-0.0015339807878856412,0.0,-0.0015339807878856412,0.0030679615757712823,0.0,0.0030679615757712823
-0.0030679615757712823,0.0,0.0,0.0030679615757712823,0.0,0.0030679615757712823
-0.0015339807878856412,0.0,-0.0015339807878856412,0.0030679615757712823,0.0,0.0030679615757712823
-0.0030679615757712823,0.0,0.0,0.0046019423636569235,0.0,0.0030679615757712823
-0.0030679615757712823,0.0,0.0,0.0030679615757712823,0.0,0.0030679615757712823
-0.0030679615757712823,0.0,-0.0015339807878856412,0.0046019423636569235,0.0,0.0030679615757712823
-0.0015339807878856412,0.0,0.0,0.0030679615757712823,0.0,0.0030679615757712823
-0.0030679615757712823,0.0015339807878856412,0.0,0.0030679615757712823,0.0,0.0030679615757712823
-0.0015339807878856412,0.0,0.0,0.0046019423636569235,0.0,0.0030679615757712823
-0.0015339807878856412,0.0,0.0,0.0046019423636569235,0.0,0.0030679615757712823
-0.0015339807878856412,0.0015339807878856412,0.0,0.0030679615757712823,0.0,0.0030679615757712823
-0.0015339807878856412,0.0015339807878856412,0.0,0.0030679615757712823,0.0,0.0030679615757712823
-0.0030679615757712823,0.0,-0.0015339807878856412,0.0030679615757712823,0.0,0.0030679615757712823
-0.0030679615757712823,0.0,0.0,0.0030679615757712823,0.0,0.0030679615757712823
-0.0015339807878856412,0.0,-0.0015339807878856412,0.0030679615757712823,0.0,0.0030679615757712823
-0.0015339807878856412,0.0,0.0,0.0046019423636569235,0.0,0.0030679615757712823
-0.0030679615757712823,0.0,-0.0015339807878856412,0.0030679615757712823,0.0,0.0030679615757712823
-0.0015339807878856412,0.0,-0.0015339807878856412,0.0046019423636569235,0.0,0.0030679615757712823
-0.0015339807878856412,0.0,0.0,0.0030679615757712823,0.0,0.0030679615757712823
-0.0015339807878856412,0.0,0.0,0.0030679615757712823,0.0,0.0030679615757712823
-0.0015339807878856412,0.0,0.0,0.0030679615757712823,0.0,0.0030679615757712823
-0.0030679615757712823,0.0,0.0,0.0030679615757712823,0.0,0.0030679615757712823
-0.0015339807878856412,0.0,0.0,0.0030679615757712823,0.0,0.0030679615757712823
-0.0015339807878856412,0.0,0.0,0.0030679615757712823,0.0,0.0030679615757712823
-0.0030679615757712823,0.0,0.0,0.0046019423636569235,0.0,0.0030679615757712823
-0.0015339807878856412,0.0,0.0,0.0046019423636569235,0.0,0.0030679615757712823
-0.0015339807878856412,0.0,-0.0015339807878856412,0.0046019423636569235,0.0,0.0030679615757712823
-0.0015339807878856412,0.0,-0.0015339807878856412,0.0030679615757712823,0.0,0.0030679615757712823
-0.0015339807878856412,0.0,0.0,0.0030679615757712823,0.0,0.0030679615757712823
-0.0030679615757712823,0.0,0.0,0.0030679615757712823,0.0,0.0030679615757712823
-0.0015339807878856412,0.0,-0.0015339807878856412,0.0030679615757712823,0.0,0.0030679615757712823
-0.0015339807878856412,0.0,0.0,0.0030679615757712823,0.0,0.0030679615757712823
-0.0030679615757712823,0.0,-0.0015339807878856412,0.0030679615757712823,0.0,0.0030679615757712823
-0.0030679615757712823,0.0,0.0,0.0030679615757712823,0.0,0.0030679615757712823
-0.0015339807878856412,0.0,0.0,0.0030679615757712823,0.0,0.0030679615757712823
-0.0030679615757712823,0.0,0.0,0.0030679615757712823,0.0,0.0030679615757712823
-0.0015339807878856412,0.0,-0.0015339807878856412,0.0030679615757712823,0.0,0.0030679615757712823
-0.0015339807878856412,0.0,-0.0015339807878856412,0.0030679615757712823,0.0,0.0030679615757712823
-0.0015339807878856412,0.0,0.0,0.0030679615757712823,0.0,0.0030679615757712823
-0.0030679615757712823,0.0,0.0,0.0046019423636569235,0.0,0.0030679615757712823
-0.0015339807878856412,0.0,-0.0015339807878856412,0.0030679615757712823,0.0,0.0030679615757712823
-0.0015339807878856412,0.0015339807878856412,0.0,0.0030679615757712823,0.0,0.0030679615757712823
-0.0015339807878856412,0.0,0.0,0.0030679615757712823,0.0,0.0030679615757712823
-0.0015339807878856412,0.0,0.0,0.0030679615757712823,0.0,0.0030679615757712823
-0.0030679615757712823,0.0,0.0,0.0030679615757712823,0.0,0.0030679615757712823
-0.0015339807878856412,0.0,0.0,0.0030679615757712823,0.0,0.0030679615757712823
-0.0030679615757712823,0.0,0.0,0.0030679615757712823,0.0,0.0030679615757712823
-0.0015339807878856412,0.0,0.0,0.0046019423636569235,0.0,0.0030679615757712823
-0.0015339807878856412,0.0,-0.0015339807878856412,0.0030679615757712823,0.0,0.0030679615757712823
-0.0015339807878856412,0.0,0.0,0.0030679615757712823,0.0,0.0030679615757712823
-0.0030679615757712823,0.0,-0.0015339807878856412,0.0030679615757712823,0.0,0.0030679615757712823
-0.0030679615757712823,0.0,0.0,0.0030679615757712823,0.0,0.0030679615757712823
-0.0030679615757712823,0.0,0.0,0.0046019423636569235,0.0,0.0030679615757712823
-0.0015339807878856412,0.0,0.0,0.0030679615757712823,0.0,0.0030679615757712823
-0.0015339807878856412,0.0,-0.0015339807878856412,0.0030679615757712823,0.0,0.0030679615757712823
-0.0015339807878856412,0.0,0.0,0.0046019423636569235,0.0,0.0030679615757712823
-0.0030679615757712823,0.0,0.0,0.0030679615757712823,0.0,0.0030679615757712823
-0.0015339807878856412,0.0,0.0,0.0046019423636569235,0.0,0.0030679615757712823
-0.0030679615757712823,0.0,0.0,0.0030679615757712823,0.0,0.0030679615757712823
-0.0030679615757712823,0.0,0.0,0.0030679615757712823,0.0,0.0030679615757712823
-0.0015339807878856412,0.0,-0.0015339807878856412,0.0030679615757712823,0.0,0.0030679615757712823
-0.0015339807878856412,0.0,-0.0015339807878856412,0.0030679615757712823,0.0,0.0030679615757712823
-0.0030679615757712823,0.0,0.0,0.0030679615757712823,0.0,0.0030679615757712823
-0.0030679615757712823,0.0,0.0,0.0030679615757712823,0.0,0.0030679615757712823
-0.0015339807878856412,0.0,0.0,0.0030679615757712823,0.0,0.0030679615757712823
-0.0030679615757712823,0.0,0.0,0.0046019423636569235,0.0,0.0030679615757712823
-0.0030679615757712823,0.0,0.0,0.0030679615757712823,0.0,0.0030679615757712823
-0.0030679615757712823,0.0,-0.0015339807878856412,0.0030679615757712823,0.0,0.0030679615757712823
-0.0030679615757712823,0.0,-0.0015339807878856412,0.0030679615757712823,0.0,0.0030679615757712823
-0.0030679615757712823,0.0,0.0,0.0030679615757712823,0.0,0.0030679615757712823
-0.0030679615757712823,0.0,-0.0015339807878856412,0.0030679615757712823,0.0,0.0030679615757712823
-0.0015339807878856412,0.0,0.0,0.0030679615757712823,0.0,0.0030679615757712823
-0.0030679615757712823,0.0,0.0,0.0030679615757712823,0.0,0.0030679615757712823
-0.0030679615757712823,0.0,0.0,0.0046019423636569235,0.0,0.0030679615757712823
-0.0030679615757712823,0.0,-0.0015339807878856412,0.0030679615757712823,0.0,0.0030679615757712823
-0.0030679615757712823,0.0,0.0,0.0030679615757712823,0.0,0.0030679615757712823
-0.0015339807878856412,0.0,0.0,0.0030679615757712823,0.0,0.0030679615757712823
-0.0030679615757712823,0.0,0.0,0.0030679615757712823,0.0,0.0030679615757712823
-0.0030679615757712823,0.0,0.0,0.0030679615757712823,0.0,0.0030679615757712823
-0.0030679615757712823,0.0,0.0,0.0030679615757712823,0.0,0.0030679615757712823
-0.0015339807878856412,0.0,0.0,0.0046019423636569235,0.0,0.0030679615757712823
-0.0015339807878856412,0.0,0.0,0.0030679615757712823,0.0,0.0030679615757712823
-0.0030679615757712823,0.0,-0.0015339807878856412,0.0046019423636569235,0.0,0.0030679615757712823
-3.141592653589793,-3.141592653589793,0.0,0.0,0.0,0.0030679615757712823
-3.141592653589793,-3.141592653589793,-3.141592653589793,-3.141592653589793,-3.141592653589793,-3.141592653589793
-3.141592653589793,-3.141592653589793,-3.141592653589793,-3.141592653589793,-3.141592653589793,-3.141592653589793
-3.141592653589793,-3.141592653589793,-3.141592653589793,-3.141592653589793,-3.141592653589793,-3.141592653589793
-3.141592653589793,-3.141592653589793,-3.141592653589793,-3.141592653589793,-3.141592653589793,-3.141592653589793
-3.141592653589793,-3.141592653589793,-3.141592653589793,-3.141592653589793,-3.141592653589793,-3.141592653589793
-3.141592653589793,-3.141592653589793,-3.141592653589793,-3.141592653589793,-3.141592653589793,-3.141592653589793
-3.141592653589793,-3.141592653589793,-3.141592653589793,-3.141592653589793,-3.141592653589793,-3.141592653589793
-3.141592653589793,-3.141592653589793,-3.141592653589793,-3.141592653589793,-3.141592653589793,-3.141592653589793
-3.141592653589793,-3.141592653589793,-3.141592653589793,-3.141592653589793,-3.141592653589793,-3.141592653589793
-3.141592653589793,-3.141592653589793,-3.141592653589793,-3.141592653589793,-3.141592653589793,-3.141592653589793
-3.141592653589793,-3.141592653589793,-3.141592653589793,-3.141592653589793,-3.141592653589793,-3.141592653589793
-3.141592653589793,-3.141592653589793,-3.141592653589793,-3.141592653589793,-3.141592653589793,-3.141592653589793
-3.141592653589793,-3.141592653589793,-3.141592653589793,-3.141592653589793,-3.141592653589793,-3.141592653589793
-3.141592653589793,-3.141592653589793,-3.141592653589793,-3.141592653589793,-3.141592653589793,-3.141592653589793
-3.141592653589793,-3.141592653589793,-3.141592653589793,-3.141592653589793,-3.141592653589793,-3.141592653589793
0.2761165418194154,-0.28225246497095796,0.8436894333371027,-1.038504993398579,0.7117670855789375,0.5154175447295755
0.27304858024364415,-0.28225246497095796,0.8436894333371027,-1.0293011086712651,0.7102331047910518,0.5077476407901472
0.2715145994557585,-0.28225246497095796,0.8436894333371027,-1.021631204731837,0.7102331047910518,0.5016117176386047
0.2715145994557585,-0.28225246497095796,0.8436894333371027,-1.0139613007924089,0.7102331047910518,0.4970097752749477
0.2715145994557585,-0.28225246497095796,0.8436894333371027,-1.0139613007924089,0.7102331047910518,0.4908738521234052
0.2715145994557585,-0.28225246497095796,0.8436894333371027,-1.0139613007924089,0.7102331047910518,0.4878058905476339
0.2715145994557585,-0.28225246497095796,0.8436894333371027,-1.0139613007924089,0.7102331047910518,0.483203948183977
0.2715145994557585,-0.28225246497095796,0.8436894333371027,-1.0139613007924089,0.7102331047910518,0.483203948183977
0.2715145994557585,-0.28225246497095796,0.8436894333371027,-1.0139613007924089,0.7102331047910518,0.483203948183977
0.2715145994557585,-0.28225246497095796,0.8436894333371027,-1.0139613007924089,0.7102331047910518,0.483203948183977
0.2715145994557585,-0.28225246497095796,0.8436894333371027,-1.0139613007924089,0.7102331047910518,0.483203948183977
0.2715145994557585,-0.28225246497095796,0.8436894333371027,-1.0139613007924089,0.7102331047910518,0.483203948183977
0.2715145994557585,-0.28225246497095796,0.842155452549217,-1.0139613007924089,0.7102331047910518,0.483203948183977
0.2715145994557585,-0.28225246497095796,0.842155452549217,-1.0139613007924089,0.7102331047910518,0.483203948183977
0.2715145994557585,-0.28225246497095796,0.842155452549217,-1.0139613007924089,0.7102331047910518,0.483203948183977
0.2715145994557585,-0.28225246497095796,0.842155452549217,-1.0139613007924089,0.7102331047910518,0.483203948183977
0.2715145994557585,-0.28225246497095796,0.842155452549217,-1.0139613007924089,0.7102331047910518,0.483203948183977
0.2715145994557585,-0.28225246497095796,0.8406214717613314,-1.0139613007924089,0.7102331047910518,0.483203948183977
0.2715145994557585,-0.28225246497095796,0.8406214717613314,-1.0139613007924089,0.7102331047910518,0.483203948183977
0.2715145994557585,-0.28225246497095796,0.8406214717613314,-1.0139613007924089,0.7102331047910518,0.483203948183977
0.2715145994557585,-0.28225246497095796,0.8390874909734457,-1.0139613007924089,0.7102331047910518,0.483203948183977
0.2715145994557585,-0.28225246497095796,0.8390874909734457,-1.0139613007924089,0.7102331047910518,0.483203948183977
0.2715145994557585,-0.28225246497095796,0.8390874909734457,-1.0139613007924089,0.7102331047910518,0.483203948183977
0.2715145994557585,-0.28225246497095796,0.8375535101855601,-1.0139613007924089,0.7102331047910518,0.483203948183977
0.2715145994557585,-0.28225246497095796,0.8375535101855601,-1.0139613007924089,0.7102331047910518,0.483203948183977
0.2715145994557585,-0.28225246497095796,0.8375535101855601,-1.0139613007924089,0.7102331047910518,0.483203948183977
0.2715145994557585,-0.28225246497095796,0.8360195293976744,-1.0139613007924089,0.7102331047910518,0.483203948183977
0.2715145994557585,-0.28225246497095796,0.8360195293976744,-1.0139613007924089,0.7102331047910518,0.483203948183977
0.2715145994557585,-0.28225246497095796,0.8360195293976744,-1.0154952815802945,0.7102331047910518,0.483203948183977
0.2715145994557585,-0.28225246497095796,0.8360195293976744,-1.0139613007924089,0.7102331047910518,0.483203948183977
0.2715145994557585,-0.28225246497095796,0.8344855486097889,-1.0139613007924089,0.7102331047910518,0.483203948183977
0.2715145994557585,-0.28225246497095796,0.8344855486097889,-1.0139613007924089,0.7102331047910518,0.483203948183977
0.2715145994557585,-0.28225246497095796,0.8344855486097889,-1.0139613007924089,0.7102331047910518,0.483203948183977
0.2715145994557585,-0.28225246497095796,0.8329515678219032,-1.0139613007924089,0.7102331047910518,0.483203948183977
0.2715145994557585,-0.28225246497095796,0.8329515678219032,-1.0139613007924089,0.7102331047910518,0.483203948183977
0.2715145994557585,-0.28225246497095796,0.8329515678219032,-1.0139613007924089,0.7102331047910518,0.483203948183977
0.2715145994557585,-0.28225246497095796,0.8329515678219032,-1.0139613007924089,0.7102331047910518,0.483203948183977
0.2715145994557585,-0.28225246497095796,0.8314175870340175,-1.0139613007924089,0.7102331047910518,0.483203948183977
0.2715145994557585,-0.28225246497095796,0.8314175870340175,-1.0139613007924089,0.7102331047910518,0.483203948183977
0.2715145994557585,-0.28225246497095796,0.8314175870340175,-1.0139613007924089,0.7102331047910518,0.483203948183977
0.2715145994557585,-0.28225246497095796,0.8314175870340175,-1.0139613007924089,0.7102331047910518,0.483203948183977
0.2715145994557585,-0.28225246497095796,0.8298836062461319,-1.0139613007924089,0.7102331047910518,0.483203948183977
0.2715145994557585,-0.28225246497095796,0.8298836062461319,-1.0139613007924089,0.7102331047910518,0.483203948183977
0.2699806186678728,-0.2791845033951867,0.8298836062461319,-1.0139613007924089,0.7102331047910518,0.483203948183977
0.2715145994557585,-0.2761165418194154,0.8298836062461319,-1.0139613007924089,0.7102331047910518,0.483203948183977
0.2715145994557585,-0.2761165418194154,0.8283496254582462,-1.0139613007924089,0.7102331047910518,0.483203948183977
0.2699806186678728,-0.2761165418194154,0.8283496254582462,-1.0139613007924089,0.7102331047910518,0.483203948183977
0.2715145994557585,-0.2761165418194154,0.8283496254582462,-1.0139613007924089,0.7102331047910518,0.483203948183977
0.2715145994557585,-0.2761165418194154,0.8283496254582462,-1.0139613007924089,0.7102331047910518,0.483203948183977
0.2715145994557585,-0.2761165418194154,0.8283496254582462,-1.0139613007924089,0.7102331047910518,0.483203948183977
0.2715145994557585,-0.2761165418194154,0.8268156446703606,-1.0139613007924089,0.7102331047910518,0.483203948183977
0.2715145994557585,-0.2761165418194154,0.8268156446703606,-1.0139613007924089,0.7102331047910518,0.483203948183977
0.2715145994557585,-0.2761165418194154,0.8268156446703606,-1.0139613007924089,0.7102331047910518,0.483203948183977
0.2699806186678728,-0.2761165418194154,0.8268156446703606,-1.0139613007924089,0.7102331047910518,0.483203948183977
0.2699806186678728,-0.2761165418194154,0.8268156446703606,-1.0139613007924089,0.7102331047910518,0.483203948183977
0.2699806186678728,-0.2761165418194154,0.8268156446703606,-1.0139613007924089,0.7102331047910518,0.483203948183977
0.2715145994557585,-0.2761165418194154,0.8268156446703606,-1.0139613007924089,0.7102331047910518,0.483203948183977
0.2699806186678728,-0.2761165418194154,0.8268156446703606,-1.0139613007924089,0.7102331047910518,0.483203948183977
0.2699806186678728,-0.2761165418194154,0.8268156446703606,-1.0139613007924089,0.7102331047910518,0.483203948183977
0.2699806186678728,-0.2761165418194154,0.8268156446703606,-1.0139613007924089,0.7102331047910518,0.483203948183977
0.2699806186678728,-0.2761165418194154,0.8268156446703606,-1.0139613007924089,0.7102331047910518,0.483203948183977
0.2699806186678728,-0.2761165418194154,0.8252816638824749,-1.0139613007924089,0.7102331047910518,0.483203948183977
