RAMEL-ESPOL/ARCHIE/manipulator_master/src/datos.txt
Joint0,Joint1,Joint2,Joint3,Joint4,Joint5 
goals: 0.0,0.0,0.0,0.0,0.0,0.0
goals: 0.0,0.0,0.0,0.0,0.0,0.0
state: 0.0,0.0,-0.17587040880217542,1.7587040880217542,0.17587040880217542,0.35174081760435083
goals: 0.0,0.0,0.0,0.0,0.0,0.0
goals: 0.0,0.0,0.0,0.0,0.0,0.0
state: 0.0,0.0,-0.17587040880217542,1.7587040880217542,0.17587040880217542,0.35174081760435083
goals: 0.0,0.0,0.0,0.0,0.0,0.0
goals: 0.0,0.0,0.0,0.0,0.0,0.0
state: 0.0,0.0,-0.17587040880217542,1.5828336792195785,0.17587040880217542,0.35174081760435083
goals: 0.0,0.0,0.0,0.0,0.0,0.0
goals: 0.0,0.0,0.0,0.0,0.0,0.0
state: 0.0,0.0,-0.17587040880217542,1.5828336792195785,0.0,0.35174081760435083
goals: 0.0,0.0,0.0,0.0,0.0,0.0
goals: 0.0,0.0,0.0,0.0,0.0,0.0
state: 0.0,0.0,-0.17587040880217542,1.7587040880217542,0.0,0.35174081760435083
goals: 0.0,0.0,0.0,0.0,0.0,0.0
goals: 0.0,0.0,0.0,0.0,0.0,0.0
state: 0.0,0.0,-0.17587040880217542,1.7587040880217542,0.0,0.35174081760435083
goals: 0.0,0.0,0.0,0.0,0.0,0.0
goals: 0.0,0.0,0.0,0.0,0.0,0.0
state: 0.0,0.0,-0.17587040880217542,1.5828336792195785,0.0,0.35174081760435083
goals: 0.0,0.0,0.0,0.0,0.0,0.0
goals: 0.0,0.0,0.0,0.0,0.0,0.0
state: 0.0,0.0,-0.17587040880217542,1.5828336792195785,0.0,0.35174081760435083
goals: 0.0,0.0,0.0,0.0,0.0,0.0
goals: 0.0,0.0,0.0,0.0,0.0,0.0
state: 0.0,0.0,-0.17587040880217542,1.5828336792195785,0.0,0.35174081760435083
goals: 0.0,0.0,0.0,0.0,0.0,0.0
goals: 0.0,0.0,0.0,0.0,0.0,0.0
state: 0.0,0.0,0.0,1.5828336792195785,0.0,0.35174081760435083
goals: 0.0,0.0,0.0,0.0,0.0,0.0
goals: 0.0,0.0,0.0,0.0,0.0,0.0
state: 0.0,0.0,-0.17587040880217542,1.5828336792195785,0.0,0.35174081760435083
goals: 0.0,0.0,0.0,0.0,0.0,0.0
goals: 0.0,0.0,0.0,0.0,0.0,0.0
state: 0.0,0.0,-0.17587040880217542,1.7587040880217542,0.0,0.35174081760435083
goals: 0.0,0.0,0.0,0.0,0.0,0.0
goals: 0.0,0.0,0.0,0.0,0.0,0.0
state: 0.0,0.0,-0.17587040880217542,1.7587040880217542,0.0,0.35174081760435083
goals: 0.0,0.0,0.0,0.0,0.0,0.0
goals: 0.0,0.0,0.0,0.0,0.0,0.0
state: 0.0,0.0,-0.17587040880217542,1.7587040880217542,0.0,0.35174081760435083
goals: 0.0,0.0,0.0,0.0,0.0,0.0
goals: 0.0,0.0,0.0,0.0,0.0,0.0
state: 0.0,0.0,0.0,1.5828336792195785,0.0,0.35174081760435083
goals: 0.0,0.0,0.0,0.0,0.0,0.0
goals: 0.0,0.0,0.0,0.0,0.0,0.0
state: 0.0,0.0,0.0,1.5828336792195785,0.0,0.35174081760435083
goals: 0.0,0.0,0.0,0.0,0.0,0.0
goals: 0.0,0.0,0.0,0.0,0.0,0.0
state: 0.0,0.0,0.0,1.5828336792195785,0.0,0.35174081760435083
goals: 0.0,0.0,0.0,0.0,0.0,0.0
goals: 0.0,0.0,0.0,0.0,0.0,0.0
state: 0.0,0.0,0.0,1.5828336792195785,0.0,0.35174081760435083
goals: 0.0,0.0,0.0,0.0,0.0,0.0
goals: 0.0,0.0,0.0,0.0,0.0,0.0
state: 0.0,0.0,0.0,1.5828336792195785,0.0,0.35174081760435083
goals: 0.0,0.0,0.0,0.0,0.0,0.0
goals: 0.0,0.0,0.0,0.0,0.0,0.0
state: 0.0,0.0,0.35174081760435083,1.5828336792195785,0.0,0.35174081760435083
goals: 0.0,0.0,0.0,0.0,0.0,0.0
goals: 0.0,0.0,0.0,0.0,0.0,0.0
state: 0.0,0.0,0.5276112264065262,1.5828336792195785,0.0,0.35174081760435083
goals: 0.0,0.0,0.0,0.0,0.0,0.0
goals: 0.0,0.0,0.0,0.0,0.0,0.0
state: 0.0,0.0,0.5276112264065262,1.5828336792195785,0.0,0.35174081760435083
goals: 0.0,0.0,0.0,0.0,0.0,0.0
goals: 0.0,0.0,0.0,0.0,0.0,0.0
state: 0.0,0.0,0.5276112264065262,1.5828336792195785,0.0,0.35174081760435083
goals: 0.0,0.0,0.0,0.0,0.0,0.0
goals: 0.0,0.0,0.0,0.0,0.0,0.0
state: 0.0,0.0,0.5276112264065262,1.5828336792195785,0.0,0.35174081760435083
goals: 0.0,0.0,0.0,0.0,0.0,0.0
goals: 0.0,0.0,0.0,0.0,0.0,0.0
state: 0.0,0.0,0.5276112264065262,1.5828336792195785,0.0,0.35174081760435083
goals: 0.0,0.0,0.0,0.0,0.0,0.0
goals: 0.0,0.0,0.0,0.0,0.0,0.0
state: 0.0,0.0,0.5276112264065262,1.5828336792195785,0.0,0.35174081760435083
goals: 0.0,0.0,0.0,0.0,0.0,0.0
goals: 0.0,0.0,0.0,0.0,0.0,0.0
state: 0.0,0.0,0.35174081760435083,1.5828336792195785,0.0,0.35174081760435083
goals: 0.0,0.0,0.0,0.0,0.0,0.0
goals: 0.0,0.0,0.0,0.0,0.0,0.0
state: 0.0,0.0,0.5276112264065262,1.5828336792195785,0.0,0.35174081760435083
goals: 0.0,0.0,0.0,0.0,0.0,0.0
goals: 0.0,0.0,0.0,0.0,0.0,0.0
state: 0.0,0.0,0.5276112264065262,1.5828336792195785,0.0,0.35174081760435083
goals: 0.0,0.0,0.0,0.0,0.0,0.0
goals: 0.0,0.0,0.0,0.0,0.0,0.0
state: 0.0,0.0,0.5276112264065262,1.5828336792195785,0.0,0.35174081760435083
goals: 0.0,0.0,0.0,0.0,0.0,0.0
goals: 0.0,0.0,0.0,0.0,0.0,0.0
state: 0.0,0.0,0.5276112264065262,1.5828336792195785,0.0,0.35174081760435083
goals: 0.0,0.0,0.0,0.0,0.0,0.0
goals: 0.0,0.0,0.0,0.0,0.0,0.0
state: 0.0,0.0,0.5276112264065262,1.5828336792195785,0.0,0.35174081760435083
goals: 0.0,0.0,0.0,0.0,0.0,0.0
goals: 0.0,0.0,0.0,0.0,0.0,0.0
state: 0.0,0.0,0.35174081760435083,1.5828336792195785,0.0,0.35174081760435083
goals: 0.0,0.0,0.0,0.0,0.0,0.0
goals: 0.0,0.0,0.0,0.0,0.0,0.0
state: 0.0,0.0,0.35174081760435083,1.5828336792195785,0.0,0.35174081760435083
goals: 0.0,0.0,0.0,0.0,0.0,0.0
goals: 0.0,0.0,0.0,0.0,0.0,0.0
state: 0.0,0.0,0.5276112264065262,1.5828336792195785,0.0,0.35174081760435083
goals: 0.0,0.0,0.0,0.0,0.0,0.0
goals: 0.0,0.0,0.0,0.0,0.0,0.0
state: 0.0,0.0,0.5276112264065262,1.5828336792195785,0.0,0.35174081760435083
goals: 0.0,0.0,0.0,0.0,0.0,0.0
goals: 0.0,0.0,0.0,0.0,0.0,0.0
state: 0.0,0.0,0.35174081760435083,1.5828336792195785,0.0,0.35174081760435083
goals: 0.0,0.0,0.0,0.0,0.0,0.0
goals: 0.0,0.0,0.0,0.0,0.0,0.0
state: 0.0,0.0,0.5276112264065262,1.5828336792195785,0.0,0.35174081760435083
goals: 0.0,0.0,0.0,0.0,0.0,0.0
goals: 0.0,0.0,0.0,0.0,0.0,0.0
state: 0.0,0.0,0.5276112264065262,1.5828336792195785,0.0,0.35174081760435083
goals: 0.0,0.0,0.0,0.0,0.0,0.0
goals: 0.0,0.0,0.0,0.0,0.0,0.0
state: 0.0,0.0,0.35174081760435083,1.5828336792195785,0.0,0.35174081760435083
goals: 0.0,0.0,0.0,0.0,0.0,0.0
goals: 0.0,0.0,0.0,0.0,0.0,0.0
state: 0.0,0.0,0.5276112264065262,1.5828336792195785,0.0,0.35174081760435083
goals: 0.0,0.0,0.0,0.0,0.0,0.0
goals: 0.0,0.0,0.0,0.0,0.0,0.0
state: 0.0,0.0,0.35174081760435083,1.5828336792195785,0.0,0.35174081760435083
goals: 0.0,0.0,0.0,0.0,0.0,0.0
goals: 0.0,0.0,0.0,0.0,0.0,0.0
state: 0.0,0.0,0.5276112264065262,1.5828336792195785,0.0,0.35174081760435083
goals: 0.0,0.0,0.0,0.0,0.0,0.0
goals: 0.0,0.0,0.0,0.0,0.0,0.0
state: 0.0,0.0,0.35174081760435083,1.5828336792195785,0.0,0.35174081760435083
goals: 0.0,0.0,0.0,0.0,0.0,0.0
goals: 0.0,0.0,0.0,0.0,0.0,0.0
state: 0.0,0.0,0.35174081760435083,1.5828336792195785,0.0,0.35174081760435083
goals: 0.0,0.0,0.0,0.0,0.0,0.0
goals: 0.0,0.0,0.0,0.0,0.0,0.0
state: 0.0,0.0,0.5276112264065262,1.5828336792195785,0.0,0.35174081760435083
goals: 0.0,0.0,0.0,0.0,0.0,0.0
goals: 0.0,0.0,0.0,0.0,0.0,0.0
state: 0.0,0.0,0.35174081760435083,1.5828336792195785,0.0,0.35174081760435083
goals: 0.0,0.0,0.0,0.0,0.0,0.0
goals: 0.0,0.0,0.0,0.0,0.0,0.0
state: 0.0,0.0,0.5276112264065262,1.5828336792195785,0.0,0.35174081760435083
goals: 0.0,0.0,0.0,0.0,0.0,0.0
goals: 0.0,0.0,0.0,0.0,0.0,0.0
state: 0.0,0.0,0.35174081760435083,1.5828336792195785,0.0,0.35174081760435083
goals: 0.0,0.0,0.0,0.0,0.0,0.0
goals: 0.0,0.0,0.0,0.0,0.0,0.0
state: 0.0,0.0,0.5276112264065262,1.5828336792195785,0.0,0.35174081760435083
goals: 0.0,0.0,0.0,0.0,0.0,0.0
goals: 0.0,0.0,0.0,0.0,0.0,0.0
state: 0.0,0.0,0.5276112264065262,1.5828336792195785,0.0,0.35174081760435083
goals: 0.0,0.0,0.0,0.0,0.0,0.0
goals: 0.0,0.0,0.0,0.0,0.0,0.0
state: 0.0,0.0,0.5276112264065262,1.5828336792195785,0.0,0.35174081760435083
goals: 0.0,0.0,0.0,0.0,0.0,0.0
goals: 0.0,0.0,0.0,0.0,0.0,0.0
state: 0.0,0.0,0.5276112264065262,1.5828336792195785,0.0,0.35174081760435083
goals: 0.0,0.0,0.0,0.0,0.0,0.0
goals: 0.0,0.0,0.0,0.0,0.0,0.0
state: 0.0,0.0,0.35174081760435083,1.5828336792195785,0.0,0.35174081760435083
goals: 0.0,0.0,0.0,0.0,0.0,0.0
goals: 0.0,0.0,0.0,0.0,0.0,0.0
state: 0.0,0.0,0.5276112264065262,1.5828336792195785,0.0,0.35174081760435083
goals: 0.0,0.0,0.0,0.0,0.0,0.0
goals: 0.0,0.0,0.0,0.0,0.0,0.0
state: 0.0,0.0,0.5276112264065262,1.5828336792195785,0.0,0.35174081760435083
goals: 0.0,0.0,0.0,0.0,0.0,0.0
goals: 0.0,0.0,0.0,0.0,0.0,0.0
state: 0.0,0.0,0.5276112264065262,1.5828336792195785,0.0,0.35174081760435083
goals: 0.0,0.0,0.0,0.0,0.0,0.0
goals: 0.0,0.0,0.0,0.0,0.0,0.0
state: 0.0,0.0,0.5276112264065262,1.5828336792195785,0.0,0.35174081760435083
goals: 0.0,0.0,0.0,0.0,0.0,0.0
goals: 0.0,0.0,0.0,0.0,0.0,0.0
state: 0.0,0.0,0.35174081760435083,1.5828336792195785,0.0,0.35174081760435083
goals: 0.0,0.0,0.0,0.0,0.0,0.0
goals: 0.0,0.0,0.0,0.0,0.0,0.0
state: 0.0,0.0,0.5276112264065262,1.5828336792195785,0.0,0.35174081760435083
goals: 0.0,0.0,0.0,0.0,0.0,0.0
goals: 0.0,0.0,0.0,0.0,0.0,0.0
state: 0.0,0.0,0.35174081760435083,1.5828336792195785,0.0,0.35174081760435083
goals: 0.0,0.0,0.0,0.0,0.0,0.0
goals: 0.0,0.0,0.0,0.0,0.0,0.0
state: 0.0,0.0,0.5276112264065262,1.5828336792195785,0.0,0.35174081760435083
goals: 0.0,0.0,0.0,0.0,0.0,0.0
goals: 0.0,0.0,0.0,0.0,0.0,0.0
state: 0.0,0.0,0.5276112264065262,1.5828336792195785,0.0,0.35174081760435083
goals: 0.0,0.0,0.0,0.0,0.0,0.0
goals: 0.0,0.0,0.0,0.0,0.0,0.0
state: 0.0,0.0,0.35174081760435083,1.5828336792195785,0.0,0.35174081760435083
goals: 0.0,0.0,0.0,0.0,0.0,0.0
goals: 0.0,0.0,0.0,0.0,0.0,0.0
state: 0.0,0.0,0.5276112264065262,1.5828336792195785,0.0,0.35174081760435083
goals: 0.0,0.0,0.0,0.0,0.0,0.0
goals: 0.0,0.0,0.0,0.0,0.0,0.0
state: 0.0,0.0,0.5276112264065262,1.5828336792195785,0.0,0.35174081760435083
goals: 0.0,0.0,0.0,0.0,0.0,0.0
goals: 0.0,0.0,0.0,0.0,0.0,0.0
state: 0.0,0.0,0.5276112264065262,1.5828336792195785,0.0,0.35174081760435083
goals: 0.0,0.0,0.0,0.0,0.0,0.0
goals: 0.0,0.0,0.0,0.0,0.0,0.0
state: 0.0,0.0,0.35174081760435083,1.5828336792195785,0.0,0.35174081760435083
goals: 0.0,0.0,0.0,0.0,0.0,0.0
goals: 0.0,0.0,0.0,0.0,0.0,0.0
state: 0.0,0.0,0.5276112264065262,1.5828336792195785,0.0,0.35174081760435083
goals: 0.0,0.0,0.0,0.0,0.0,0.0
goals: 0.0,0.0,0.0,0.0,0.0,0.0
state: 0.0,0.0,0.35174081760435083,1.5828336792195785,0.0,0.35174081760435083
goals: 0.0,0.0,0.0,0.0,0.0,0.0
goals: -1.323523441923773e-06,7.862361262446271e-07,-1.8436160047130855e-06,-9.057984146275617e-06,9.15623839360387e-06,6.604837783916722e-06
state: 0.0,0.0,0.35174081760435083,1.5828336792195785,0.0,0.35174081760435083
goals: -0.0014085359414624185,0.0008367376105420902,-0.0019620350668811868,-0.00963979618576397,0.009744361495587286,0.007029079434100042
goals: -0.0014085359414624185,0.0008367376105420902,-0.0019620350668811868,-0.00963979618576397,0.009744361495587286,0.007029079434100042
state: -0.17587040880217542,0.0,0.5276112264065262,1.5828336792195785,0.0,0.35174081760435083
goals: -0.0014085359414624185,0.0008367376105420902,-0.0019620350668811868,-0.00963979618576397,0.009744361495587286,0.007029079434100042
goals: -0.0014085359414624185,0.0008367376105420902,-0.0019620350668811868,-0.00963979618576397,0.009744361495587286,0.007029079434100042
state: -0.17587040880217542,0.0,0.5276112264065262,1.5828336792195785,0.0,0.35174081760435083
goals: -0.0014085359414624185,0.0008367376105420902,-0.0019620350668811868,-0.00963979618576397,0.009744361495587286,0.007029079434100042
goals: -0.0014085359414624185,0.0008367376105420902,-0.0019620350668811868,-0.00963979618576397,0.009744361495587286,0.007029079434100042
state: -0.17587040880217542,0.0,0.35174081760435083,1.5828336792195785,0.0,0.35174081760435083
goals: -0.0014085359414624185,0.0008367376105420902,-0.0019620350668811868,-0.00963979618576397,0.009744361495587286,0.007029079434100042
goals: -0.0014085359414624185,0.0008367376105420902,-0.0019620350668811868,-0.00963979618576397,0.009744361495587286,0.007029079434100042
state: -0.17587040880217542,0.0,0.35174081760435083,1.5828336792195785,0.0,0.35174081760435083
goals: -0.0014085359414624185,0.0008367376105420902,-0.0019620350668811868,-0.00963979618576397,0.009744361495587286,0.007029079434100042
goals: -0.0014085359414624185,0.0008367376105420902,-0.0019620350668811868,-0.00963979618576397,0.009744361495587286,0.007029079434100042
state: -0.17587040880217542,0.0,0.35174081760435083,1.5828336792195785,0.0,0.35174081760435083
goals: -0.0014085359414624185,0.0008367376105420902,-0.0019620350668811868,-0.00963979618576397,0.009744361495587286,0.007029079434100042
goals: -0.0014085359414624185,0.0008367376105420902,-0.0019620350668811868,-0.00963979618576397,0.009744361495587286,0.007029079434100042
state: -0.17587040880217542,0.0,0.35174081760435083,1.5828336792195785,0.0,0.35174081760435083
goals: -0.0014085359414624185,0.0008367376105420902,-0.0019620350668811868,-0.00963979618576397,0.009744361495587286,0.007029079434100042
goals: -0.0014085359414624185,0.0008367376105420902,-0.0019620350668811868,-0.00963979618576397,0.009744361495587286,0.007029079434100042
state: -0.17587040880217542,0.0,0.35174081760435083,1.5828336792195785,0.0,0.35174081760435083
goals: -0.0014085359414624185,0.0008367376105420902,-0.0019620350668811868,-0.00963979618576397,0.009744361495587286,0.007029079434100042
goals: -0.0014085359414624185,0.0008367376105420902,-0.0019620350668811868,-0.00963979618576397,0.009744361495587286,0.007029079434100042
state: -0.17587040880217542,0.0,0.35174081760435083,1.5828336792195785,0.0,0.35174081760435083
goals: -0.0014085359414624185,0.0008367376105420902,-0.0019620350668811868,-0.00963979618576397,0.009744361495587286,0.007029079434100042
goals: -0.0014085359414624185,0.0008367376105420902,-0.0019620350668811868,-0.00963979618576397,0.009744361495587286,0.007029079434100042
state: -0.17587040880217542,0.0,0.35174081760435083,1.5828336792195785,0.0,0.35174081760435083
goals: -0.0014085359414624185,0.0008367376105420902,-0.0019620350668811868,-0.00963979618576397,0.009744361495587286,0.007029079434100042
goals: -0.0014085359414624185,0.0008367376105420902,-0.0019620350668811868,-0.00963979618576397,0.009744361495587286,0.007029079434100042
state: -0.17587040880217542,0.0,0.5276112264065262,1.5828336792195785,0.0,0.35174081760435083
goals: -0.0014085359414624185,0.0008367376105420902,-0.0019620350668811868,-0.00963979618576397,0.009744361495587286,0.007029079434100042
goals: -0.0014085359414624185,0.0008367376105420902,-0.0019620350668811868,-0.00963979618576397,0.009744361495587286,0.007029079434100042
state: -0.17587040880217542,0.0,0.35174081760435083,1.5828336792195785,0.0,0.35174081760435083
goals: -0.0014085359414624185,0.0008367376105420902,-0.0019620350668811868,-0.00963979618576397,0.009744361495587286,0.007029079434100042
goals: -0.0014085359414624185,0.0008367376105420902,-0.0019620350668811868,-0.00963979618576397,0.009744361495587286,0.007029079434100042
state: -0.17587040880217542,0.0,0.35174081760435083,1.5828336792195785,0.0,0.35174081760435083
goals: -0.0014085359414624185,0.0008367376105420902,-0.0019620350668811868,-0.00963979618576397,0.009744361495587286,0.007029079434100042
goals: -0.0014085359414624185,0.0008367376105420902,-0.0019620350668811868,-0.00963979618576397,0.009744361495587286,0.007029079434100042
state: -0.17587040880217542,0.0,0.35174081760435083,1.5828336792195785,0.0,0.35174081760435083
goals: -0.0014085359414624185,0.0008367376105420902,-0.0019620350668811868,-0.00963979618576397,0.009744361495587286,0.007029079434100042
goals: -0.0014085359414624185,0.0008367376105420902,-0.0019620350668811868,-0.00963979618576397,0.009744361495587286,0.007029079434100042
state: -0.17587040880217542,0.0,0.35174081760435083,1.5828336792195785,0.0,0.35174081760435083
goals: -0.0014085359414624185,0.0008367376105420902,-0.0019620350668811868,-0.00963979618576397,0.009744361495587286,0.007029079434100042
goals: -0.0014085359414624185,0.0008367376105420902,-0.0019620350668811868,-0.00963979618576397,0.009744361495587286,0.007029079434100042
state: -0.17587040880217542,0.0,0.0,1.5828336792195785,0.0,0.35174081760435083
goals: -0.0014085359414624185,0.0008367376105420902,-0.0019620350668811868,-0.00963979618576397,0.009744361495587286,0.007029079434100042
goals: -0.0014085359414624185,0.0008367376105420902,-0.0019620350668811868,-0.00963979618576397,0.009744361495587286,0.007029079434100042
state: -0.17587040880217542,0.0,0.0,1.5828336792195785,0.0,0.35174081760435083
goals: -0.001367306950498402,0.0009180858670026627,-0.0020348006260972277,-0.009639799750234167,0.009735775029134091,0.007070307671906223
goals: 0.2565716268024022,0.5078629420738423,-0.4545350453329624,-0.009662075770093197,-0.04473244145728124,0.26500445366532355
state: -0.17587040880217542,0.0,0.0,1.5828336792195785,0.0,0.35174081760435083
goals: 0.8298993800514101,1.620566024440568,-1.4410015802790113,-0.00971140764854911,-0.17102163532411108,0.8383210281581477
goals: 1.4478006941506736,2.7985077688562594,-2.4752373174331797,-0.009764295186613177,-0.3147846573516895,1.4562094935248906
state: 0.35174081760435083,1.9345744968239293,-1.7587040880217542,1.5828336792195785,-0.17587040880217542,0.35174081760435083
goals: 2.0799415579988927,3.9813995617327134,-3.5034133778406753,-0.009818102496555507,-0.4695590123728726,2.08833638915134
goals: 2.7213734851898757,5.159386427784489,-4.516980279182363,-0.009872392832948298,-0.6340387632178199,2.729753329116004
state: 1.7587040880217542,4.22088981125221,-3.5174081760435083,0.8793520440108771,-0.35174081760435083,1.5828336792195785
goals: 3.375477044355956,6.338177199022322,-5.520920291729107,-0.009927437638718804,-0.8089508004581554,3.383840798720587
goals: 4.041061225694001,7.515029168795516,-6.512929875729373,-0.009983120175457171,-0.9938558609828315,4.049407810617676
state: 3.3415377672413324,6.858945943284841,-5.803723490471789,0.0,-0.8793520440108771,2.638056132032631
goals: 4.720696421083082,8.693840319960632,-7.496313492578888,-0.01003963765821671,-1.1893477247384105,4.72902468292408
goals: 5.416052810126938,9.876665769562523,-8.472726995843537,-0.010097107558693225,-1.395825832985804,5.42436153736051
state: 4.396760220054386,8.969390848910946,-7.562427578493542,0.0,-1.231092861615228,4.045019402450034
goals: 6.121483048711716,11.053276027143557,-9.433775235719743,-0.010155044347715646,-1.611455324589406,6.129771184332826
goals: 6.841304749041007,12.230334246559874,-10.384996880194596,-0.01021378445928379,-1.8373611143239679,6.849571109977229
state: 5.979593899273965,11.607446980943578,-9.672872484119647,0.0,-1.4069632704174033,5.451982672867437
goals: 7.579164994825789,13.412895622539198,-11.330422219153386,-0.010273600549146859,-2.0745684797901633,7.5874082771140605
goals: 8.331525758443583,14.594397318062526,-12.264769408960703,-0.01033418008102494,-2.3217961079135607,8.339744760463594
state: 7.562427578493542,13.89376229537186,-11.607446980943578,0.0,-1.9345744968239293,6.858945943284841
goals: 9.096886278553653,15.771857562893777,-13.185770638578502,-0.01039538002010398,-2.5783299120946452,9.105079848681775
goals: 9.877122592185435,16.947537384257494,-14.095293408640782,-0.010457327218451244,-2.844563621065777,9.885289519507367
state: 8.969390848910946,16.355948018602312,-13.36615106896533,0.0,-2.286315314428281,8.265909213702244
goals: 10.679476380360205,18.131317196171064,-15.000925586555525,-0.010520564930298163,-3.122790519090377,10.68761519984732
goals: 11.494364979531156,19.308159767923176,-15.891173770204256,-0.010584307272442356,-3.4094658553155073,11.502474560776282
state: 10.552224528130523,18.642263333030595,-15.300725565789259,0.0,-2.638056132032631,9.848742892921823
goals: 12.329650976776616,20.488629755160627,-16.774099115450383,-0.010649139186922351,-3.707093933616866,12.337729911365987
goals: 13.180605590169872,21.66512836738186,-17.644048457792984,-0.010714659629747105,-4.0137286813782085,13.188652646014303
state: 12.486799024954456,21.104449056261046,-17.059429653811016,0.0,-3.3415377672413324,11.607446980943578
goals: 14.055330031993831,22.847819331767813,-18.508537619429216,-0.010781454013417143,-4.332018845909585,14.063343675911355
goals: 14.945867561940272,24.024924449440288,-19.35897731718226,-0.010848874848508173,-4.658774736542894,14.953846569975262
state: 14.069632704174033,23.214893961887157,-18.818133741832767,0.0,-4.045019402450034,13.190280660163156
goals: 15.857889778979322,25.203053550351626,-20.200228974116005,-0.010917312333005587,-4.9957453632076065,15.865832717728523
goals: 16.790912201532564,26.38049133831852,-21.031092914473547,-0.010986684201056578,-5.342415087278783,16.798817666196776
state: 16.180077609800136,25.852950093919787,-20.40096742105235,0.0,-4.924371446460912,14.948984748184909
goals: 17.749783073660794,27.562104052011502,-21.8549887944234,-0.011057298514614324,-5.700231024652808,17.757649474220646
goals: 18.731790725669693,28.74323540870342,-22.66865310625565,-0.01112889862610751,-6.0678001572074125,18.739616594554427
state: 17.93878169782189,28.139265408348066,-22.1596715090741,0.0,-5.451982672867437,16.707688836206664
goals: 19.7365372065696,29.922266390266234,-23.471033341160798,-0.011201399637417632,-6.4445559685276645,19.744321111584085
goals: 20.76161818517698,31.095391697812943,-24.259670187314253,-0.011274573078714035,-6.829152251665413,20.769358819575643
state: 20.225097012250174,30.601451131578518,-23.74250518829368,0.0,-6.15546430807614,18.46639292422842
goals: 21.82332369557306,32.27970072933003,-25.046016303649854,-0.011349507610959623,-7.2272275034246665,21.831019085748697
goals: 22.915535036882,33.46641874538449,-25.824108518091275,-0.011425681291899777,-7.635969562773331,22.923183490763993
state: 22.1596715090741,32.88776644600681,-25.501209276315436,0.0,-7.210686760889191,20.049226603448
goals: 24.01613854474108,34.630824272452365,-26.57801442707051,-0.011501493750513887,-8.046587032671093,24.02373936142555
goals: 25.14074892614727,35.78905314577624,-27.31856041692316,-0.011577968525446871,-8.464391053978542,25.14830077611694
state: 24.270116414700208,35.17408176043509,-27.084042955535015,0.0,-7.914168396097894,21.632060282667577
goals: 26.289867518474207,36.94058223856774,-28.045596754588868,-0.011655063811813877,-8.889008321766816,26.297369094455192
goals: 27.44579994397367,38.06738438744199,-28.74814525783301,-0.011731537699772303,-9.313387955219447,27.45325076521681
state: 26.73230213793066,37.460397074863366,-28.31513581715024,0.0,-8.793520440108772,23.39076437068933
goals: 28.597768562087772,39.15980678582278,-29.420901636633957,-0.011806660724222718,-9.733180253205482,28.605168679998314
goals: 29.75212394032544,40.22486748146313,-30.06891157500388,-0.011880836597462193,-10.150358261269199,29.759473184008083
state: 29.19448786116112,39.92258279809381,-29.546228678765473,0.0,-9.848742892921823,25.149468458711084
goals: 30.91196715986538,41.266018208838425,-30.694860502263563,-0.01195424000724423,-10.56568862076089,30.919265275865556
goals: 31.79002904562162,42.03543692241634,-31.15268169610363,-0.01200905196521645,-10.877383927686465,31.79728847973226
state: 31.129062357985053,41.68128688611557,-30.95319194918287,0.0,-10.552224528130523,27.61165418194154
goals: 31.90992287358554,42.16219686181104,-31.4222360780372,-0.012014580671724126,-10.734602869072246,31.917197203567362
goals: 31.9099049210926,42.26641979742428,-32.41144415881111,-0.012005931955819144,-9.849617727816764,31.917275599048963
state: 32.1842848107981,42.38476852132428,-31.656673584391577,0.0,-11.07983575453705,29.01861745235894
goals: 31.909882442212144,42.38529235997742,-33.647519417843256,-0.01199608664781443,-8.73241503627711,31.917374567870706
goals: 31.909859861003042,42.491303496971355,-34.88610833109912,-0.011987323399595741,-7.599837265034297,31.917474921212925
state: 32.1842848107981,42.73650933892863,-33.942988898819856,0.0,-10.200483710526175,29.546228678765473
goals: 31.909837152634434,42.58393858498747,-36.12823090471354,-0.011979678472171384,-6.450349784543372,31.917576817778944
goals: 31.909814422213408,42.66219501861662,-37.36780232686413,-0.011973228827555983,-5.289034801196637,31.917679831232622
state: 32.00841440199592,43.08825015653298,-36.58104503085249,0.0,-7.738297987295717,29.546228678765473
goals: 31.90979167250589,42.725578667584315,-38.6043535587975,-0.011968010045804443,-4.1158672234749165,31.917783989068056
goals: 31.90976926981292,42.77294745649717,-39.81775674502031,-0.011964111816338746,-2.94983283139463,31.917887629390837
state: 32.00841440199592,42.912379747730796,-39.04323075408294,0.0,-5.276112264065262,29.546228678765473
goals: 31.90974682316976,42.804988540622524,-41.02896773640811,-0.011961474250629087,-1.770662929439898,31.917992578222457
goals: 31.909727473342638,42.81987677333777,-42.06916484115611,-0.011960245992058005,-0.7453540620389112,31.91808396677774
state: 32.00841440199592,43.08825015653298,-41.5054164773134,0.0,-2.8139265408348066,29.546228678765473
goals: 31.909719910613394,42.822423966150716,-42.474686974519685,-0.01196003435790233,-0.34237912331313836,31.918119922716787
goals: 31.909713269411554,42.82312303891613,-42.830303244939984,-0.011959974636976654,0.012538072732360015,31.918151609423948
state: 32.00841440199592,43.08825015653298,-42.73650933892863,0.0,-1.231092861615228,29.546228678765473
goals: 31.909696294004704,42.81828888537303,-43.737132814220764,-0.011960365032346735,0.9242017914128638,31.91823308730121
goals: 31.90967366976417,42.796764324277035,-44.94071806698619,-0.011962122744767423,2.1493115996840424,31.91834278801599
state: 32.00841440199592,42.912379747730796,-44.143472609346034,0.0,0.35174081760435083,29.546228678765473
goals: 31.909651063055314,42.75759963297141,-46.13735176591976,-0.011965329372810649,3.385109984256984,31.918453714057648
goals: 31.90962850701155,42.700447769419405,-47.324973080605126,-0.011970016503188985,4.629883156757703,31.91856574605065
state: 32.00841440199592,42.912379747730796,-46.42978792377431,0.0,2.9897969496369825,29.546228678765473
goals: 31.909605779532075,42.62409942087895,-48.51488115462137,-0.01197628814231625,5.896139573447068,31.918680050296462
goals: 31.909583587261643,42.530891126601155,-49.66990627890031,-0.011983958406477625,7.144372986186996,31.918793091225215
state: 32.00841440199592,42.73650933892863,-48.89197364700476,0.0,5.627853081669613,29.546228678765473
goals: 31.90956147999164,42.41923064118557,-50.81343674949804,-0.011993165670532146,8.399563936316431,31.918907155852434
goals: 31.909539616197236,42.28986663379678,-51.93710968608788,-0.0120038572085405,9.652600874384975,31.919021448159434
state: 32.00841440199592,42.56063893012645,-51.00241855263087,0.0,8.090038804900068,29.546228678765473
goals: 31.909518044027713,42.14331890534482,-53.03840188428855,-0.012016000164539152,10.900440795114317,31.91913571660705
goals: 31.90949653688708,41.97806339448885,-54.12875368429494,-0.012029732729421622,12.156048099976836,31.919251180071967
state: 32.00841440199592,42.20889811252209,-53.28873386705915,0.0,10.728094936932699,29.722099087567646
goals: 31.90947530296763,41.79570861971266,-55.19748622663776,-0.012044934614657193,13.407135411076288,31.91936674100814
goals: 31.909454331070684,41.596449712476094,-56.24515971750925,-0.012061603700171349,14.65406780314198,31.919482458487916
state: 32.00841440199592,41.85715729491775,-55.57504918148744,0.0,13.190280660163156,30.425580722776346
goals: 31.90943341294607,41.37831662528539,-57.2820639838116,-0.012079921224162326,15.909105150508497,31.91959950408688
goals: 31.909412713092525,41.14298717119979,-58.29991693261834,-0.012099764455099105,17.16228754723665,31.919716984978646
state: 32.00841440199592,41.5054164773134,-57.50962367831136,0.0,15.828336792195788,30.425580722776346
goals: 31.909395079438,40.92692850926295,-59.16032723142859,-0.012118057611609237,18.23875650265011,31.919818409494535
goals: 31.90938820688558,40.838778080229346,-59.49396091427083,-0.012125541739118608,18.66054061242611,31.91985828313474
state: 32.00841440199592,41.153675659709045,-58.91658694872876,0.0,17.76291128901972,30.425580722776346
goals: 31.91501281250885,40.79669355148313,-59.642146464471445,-0.012129307276065638,18.850810062044932,31.925504048821207
goals: 32.59656479205559,40.57175501405858,-59.50766753381247,-0.012170813691381567,18.941193453450936,32.60707261646687
state: 31.832543993193752,40.8019348421047,-59.44419817513529,0.0,18.46639292422842,30.777321540380697
goals: 33.838931545446975,40.148352897083484,-59.25363796990721,-0.012245420319832957,19.110426481196537,33.84947008345819
goals: 35.14104317135013,39.68589881902247,-58.9748334388643,-0.012322149284273144,19.293928981964495,35.151614554809775
state: 33.76711849001768,40.098453206896,-59.44419817513529,-0.8793520440108771,18.642263333030595,31.304932766787225
goals: 36.44667749308804,39.20277828264964,-58.68206595997317,-0.01239757352891229,19.484133780552146,36.4572824768433
goals: 37.747670533358054,38.70181464089662,-58.37685857118935,-0.01247121686319028,19.679741509112233,37.7583096527868
state: 36.40517462205031,39.21910116288512,-59.44419817513529,-0.5276112264065262,18.994004150634943,32.53602562840245
goals: 39.048791870669845,38.18104276989718,-58.05782215787332,-0.012543350836732886,19.881327655684814,39.05946577268459
goals: 40.35577872294158,37.63778600786639,-57.723092319190634,-0.01261427660970109,20.089703836901023,40.36648820031946
state: 39.04323075408294,38.16387871007206,-58.74071653992659,-0.5276112264065262,19.52161537704147,35.17408176043509
goals: 41.655854977773465,37.07712270063052,-57.375576516344516,-0.01268329607258887,20.30270066187,41.66660046119742
goals: 42.93033542025539,36.507614037521094,-57.020428697542094,-0.01274946823926969,20.516913101263082,42.94111678489028
state: 41.68128688611557,36.93278584845684,-58.03723490471788,-0.7034816352087017,19.873356194645822,37.988008301269886
goals: 44.19251151522697,35.92394290859509,-56.65419414690245,-0.012813542897035755,20.734202050178713,44.203328968486716
goals: 45.449850213129125,35.32279359865717,-56.27459883577724,-0.01287592263277537,20.955608352988182,45.460704147099975
state: 44.3193430181482,35.70169298684161,-57.33375326950918,-0.7034816352087017,20.40096742105235,40.274323615698165
goals: 46.330149221950585,34.890054790245195,-55.999838107467,-0.012918732167717507,21.113482660704708,46.34102900193581
goals: 46.42313802625537,34.89799675669059,-55.79064907316854,-0.012918162680706238,20.89634068266601,46.433992860499295
state: 46.42978792377431,34.822340942830735,-56.63027163430048,-0.7034816352087017,20.928578647458874,42.033027703719924
goals: 46.423154142576756,35.12527205289603,-55.00828274281019,-0.012897048478122435,19.88669906189776,46.433889713669195
goals: 46.42317455338368,35.39531294714716,-54.00968726740549,-0.012872071587695506,18.618062699471693,46.43376078691005
state: 46.42978792377431,34.99821135163291,-56.10266040789396,-0.7034816352087017,20.928578647458874,42.912379747730796
goals: 46.423194996944886,35.6462194637839,-53.00106496749954,-0.012848971050082258,17.358533890051135,46.433633500417784
goals: 46.423215722255655,35.88099988335206,-51.97022360932553,-0.012827447402054402,16.092912119411732,46.43350627959463
state: 46.42978792377431,35.349952169237255,-54.871567546278726,-0.5276112264065262,18.290522515426247,43.96760220054385
goals: 46.42323663120334,36.098293492744816,-50.922055027711984,-0.012807605581970388,14.82744993545553,46.43337972243817
goals: 46.423257411401856,36.29519373452972,-49.872480923164005,-0.012789690632394834,13.580975596018414,46.433255663266365
state: 46.42978792377431,35.70169298684161,-52.58525223185045,-0.5276112264065262,15.828336792195788,45.37456547096125
goals: 46.42327823777788,36.47388162785456,-48.81300329969631,-0.012773485333709724,12.34281008602987,46.433132987041
goals: 46.4232985749678,36.63074948034557,-47.77137503557026,-0.012759299544281464,11.144313975957184,46.43301473884873
state: 46.42978792377431,36.05343380444596,-50.29893691742217,-0.5276112264065262,13.190280660163156,45.7263062885656
goals: 46.42331095141655,36.71785386191599,-47.13419141202936,-0.01275143869599654,10.420025974781678,46.43294350295004
goals: 46.42331330519114,36.73376280116674,-47.01238378693202,-0.012750003853367985,10.282309411181188,46.432929969614314
state: 46.42978792377431,36.229304213248135,-48.71610323820259,-0.5276112264065262,11.4315765721414,45.7263062885656
goals: 46.42330123189893,36.65140176589419,-47.62461749336152,-0.012757415632785383,10.976904149134427,46.432998057322465
goals: 46.42328073474382,36.49827023158815,-48.65876539150991,-0.01277122589898925,12.164183575150322,46.43311479934978
state: 46.25391751497214,36.229304213248135,-48.71610323820259,-0.5276112264065262,11.255706163339227,45.550435879763434
goals: 46.423259562711046,36.32217224124018,-49.7197763032915,-0.012787155116171059,13.401292470528453,46.43323694866823
goals: 46.423238543449095,36.128930065162216,-50.76562766228527,-0.01280469374239381,14.640385998792373,46.43335984462752
state: 46.42978792377431,36.229304213248135,-48.89197364700476,-0.5276112264065262,13.01441025136098,45.550435879763434
goals: 46.42321768471952,35.91862678357286,-51.79582054312138,-0.012823850527505606,15.880882154354724,46.43348346408494
goals: 46.42319692901636,35.690640466605416,-52.81306383808189,-0.012844700275286069,17.12611175934353,46.43360817630652
state: 46.42978792377431,35.87756339564378,-51.17828896143304,-0.5276112264065262,15.476595974591435,45.550435879763434
goals: 46.423176208660074,35.44402194899483,-53.82047694308575,-0.012867350525836572,18.380143374917264,46.433734433027766
goals: 46.42315569497581,35.18076076525331,-54.80960162038005,-0.012891640421548396,19.632529228866886,46.43386122267336
state: 46.42978792377431,35.52582257803944,-53.112863458256975,-0.5276112264065262,17.93878169782189,45.7263062885656
goals: 46.42313964579857,34.961294814859755,-55.57756639350747,-0.012911977605438088,20.61995994676088,46.433961704049416
goals: 46.42313453617844,34.888903588557774,-55.8209570596716,-0.012918703475363492,20.935741837419844,46.43399393719415
state: 46.25391751497214,34.822340942830735,-54.69569713747656,-0.5276112264065262,20.40096742105235,45.7263062885656
goals: 46.43238361244244,34.8688736282479,-55.986357396104246,-0.01292311209114908,21.12117104054035,46.443265033975514
goals: 46.69675202216226,35.582840981140706,-56.439083962571324,-0.012929123748519176,20.85989902382173,46.70760463248961
state: 46.42978792377431,34.99821135163291,-55.0474379550809,-0.5276112264065262,20.928578647458874,45.7263062885656
goals: 47.177680472010806,36.86621658999216,-57.24424609739003,-0.012939974653686069,20.3816286695564,47.188480212707155
goals: 47.69543959738182,38.226046342478746,-58.085355872873514,-0.01295154777111028,19.862847360156625,47.70618180910256
state: 47.13326955898301,37.108656257259014,-56.80614204310265,-0.5276112264065262,20.928578647458874,46.60565833257648
goals: 48.22290801465068,39.58864977208958,-58.91586789760787,-0.01296323877776077,19.330693371498057,48.233591027986726
goals: 48.763501656839495,40.961931487812585,-59.74051153472094,-0.012975133516069713,18.781991047144633,48.77412344217418
state: 48.188492011796065,39.92258279809381,-58.21310531352006,-0.5276112264065262,20.40096742105235,47.66088078538953
goals: 49.311785402567956,42.3313106001735,-60.550535260307115,-0.012987123123250753,18.222570393947304,49.32234457500002
goals: 49.86909924934503,43.69963196405403,-61.347782181795424,-0.012999248331017425,17.651429501530746,49.87959430808012
state: 49.41958487341129,42.73650933892863,-60.32355021914617,-0.5276112264065262,19.345744968239295,48.540232829400416
goals: 50.43474896528346,45.06466747317006,-62.131109416613924,-0.013011504948372334,17.06965367288437,50.44517852731136
goals: 51.0170583883543,46.44550855541247,-62.91140263005017,-0.013024083032637412,16.469036145604043,51.027420138828724
state: 50.29893691742217,45.37456547096125,-61.90638389836574,-0.5276112264065262,17.93878169782189,49.77132569101564
goals: 51.61287178389421,47.833374596657485,-63.68349958066819,-0.013036923506329406,15.853195662739754,51.62316380612209
goals: 52.21558317749088,49.21220334990118,-64.43858754604068,-0.013049893478602137,15.229382536217448,52.22580437008727
state: 51.88177059664175,48.01262160299389,-63.31334716878315,-0.5276112264065262,16.707688836206664,51.00241855263087
goals: 52.75543125453886,50.42628475991514,-65.09364724817094,-0.013061502085304755,14.670295933949019,52.76558880098613
goals: 53.010317027183234,50.992758716969156,-65.39616701440336,-0.013066981950089691,14.406311071021465,53.02044446823195
state: 52.76112264065262,50.474807326224344,-64.54444003039838,-0.5276112264065262,15.300725565789259,52.05764100544392
goals: 53.16001001419095,51.325051951752286,-65.564081582346,-0.013070062416891818,14.241914381028309,53.17011864865632
goals: 53.160022342834395,51.42871514078153,-65.04600038814792,-0.013061122704958478,13.620170001159023,53.170057293587185
state: 53.28873386705915,51.354159370235216,-65.24792166560708,-0.5276112264065262,14.773114339382737,52.58525223185045
goals: 53.160046093847846,51.614360893651366,-64.0420268233565,-0.013045153800216149,12.430550689886191,53.16994032365668
goals: 53.16007134686785,51.79183295555301,-62.966312579570534,-0.01302993693667708,11.17736439087776,53.169817679723835
state: 53.28873386705915,51.5300297790374,-65.24792166560708,-0.5276112264065262,12.486799024954456,52.58525223185045
goals: 53.16009677684176,51.95028023745534,-61.874781839715425,-0.013016391023647813,9.927386375732564,53.169695906680545
goals: 53.1601224987578,52.09035143880826,-60.76259723148269,-0.013004446497072381,8.675130572723251,53.169574437019726
state: 53.112863458256975,51.88177059664175,-63.84095839518968,-0.5276112264065262,9.672872484119647,52.58525223185045
goals: 53.160148411046926,52.21142583755851,-59.63425502542512,-0.012994143927242373,7.425713974430877,53.1694537347833
goals: 53.16017459522817,52.313858452973335,-58.48633358574641,-0.012985442367782077,6.1753599258135905,53.1693334023345
state: 53.112863458256975,52.05764100544392,-61.02703185435487,-0.5276112264065262,7.210686760889191,52.58525223185045
goals: 53.16020125128502,52.398109781436766,-57.310087815181035,-0.012978293780919846,4.914862833270872,53.16921252794837
goals: 53.16022376825921,52.45392901989117,-56.31074595497486,-0.01297356012863703,3.859701740008135,53.169111656179
state: 53.112863458256975,52.2335114142461,-58.74071653992659,-0.5276112264065262,4.572630628856562,52.58525223185045
goals: 53.16022834607957,52.46355535224247,-56.107780713242754,-0.012972742868430634,3.647110167006666,53.16909138379961
goals: 53.160212358016636,52.42659967734929,-56.83172938868618,-0.012975856720703591,4.408014513422155,53.16916435223093
state: 53.112863458256975,52.40938182304828,-57.861364495915716,-0.5276112264065262,3.3415377672413324,52.40938182304828
goals: 53.160187483770905,52.35462354479894,-57.95270702312458,-0.01298193013014943,5.6009682742340265,53.169279038929304
goals: 53.16016225490181,52.26319407954737,-59.08273967370664,-0.012989659339795838,6.822430383704701,53.169396853044596
state: 53.112863458256975,52.2335114142461,-57.861364495915716,-0.5276112264065262,4.396760220054386,52.40938182304828
goals: 53.160137225695934,52.153672381792155,-60.19661454027135,-0.01299893732606453,8.04582694161074,53.16951527495993
goals: 53.160112354719494,52.02580400753034,-61.29600989272658,-0.013009794997326886,9.27309066185089,53.169634524404465
state: 53.112863458256975,52.05764100544392,-59.62006858393746,-0.5276112264065262,7.034816352087017,52.40938182304828
goals: 53.160087528343965,51.87876162481087,-62.385720112074004,-0.013022313925707725,10.50984325734567,53.16975518550528
goals: 53.16006286789951,51.713041400899776,-63.460202430979606,-0.013036465008949292,11.750045793524627,53.16987670784449
state: 53.28873386705915,51.705900187839575,-61.73051348956357,-0.5276112264065262,9.672872484119647,52.58525223185045
goals: 53.16003839512762,51.52874682746305,-64.51836866951874,-0.013052254067334196,12.99250659880119,53.169999009957586
goals: 53.16002033773339,51.37982297960467,-65.29376326747878,-0.013065052630448324,13.916825039602498,53.17009037730585
state: 53.112863458256975,51.354159370235216,-63.84095839518968,-0.5276112264065262,12.135058207350104,52.58525223185045
goals: 53.160014857475446,51.332420222408764,-65.52816329722137,-0.013069133900540335,14.198627825005603,53.17011830015044
goals: 52.898471994402954,51.467160883220856,-65.64799626396777,-0.013059278339816066,14.18375161981242,52.908572481290996
state: 53.112863458256975,51.17828896143304,-64.54444003039838,-0.5276112264065262,13.36615106896533,52.58525223185045
goals: 51.82512325998682,52.04756235099851,-65.9542283138127,-0.013015017100933201,13.909711200250282,51.83518639984484
goals: 50.49405050232203,52.746750252600854,-66.32039661973455,-0.012958681289549471,13.576851048029102,50.50406824469272
state: 51.5300297790374,52.05764100544392,-65.24792166560708,-0.5276112264065262,13.542021477767507,52.40938182304828
goals: 49.1492729420866,53.43036652689067,-66.67552858802496,-0.01290013827515107,13.24852721188968,49.15924586757402
goals: 47.80939160442167,54.08910334411403,-67.01505157103615,-0.012840181399052748,12.929472626353485,47.819320940010186
state: 48.188492011796065,53.46460427586132,-66.12727370961795,-0.5276112264065262,13.542021477767507,50.826548143828695
goals: 46.45079542221431,54.73459082626811,-67.3452005357579,-0.012777728791176732,12.614294910467912,46.46068165752624
goals: 45.094930402282124,55.35659994326347,-67.66096701791389,-0.01271373709769046,12.308212057512106,45.10477473895696
state: 45.7263062885656,55.0474379550809,-67.00662575362882,-0.5276112264065262,13.01441025136098,49.41958487341129
goals: 43.72168117824995,55.96434676609713,-67.96725122599337,-0.012647230007418232,12.006910541214193,43.73148422511488
goals: 42.350475738456765,56.54919726793707,-68.25991187086197,-0.012579120419241599,11.714880784869452,42.36023871643454
state: 42.912379747730796,56.27853081669613,-67.53423698003536,-0.5276112264065262,12.662669433756628,47.48501037658736
goals: 40.96949613256707,57.11633794076272,-68.54176517535328,-0.012508807969136403,11.429753869660864,40.9792199337687
goals: 39.58807720003552,57.66200581727785,-68.8111451522491,-0.012436749782052406,11.153625658955246,39.597762999687305
state: 40.274323615698165,57.157882860707005,-68.0618482064419,-0.5276112264065262,11.95918779854793,44.67108383575256
goals: 38.19539042382526,58.1905119256549,-69.07037400365326,-0.012362360720328093,10.884508544559614,38.20503911764672
goals: 37.12710067437366,58.58139227892843,-69.26103874670504,-0.012304114064033962,10.684415182684935,37.13672172689333
state: 37.460397074863366,58.21310531352006,-68.5894594328484,-0.35174081760435083,11.4315765721414,42.912379747730796
goals: 36.8916415305874,58.67829684503439,-69.22081014011087,-0.012290173520312076,10.547308884766768,36.901246147746576
goals: 36.89165876065626,58.7863553533869,-68.47602617766378,-0.012281796946900165,9.694466417936747,36.901168482415684
state: 36.58104503085249,58.56484613112441,-68.94120025045275,-0.5276112264065262,11.255706163339227,40.098453206896
goals: 36.89168367680143,58.92557864360234,-67.3920392109966,-0.012271027237298539,8.47125616671145,36.90105749903864
goals: 36.89170925811922,59.0480288594952,-66.27085176493355,-0.012261575237083296,7.227618510465253,36.90094513155574
state: 36.75691543965466,58.74071653992659,-68.7653298416506,-0.35174081760435083,8.617650031306594,39.04323075408294
goals: 36.89173489717587,59.15045210814916,-65.13908132421015,-0.01225368239686764,5.9934248267136985,36.90083405660471
goals: 36.89176095952657,59.234278370578735,-63.98072234891722,-0.012247229945873982,4.751239594614324,36.900722675566755
state: 36.75691543965466,59.09245735753095,-67.00662575362882,-0.35174081760435083,5.979593899273965,37.636267483665534
goals: 36.891787402561654,59.29898723644053,-62.79767156363364,-0.012242251066515242,3.5034799490794666,36.90061118314361
goals: 36.891814022125395,59.34400379705764,-61.5991942833889,-0.012238784596356043,2.259986113772716,36.900500430624405
state: 36.75691543965466,59.268327766333115,-64.3685696215962,-0.35174081760435083,3.165667358439157,37.108656257259014
goals: 36.89183940225162,59.36864804018659,-60.4498337209516,-0.012236879826490472,1.0859813134194651,36.900396170195464
goals: 36.89185308188363,59.37470692208394,-59.8277497529329,-0.012236405960844996,0.45783846628037367,36.90034049880721
state: 36.75691543965466,59.268327766333115,-61.90638389836574,-0.35174081760435083,0.8793520440108771,37.108656257259014
goals: 36.891860113126334,59.37588602279493,-59.50731897422943,-0.012236310399376612,0.13622858828450965,36.90031202372822
goals: 36.89187405444415,59.37438639777928,-58.87063923796054,-0.01223641439095591,-0.4989515201732393,36.90025584024703
state: 36.75691543965466,59.44419817513529,-61.02703185435487,-0.5276112264065262,0.17587040880217542,37.108656257259014
goals: 36.891899280949445,59.35893292849721,-57.71420332643438,-0.01223757701070909,-1.6399339574159597,36.90015508958433
goals: 36.89192538634419,59.32608264188858,-56.511820928420875,-0.012240070672733064,-2.809466063720338,36.90005202855349
state: 36.75691543965466,59.44419817513529,-58.91658694872876,-0.5276112264065262,-1.9345744968239293,37.108656257259014
goals: 36.89195163206553,59.2762795566344,-55.29751592575853,-0.012243864350900486,-3.9739679760747566,36.899949599635924
goals: 36.89197775955698,59.21049751504408,-54.08358183330057,-0.01224888713802601,-5.122120021982594,36.89984877083743
state: 36.75691543965466,59.09245735753095,-56.10266040789396,-0.35174081760435083,-4.22088981125221,37.108656257259014
goals: 36.89200382523741,59.12925446499071,-52.867780606032966,-0.012255103689830791,-6.256678194317077,36.89974927211194
goals: 36.892030117072416,59.03199360658264,-51.63696463713372,-0.012262562018893383,-7.390233299952772,36.89964997526253
state: 36.75691543965466,59.268327766333115,-53.64047468466351,-0.5276112264065262,-6.331334716878314,37.108656257259014
goals: 36.89205620098392,58.92078211406466,-50.41177155058493,-0.012271109732764176,-8.504214889230251,36.89955248327414
goals: 36.89208218312687,58.79589384053223,-49.18760116154219,-0.012280732278095327,-9.60349700006669,36.89945634552909
state: 36.75691543965466,58.74071653992659,-51.17828896143304,-0.35174081760435083,-8.617650031306594,37.108656257259014
goals: 36.89210846355531,58.655706706742784,-47.94587351858212,-0.012291562462541898,-10.705037504569475,36.899360058115185
goals: 36.89213464367816,58.50264246953288,-46.705688329973455,-0.012303421703559737,-11.79215845137579,36.89926505882795
state: 36.75691543965466,58.56484613112441,-48.540232829400416,-0.35174081760435083,-10.728094936932699,37.108656257259014
goals: 36.892160712488675,58.33736808624635,-45.46790406413587,-0.012316266653017405,-12.864668329409039,36.89917134461682
goals: 36.892186951016924,58.15849470327379,-44.21946236963488,-0.012330214623307268,-13.934236636443817,36.89907787722646
state: 36.75691543965466,58.21310531352006,-46.078047106169954,-0.35174081760435083,-13.190280660163156,37.108656257259014
goals: 36.892213213541574,57.96730485212391,-42.96755830920682,-0.012345175820855722,-14.994950841276244,36.89898515542163
goals: 36.892238367845785,57.77317052214683,-41.7665686089846,-0.012360423223119733,-16.001806207310317,36.89889709929386
state: 36.75691543965466,57.861364495915716,-43.439990974137324,-0.35174081760435083,-15.300725565789259,37.108656257259014
goals: 36.89225231591119,57.6610148173583,-41.09990479267308,-0.012369257606076189,-16.556314316517568,36.89884858055019
goals: 36.81704505331015,57.442674762413986,-40.910291717207315,-0.012364751663463262,-16.527578759685973,36.82364513806158
state: 36.75691543965466,57.50962367831136,-41.5054164773134,-0.5276112264065262,-16.531818427404488,37.108656257259014
goals: 36.448131332932945,56.43586418446923,-40.4131803840681,-0.012336747602782661,-16.017837481075603,36.45479159397285
goals: 35.97537781797138,55.11739535200677,-39.75218367815139,-0.012301016708125438,-15.360311582288556,35.982115336721996
state: 36.40517462205031,56.10266040789396,-40.8019348421047,-0.35174081760435083,-16.531818427404488,36.75691543965466
goals: 35.50846557363281,53.783064389797055,-39.07164719223527,-0.012265909236536763,-14.706464101535925,35.51527951631689
goals: 35.055064026767724,52.455726423238666,-38.38307243889205,-0.012232000839449288,-14.067649516761394,35.061952255732336
state: 35.17408176043509,53.46460427586132,-39.21910116288512,-0.5276112264065262,-16.355948018602312,35.87756339564378
goals: 34.61257713834314,51.12928701373354,-37.68335816180447,-0.012199091854565922,-13.440874344424387,34.61953789357531
goals: 34.27425012575267,50.093758618087605,-37.12901357288764,-0.012174056772448356,-12.959652340747578,34.2812663262236
state: 34.470600125226376,50.826548143828695,-37.636267483665534,-0.35174081760435083,-15.300725565789259,34.822340942830735
goals: 34.14238670906091,49.68503744915994,-36.90825656244494,-0.012164330056969198,-12.771673309998768,34.14942451227887
goals: 34.127170240569576,49.67662919545562,-37.18136563544526,-0.012160054286896104,-12.490154269412837,34.13423922494511
state: 33.942988898819856,49.595455282213464,-37.108656257259014,-0.5276112264065262,-14.421373521778381,34.470600125226376
goals: 34.12714961282671,49.80909899090512,-38.24119558604026,-0.01214933268158856,-11.562794118271366,34.134320882840775
goals: 34.12712551370964,49.95222496366581,-39.47695194498831,-0.012137777135289983,-10.470163736811497,34.134417084269174
state: 33.942988898819856,49.595455282213464,-37.108656257259014,-0.5276112264065262,-12.662669433756628,34.2947297164242
goals: 34.127101315490904,50.08292702817485,-40.71488583471148,-0.012127250277394343,-9.36293191639987,34.13451457993667
goals: 34.127076941378164,50.200964568949196,-41.95858110409522,-0.012117764143181303,-8.237274192686272,34.134613727527935
state: 33.942988898819856,49.94719609981782,-39.04323075408294,-0.5276112264065262,-10.200483710526175,34.2947297164242
goals: 34.127052650871676,50.30456455579325,-43.19447812975343,-0.012109454123078055,-7.104977158811475,34.134713510928094
goals: 34.12702815873191,50.39438498313154,-44.43675344279683,-0.012102260920096888,-5.952522278150042,34.1348151451955
state: 33.942988898819856,49.94719609981782,-41.85715729491775,-0.5276112264065262,-7.914168396097894,34.2947297164242
goals: 34.127003707654346,50.468928202004214,-45.6727427227717,-0.012096298697903757,-4.791076222148746,34.134917670929006
goals: 34.12697923804033,50.5279200210392,-46.90514094671283,-0.01209158429499272,-3.6176698224155706,34.13502137615163
state: 33.942988898819856,50.29893691742217,-44.3193430181482,-0.35174081760435083,-5.451982672867437,34.2947297164242
goals: 34.12695512383578,50.570312300082115,-48.11488893949803,-0.012088197319516249,-2.4503141138402738,34.1351246932124
goals: 34.12693124501133,50.59642686952389,-49.307866849513495,-0.012086109020890084,-1.2834507784533686,34.135228136031316
state: 33.942988898819856,50.474807326224344,-46.95739915018084,-0.5276112264065262,-2.8139265408348066,34.2947297164242
goals: 34.12691509956726,50.6049046819298,-50.11153098733913,-0.012085428357593424,-0.4882644565814817,34.135298738417276
goals: 34.12690814979927,50.60623056667752,-50.45670257442781,-0.012085320368031657,-0.14441875577807084,34.13532929704812
state: 33.76711849001768,50.474807326224344,-48.71610323820259,-0.5276112264065262,-0.8793520440108771,34.2947297164242
goals: 34.1268983311083,50.6056892331429,-50.94355929927301,-0.012085360032594167,0.34297930041864855,34.135372645768726
goals: 34.126875757028294,50.59355378197553,-52.059201237284505,-0.012086318398444445,1.4707566845291775,34.135473102454725
state: 33.942988898819856,50.474807326224344,-49.94719609981782,-0.35174081760435083,-0.17587040880217542,34.2947297164242
goals: 34.12685129600519,50.562884822941896,-53.26203811933906,-0.01208875274057251,2.7042625200458144,34.13558324217846
goals: 34.12682687987982,50.51359177930455,-54.45603808374185,-0.01209267342740984,3.9475555224390053,34.135694563507705
state: 33.942988898819856,50.474807326224344,-52.40938182304828,-0.5276112264065262,2.462185723230456,34.2947297164242
goals: 34.12680237621771,50.44483114919,-55.64730367262817,-0.012098151763308288,5.2075817356833465,34.135807727262645
goals: 34.12677826667157,50.35779221701677,-56.81219815057316,-0.012105098653133101,6.459515140046959,34.13592053660583
state: 33.942988898819856,50.29893691742217,-55.0474379550809,-0.5276112264065262,5.1002418552630875,34.2947297164242
goals: 34.126754370893856,50.25204171577311,-57.95936206802797,-0.012113555723506876,7.712429552949672,34.136033835411666
goals: 34.126730751145246,50.127949195049126,-59.085695882065295,-0.012123502023539307,8.962855881888482,34.13614733879844
state: 33.942988898819856,50.12306650862,-57.50962367831136,-0.5276112264065262,7.562427578493542,34.2947297164242
goals: 34.126707281221556,49.9848873576342,-60.197091538646745,-0.01213499807186131,10.217313370003618,34.13626166918074
goals: 34.12668413855657,49.824056241660706,-61.285060882057316,-0.012147959062796209,11.466113823491515,34.13637597268161
state: 33.942988898819856,49.94719609981782,-59.795938992739636,-0.5276112264065262,10.37635411932835,34.2947297164242
goals: 34.12666114621183,49.64436532828308,-62.35785104095425,-0.01216248604405246,12.718594889809149,34.136491133155786
goals: 34.12664247557392,49.48352861137486,-63.22283026846693,-0.012175529976471132,13.744410829317664,34.13658586221956
state: 33.942988898819856,49.595455282213464,-62.082254307167915,-0.5276112264065262,12.838539842558804,34.2947297164242
goals: 34.12663371701334,49.403393485586065,-63.626643429720005,-0.012182043494247527,14.22835911403124,34.136630685772765
goals: 34.12662065815245,49.2782794078495,-64.22635064954616,-0.012192232310925321,14.953180408093642,34.13669798425245
state: 33.942988898819856,49.24371446460912,-63.13747675998097,-0.5276112264065262,13.89376229537186,34.2947297164242
goals: 34.12661622107854,49.23422136610949,-64.42946161419788,-0.012195825843127587,15.200349413288055,34.136720979682714
goals: 34.50241077651677,49.10127666049012,-64.37849664402069,-0.012218140479708454,15.282286745279634,34.51252743924024
state: 33.942988898819856,49.24371446460912,-63.84095839518968,-0.5276112264065262,14.948984748184909,34.2947297164242
goals: 35.662149890382274,48.694019193844476,-64.15640893058624,-0.01228516620089031,15.467325208799808,35.67229578734359
goals: 37.00235039186224,48.204708658865734,-63.88820521039955,-0.012361134228783434,15.68827951093502,37.01253091764961
state: 35.52582257803944,48.71610323820259,-63.84095839518968,-0.5276112264065262,15.300725565789259,34.64647053402855
goals: 38.34865672200633,47.69277057252066,-63.60599327098133,-0.012435838686368095,15.917851613875891,38.35887294274279
goals: 39.69118326853592,47.16165245474364,-63.31146738870577,-0.012508722228319159,16.15428942401433,39.701435984579255
state: 37.988008301269886,47.66088078538953,-63.84095839518968,-0.5276112264065262,15.828336792195788,36.40517462205031
goals: 41.028055041059154,46.61204719676279,-63.00481735345718,-0.012579695783715057,16.397090085290202,41.03834498452523
goals: 42.371636281420365,46.03856872581556,-62.68281055716424,-0.012649409814513398,16.648405653267144,42.38196452010708
state: 41.32954606851122,46.42978792377431,-63.665087986387505,-0.5276112264065262,16.355948018602312,38.16387871007206
goals: 43.70831074365042,45.446741869880555,-62.348312632540335,-0.012717154066354331,16.905578536039926,43.7186779456995
goals: 45.018805299424834,44.84559329399578,-62.006262355277556,-0.01278200735966343,17.164523142217462,45.02921152644089
state: 43.791731791741675,45.37456547096125,-62.9616063511788,-0.7034816352087017,16.707688836206664,40.098453206896
goals: 46.3194992833215,44.228171013971036,-61.652547989551366,-0.012844840675520688,17.428077847845962,46.329945036571296
goals: 47.621945126555616,43.588879564054615,-61.283728146653374,-0.012906222705321827,17.698395395207054,47.632431234910136
state: 46.60565833257648,44.143472609346034,-62.258124715970105,-0.5276112264065262,17.235300062613188,42.033027703719924
goals: 48.90867812113992,42.93631838635039,-60.90453875891109,-0.012965351382245131,17.971614370101996,48.91920484224377
goals: 50.18574514236084,42.2677233023916,-60.51317784127335,-0.013022545530014227,18.2486962849541,50.196312883543456
state: 48.89197364700476,42.73650933892863,-61.378772671959226,-0.5276112264065262,17.587040880217543,44.84695424455473
goals: 51.073729033542065,41.79036361344323,-60.23198225976012,-0.01306143731287142,18.44475419417744,51.08432570447377
goals: 51.173398466881316,41.78153829873494,-60.02797800792699,-0.01306162538654625,18.24956332212231,51.18397250682348
state: 51.00241855263087,41.68128688611557,-60.67529103675052,-0.7034816352087017,18.290522515426247,47.48501037658736
goals: 51.17341583184837,41.982790359062435,-59.2334002113817,-0.013043344698480714,17.253733470915982,51.18387142102368
goals: 51.173437815856545,42.219890107551954,-58.21991123678113,-0.01302189178676949,16.003144754892094,51.18374509114749
state: 51.00241855263087,41.68128688611557,-59.971809401541805,-0.5276112264065262,18.114652106624067,49.24371446460912
goals: 51.17346002612268,42.43974896880338,-57.18768571192644,-0.01300207938170665,14.751060375806833,51.183619265522466
goals: 51.17348244617081,42.64205230786934,-56.13753998998317,-0.012983916762859291,13.49861132176876,51.18349402507574
state: 51.00241855263087,42.033027703719924,-58.74071653992659,-0.5276112264065262,15.652466383393612,50.474807326224344
goals: 51.17350503228106,42.826345642871395,-55.07161628264992,-0.012967426959538805,12.24839428634267,51.183369594561036
goals: 51.17352793929556,42.99370765876902,-53.98265689472481,-0.012952497589548527,10.99207288941499,51.1832451136307
state: 51.00241855263087,42.56063893012645,-56.10266040789396,-0.5276112264065262,13.190280660163156,50.474807326224344
goals: 51.173550893655054,43.142121619334134,-52.88378908569501,-0.012939293956655232,9.74479112661996,51.1831220481964
goals: 51.17357423156338,43.2736832377865,-51.75902428966095,-0.012927616647053696,8.488464718938806,51.182998581342574
state: 51.17828896143304,42.73650933892863,-53.992215502267854,-0.5276112264065262,10.552224528130523,50.474807326224344
goals: 51.173597608132816,43.386397715003696,-50.62510633906063,-0.012917631417120958,7.241832297832384,51.18287652224321
goals: 51.173621409044365,43.48203995426588,-49.4634447192308,-0.012909171225874242,5.984528445468786,51.18275384547276
state: 51.00241855263087,43.08825015653298,-51.5300297790374,-0.5276112264065262,7.914168396097894,50.474807326224344
goals: 51.173645418199094,43.5594765269548,-48.28464462136097,-0.012902328215775105,4.728291781594362,51.18263166935868
goals: 51.173669590160856,43.618621611687644,-47.09112301066564,-0.012897103229602662,3.475625092795223,51.18251020362848
state: 51.17828896143304,43.264120565335155,-49.06784405580694,-0.5276112264065262,4.924371446460912,50.474807326224344
goals: 51.17369373410134,43.65935671060257,-45.892594423383805,-0.012893501671774709,2.236361413122661,51.18239036370525
goals: 51.17371674564262,43.68157549127106,-44.74464956804849,-0.0128915302148599,1.0661977832499725,51.182277476540015
state: 51.17828896143304,43.439990974137324,-46.78152874137866,-0.5276112264065262,2.462185723230456,50.474807326224344
goals: 51.173728845564966,43.686904076017015,-44.138934872801485,-0.012891052102123433,0.455154506447768,51.18221862425711
goals: 51.17373530612852,43.687984566098436,-43.81494949272845,-0.01289095185423719,0.13008863798784337,51.18218734083919
state: 51.17828896143304,43.6158613829395,-44.84695424455473,-0.5276112264065262,0.8793520440108771,50.474807326224344
goals: 51.173748431686384,43.6864429939256,-43.15552951745839,-0.012891076450375677,-0.5277897616860561,51.18212407916831
goals: 51.17377158820875,43.67171572767231,-41.98838809658598,-0.012892351290223286,-1.6802039103272919,51.18201341475602
state: 51.00241855263087,43.6158613829395,-43.791731791741675,-0.5276112264065262,-0.17587040880217542,50.474807326224344
goals: 51.173795368540354,43.64101701688333,-40.785055204098214,-0.012895029962389387,-2.8528380859667517,51.18190098594723
goals: 51.17381934230733,43.594545377049,-39.567374148104406,-0.012899097669268679,-4.024047496096416,51.181788847275534
state: 51.00241855263087,43.6158613829395,-41.153675659709045,-0.5276112264065262,-2.638056132032631,50.474807326224344
goals: 51.173843225082564,43.533199372994964,-38.350071997058784,-0.012904478963826637,-5.180003637157045,51.181678295025286
goals: 51.173867010723264,43.45761047667194,-37.1338148309174,-0.012911122485062175,-6.32067190114121,51.18156930390591
state: 51.17828896143304,43.439990974137324,-38.51561952767642,-0.5276112264065262,-5.1002418552630875,50.474807326224344
goals: 51.17389100688489,43.36713305209135,-35.90314440175357,-0.0129190901534428,-7.460864899909601,51.18146043324477
goals: 51.17391490975372,43.26323344510601,-34.673910671089914,-0.012928258862272345,-8.586199017864143,51.18135303230334
state: 51.00241855263087,43.264120565335155,-36.40517462205031,-0.5276112264065262,-7.386557169691368,50.474807326224344
goals: 51.17393609949573,43.15997150539935,-33.58164304428239,-0.012937390440642396,-9.575204699946116,51.18125866640571
goals: 51.15314559573438,43.1277650198584,-33.21371029994675,-0.012939914941797194,-9.91092846592735,51.16042896886437
state: 51.00241855263087,43.08825015653298,-33.76711849001768,-0.5276112264065262,-9.497002075317472,50.474807326224344
goals: 50.4184018227593,43.306629274735975,-33.31832779158552,-0.012911965871929679,-9.985087315046487,50.42567901134689
goals: 49.13979863043756,43.605541724757465,-33.49267871870836,-0.012861940699808914,-10.109496292671885,49.147065801887074
state: 50.12306650862,43.264120565335155,-33.76711849001768,-0.5276112264065262,-9.672872484119647,50.474807326224344
goals: 47.8106898604237,43.89979548689451,-33.66372308602167,-0.012808074033168049,-10.232547730785752,47.817947622497236
goals: 46.476893634793775,44.17839480905893,-33.82512968393882,-0.01275211073671308,-10.349582591672046,46.484142981757266
state: 47.13326955898301,43.791731791741675,-33.76711849001768,-0.5276112264065262,-10.024613301724,49.41958487341129
goals: 45.13402710092449,44.44216799730642,-33.977464858836356,-0.012693842555069076,-10.460862348039297,45.14126901365322
goals: 43.7863729589346,44.690179350502625,-34.120270154648765,-0.01263343148434575,-10.56591029188029,43.79360845525653
state: 44.67108383575256,44.143472609346034,-33.76711849001768,-0.5276112264065262,-10.200483710526175,48.36436242059823
goals: 42.45066579324078,44.91963507043449,-34.252022949572655,-0.012571649614408695,-10.663457225963896,42.457895958474694
goals: 41.107189289406804,45.134140587731274,-34.37487178638875,-0.01250760083934866,-10.754957753652793,41.11441512056317
state: 41.85715729491775,44.84695424455473,-33.76711849001768,-0.5276112264065262,-10.37635411932835,46.078047106169954
goals: 39.74772496044006,45.33470715169675,-34.48945868723492,-0.012440849946516112,-10.840780188684157,39.754947449608984
goals: 38.38986301474928,45.51860438263737,-34.59428561792884,-0.012372238194789685,-10.919694254264408,38.39708320681799
state: 39.04323075408294,45.19869506215908,-33.76711849001768,-0.5276112264065262,-10.903965345734875,43.96760220054385
goals: 37.03688521549905,45.68561863362706,-34.689293096441546,-0.012301953846110662,-10.991546179134412,37.04410414567706
goals: 35.68220007849498,45.83672417999892,-34.775090747847045,-0.012229670388685108,-11.056699877903597,35.6894187634851
state: 36.40517462205031,45.550435879763434,-33.76711849001768,-0.5276112264065262,-11.07983575453705,40.977805250906876
goals: 34.325577922165955,45.971975167594664,-34.851757755223275,-0.012155377534181491,-11.11513031218765,34.33279737306608
goals: 32.97018590576469,46.09112664936598,-34.91919881888338,-0.012079257398417515,-11.166688215232496,32.97740712212538
state: 33.591248081215504,45.90217669736778,-33.76711849001768,-0.5276112264065262,-11.07983575453705,37.81213789246772
goals: 31.620829498646803,46.19395820305086,-34.97732806100136,-0.012001605753617988,-11.21123959727469,31.628053454349732
goals: 30.25540033890015,46.28204094827277,-35.027065969752194,-0.011921140510812783,-11.24943264848492,30.262628051386603
state: 31.129062357985053,46.078047106169954,-33.76711849001768,-0.5276112264065262,-11.255706163339227,34.99821135163291
goals: 28.89029081633518,46.35409567355226,-35.06771741219697,-0.011838806834009574,-11.280685150286697,28.897523261658225
goals: 27.516151914278733,46.41050664407688,-35.09952221055255,-0.011754035148392262,-11.305140544015991,27.52339009595046
state: 28.31513581715024,46.25391751497214,-33.76711849001768,-0.5276112264065262,-11.4315765721414,33.063636854808976
goals: 26.15001583918006,46.45059334437216,-35.122114753145304,-0.011667887192428828,-11.322485817143768,26.15726067546005
goals: 24.782893657060423,46.474766360554675,-35.13573942679966,-0.011579823759614251,-11.332886202806675,24.79014608681398
state: 25.501209276315436,46.25391751497214,-33.76711849001768,-0.7034816352087017,-11.4315765721414,31.832543993193752
goals: 23.412127063653788,46.483007007528066,-35.14039348085112,-0.011489678136228748,-11.336325505265828,23.419388028449546
goals: 22.04059399315842,46.4752261395039,-35.1360293403403,-0.011397645120548718,-11.332762489098846,22.047864403432946
state: 23.214893961887157,46.42978792377431,-33.76711849001768,-0.5276112264065262,-11.607446980943578,27.96339499954589
goals: 20.6749164114382,46.451545064379886,-35.122712724243605,-0.011304194005442301,-11.322253464314597,20.682197108709058
goals: 19.30520469535675,46.41181027394251,-35.10034969212359,-0.01120866705593641,-11.30473783465668,19.312496574709304
state: 19.873356194645822,46.42978792377431,-33.76711849001768,-0.5276112264065262,-11.607446980943578,24.270116414700208
goals: 17.934970237306132,46.356018668727636,-35.068925620908054,-0.011111315879504128,-11.280227518719391,17.942274149593878
goals: 16.567758429667467,46.284323573620185,-35.02850894432955,-0.011012413366023478,-11.248807794292231,16.57507517171216
state: 17.587040880217543,46.42978792377431,-34.2947297164242,-0.5276112264065262,-11.607446980943578,21.280319465063226
goals: 15.195994692751267,46.19625639769057,-34.97881214676412,-0.010911425293906306,-11.210296825361556,15.203325112393555
goals: 13.884323827521056,46.096881515637115,-34.92266916402762,-0.010813231541873046,-11.166931623792365,13.891668059439255
state: 14.245503112976209,46.25391751497214,-34.2947297164242,-0.5276112264065262,-11.607446980943578,18.642263333030595
goals: 13.089096969051283,46.02939064213649,-34.884500537408776,-0.010752930471195443,-11.137529104865633,13.096449915647828
goals: 13.048958116842133,46.063152653813134,-35.21103625386253,-0.010747140374578155,-10.844751360910326,13.056340014388082
state: 12.838539842558804,46.078047106169954,-34.2947297164242,-0.5276112264065262,-11.607446980943578,16.180077609800136
goals: 13.048939550247452,46.178466695304266,-36.279936051450306,-0.010738708989335507,-9.891165608150597,13.056414686179867
goals: 13.048917930246454,46.30045371649997,-37.52169752524409,-0.01072980836128683,-8.771391159479771,13.056502383446404
state: 13.01441025136098,46.078047106169954,-35.70169298684161,-0.5276112264065262,-11.255706163339227,14.59724393058056
goals: 13.048896335430008,46.40869867566899,-38.75859838253261,-0.010721926249640914,-7.642735265329212,13.056590807107243
goals: 13.048874606717758,46.50346680726171,-39.9994325239803,-0.010715037436649543,-6.496669259516156,13.05668064581785
state: 13.01441025136098,46.42978792377431,-38.33974911887424,-0.5276112264065262,-8.793520440108772,13.36615106896533
goals: 13.048852803300111,46.58385349142129,-41.24046554880672,-0.010709202415585848,-5.336022922955742,13.05677170001368
goals: 13.048830944718915,46.64920055639628,-42.4802404740354,-0.010704464249830199,-4.161595066871717,13.05686393052723
state: 13.01441025136098,46.60565833257648,-40.977805250906876,-0.5276112264065262,-6.331334716878314,13.36615106896533
goals: 13.04880945223475,46.69812266305848,-43.694653005643545,-0.010700919343564997,-2.9961046460790364,13.056955574568876
goals: 13.048787937911982,46.731417376472805,-44.9054271858956,-0.010698506785775547,-1.8186251834539129,13.057048299201535
state: 12.838539842558804,46.78152874137866,-43.439990974137324,-0.5276112264065262,-3.8691489936478587,13.36615106896533
goals: 13.048768993601847,46.74738665948018,-45.96728621865798,-0.010697347884816358,-0.7727354374556015,13.057130794712936
goals: 13.04876144065701,46.75019249943703,-46.38947246115585,-0.010697143184495748,-0.3533550364250716,13.057163912518524
state: 13.01441025136098,46.60565833257648,-45.90217669736778,-0.5276112264065262,-1.4069632704174033,13.36615106896533
goals: 13.048755091645099,46.75095898283292,-46.743832317368664,-0.010697086137680913,0.0002383351164404064,13.057191853552936
goals: 13.048739227689373,46.746432662185335,-47.62707984938325,-0.010697408961495382,0.888012184568644,13.057262083575159
state: 13.01441025136098,46.60565833257648,-46.42978792377431,-0.5276112264065262,-0.5276112264065262,13.36615106896533
goals: 13.048717587023146,46.72513810246516,-48.82675661145816,-0.010698942046286497,2.1089835019301075,13.057358868091207
goals: 13.048695874770011,46.68578851898676,-50.024072793676005,-0.010701781359647973,3.345649263112324,13.057457150233995
state: 13.01441025136098,46.60565833257648,-48.71610323820259,-0.5276112264065262,1.5828336792195785,13.36615106896533
goals: 13.048674172877947,46.62795994149522,-51.21414830501074,-0.01070596040425158,4.593553347358407,13.05755660942082
goals: 13.048652442097994,46.551014712867655,-52.39878584005498,-0.010711529602071291,5.855136106372816,13.057657474950256
state: 12.838539842558804,46.42978792377431,-51.17828896143304,-0.5276112264065262,4.396760220054386,13.36615106896533
goals: 13.048631051612045,46.45616984896561,-53.55767603099255,-0.01071840645620706,7.108871156555775,13.057758054301532
goals: 13.048609768998617,46.34249836414337,-54.70330541263193,-0.010726665082288622,8.36817201831038,13.057859449371048
state: 13.01441025136098,46.42978792377431,-53.64047468466351,-0.5276112264065262,7.034816352087017,13.36615106896533
goals: 13.048588960589985,46.212268269087346,-55.81593919305267,-0.010736148616710942,9.611035889110987,13.05795991013572
goals: 13.04856821435513,46.06316921387337,-56.91758461402426,-0.010747034543537317,10.861780360558818,13.05806142479104
state: 13.01441025136098,46.078047106169954,-55.92678999909178,-0.5276112264065262,9.497002075317472,13.36615106896533
goals: 13.048547616957382,45.89565780027465,-58.003449599026105,-0.010759300651757096,12.115156754378145,13.05816359959456
goals: 13.048527230141545,45.71029095498815,-59.070182452095466,-0.010772918386308911,13.367256447922667,13.058266144014087
state: 13.01441025136098,45.7263062885656,-58.03723490471788,-0.5276112264065262,11.95918779854793,13.36615106896533
goals: 13.04850699218202,45.50658067723809,-60.120929160866275,-0.01078793720637878,14.621713429586748,13.058369383984918
goals: 13.048491149824923,45.33313492004151,-60.93756796549101,-0.010800768968195085,15.6117979875481,13.058451240087518
state: 13.01441025136098,45.19869506215908,-60.147679810343995,-0.5276112264065262,14.59724393058056,13.36615106896533
goals: 13.048483343045318,45.24307662121468,-61.33803977632681,-0.010807447686234857,16.102328095289383,13.058491921956477
goals: 13.048472312873532,45.110606940438004,-61.90162733178141,-0.010817291636461942,16.798385328783844,13.058549797712036
state: 12.838539842558804,45.19869506215908,-61.202902263157036,-0.5276112264065262,16.00420720099796,13.36615106896533
goals: 13.048468481359068,45.06314627015989,-62.09677743091298,-0.010820824293499344,17.040996097236686,13.058570012107305
goals: 13.373430585815164,45.01349355623123,-62.10239459505271,-0.010846410022136868,17.096233238366693,13.383541274457553
state: 13.01441025136098,45.022824653356906,-61.73051348956357,-0.5276112264065262,16.707688836206664,13.36615106896533
goals: 14.502927361733368,44.8580525821139,-62.013732878727616,-0.010932780527682658,17.162898172986,14.513057412056428
goals: 15.85841075021672,44.65457245457225,-61.89743794825423,-0.01103505365643992,17.249945083383135,15.868564655927264
state: 14.421373521778381,44.84695424455473,-61.73051348956357,-0.5276112264065262,16.707688836206664,13.542021477767507
goals: 17.21350019139614,44.43259121550696,-61.77026808006798,-0.0111357847673432,17.34461703743413,17.223678632719817
goals: 18.56623177352423,44.192384277393735,-61.6323023750556,-0.01123482269591475,17.44671794859459,18.576435403835347
state: 17.059429653811016,44.3193430181482,-61.73051348956357,-0.5276112264065262,17.059429653811016,15.828336792195788
goals: 19.921243103344764,43.93301498852632,-61.48291578728752,-0.011332497343149095,17.556558961121507,19.93147267211117
goals: 21.27671252169599,43.654655816899194,-61.32211174835691,-0.011428663616157454,17.673971245592053,21.286968754128587
state: 20.049226603448,43.96760220054385,-61.73051348956357,-0.5276112264065262,17.411170471415367,17.587040880217543
goals: 22.62981945850925,43.35779492371343,-61.15007082236373,-0.011523115569962751,17.798647524369997,22.640103030172835
goals: 23.98868719908371,43.04043796892904,-60.965524122602666,-0.011616405562461967,17.931312404251617,23.998998958513578
state: 22.687282735480625,43.439990974137324,-61.73051348956357,-0.5276112264065262,17.587040880217543,19.345744968239295
goals: 25.343154074112917,42.70477820815415,-60.76962690057362,-0.011707824923960742,18.070928986846983,25.35349466501338
goals: 26.696100888450303,42.35006982765536,-60.56182079463137,-0.01179757006871325,18.217684441090558,26.706471014473628
state: 25.501209276315436,42.73650933892863,-61.554643080761394,-0.5276112264065262,17.76291128901972,21.80793069146975
goals: 27.99631434181985,41.99073591924357,-60.350473453655376,-0.011882329595453047,18.365528961709163,28.006713546875947
goals: 28.80905678818583,41.75686444562429,-60.21246817002613,-0.011934567536651118,18.46130589623721,28.819474516484075
state: 28.139265408348066,41.85715729491775,-61.02703185435487,-0.5276112264065262,18.114652106624067,24.270116414700208
goals: 28.858585562216845,41.80532224183335,-59.964767647549756,-0.011932482479487668,18.165142128938516,28.86897145003079
goals: 28.85860284880723,42.01879800281988,-59.114895622650835,-0.011914719137803403,17.1017943481651,28.868872870795297
state: 28.66687663475459,41.68128688611557,-60.67529103675052,-0.5276112264065262,18.290522515426247,26.20469091152414
goals: 28.858623365578048,42.2539316499087,-58.09841475271085,-0.011895231543818796,15.850179837109865,28.868757419775836
goals: 28.858644049246063,42.4713419512277,-57.06536498868069,-0.011877284853928409,14.599719777683312,28.86864267350041
state: 28.842747043556763,42.033027703719924,-59.795938992739636,-0.5276112264065262,17.411170471415367,27.96339499954589
goals: 28.85866497942345,42.6717030495311,-56.01181359175813,-0.01186080614313307,13.345807288352427,28.86852817962119
goals: 28.858686108811888,42.85437026145798,-54.94017893102941,-0.01184583267229909,12.091505421551549,28.86841418955584
state: 29.01861745235894,42.20889811252209,-57.685494087113526,-0.5276112264065262,14.421373521778381,28.31513581715024
goals: 28.85870735348476,43.0186267390476,-53.85484324716222,-0.011832408392797417,10.841913265887198,28.868301133538647
goals: 28.858728788643816,43.165086404427626,-52.75210493981645,-0.011820469829096769,9.59271529891351,28.86818858816409
state: 28.842747043556763,42.56063893012645,-55.22330836388308,-0.5276112264065262,11.607446980943578,28.31513581715024
goals: 28.858749313153798,43.2876060460148,-51.689282285481475,-0.011810504541067676,8.407373008415314,28.868082208043365
goals: 28.858760415533713,43.346799492457976,-51.11163766766179,-0.011805696762416069,7.770534947053289,28.868025211016516
state: 28.842747043556763,43.08825015653298,-52.936993049454806,-0.5276112264065262,8.793520440108772,28.31513581715024
goals: 28.858761063788673,43.35019177678898,-51.0770052762965,-0.011805419734336508,7.732510271531715,28.868021794555336
goals: 28.858746523853657,43.27301649885866,-51.824439582496694,-0.011811668175465482,8.557119851923925,28.868095436438292
state: 29.01861745235894,43.08825015653298,-52.76112264065262,-0.5276112264065262,8.090038804900068,28.139265408348066
goals: 28.858725213609496,43.14483301492992,-52.91406091530805,-0.011822066634421435,9.774924663114618,28.868204531211944
goals: 28.858703901054437,42.99832872054602,-53.99658850590239,-0.011833981787852487,11.003956542456427,28.8683150657197
state: 29.01861745235894,43.08825015653298,-52.76112264065262,-0.5276112264065262,9.497002075317472,28.31513581715024
goals: 28.858682626788347,42.833395866892474,-55.06968372096446,-0.01184743436420603,12.24198460545636,28.86842687858405
goals: 28.858661613833853,42.65173530342081,-56.121966668403516,-0.01186229852125171,13.475928110630685,28.868538819977754
state: 29.01861745235894,42.73650933892863,-54.16808591107003,-0.5276112264065262,11.783317389745752,28.139265408348066
goals: 28.85864062432607,42.45124802405342,-57.165216071202394,-0.011878760564328067,14.719664786973391,28.868652181955643
goals: 28.85861973424228,42.232408560564856,-58.1954395898224,-0.011896798356946067,15.968727763189746,28.868766597468536
state: 29.01861745235894,42.38476852132428,-56.45440122549831,-0.5276112264065262,14.245503112976209,28.31513581715024
goals: 28.858599099729545,41.996935533644944,-59.2048638082351,-0.01191628761883264,17.213625002604424,28.868881228522532
goals: 28.858584758706964,41.82176114765623,-59.901470945573756,-0.011930840443689021,18.085406521759634,28.868961874421114
state: 28.842747043556763,41.85715729491775,-58.21310531352006,-0.5276112264065262,16.88355924500884,28.31513581715024
goals: 28.85858019927337,41.764062826409486,-60.122075613388205,-0.011935643962363188,18.363709509484003,28.868987685930218
goals: 28.885976960754153,41.863566349385934,-60.27547315700412,-0.011938273833388899,18.417600514096147,28.8963906018363
state: 29.01861745235894,41.68128688611557,-58.91658694872876,-0.5276112264065262,18.114652106624067,28.31513581715024
goals: 29.09569168568236,42.785594287903116,-60.81681457973205,-0.011944612532351412,18.03689090352345,29.10606579857575
goals: 29.417384092645847,44.18131401314393,-61.62581439551034,-0.011954458721201692,17.450135522550532,29.427697172681974
state: 29.19448786116112,43.08825015653298,-60.147679810343995,-0.5276112264065262,18.114652106624067,28.491006225952418
goals: 29.74901813499989,45.59705594405649,-62.433648476060824,-0.011964777704174536,16.842191047422133,29.759267838458157
goals: 30.087579919058847,47.018741697429725,-63.23203729352219,-0.0119755025095291,16.21885666224067,30.097764496713783
state: 29.897969496369818,45.90217669736778,-61.90638389836574,-0.5276112264065262,17.587040880217543,29.19448786116112
goals: 30.432829172387823,48.44450790945806,-64.01990680487475,-0.011986650116203996,15.580921711083013,30.442946949070933
goals: 30.73313850068331,49.665423827660874,-64.68446241794571,-0.011996529027460158,15.024528084172857,30.74319789249946
state: 30.24971031397417,48.89197364700476,-63.489217577585315,-0.5276112264065262,16.531818427404488,29.546228678765473
goals: 30.869215795280326,50.21285355651081,-64.97942196881147,-0.012001063237991381,14.772042791974723,30.879248655242538
goals: 30.885183237572367,50.330338288248974,-64.75888951281944,-0.011997319561245605,14.434023832164046,30.895179299782892
state: 30.95319194918287,50.29893691742217,-64.3685696215962,-0.5276112264065262,15.652466383393612,29.546228678765473
goals: 30.885202735355765,50.5060159882513,-63.87293432491575,-0.011983300797656004,13.372390949162192,30.895083017036715
goals: 30.885225911268456,50.6960668075914,-62.81200202818994,-0.011968184143738897,12.121407838833226,30.894970083134787
state: 30.777321540380697,50.474807326224344,-64.3685696215962,-0.5276112264065262,13.89376229537186,29.546228678765473
goals: 30.885249311842383,50.86772509716018,-61.73243198355972,-0.01195457359219808,10.870179510328512,30.89485766270013
goals: 30.885272981633246,51.02115772042932,-60.632221850216126,-0.011942442039009307,9.616536759378887,30.894745532344913
state: 30.777321540380697,50.65067773502651,-63.84095839518968,-0.5276112264065262,11.07983575453705,29.546228678765473
goals: 30.885296816087976,51.15561940462849,-59.51632867963461,-0.011931835922104075,8.366181910206132,30.894634171853166
goals: 30.885320914422085,51.27163049096811,-58.38022257027025,-0.01192270320569337,7.114064720079124,30.894523101028742
state: 30.777321540380697,51.00241855263087,-60.85116144555269,-0.5276112264065262,8.44177962250442,29.546228678765473
goals: 30.885345202155772,51.368778047854924,-57.22753042988047,-0.011915066999736022,5.864225028332207,30.89441264879678
goals: 30.88536878417944,51.444592591350116,-56.10129777785057,-0.011909113267440428,4.662177838091858,30.894306785802222
state: 30.777321540380697,51.17828896143304,-58.56484613112441,-0.5276112264065262,6.15546430807614,29.546228678765473
goals: 30.885380313808753,51.475161912252275,-55.54823601563981,-0.01190671332139448,4.078546757533412,30.894255507619178
goals: 30.885372025877018,51.453329590178235,-55.95102269784385,-0.011908417100588016,4.503165759942024,30.894292912060884
state: 30.777321540380697,51.354159370235216,-56.982012451904836,-0.5276112264065262,4.22088981125221,29.546228678765473
goals: 30.885350594678833,51.386432596130064,-56.98835271167741,-0.011913643058284988,5.607392762944669,30.89439036964221
goals: 30.88532716401367,51.29571220569841,-58.11583128890512,-0.01192074216659405,6.825591725189789,30.894498229276795
state: 30.777321540380697,51.354159370235216,-56.982012451904836,-0.5276112264065262,4.396760220054386,29.546228678765473
goals: 30.88530372241373,51.18610586484334,-59.23659383156283,-0.011929336481223653,8.055960603199118,30.89460755805844
goals: 30.88528056115056,51.05882520125911,-60.33652292055713,-0.011939339639996898,9.283170350251744,30.894717025672954
state: 30.777321540380697,51.00241855263087,-58.21310531352006,-0.5276112264065262,7.034816352087017,29.370358269963294
goals: 30.885257551304807,50.913226428113596,-61.42163792188041,-0.011950812194998382,10.513884119140583,30.894827254470755
goals: 30.8852345832859,50.7483923851866,-62.49689368217295,-0.011963838376046448,11.753973916697328,30.894938806018224
state: 30.777321540380697,50.826548143828695,-61.02703185435487,-0.5276112264065262,9.672872484119647,29.546228678765473
goals: 30.88521174140946,50.564680812187774,-63.558122710367385,-0.011978403687454165,12.998914512163196,30.895051310856772
goals: 30.885191461814564,50.38467251654034,-64.49327438707863,-0.011992723708448118,14.114074479354136,30.895152551614277
state: 30.777321540380697,50.474807326224344,-63.13747675998097,-0.5276112264065262,12.31092861615228,29.546228678765473
goals: 30.885182832197263,50.30316631208623,-64.88914882021915,-0.011999223429339824,14.591455114725482,30.895196030731615
goals: 30.859343701552508,50.28473251541178,-65.01800988923459,-0.011999736245629777,14.738752850841559,30.869372792248267
state: 30.777321540380697,50.12306650862,-63.84095839518968,-0.5276112264065262,13.717891886569682,29.546228678765473
goals: 30.071652077204973,50.52178578291029,-65.14506488816608,-0.01195102672779225,14.628841952132088,30.081663153973007
goals: 28.75635190049181,50.902914914835,-65.3486137261321,-0.011868480461666366,14.451406826702309,28.766333596953185
state: 29.722099087567646,50.474807326224344,-64.3685696215962,-0.5276112264065262,13.89376229537186,29.546228678765473
goals: 27.388634939519775,51.27989103367921,-65.54906419782843,-0.011781044204808026,14.275031156248556,27.398587010004174
goals: 26.00524210431947,51.64131787787989,-65.74042640263633,-0.011690952570757859,14.105117177608552,26.01516516415422
state: 26.556431729128487,51.354159370235216,-64.89618084800273,-0.5276112264065262,13.89376229537186,28.491006225952418
goals: 24.628362701180862,51.981385171038745,-65.9197481122944,-0.011599641410038813,13.944520490491513,24.638257834287977
goals: 23.23846563350215,52.304951369313976,-66.08971169112192,-0.011505811304674166,13.791067085734756,23.248333526818456
state: 24.094246005898032,52.05764100544392,-65.42379207440925,-0.5276112264065262,13.89376229537186,27.435783773139363
goals: 21.85319831713865,52.60789403407116,-66.24826273678438,-0.011410646570455579,13.646823073469161,21.86304000313678
goals: 20.460470549816705,52.892952793773105,-66.39694333266391,-0.011313320017843102,13.510592171683614,20.470286824799526
state: 21.104449056261046,52.40938182304828,-65.59966248321143,-0.5276112264065262,13.89376229537186,25.677079685117608
goals: 19.060946156107406,53.159838388558946,-66.5356974473526,-0.01121386159235278,13.382607499208188,19.07073783118645
goals: 17.663355011776282,53.40692052526418,-66.66377053153562,-0.011112892383894792,13.263743856204155,17.67312304340342
state: 18.642263333030595,53.28873386705915,-66.12727370961795,-0.35174081760435083,13.717891886569682,22.687282735480625
goals: 16.271545770558724,53.63380634869553,-66.78104956415564,-0.01101071387542632,13.154280664870877,16.281291158509713
goals: 14.914296101369324,53.836740654171535,-66.88568448838402,-0.010909518465047738,13.056120135737247,14.924020260249648
state: 15.300725565789259,53.64047468466351,-66.30314411842012,-0.35174081760435083,13.542021477767507,19.873356194645822
goals: 14.063365847735755,53.95479110806115,-66.94643830383997,-0.010845295615932306,12.998909947068784,14.073077119452215
goals: 14.000000200652332,54.00879274728589,-66.70489272382194,-0.010837264836637765,12.703369148302393,14.009681723694001
state: 13.89376229537186,53.992215502267854,-66.65488493602447,-0.35174081760435083,13.36615106896533,17.235300062613188
goals: 14.00001857519606,54.164497020048586,-65.80889670149779,-0.01082624813827534,11.651668857182793,14.009596286503369
goals: 14.00004043895636,54.33106374247856,-64.73501480742941,-0.010814495964956577,10.411220245330398,14.009495955937648
state: 13.717891886569682,54.16808591107003,-66.65488493602447,-0.35174081760435083,12.486799024954456,16.00420720099796
goals: 14.00006242853309,54.478543906733435,-63.646765557845306,-0.010804118281011051,9.17549083608509,14.009396455744902
goals: 14.000084736943151,54.608117776568804,-62.53467068063558,-0.010795021289307493,7.933822093622229,14.009296902240717
state: 13.89376229537186,54.3439563198722,-65.59966248321143,-0.35174081760435083,9.145261257713123,14.59724393058056
goals: 14.000107164759243,54.71853564904959,-61.40876118377101,-0.010787283370487613,6.697494728807349,14.009198174492878
goals: 14.000129950308395,54.81085096538004,-60.25715897984321,-0.010780822653475111,5.453577213076431,14.009099215187526
state: 13.89376229537186,54.51982672867438,-63.13747675998097,-0.35174081760435083,7.034816352087017,14.245503112976209
goals: 14.000152620276433,54.88334778755989,-59.10400153871897,-0.010775752525604176,4.227922954204079,14.00900205125116
goals: 14.000174512032006,54.935513258512316,-57.98374051338866,-0.010772103671121419,3.0554964621347627,14.008909402441184
state: 13.89376229537186,54.69569713747656,-60.147679810343995,-0.35174081760435083,4.396760220054386,14.421373521778381
goals: 14.00018652481295,54.956856352446586,-57.36633075305781,-0.010770609149048345,2.416743610154862,14.008859040022905
goals: 14.000179484059897,54.945061781396625,-57.72584960673758,-0.010771427195545028,2.788057033562112,14.008888256158153
state: 13.89376229537186,54.871567546278726,-58.91658694872876,-0.35174081760435083,2.462185723230456,14.245503112976209
goals: 14.000158326925055,54.89912370518055,-58.802546532624426,-0.010774616540306911,3.910692031651357,14.008976756339003
goals: 14.000135184147808,54.8305059416578,-59.973425332072345,-0.010779387634752249,5.150188590163773,14.009074771277051
state: 13.89376229537186,54.871567546278726,-58.91658694872876,-0.35174081760435083,2.8139265408348066,14.245503112976209
goals: 14.000112306110786,54.743306354858944,-61.1235266522112,-0.010785461103265906,6.387489492621968,14.009172953332985
goals: 14.000089592308559,54.63717112082725,-62.25777450220356,-0.010792867907832572,7.627872572124849,14.009271747086656
state: 13.89376229537186,54.69569713747656,-60.49942062794834,-0.35174081760435083,5.627853081669613,14.245503112976209
goals: 14.000067074885015,54.512211779721845,-63.374415402699704,-0.010801608020751929,8.869472809168775,14.009371031519155
goals: 14.000044842988574,54.36905936427469,-64.46895600129274,-0.010811646277635593,10.107165818632522,14.009470421350466
state: 13.89376229537186,54.3439563198722,-62.9616063511788,-0.35174081760435083,8.265909213702244,14.245503112976209
goals: 14.000024294075002,54.21884380417717,-65.47334560119202,-0.010822209029733723,11.261770974329114,14.009563537940283
goals: 14.000014422387263,54.14044850647252,-65.95328634283369,-0.010827733412298793,11.820107011584915,14.00960871120278
state: 13.89376229537186,54.16808591107003,-64.89618084800273,-0.35174081760435083,10.728094936932699,14.245503112976209
goals: 14.000001195502573,54.02896525556159,-66.59367157010435,-0.010835603417617799,12.571975486939685,14.009669697184192
goals: 13.999995687094934,53.98034105896687,-66.859445317145,-0.010839041107498625,12.886373429388994,14.0096952526331
state: 13.89376229537186,53.992215502267854,-65.95140330081578,-0.35174081760435083,11.95918779854793,14.245503112976209
goals: 14.017255075456092,54.11671491418017,-67.02962567172793,-0.010840711591594126,12.920178180751977,14.026958127974865
goals: 14.12843171254058,55.09816287203405,-67.53042483674078,-0.01084381107685513,12.439518127332516,14.138088175993348
state: 13.89376229537186,53.992215502267854,-66.12727370961795,-0.35174081760435083,12.31092861615228,14.245503112976209
goals: 14.293819423623415,56.537286600243704,-68.25430118230578,-0.010848760142515774,11.724253978463446,14.3034065056278
goals: 14.46726059982295,58.02022184166861,-68.98730907525479,-0.010854389426810591,10.97430902829358,14.476774864449203
state: 14.069632704174033,56.982012451904836,-67.71010738883754,-0.35174081760435083,12.135058207350104,14.245503112976209
goals: 14.643051636753482,59.496465708443885,-69.70411492523358,-0.010860558036559886,10.214853151466794,14.65249208055232
goals: 14.823345010447657,60.98319280307179,-70.41312685775478,-0.010867371776958373,9.43711965117496,14.832709767740594
state: 14.59724393058056,59.62006858393746,-69.2929410680571,-0.35174081760435083,11.255706163339227,14.245503112976209
goals: 15.007992429241165,62.47783855702886,-71.11299837861263,-0.010874863028934117,8.642326615314635,15.017279740417136
goals: 15.152418676716476,63.62762242706846,-71.64264871961154,-0.010881084384673247,8.022178363976755,15.161645485345302
state: 14.948984748184909,62.78573594237662,-70.87577474727668,-0.35174081760435083,9.145261257713123,14.421373521778381
goals: 15.199850636370817,64.00366529581362,-71.79498516363297,-0.01088305952567359,7.798467101402057,15.209055578825481
goals: 15.199863847222197,64.06761957086718,-71.19899588947546,-0.010878808963344012,7.138523554528276,15.209003593904294
state: 15.124855156987085,64.01682880399184,-71.40338597368321,-0.35174081760435083,8.617650031306594,14.59724393058056
goals: 15.199887666269554,64.16802059006496,-70.11839839334972,-0.010872143874593131,5.957525043362809,15.208910856392984
goals: 15.199912703329533,64.25333723329251,-68.97446666701907,-0.010866486340036464,4.7282766781001175,15.208814707598924
state: 15.124855156987085,64.19269921279403,-71.40338597368321,-0.35174081760435083,6.15546430807614,14.59724393058056
goals: 15.199937915727503,64.31886776326822,-67.81451309748543,-0.010862142412431197,3.5027925828412854,15.208719212384072
goals: 15.199963527629786,64.3650729227815,-66.62831862308622,-0.010859076711031576,2.2703929531726557,15.208623515372585
state: 15.124855156987085,64.3685696215962,-69.2929410680571,-0.35174081760435083,3.3415377672413324,14.59724393058056
goals: 15.199988427749451,64.39086994757234,-65.46784782629359,-0.010857358067622542,1.084125135646078,15.20853169696468
goals: 15.200002318315939,64.39726675470122,-64.81750265906292,-0.0108569260785168,0.42738316352116,15.208480981361173
state: 15.124855156987085,64.3685696215962,-67.00662575362882,-0.35174081760435083,1.231092861615228,14.59724393058056
goals: 15.200008753699802,64.39832319279398,-64.51550252715226,-0.010856851545749249,0.12432659454621856,15.208457605158625
goals: 15.200022680820078,64.3965295986395,-63.86044598919824,-0.010856958915613873,-0.5289363470419998,15.208407271108776
state: 15.124855156987085,64.3685696215962,-66.4790145272223,-0.35174081760435083,0.35174081760435083,14.59724393058056
goals: 15.200046830685515,64.38041825456783,-62.719902993840265,-0.0108580014335937,-1.6533679945395685,15.208320801148622
goals: 15.200062418567777,64.361444818422,-61.98070010347818,-0.010859239469484356,-2.3735974463402902,15.208265519047368
state: 15.124855156987085,64.19269921279403,-63.84095839518968,-0.35174081760435083,-1.7587040880217542,14.59724393058056
goals: 15.200061911707849,64.36219507205686,-62.00562112683525,-0.01085918832865167,-2.3494266767008334,15.208267390935093
goals: 15.200043664446031,64.3836006177607,-62.87699772160258,-0.010857774143330582,-1.4994556305030178,15.208332778542216
state: 15.124855156987085,64.19269921279403,-63.489217577585315,-0.35174081760435083,-2.286315314428281,14.59724393058056
goals: 15.20002305695091,64.39650998930145,-63.857116363641474,-0.01085691919244726,-0.5322463632806518,15.208407322359836
goals: 15.200015384397929,64.39820692828125,-64.22092041503313,-0.01085680560855111,-0.17013925209940264,15.208435270162543
state: 15.124855156987085,64.3685696215962,-63.489217577585315,-0.35174081760435083,-1.7587040880217542,14.59724393058056
goals: 15.20000654664141,64.39803908789654,-64.63920585348785,-0.010856814491678498,0.24831402531506983,15.208467595094767
goals: 15.19998363586093,64.38686101134964,-65.71962296863694,-0.01085754476227014,1.3399092132788142,15.208552068646945
state: 15.124855156987085,64.3685696215962,-63.489217577585315,-0.35174081760435083,-0.8793520440108771,14.59724393058056
goals: 15.199958076830075,64.35568112264518,-66.91795534956243,-0.010859591968461563,2.569421478678203,15.208647490529362
goals: 15.19993280658881,64.30489902163862,-68.09516268922367,-0.010862932786437709,3.7974109150911826,15.208743108935998
state: 15.124855156987085,64.19269921279403,-66.12727370961795,-0.35174081760435083,1.5828336792195785,14.421373521778381
goals: 15.199907743516206,64.23436471770786,-69.2549027264611,-0.010867580792820165,5.027685251965837,15.208839245058364
goals: 15.19988301294921,64.14452441711983,-70.39127071955932,-0.010873511688100424,6.25389354134092,15.208935426223675
state: 15.124855156987085,64.3685696215962,-68.41358902404623,-0.35174081760435083,4.396760220054386,14.59724393058056
goals: 15.199860783741789,64.04615312694659,-71.40563843834512,-0.010880018438175034,7.366632546359062,15.209023041096492
goals: 15.199852097119916,64.00308703601505,-71.80015220935998,-0.010882871078670421,7.804212406748116,15.209057586529159
state: 15.124855156987085,63.84095839518968,-70.69990433847451,-0.35174081760435083,6.683075534482665,14.59724393058056
goals: 15.703075004777538,63.930026227661386,-71.78068821909874,-0.010920261415642708,7.85775780204234,15.712288322393292
goals: 16.970118253234386,63.73921288438039,-71.69362789297178,-0.011013205617507377,7.961380630516861,16.979348247391766
state: 16.00420720099796,63.84095839518968,-71.05164515607888,-0.35174081760435083,7.210686760889191,15.124855156987085
goals: 18.429654469627884,63.500562817611545,-71.58445071843914,-0.01111857177260455,8.090702305511341,18.438904760902563
goals: 19.882805092523547,63.24277837486931,-71.46615593920838,-0.011221659867331363,8.230040107274757,19.892076768418256
state: 18.818133741832767,63.31334716878315,-71.05164515607888,-0.35174081760435083,7.386557169691368,16.707688836206664
goals: 21.32897945644092,62.966092832764716,-71.33876600519321,-0.011322442492035555,8.379183313010659,21.338273599286502
goals: 22.78372734130255,62.66733367956619,-71.20072177518661,-0.011421990188009514,8.539743676875618,22.79304529563884
state: 21.80793069146975,62.78573594237662,-71.05164515607888,-0.35174081760435083,7.738297987295717,18.46639292422842
goals: 24.24159933992673,62.347200246212054,-71.05223400920313,-0.011519898808867371,8.711233216868363,24.250942392947206
goals: 25.694261363677416,62.007378083067465,-70.89397030257892,-0.011615603831436089,8.892634898115718,25.703630672499877
state: 24.270116414700208,62.258124715970105,-71.05164515607888,-0.35174081760435083,8.090038804900068,20.576837829854522
goals: 27.14289693803506,61.6475892632309,-70.72568346790062,-0.011709192874621323,9.083979368912605,27.152293683798117
goals: 28.601486673997265,61.26402053725171,-70.54545168314148,-0.011801550510664595,9.287156554891997,28.61091232341382
state: 27.61165418194154,61.554643080761394,-71.05164515607888,-0.5276112264065262,8.617650031306594,23.39076437068933
goals: 30.049620261642605,60.86182033486807,-70.35555154122657,-0.011891378228999336,9.499296880552558,30.059075888158677
goals: 31.473372464564957,60.44539595589171,-70.15794741467859,-0.011977873675381336,9.717959019914677,31.48285881692775
state: 30.073839905171997,60.67529103675052,-70.87577474727668,-0.5276112264065262,8.793520440108772,26.20469091152414
goals: 32.773272768129665,60.046811112799254,-69.96786458949896,-0.012055264490226324,9.926315775246305,32.782788265824244
goals: 33.418462271549934,59.84274890637274,-69.86763299748083,-0.012093089058017311,10.030073976111959,33.42799232391144
state: 33.41537767241333,59.971809401541805,-70.52403392967234,-0.5276112264065262,9.321131666515297,29.01861745235894
goals: 33.41847167214126,59.90020976283149,-69.46010938066817,-0.012088736459171311,9.565089504926842,33.427950792630504
goals: 33.41849474610663,60.02900705051257,-68.45481099890921,-0.012078994892593857,8.430993840550123,33.42784978560898
state: 32.88776644600681,59.795938992739636,-70.17229311206799,-0.5276112264065262,9.672872484119647,30.073839905171997
goals: 33.41852013751809,60.15103408955564,-67.34056875650889,-0.012069784236316557,7.19472456458676,33.42774012276096
goals: 33.41854582248879,60.25398307611662,-66.20528142441479,-0.012062026602990638,5.956488251380645,33.427630722411735
state: 33.41537767241333,59.971809401541805,-68.5894594328484,-0.5276112264065262,7.562427578493542,30.425580722776346
goals: 33.418571810712066,60.33772379280229,-65.04859468674167,-0.012055723445788615,4.716060802442026,33.42752153880525
goals: 33.41859819246253,60.402289276248446,-63.86654037728719,-0.012050865440356141,3.469441014951425,33.427412195592595
state: 33.063636854808976,60.147679810343995,-65.95140330081578,-0.5276112264065262,5.451982672867437,30.601451131578518
goals: 33.41862475780004,60.447068400139216,-62.668646240154516,-0.0120474932634764,2.2267677592853463,33.4273035550436
goals: 33.41865015910829,60.47142432422916,-61.516445574440986,-0.012045651851672166,1.050211174522812,33.4272009975325
state: 33.41537767241333,60.32355021914617,-63.84095839518968,-0.5276112264065262,2.638056132032631,30.601451131578518
goals: 33.41866348261609,60.47715553746074,-60.90955008838125,-0.012045213017451624,0.4375844778446754,33.427147704960625
goals: 33.41867056923077,60.478262711786506,-60.58605900188346,-0.012045124775582212,0.11298621840257059,33.42711949664985
state: 33.23950726361115,60.147679810343995,-62.258124715970105,-0.5276112264065262,1.0552224528130525,30.601451131578518
goals: 33.41868551635433,60.476235519509615,-59.90221581281424,-0.012045264861441692,-0.5688297754949737,33.42706030713608
goals: 33.41871089485271,60.45947859215132,-58.73652126188995,-0.01204649856840878,-1.7177673942035865,33.42696074465093
state: 33.23950726361115,60.147679810343995,-60.49942062794834,-0.5276112264065262,-0.17587040880217542,30.601451131578518
goals: 33.418736889651804,60.42537399572505,-57.53679511235985,-0.012049030409849448,-2.883388942405069,33.42685994608665
