RAMEL-ESPOL/ARCHIE/manipulator_master/src/datos.txt
Joint0,Joint1,Joint2,Joint3,Joint4,Joint5 
state: 0.17587040880217542,-0.17587040880217542,-0.7034816352087017,0.0,-0.7034816352087017,0.35174081760435083
goals: 0.0,0.0,0.0,0.0,0.0,0.0
state: 0.17587040880217542,-0.17587040880217542,-0.7034816352087017,0.0,-0.7034816352087017,0.35174081760435083
goals: 0.0,0.0,0.0,0.0,0.0,0.0
goals: 0.0,0.0,0.0,0.0,0.0,0.0
state: 0.17587040880217542,-0.17587040880217542,-0.7034816352087017,0.0,-0.7034816352087017,0.35174081760435083
goals: 0.0,0.0,0.0,0.0,0.0,0.0
goals: 0.0,0.0,0.0,0.0,0.0,0.0
state: 0.17587040880217542,-0.17587040880217542,-0.7034816352087017,0.0,-0.7034816352087017,0.35174081760435083
goals: 0.0,0.0,0.0,0.0,0.0,0.0
goals: 0.0,0.0,0.0,0.0,0.0,0.0
state: 0.17587040880217542,-0.17587040880217542,-0.7034816352087017,-0.17587040880217542,-0.7034816352087017,0.35174081760435083
goals: 0.0,0.0,0.0,0.0,0.0,0.0
goals: 0.0,0.0,0.0,0.0,0.0,0.0
state: 0.17587040880217542,-0.17587040880217542,-0.7034816352087017,0.0,-0.7034816352087017,0.35174081760435083
goals: 0.0,0.0,0.0,0.0,0.0,0.0
goals: 0.0,0.0,0.0,0.0,0.0,0.0
state: 0.17587040880217542,-0.17587040880217542,-0.7034816352087017,0.0,-0.7034816352087017,0.35174081760435083
goals: 0.0,0.0,0.0,0.0,0.0,0.0
goals: 0.0,0.0,0.0,0.0,0.0,0.0
state: 0.17587040880217542,-0.17587040880217542,-0.7034816352087017,0.0,-0.7034816352087017,0.35174081760435083
goals: 0.0,0.0,0.0,0.0,0.0,0.0
goals: 0.0,0.0,0.0,0.0,0.0,0.0
state: 0.17587040880217542,-0.17587040880217542,-0.7034816352087017,0.0,-0.7034816352087017,0.35174081760435083
goals: 0.0,0.0,0.0,0.0,0.0,0.0
goals: 0.0,0.0,0.0,0.0,0.0,0.0
state: 0.17587040880217542,-0.17587040880217542,-0.7034816352087017,0.0,-0.7034816352087017,0.35174081760435083
goals: 0.0,0.0,0.0,0.0,0.0,0.0
goals: 0.0,0.0,0.0,0.0,0.0,0.0
state: 0.0,-0.17587040880217542,-0.7034816352087017,0.0,-0.7034816352087017,0.35174081760435083
goals: 0.0,0.0,0.0,0.0,0.0,0.0
goals: 0.0,0.0,0.0,0.0,0.0,0.0
state: 0.0,-0.17587040880217542,-0.7034816352087017,0.0,-0.7034816352087017,0.35174081760435083
goals: 0.0,0.0,0.0,0.0,0.0,0.0
goals: 0.0,0.0,0.0,0.0,0.0,0.0
state: 0.17587040880217542,-0.17587040880217542,-0.7034816352087017,0.0,-0.7034816352087017,0.35174081760435083
goals: 0.0,0.0,0.0,0.0,0.0,0.0
goals: 0.0,0.0,0.0,0.0,0.0,0.0
state: 0.17587040880217542,-0.17587040880217542,-0.7034816352087017,0.0,-0.7034816352087017,0.35174081760435083
goals: 0.0,0.0,0.0,0.0,0.0,0.0
goals: 0.0,0.0,0.0,0.0,0.0,0.0
state: 0.0,-0.17587040880217542,-0.7034816352087017,-0.17587040880217542,-0.7034816352087017,0.35174081760435083
goals: 0.0,0.0,0.0,0.0,0.0,0.0
goals: 0.0,0.0,0.0,0.0,0.0,0.0
state: 0.17587040880217542,-0.17587040880217542,-0.7034816352087017,0.0,-0.7034816352087017,0.35174081760435083
goals: 0.0,0.0,0.0,0.0,0.0,0.0
goals: 0.0,0.0,0.0,0.0,0.0,0.0
state: 0.0,-0.17587040880217542,-0.7034816352087017,0.0,-0.7034816352087017,0.35174081760435083
goals: 0.0,0.0,0.0,0.0,0.0,0.0
goals: 0.0,0.0,0.0,0.0,0.0,0.0
state: 0.0,-0.17587040880217542,-0.7034816352087017,0.0,-0.7034816352087017,0.35174081760435083
goals: 0.0,0.0,0.0,0.0,0.0,0.0
goals: -3.8301303585399845e-05,3.4649274355594775e-05,-4.830253875571351e-06,-2.0639758293416455e-05,-4.403044220259936e-05,3.827622428842571e-05
state: 0.0,-0.17587040880217542,-0.7034816352087017,0.0,-0.7034816352087017,0.35174081760435083
goals: -0.00915285433126483,0.008280129686804714,-0.00115428473622461,-0.00493227862782634,-0.010521945362068286,0.009146861137027383
goals: -0.00915285433126483,0.008280129686804714,-0.00115428473622461,-0.00493227862782634,-0.010521945362068286,0.009146861137027383
state: 0.0,-0.17587040880217542,-0.7034816352087017,0.0,-0.7034816352087017,0.35174081760435083
goals: -0.00915285433126483,0.008280129686804714,-0.00115428473622461,-0.00493227862782634,-0.010521945362068286,0.009146861137027383
goals: -0.00915285433126483,0.008280129686804714,-0.00115428473622461,-0.00493227862782634,-0.010521945362068286,0.009146861137027383
state: 0.0,-0.17587040880217542,-0.7034816352087017,0.0,-0.7034816352087017,0.35174081760435083
goals: -0.00915285433126483,0.008280129686804714,-0.00115428473622461,-0.00493227862782634,-0.010521945362068286,0.009146861137027383
goals: -0.00915285433126483,0.008280129686804714,-0.00115428473622461,-0.00493227862782634,-0.010521945362068286,0.009146861137027383
state: 0.0,-0.17587040880217542,-0.7034816352087017,0.0,-0.7034816352087017,0.35174081760435083
goals: -0.00915285433126483,0.008280129686804714,-0.00115428473622461,-0.00493227862782634,-0.010521945362068286,0.009146861137027383
goals: -0.00915285433126483,0.008280129686804714,-0.00115428473622461,-0.00493227862782634,-0.010521945362068286,0.009146861137027383
state: 0.0,-0.17587040880217542,-0.7034816352087017,0.0,-0.7034816352087017,0.35174081760435083
goals: -0.00915285433126483,0.008280129686804714,-0.00115428473622461,-0.00493227862782634,-0.010521945362068286,0.009146861137027383
goals: -0.00915285433126483,0.008280129686804714,-0.00115428473622461,-0.00493227862782634,-0.010521945362068286,0.009146861137027383
state: 0.0,-0.17587040880217542,-0.7034816352087017,0.0,-0.7034816352087017,0.35174081760435083
goals: -0.00915285433126483,0.008280129686804714,-0.00115428473622461,-0.00493227862782634,-0.010521945362068286,0.009146861137027383
goals: -0.00915285433126483,0.008280129686804714,-0.00115428473622461,-0.00493227862782634,-0.010521945362068286,0.009146861137027383
state: 0.17587040880217542,-0.17587040880217542,-0.7034816352087017,0.0,-0.7034816352087017,0.35174081760435083
goals: -0.00915285433126483,0.008280129686804714,-0.00115428473622461,-0.00493227862782634,-0.010521945362068286,0.009146861137027383
goals: -0.00915285433126483,0.008280129686804714,-0.00115428473622461,-0.00493227862782634,-0.010521945362068286,0.009146861137027383
state: 0.0,-0.17587040880217542,-0.7034816352087017,0.0,-0.7034816352087017,0.35174081760435083
goals: -0.00915285433126483,0.008280129686804714,-0.00115428473622461,-0.00493227862782634,-0.010521945362068286,0.009146861137027383
goals: -0.00915285433126483,0.008280129686804714,-0.00115428473622461,-0.00493227862782634,-0.010521945362068286,0.009146861137027383
state: 0.0,-0.17587040880217542,-0.5276112264065262,0.0,-0.7034816352087017,0.35174081760435083
goals: -0.00915285433126483,0.008280129686804714,-0.00115428473622461,-0.00493227862782634,-0.010521945362068286,0.009146861137027383
goals: -0.00915285433126483,0.008280129686804714,-0.00115428473622461,-0.00493227862782634,-0.010521945362068286,0.009146861137027383
state: 0.0,-0.17587040880217542,-0.5276112264065262,0.0,-0.7034816352087017,0.35174081760435083
goals: -0.00915285433126483,0.008280129686804714,-0.00115428473622461,-0.00493227862782634,-0.010521945362068286,0.009146861137027383
goals: -0.00915285433126483,0.008280129686804714,-0.00115428473622461,-0.00493227862782634,-0.010521945362068286,0.009146861137027383
state: 0.0,-0.17587040880217542,-0.5276112264065262,0.0,-0.7034816352087017,0.35174081760435083
goals: -0.00915285433126483,0.008280129686804714,-0.00115428473622461,-0.00493227862782634,-0.010521945362068286,0.009146861137027383
goals: -0.00915285433126483,0.008280129686804714,-0.00115428473622461,-0.00493227862782634,-0.010521945362068286,0.009146861137027383
state: 0.0,-0.17587040880217542,-0.5276112264065262,0.0,-0.7034816352087017,0.35174081760435083
goals: -0.00915285433126483,0.008280129686804714,-0.00115428473622461,-0.00493227862782634,-0.010521945362068286,0.009146861137027383
goals: -0.00915285433126483,0.008280129686804714,-0.00115428473622461,-0.00493227862782634,-0.010521945362068286,0.009146861137027383
state: 0.0,-0.17587040880217542,-0.5276112264065262,-0.17587040880217542,-0.7034816352087017,0.35174081760435083
goals: -0.00915285433126483,0.008280129686804714,-0.00115428473622461,-0.00493227862782634,-0.010521945362068286,0.009146861137027383
goals: -0.00915285433126483,0.008280129686804714,-0.00115428473622461,-0.00493227862782634,-0.010521945362068286,0.009146861137027383
state: 0.0,-0.17587040880217542,-0.5276112264065262,0.0,-0.7034816352087017,0.35174081760435083
goals: -0.00915285433126483,0.008280129686804714,-0.00115428473622461,-0.00493227862782634,-0.010521945362068286,0.009146861137027383
goals: -0.00915285433126483,0.008280129686804714,-0.00115428473622461,-0.00493227862782634,-0.010521945362068286,0.009146861137027383
state: 0.0,-0.17587040880217542,-0.35174081760435083,0.0,-0.7034816352087017,0.35174081760435083
goals: -0.00915285433126483,0.008280129686804714,-0.00115428473622461,-0.00493227862782634,-0.010521945362068286,0.009146861137027383
goals: -0.00915285433126483,0.008280129686804714,-0.00115428473622461,-0.00493227862782634,-0.010521945362068286,0.009146861137027383
state: 0.0,-0.17587040880217542,-0.35174081760435083,-0.17587040880217542,-0.7034816352087017,0.35174081760435083
goals: -0.00915285433126483,0.008280129686804714,-0.00115428473622461,-0.00493227862782634,-0.010521945362068286,0.009146861137027383
goals: -0.00915285433126483,0.008280129686804714,-0.00115428473622461,-0.00493227862782634,-0.010521945362068286,0.009146861137027383
state: 0.0,-0.17587040880217542,-0.35174081760435083,0.0,-0.7034816352087017,0.35174081760435083
goals: -0.00915285433126483,0.008280129686804714,-0.00115428473622461,-0.00493227862782634,-0.010521945362068286,0.009146861137027383
goals: -0.00915285433126483,0.008280129686804714,-0.00115428473622461,-0.00493227862782634,-0.010521945362068286,0.009146861137027383
state: 0.0,-0.17587040880217542,-0.35174081760435083,0.0,-0.7034816352087017,0.35174081760435083
goals: -0.00915285433126483,0.008280129686804714,-0.00115428473622461,-0.00493227862782634,-0.010521945362068286,0.009146861137027383
goals: -0.00915285433126483,0.008280129686804714,-0.00115428473622461,-0.00493227862782634,-0.010521945362068286,0.009146861137027383
state: 0.0,-0.17587040880217542,-0.35174081760435083,-0.17587040880217542,-0.7034816352087017,0.35174081760435083
goals: -0.00915285433126483,0.008280129686804714,-0.00115428473622461,-0.00493227862782634,-0.010521945362068286,0.009146861137027383
goals: -0.00915285433126483,0.008280129686804714,-0.00115428473622461,-0.00493227862782634,-0.010521945362068286,0.009146861137027383
state: 0.0,-0.17587040880217542,-0.35174081760435083,0.0,-0.7034816352087017,0.35174081760435083
goals: -0.00915285433126483,0.008280129686804714,-0.00115428473622461,-0.00493227862782634,-0.010521945362068286,0.009146861137027383
goals: -0.00915285433126483,0.008280129686804714,-0.00115428473622461,-0.00493227862782634,-0.010521945362068286,0.009146861137027383
state: 0.0,-0.17587040880217542,-0.35174081760435083,0.0,-0.7034816352087017,0.35174081760435083
goals: -0.00915285433126483,0.008280129686804714,-0.00115428473622461,-0.00493227862782634,-0.010521945362068286,0.009146861137027383
goals: -0.00915285433126483,0.008280129686804714,-0.00115428473622461,-0.00493227862782634,-0.010521945362068286,0.009146861137027383
state: 0.0,-0.17587040880217542,-0.35174081760435083,0.0,-0.7034816352087017,0.35174081760435083
goals: -0.00915285433126483,0.008280129686804714,-0.00115428473622461,-0.00493227862782634,-0.010521945362068286,0.009146861137027383
goals: -0.00915285433126483,0.008280129686804714,-0.00115428473622461,-0.00493227862782634,-0.010521945362068286,0.009146861137027383
state: 0.0,-0.17587040880217542,-0.35174081760435083,0.0,-0.7034816352087017,0.35174081760435083
goals: -0.00915285433126483,0.008280129686804714,-0.00115428473622461,-0.00493227862782634,-0.010521945362068286,0.009146861137027383
goals: -0.00915285433126483,0.008280129686804714,-0.00115428473622461,-0.00493227862782634,-0.010521945362068286,0.009146861137027383
state: 0.0,-0.17587040880217542,-0.35174081760435083,0.0,-0.7034816352087017,0.35174081760435083
goals: -0.00915285433126483,0.008280129686804714,-0.00115428473622461,-0.00493227862782634,-0.010521945362068286,0.009146861137027383
goals: -0.00915285433126483,0.008280129686804714,-0.00115428473622461,-0.00493227862782634,-0.010521945362068286,0.009146861137027383
state: 0.0,-0.17587040880217542,-0.35174081760435083,0.0,-0.7034816352087017,0.35174081760435083
goals: -0.00915285433126483,0.008280129686804714,-0.00115428473622461,-0.00493227862782634,-0.010521945362068286,0.009146861137027383
goals: -0.00915285433126483,0.008280129686804714,-0.00115428473622461,-0.00493227862782634,-0.010521945362068286,0.009146861137027383
state: 0.0,-0.17587040880217542,-0.17587040880217542,0.0,-0.7034816352087017,0.35174081760435083
goals: -0.00915285433126483,0.008280129686804714,-0.00115428473622461,-0.00493227862782634,-0.010521945362068286,0.009146861137027383
goals: -0.00915285433126483,0.008280129686804714,-0.00115428473622461,-0.00493227862782634,-0.010521945362068286,0.009146861137027383
state: -0.17587040880217542,-0.17587040880217542,-0.35174081760435083,0.0,-0.7034816352087017,0.35174081760435083
goals: -0.00915285433126483,0.008280129686804714,-0.00115428473622461,-0.00493227862782634,-0.010521945362068286,0.009146861137027383
goals: -0.00915285433126483,0.008280129686804714,-0.00115428473622461,-0.00493227862782634,-0.010521945362068286,0.009146861137027383
state: -0.17587040880217542,-0.17587040880217542,-0.35174081760435083,0.0,-0.7034816352087017,0.35174081760435083
goals: -0.00915285433126483,0.008280129686804714,-0.00115428473622461,-0.00493227862782634,-0.010521945362068286,0.009146861137027383
goals: -0.00915285433126483,0.008280129686804714,-0.00115428473622461,-0.00493227862782634,-0.010521945362068286,0.009146861137027383
state: -0.17587040880217542,-0.17587040880217542,-0.35174081760435083,0.0,-0.7034816352087017,0.35174081760435083
goals: -0.00915285433126483,0.008280129686804714,-0.00115428473622461,-0.00493227862782634,-0.010521945362068286,0.009146861137027383
goals: -0.00915285433126483,0.008280129686804714,-0.00115428473622461,-0.00493227862782634,-0.010521945362068286,0.009146861137027383
state: -0.17587040880217542,-0.17587040880217542,-0.35174081760435083,0.0,-0.7034816352087017,0.35174081760435083
goals: -0.00915285433126483,0.008280129686804714,-0.00115428473622461,-0.00493227862782634,-0.010521945362068286,0.009146861137027383
goals: -0.00915285433126483,0.008280129686804714,-0.00115428473622461,-0.00493227862782634,-0.010521945362068286,0.009146861137027383
state: -0.17587040880217542,-0.17587040880217542,-0.35174081760435083,0.0,-0.7034816352087017,0.35174081760435083
goals: -0.00915285433126483,0.008280129686804714,-0.00115428473622461,-0.00493227862782634,-0.010521945362068286,0.009146861137027383
goals: -0.00915285433126483,0.008280129686804714,-0.00115428473622461,-0.00493227862782634,-0.010521945362068286,0.009146861137027383
state: -0.35174081760435083,-0.17587040880217542,-0.35174081760435083,0.0,-0.7034816352087017,0.35174081760435083
goals: -0.00915285433126483,0.008280129686804714,-0.00115428473622461,-0.00493227862782634,-0.010521945362068286,0.009146861137027383
goals: -0.00915285433126483,0.008280129686804714,-0.00115428473622461,-0.00493227862782634,-0.010521945362068286,0.009146861137027383
state: -0.35174081760435083,-0.17587040880217542,-0.35174081760435083,0.0,-0.7034816352087017,0.35174081760435083
goals: -0.00915285433126483,0.008280129686804714,-0.00115428473622461,-0.00493227862782634,-0.010521945362068286,0.009146861137027383
goals: -0.00915285433126483,0.008280129686804714,-0.00115428473622461,-0.00493227862782634,-0.010521945362068286,0.009146861137027383
state: -0.35174081760435083,-0.17587040880217542,-0.35174081760435083,0.0,-0.7034816352087017,0.35174081760435083
goals: -0.00915285433126483,0.008280129686804714,-0.00115428473622461,-0.00493227862782634,-0.010521945362068286,0.009146861137027383
goals: -0.00915285433126483,0.008280129686804714,-0.00115428473622461,-0.00493227862782634,-0.010521945362068286,0.009146861137027383
state: -0.35174081760435083,-0.17587040880217542,-0.35174081760435083,0.0,-0.7034816352087017,0.35174081760435083
goals: -0.00915285433126483,0.008280129686804714,-0.00115428473622461,-0.00493227862782634,-0.010521945362068286,0.009146861137027383
goals: -0.00915285433126483,0.008280129686804714,-0.00115428473622461,-0.00493227862782634,-0.010521945362068286,0.009146861137027383
state: -0.35174081760435083,-0.17587040880217542,-0.35174081760435083,0.0,-0.7034816352087017,0.35174081760435083
goals: -0.00915285433126483,0.008280129686804714,-0.00115428473622461,-0.00493227862782634,-0.010521945362068286,0.009146861137027383
goals: -0.00915285433126483,0.008280129686804714,-0.00115428473622461,-0.00493227862782634,-0.010521945362068286,0.009146861137027383
state: -0.35174081760435083,-0.17587040880217542,-0.35174081760435083,0.0,-0.7034816352087017,0.35174081760435083
goals: -0.00915285433126483,0.008280129686804714,-0.00115428473622461,-0.00493227862782634,-0.010521945362068286,0.009146861137027383
goals: -0.00915285433126483,0.008280129686804714,-0.00115428473622461,-0.00493227862782634,-0.010521945362068286,0.009146861137027383
state: -0.35174081760435083,-0.17587040880217542,-0.35174081760435083,0.0,-0.7034816352087017,0.35174081760435083
goals: -0.00915285433126483,0.008280129686804714,-0.00115428473622461,-0.00493227862782634,-0.010521945362068286,0.009146861137027383
goals: -0.00915285433126483,0.008280129686804714,-0.00115428473622461,-0.00493227862782634,-0.010521945362068286,0.009146861137027383
state: -0.35174081760435083,-0.17587040880217542,-0.35174081760435083,0.0,-0.7034816352087017,0.35174081760435083
goals: -0.00915285433126483,0.008280129686804714,-0.00115428473622461,-0.00493227862782634,-0.010521945362068286,0.009146861137027383
goals: -0.00915285433126483,0.008280129686804714,-0.00115428473622461,-0.00493227862782634,-0.010521945362068286,0.009146861137027383
state: -0.35174081760435083,-0.17587040880217542,-0.35174081760435083,0.0,-0.7034816352087017,0.35174081760435083
goals: -0.00915285433126483,0.008280129686804714,-0.00115428473622461,-0.00493227862782634,-0.010521945362068286,0.009146861137027383
goals: -0.00915285433126483,0.008280129686804714,-0.00115428473622461,-0.00493227862782634,-0.010521945362068286,0.009146861137027383
state: -0.35174081760435083,-0.17587040880217542,-0.35174081760435083,0.0,-0.7034816352087017,0.35174081760435083
goals: -0.00910227297335724,0.008184275261983514,-0.001068548087643477,-0.004932277700022594,-0.010511830133233134,0.009197442967401681
goals: 0.2579723995099563,-0.4999523413618207,0.4543961186449989,-0.004927364421695129,0.04214667465062395,0.276274572909971
state: -0.17587040880217542,-0.17587040880217542,0.35174081760435083,0.0,-0.7034816352087017,0.35174081760435083
goals: 0.8352288761851585,-1.6122323580851716,1.4581274460927096,-0.004916641415763723,0.15066634294300427,0.8535360989731482
goals: 1.4371189263587623,-2.792808800368119,2.533624335858141,-0.004905309568671953,0.2557156939787698,1.4554310156471149
state: -0.17587040880217542,-2.286315314428281,3.165667358439157,0.0,-0.7034816352087017,0.35174081760435083
goals: 2.0267116754702426,-3.970485848229335,3.6168897579378347,-0.004894058710667394,0.3500977934675995,2.045028116158853
goals: 2.606185050819853,-5.149021271744739,4.7113627024959985,-0.004882855034847927,0.43413130972722297,2.6245053457683527
state: 0.35174081760435083,-4.924371446460912,5.451982672867437,0.0,-0.7034816352087017,1.9345744968239293
goals: 3.178081191714084,-6.333237697362059,5.821617773553046,-0.004871655324300537,0.508064136269769,3.19640485817741
goals: 3.738837655426863,-7.515340178297022,6.94040184078896,-0.004860535656921474,0.5713546323001636,3.7571641890529026
state: 1.7587040880217542,-7.210686760889191,7.738297987295717,0.0,-0.7034816352087017,3.165667358439157
goals: 4.297250908025955,-8.713743501001323,8.085340726140439,-0.00484932599051129,0.6247913231026447,4.315579843029237
goals: 4.8403612460658145,-9.900254627139613,9.229563951959,-0.004838292416355417,0.6670522900053854,4.858692060320959
state: 3.165667358439157,-9.672872484119647,9.848742892921823,0.0,-0.7034816352087017,4.22088981125221
goals: 5.378523420097252,-11.096954981676593,10.394347431025537,-0.004827231472696988,0.6989425293604165,5.396855630528613
goals: 5.900614646526153,-12.278506091712005,11.554965802262121,-0.004816378899870769,0.7198494774160054,5.91894774652307
state: 4.572630628856562,-11.95918779854793,12.135058207350104,0.0,-0.7034816352087017,5.1002418552630875
goals: 6.419936711485743,-13.474522879403933,12.740502100455581,-0.004805464591284155,0.7303043622986786,6.438270220187028
goals: 6.930066088129427,-14.670122692449418,13.936394448403826,-0.0047946275888274366,0.7299867244306504,6.948399513942156
state: 5.803723490471789,-14.59724393058056,14.59724393058056,0.0,-0.7034816352087017,6.15546430807614
goals: 7.434391749313608,-15.872971336797464,15.150403201035571,-0.004783801045803404,0.7188018464350564,7.45272459898396
goals: 7.928856193233662,-17.07306058235085,16.37248681286454,-0.004773077484444868,0.6967832412459053,7.947187978658854
state: 7.210686760889191,-17.059429653811016,16.88355924500884,0.0,-0.7034816352087017,7.210686760889191
goals: 8.417104711933252,-18.27887088459356,17.61131842851181,-0.004762383460753119,0.6637380392245898,8.43543493884817
goals: 8.896261313684338,-19.482969749024544,18.85931282503161,-0.004751787365956497,0.6198191078249498,8.914589498145508
state: 8.090038804900068,-19.345744968239295,19.52161537704147,0.0,-0.7034816352087017,7.914168396097894
goals: 9.370372207410274,-20.69526570047693,20.12682426947325,-0.004741204810464499,0.5645805056903139,9.388697847883638
goals: 9.834940213176854,-21.903954119641103,21.40156572318421,-0.0047307414788084114,0.49850486974105357,9.853262833382008
state: 9.321131666515297,-21.80793069146975,22.1596715090741,0.0,-0.7034816352087017,8.969390848910946
goals: 10.292923142400724,-23.116315420708588,22.69120949520475,-0.0047203365685260295,0.4212001593962701,10.311242251014347
goals: 10.74339399753325,-24.32960403554455,23.992888621710023,-0.004710016412852348,0.332787813797617,10.76170911167904
state: 10.200483710526175,-24.44598682350238,24.44598682350238,0.0,-0.7034816352087017,10.200483710526175
goals: 11.186977169880757,-25.545181975148058,25.30809930012068,-0.004699772122602555,0.23313361465815555,11.205287803473848
goals: 11.622763118982975,-26.76020130719108,26.633771650707466,-0.0046896302655955015,0.12245955173444227,11.641068798676724
state: 11.255706163339227,-26.90817254673284,27.435783773139363,0.0,-0.7034816352087017,11.07983575453705
goals: 12.053907893480524,-27.98326080227878,27.979377438013362,-0.004679522427399741,-0.00010752266549712252,12.072208109714602
goals: 12.476760456095414,-29.203757755355753,29.333313557462464,-0.004669539435956037,-0.1335670344441395,12.495054746671967
state: 11.95918779854793,-29.01861745235894,29.722099087567646,0.0,-0.7034816352087017,11.607446980943578
goals: 12.893051887373973,-30.426289623253997,30.700657816795825,-0.004659646204986808,-0.27839941946655394,12.911339771309175
goals: 13.304469502661352,-31.655660956738952,32.0868888249568,-0.004649807689327742,-0.4352788181692298,13.322750471905007
state: 13.01441025136098,-31.656673584391577,32.711896037204625,0.0,-0.7034816352087017,12.662669433756628
goals: 13.707725987062862,-32.88176770931164,33.48064567480281,-0.004640107983313543,-0.6029482137320387,13.725999591510108
goals: 14.09741092539758,-34.087172398694676,34.86176107438754,-0.004630684466071071,-0.7786775400877103,14.115676836451886
state: 13.89376229537186,-34.11885930762203,35.17408176043509,-0.17587040880217542,-0.7034816352087017,13.542021477767507
goals: 14.478687303904852,-35.28681410214579,36.24697569434194,-0.004621419383167616,-0.9642686397758097,14.496945115458566
goals: 14.850519901563835,-36.476708715793116,37.63146447900762,-0.004612344050057276,-1.1588805136121914,14.868769245776297
state: 14.421373521778381,-36.40517462205031,37.988008301269886,0.0,-1.0552224528130525,14.245503112976209
goals: 15.212166770726894,-37.65358207904411,39.011096244810304,-0.004603482862844419,-1.3616561054592005,15.230407318241928
goals: 15.565739606994349,-38.8234978965072,40.39269958274034,-0.004594789975109716,-1.5733604040378777,15.583970996429278
state: 15.300725565789259,-38.86736034528077,40.8019348421047,-0.17587040880217542,-1.231092861615228,14.948984748184909
goals: 15.911815088750224,-39.987747790666745,41.777614187816305,-0.004586256620345407,-1.7940415108885719,15.930036957911199
goals: 16.249717686464265,-41.14342031793732,43.162174866223246,-0.004577904740429844,-2.022945645400929,16.26792970679003
state: 15.828336792195788,-41.153675659709045,43.6158613829395,0.0,-1.231092861615228,15.652466383393612
goals: 16.578546056996828,-42.28663208691383,44.54143886655833,-0.004569761869823005,-2.259013406728458,16.596747946271794
goals: 16.897626921739818,-43.41408911534923,45.91105830421697,-0.004561849783216292,-2.5011908626360415,16.9158184433888
state: 16.531818427404488,-43.6158613829395,46.078047106169954,0.0,-1.4069632704174033,16.355948018602312
goals: 17.120691626874702,-44.21322033341325,46.887450621002685,-0.004556314529802919,-2.6784624667984005,17.138875575010346
goals: 17.247334274819014,-44.671025061371225,47.448900780641154,-0.004553171130620196,-2.7821138578809097,17.265513800485337
state: 16.88355924500884,-44.49521342695038,46.95739915018084,0.0,-1.7587040880217542,16.707688836206664
goals: 17.417514713165133,-45.290991825204976,48.21165744058478,-0.004548946771751437,-2.9249117564788936,17.435688152863175
goals: 17.484446999650267,-45.53634733673446,48.51429489672869,-0.00454728537076408,-2.982196846703522,17.50261800003509
state: 17.059429653811016,-45.37456547096125,48.188492011796065,-0.17587040880217542,-1.9345744968239293,16.88355924500884
goals: 17.50159888763306,-45.59469174921649,48.43495831160508,-0.004546690572841917,-2.8445166552142878,17.519775867314195
goals: 17.50159366319057,-45.572093560535485,47.51171409232453,-0.00454587142070324,-1.943870625501163,17.519809673639102
state: 17.235300062613188,-45.550435879763434,48.188492011796065,0.0,-1.9345744968239293,16.88355924500884
goals: 17.501587347395095,-45.55610195569341,46.402850475801316,-0.0045452892685657435,-0.8509986148963729,17.51985070536171
goals: 17.501584695578302,-45.553117895977344,45.93967054323925,-0.0045451791793162,-0.3908027425038992,17.51986798849666
state: 17.235300062613188,-45.550435879763434,47.66088078538953,-0.17587040880217542,-1.5828336792195785,16.88355924500884
goals: 17.501582723240425,-45.55234008581125,45.59610348776834,-0.004545149205236349,-0.048013497537010286,17.519880864835613
goals: 17.501577835313952,-45.55574147968662,44.748119436992326,-0.004545266789338262,0.8033719462745079,17.519912856904686
state: 17.411170471415367,-45.550435879763434,46.078047106169954,-0.17587040880217542,-1.0552224528130525,16.88355924500884
goals: 17.501570895574815,-45.57373282334193,43.552764925272335,-0.004545907709556237,2.0167178004513824,17.519958483903647
goals: 17.50156406257397,-45.60671878292453,42.38583773798242,-0.004547089036983129,3.2166309461368088,17.52000365472178
state: 17.93878169782189,-45.7263062885656,43.439990974137324,0.0,1.5828336792195785,16.88355924500884
goals: 17.501557310076535,-45.65439417437316,41.24265525322443,-0.0045488003829134635,4.407488821163113,17.5200485436051
goals: 17.50155055210849,-45.71730403445035,40.10870161074335,-0.004551062230594939,5.6043523225325105,17.520093728889773
state: 17.93878169782189,-45.7263062885656,40.977805250906876,0.0,3.8691489936478587,16.88355924500884
goals: 17.50154385742182,-45.79480007806958,38.9955862934599,-0.004553852484590106,6.794963682249748,17.520138758595323
goals: 17.50153717891467,-45.887341120537194,37.895497435921655,-0.004557189153952039,7.987593581064996,17.520183955957002
state: 17.93878169782189,-45.7263062885656,38.69148993647859,-0.17587040880217542,6.50720512568049,16.88355924500884
goals: 17.501530562244756,-45.99420799721422,36.815973445100724,-0.0045610480696411625,9.173984447375123,17.52022901836897
goals: 17.501523923677635,-46.11679383666643,35.74345710228516,-0.0045654816461487505,10.369086628442581,17.520274524991123
state: 17.93878169782189,-46.25391751497214,36.58104503085249,0.0,8.793520440108772,16.88355924500884
goals: 17.501517376783468,-46.252934581487686,34.69632534078208,-0.004570413948932518,11.552359133574484,17.52031970415044
goals: 17.501510912196515,-46.402387713424496,33.67284965328234,-0.004575838571545155,12.725287951824734,17.520364619898473
state: 18.114652106624067,-46.25391751497214,34.470600125226376,0.0,11.255706163339227,16.88355924500884
goals: 17.50150442002523,-46.56767083740437,32.65568864638156,-0.004581849778238477,13.90773208150485,17.520410043489534
goals: 17.5014979830511,-46.74674128774916,31.65792981263933,-0.004588376499711289,15.084561364392167,17.520455405350422
state: 18.114652106624067,-46.60565833257648,32.00841440199592,-0.17587040880217542,13.190280660163156,16.88355924500884
goals: 17.501491533011926,-46.941511160392196,30.669074125251736,-0.004595491938664086,16.268186923210862,17.520501195281827
goals: 17.501485289580582,-47.14481589440885,29.722490209863487,-0.00460293744286953,17.41807557143306,17.520545850335143
state: 18.114652106624067,-46.95739915018084,30.24971031397417,-0.17587040880217542,15.652466383393612,16.88355924500884
goals: 17.50148175734155,-47.26632983879467,29.19164116341974,-0.00460739646038078,18.070438561589203,17.520571263021914
goals: 17.501478254697524,-47.391491367868646,28.66862009860203,-0.004611996269678523,18.718621154809917,17.520596571659475
state: 17.93878169782189,-47.48501037658736,29.370358269963294,0.0,17.235300062613188,16.88355924500884
goals: 17.501476267168716,-47.46458874295724,28.37334747542984,-0.004614685927125664,19.086991152688565,17.520610981718118
goals: 17.54067055341933,-47.501496765805356,28.279145706783478,-0.004614630986422058,19.218099102589107,17.55981093727803
state: 17.93878169782189,-47.48501037658736,28.842747043556763,0.0,17.411170471415367,16.88355924500884
goals: 18.245085263849624,-47.6859462994494,28.510206828421268,-0.00459574846764624,19.17145447889399,18.26422048525527
goals: 19.230091192823345,-47.956690807399724,28.849814689928117,-0.004568978778473811,19.10254512005753,19.249219001733415
state: 18.114652106624067,-48.01262160299389,28.842747043556763,0.0,17.411170471415367,17.93878169782189
goals: 20.218086874127128,-48.24339455959637,29.210016936079064,-0.00454170133743282,19.029000706392097,20.237207020148134
goals: 21.203785777005148,-48.544675603662824,29.58917120162052,-0.004514063713263535,18.951081900105105,21.22289804925649
state: 19.52161537704147,-48.540232829400416,28.842747043556763,0.0,17.411170471415367,19.873356194645822
goals: 22.192399525576764,-48.862287339326514,29.989584116952873,-0.0044859214768158745,18.868235233112642,22.211503669937215
goals: 23.17492040369301,-49.19341539976822,30.40780871922819,-0.004457535194056591,18.781093718124005,23.19401623969647
state: 22.511412326678453,-49.06784405580694,29.01861745235894,0.0,17.411170471415367,21.632060282667577
goals: 24.162981145005677,-49.54213157121526,30.84909822900494,-0.004428571299102935,18.688475391488943,24.182068392358158
goals: 25.14796045082806,-49.90562500515784,31.310015545873362,-0.004399283175647479,18.59100690185009,25.167038901533818
state: 24.094246005898032,-49.94719609981782,29.897969496369818,0.0,17.411170471415367,23.566634779491505
goals: 25.91948850483134,-50.20152950988839,31.68592699858783,-0.004376054330779308,18.51096518411369,25.93855990021953
goals: 26.002660805743208,-50.177584866699284,31.961348992187727,-0.004371571969752972,18.21159480843113,26.02171912594573
state: 26.02882050272196,-50.29893691742217,30.601451131578518,0.0,17.587040880217543,25.149468458711084
goals: 26.002666029119226,-49.986399336037444,32.791026739497426,-0.004364930029894695,17.19073153143244,26.02168118904215
goals: 26.00267208519197,-49.7792017016997,33.76360493940054,-0.004357748282784437,16.01095569831095,26.021637510425133
state: 26.02882050272196,-50.29893691742217,32.88776644600681,0.0,16.707688836206664,25.325338867513256
goals: 26.002678162674787,-49.58674126667853,34.75092505078304,-0.0043510926086331786,14.831175153021732,26.021593996865402
goals: 26.00268427151641,-49.408746806761926,35.75456232801249,-0.004344950191682149,13.649543416987138,26.021550569915917
state: 26.20469091152414,-50.29893691742217,34.99821135163291,0.0,14.948984748184909,25.325338867513256
goals: 26.002690365776278,-49.24646313589523,36.766828750802695,-0.004339360729240916,12.474993324430619,26.0215075463461
goals: 26.002696522856347,-49.097850486952375,37.800523446986105,-0.00433425105858795,11.292685980407928,26.02146437226023
state: 26.20469091152414,-50.29893691742217,36.93278584845684,0.0,12.486799024954456,25.325338867513256
goals: 26.002702670027983,-48.96469788975031,38.8433877264193,-0.0043296800769315556,10.116669104866485,26.02142155055321
goals: 26.002708142090917,-48.858831703074564,39.78067426929376,-0.004326050512145399,9.073516376283608,26.021383660934855
state: 26.20469091152414,-50.12306650862,39.21910116288512,0.0,10.200483710526175,25.325338867513256
goals: 26.002709979167467,-48.82594297518379,40.09720568773153,-0.004324923767325372,8.7240962302785,26.021370987716026
goals: 26.002707613315067,-48.86806158789322,39.694201758473014,-0.004326362867170213,9.169218771835572,26.021387106953586
state: 26.20469091152414,-50.12306650862,39.39497157168729,0.0,9.145261257713123,25.325338867513256
goals: 26.002701782480653,-48.9811187296509,38.70746859078029,-0.004330229571580119,10.269009080268694,26.021426998756837
goals: 26.00269554089897,-49.11682959726613,37.6616927579255,-0.004334878578578003,11.450495779642443,26.021469964198396
state: 26.20469091152414,-50.12306650862,38.86736034528077,-0.17587040880217542,10.200483710526175,25.325338867513256
goals: 26.00268934326897,-49.26677049510265,36.634171200666785,-0.004340024339116002,12.627958233641293,26.021512907035927
goals: 26.002683186506932,-49.43086236491289,35.624353229950565,-0.004345666704439634,13.801868073070574,26.021555853558517
state: 26.20469091152414,-50.12306650862,36.58104503085249,-0.17587040880217542,12.135058207350104,25.325338867513256
goals: 26.00267698628498,-49.61151938724932,34.6185996641944,-0.004351891760736825,14.988278660049854,26.021599403133575
goals: 26.00267088249358,-49.80462336601398,33.639642615249315,-0.004358560764328026,16.16033968665503,26.021642580340437
state: 26.20469091152414,-50.12306650862,34.64647053402855,0.0,14.421373521778381,25.325338867513256
goals: 26.002664781566615,-50.01291229597896,32.67238384777385,-0.00436577153529413,17.335887382982662,26.021686050685258
goals: 26.0026606063361,-50.16433636055342,32.01700029317042,-0.004371024962067517,18.14269500139381,26.021715986459167
state: 26.20469091152414,-50.12306650862,32.53602562840245,-0.17587040880217542,16.531818427404488,25.325338867513256
goals: 26.00265927046466,-50.214317770354036,31.808448078720257,-0.004372761069828771,18.401228625398346,26.021725597163282
goals: 26.019288166528742,-50.11191454158894,31.57201550950885,-0.004373179235649023,18.535257218338085,26.03836009213888
state: 26.20469091152414,-50.12306650862,32.1842848107981,0.0,16.88355924500884,25.325338867513256
goals: 26.12455251604326,-49.343369470099724,30.597474379644222,-0.004371473861746564,18.741248547236612,26.143632664732635
goals: 26.278768143640754,-48.23070894327041,29.194094383988357,-0.0043689161097276675,19.03196109234722,26.297859857923736
state: 26.20469091152414,-49.24371446460912,29.546228678765473,-0.17587040880217542,17.411170471415367,25.677079685117608
goals: 26.43851706296982,-47.09428247351984,27.769944769025702,-0.004366191437808321,19.319677071845618,26.45762017362018
goals: 26.601994760554543,-45.94779394563945,26.34265276313199,-0.00436332325869853,19.6004732236722,26.62110894005047
state: 26.38056132032631,-46.95739915018084,26.556431729128487,0.0,17.76291128901972,26.02882050272196
goals: 26.768537636135125,-44.79636623342942,24.91881937917393,-0.004360317655802378,19.87287143894021,26.787662497055134
goals: 26.938910907401443,-43.635177893186665,23.492705401628267,-0.004357155224838042,20.13778945566874,26.958046096654062
state: 26.556431729128487,-44.3193430181482,23.74250518829368,-0.17587040880217542,18.290522515426247,26.38056132032631
goals: 27.109789059545953,-42.486981773813255,22.092252237351843,-0.0043538941791123305,20.390038864949904,27.128934021514127
goals: 27.283990778530047,-41.332843263245294,20.694311745751115,-0.004350477769653959,20.63383306963317,27.303145120966494
state: 27.084042955535015,-41.85715729491775,20.576837829854522,0.0,18.818133741832767,26.73230213793066
goals: 27.45893366952728,-40.18991186176472,19.31962268837544,-0.004346953672606563,20.865582924019193,27.47809686214187
goals: 27.6391802045729,-39.028685992398685,17.932826246908522,-0.004343225546744384,21.09114546642413,27.658351939718184
state: 27.61165418194154,-39.39497157168729,17.93878169782189,-0.17587040880217542,18.994004150634943,27.084042955535015
goals: 27.82014135140855,-37.87902506723428,16.569700125847824,-0.004339384054153516,21.304602609310184,27.839321096340356
goals: 27.984293962761466,-36.84973781911583,15.357646725904008,-0.004335814600313642,21.487361463528583,28.003480499721984
state: 27.96339499954589,-37.108656257259014,15.476595974591435,-0.17587040880217542,19.873356194645822,27.435783773139363
goals: 28.058465894426824,-36.38879592883645,14.817420700922964,-0.004334175485273911,21.56664230313933,28.077655356638616
goals: 28.087004161478596,-36.208211260085584,14.624553596504548,-0.0043334006720357095,21.57892347139723,28.106193979151477
state: 27.96339499954589,-36.93278584845684,15.300725565789259,-0.17587040880217542,19.873356194645822,27.435783773139363
goals: 28.087007704957177,-36.06790448627033,15.12927575610746,-0.004328383060115079,20.933894538575508,28.106170320071904
goals: 28.087014077416544,-35.82695974520952,16.044866255917494,-0.004319788139186557,19.77735929876938,28.106128058675065
state: 27.96339499954589,-36.40517462205031,15.124855156987085,0.0,19.873356194645822,27.435783773139363
goals: 28.087020668198658,-35.59300602870581,17.002377753808283,-0.00431146877506453,18.58589408546564,28.106084725273558
goals: 28.087027262329045,-35.37428697045022,17.97093795796228,-0.004303714364177481,17.39861482413714,28.106041739342544
state: 27.96339499954589,-36.05343380444596,16.707688836206664,0.0,18.290522515426247,27.435783773139363
goals: 28.087033927068553,-35.16866268655023,18.96042300512635,-0.004296444557306234,16.203505494155706,28.105998655550504
goals: 28.087040554318474,-34.979413185387486,19.954681221814802,-0.004289770997159267,15.019997777371376,28.105956162620615
state: 27.96339499954589,-35.349952169237255,18.290522515426247,0.0,16.180077609800136,27.435783773139363
goals: 28.087047301637732,-34.80215183978192,20.977360629062954,-0.0042835351342386556,13.82005702559431,28.105913244089486
goals: 28.0870539560955,-34.642392082739875,21.996068295310796,-0.004277927250065523,12.641589603357161,28.105871244133446
state: 28.139265408348066,-34.99821135163291,21.104449056261046,0.0,13.717891886569682,27.435783773139363
goals: 28.08705836034841,-34.54479743137565,22.675730251221417,-0.004274507166146169,11.864332996774271,28.105843619724407
goals: 28.087059336334253,-34.524058920709024,22.826785561255534,-0.004273780903796472,11.692539176226187,28.105837522722087
state: 28.139265408348066,-34.99821135163291,21.632060282667577,-0.17587040880217542,12.662669433756628,27.435783773139363
goals: 28.08705594503226,-34.5984746128418,22.295818629008746,-0.004276382188765661,12.297921800065424,28.105859064505054
goals: 28.087049554028738,-34.7494060552614,21.302265653686636,-0.004281666440014968,13.442406216782604,28.10589988842566
state: 28.139265408348066,-34.99821135163291,21.632060282667577,-0.17587040880217542,12.662669433756628,27.435783773139363
goals: 28.087042924403267,-34.920877003300504,20.281521116125884,-0.004287683296160354,14.634621701310662,28.105942561041612
goals: 28.087036321497948,-35.106917239254294,19.275099353757412,-0.0042942275020541164,15.827083698556011,28.105985402228548
state: 28.139265408348066,-34.99821135163291,20.049226603448,-0.17587040880217542,13.89376229537186,27.435783773139363
goals: 28.087029745039626,-35.30752533257427,18.283020389072338,-0.004301302861574655,17.01977075547876,28.106028422173637
goals: 28.087023211088088,-35.52214298264862,17.307728109773304,-0.00430889377418123,18.209680683766894,28.106071522991112
state: 28.139265408348066,-34.99821135163291,18.114652106624067,-0.17587040880217542,16.707688836206664,27.435783773139363
goals: 28.08701669652412,-35.75148150475557,16.345806242322663,-0.004317029829283176,19.400941072232236,28.106114864952882
goals: 28.087010351971745,-35.98973558911617,15.419217051556124,-0.0043255089575181755,20.565784346285486,28.106157442562818
state: 28.139265408348066,-34.99821135163291,16.00420720099796,-0.17587040880217542,18.818133741832767,27.435783773139363
goals: 28.087006414030807,-36.145078538913445,14.849252597573669,-0.00433105210465602,21.29109174939344,28.10618405719619
goals: 28.087005021123996,-36.201402141351956,14.648601672885476,-0.004333064784964519,21.54806627628157,28.1061935062667
state: 28.31513581715024,-35.17408176043509,15.476595974591435,-0.17587040880217542,20.049226603448,27.435783773139363
goals: 27.871162898423695,-36.12903933272952,14.513685375106263,-0.004340145137743493,21.61062935547224,27.890355258509796
goals: 26.97390138544191,-35.79125739276136,14.11946300238828,-0.004367778247986567,21.66710978449837,26.993101239768155
state: 28.31513581715024,-35.17408176043509,14.59724393058056,-0.17587040880217542,20.049226603448,27.25991336433719
goals: 25.95712625281672,-35.42310877816458,13.690772424399137,-0.004398685925090728,21.727697322566154,25.976334414102322
goals: 24.940483134119088,-35.07038678746698,13.280997693973719,-0.004429156199665395,21.7847958942156,24.959699406617208
state: 27.96339499954589,-35.17408176043509,13.717891886569682,-0.17587040880217542,20.225097012250174,26.38056132032631
goals: 23.91933513452976,-34.73142457100415,12.888087189224821,-0.004459323223333988,21.838790478768654,23.938559360640625
goals: 22.89685329637572,-34.4072570619521,12.513132458828093,-0.004489087530835927,21.88962431552948,22.916085294444294
state: 26.38056132032631,-35.17408176043509,13.190280660163156,-0.17587040880217542,20.225097012250174,25.501209276315436
goals: 21.87028480157402,-34.096990109483116,12.154995004095717,-0.004518523732065809,21.937541876184426,21.889524411558448
goals: 20.843988144947062,-33.80189052003465,11.815036086955297,-0.00454750237734121,21.982448503108422,20.8632351755307
state: 23.214893961887157,-34.470600125226376,12.135058207350104,-0.17587040880217542,20.049226603448,23.91837559709586
goals: 19.82073492922685,-33.52255730200257,11.493843405003194,-0.004575945379087942,22.024355374396897,19.839989171924437
goals: 19.02470619834932,-33.315458517708585,11.256088664352887,-0.004597760564706258,22.055048379890152,19.043965924064594
state: 20.7527082386567,-33.942988898819856,11.4315765721414,-0.17587040880217542,20.40096742105235,22.33554191787628
goals: 18.934567770733427,-33.2311286326471,11.443630040300764,-0.004597879373239241,21.783181323731345,18.95381583416241
goals: 18.934573512785068,-33.01019124784325,12.242498372437517,-0.0045895008885025275,20.763375607831655,18.953776188736285
state: 20.225097012250174,-33.591248081215504,11.4315765721414,-0.17587040880217542,20.40096742105235,20.7527082386567
goals: 18.934580241110552,-32.765667576446006,13.188190684957164,-0.0045802571526152224,19.57315962512295,18.95373013159384
goals: 18.93458700612638,-32.535269728009354,14.149315218996136,-0.004571575352343583,18.381637243850033,18.95368424231262
state: 20.049226603448,-33.063636854808976,12.662669433756628,-0.17587040880217542,19.16987455943712,19.345744968239295
goals: 18.93459379575981,-32.31944156336767,15.12410912179297,-0.0045634670229278106,17.191015177606822,18.953638594125387
goals: 18.934600628118453,-32.11765568981553,16.115134170589112,-0.004555907521022135,15.9982042564499,18.953593057182474
state: 19.52161537704147,-32.53602562840245,14.59724393058056,0.0,16.88355924500884,19.16987455943712
goals: 18.934607506541898,-31.929929090248603,17.12288013173422,-0.004548893071015483,14.802731696926019,18.953547602966264
goals: 18.93461438056256,-31.757593445030242,18.139853012304076,-0.004542469167256234,13.6134231723143,18.95350255480992
state: 19.345744968239295,-32.00841440199592,16.88355924500884,-0.17587040880217542,14.773114339382737,19.16987455943712
goals: 18.934621292179543,-31.59951624533515,19.172144234497225,-0.0045365896518798875,12.423054751598475,18.953457626683136
goals: 18.93462822174977,-31.45613900994529,20.21674410741507,-0.0045312674380248155,11.235077644455943,18.95341293745592
state: 18.994004150634943,-31.832543993193752,18.818133741832767,0.0,12.135058207350104,19.16987455943712
goals: 18.93463523131431,-31.326304112541862,21.283012941114645,-0.004526456446132498,10.038973914521515,18.95336808141103
goals: 18.93464219810853,-31.21221047749,22.352156702241352,-0.004522235278114693,8.855736519494705,18.95332383412011
state: 18.994004150634943,-31.4808031755894,21.632060282667577,0.0,9.848742892921823,19.16987455943712
goals: 18.934649254094822,-31.111646411815283,23.444321390657528,-0.004518519554563947,7.663007766560837,18.953279348095016
goals: 18.93465634168337,-31.025614975431093,24.550631654666134,-0.004515344196905329,6.470666067321047,18.953234982279447
state: 18.818133741832767,-31.304932766787225,23.91837559709586,-0.17587040880217542,7.562427578493542,19.16987455943712
goals: 18.934663450123914,-30.954208265171808,25.6693099386455,-0.004512710709243464,5.280581074229892,18.95319079514919
goals: 18.93467062798602,-30.89701190695988,26.807967213914665,-0.004510602246174959,4.084727441898816,18.953146478377693
state: 18.818133741832767,-31.129062357985053,26.20469091152414,0.0,5.451982672867437,19.16987455943712
goals: 18.934677790771634,-30.854657169249517,27.953095380519176,-0.00450904083214234,2.897244538723143,18.95310254505931
goals: 18.93468512569363,-30.826305259862067,29.13470380807125,-0.00450799458926017,1.6872842029418833,18.95305784432123
state: 18.818133741832767,-31.129062357985053,28.31513581715024,-0.17587040880217542,2.638056132032631,19.16987455943712
goals: 18.934691210000235,-30.8141606626825,30.121570575102883,-0.004507544757251497,0.6882728396853587,18.95302097788728
goals: 18.934693567742737,-30.812196639937458,30.505603346801536,-0.004507471178877479,0.3022760456101582,18.95300674196927
state: 18.642263333030595,-30.95319194918287,29.722099087567646,0.0,1.4069632704174033,19.16987455943712
goals: 18.934695744386072,-30.81173394857186,30.8609274687008,-0.004507452855591565,-0.05351076731523305,18.952993623938802
goals: 18.934701673736466,-30.81699936962651,31.83265342422232,-0.004507642638241137,-1.0199713008606963,18.952958005790453
state: 18.642263333030595,-30.95319194918287,30.95319194918287,0.0,0.35174081760435083,19.16987455943712
goals: 18.934709021570235,-30.836628516956672,33.04441086758369,-0.004508359264287829,-2.212099595756672,18.952914095762935
goals: 18.934716341025915,-30.870394785030566,34.25961190908796,-0.004509595706771451,-3.3935343680631593,18.9528705970577
state: 18.642263333030595,-30.95319194918287,33.76711849001768,0.0,-2.286315314428281,19.16987455943712
goals: 18.934723497163795,-30.91690735543677,35.45533044017317,-0.004511301604263326,-4.542740327649757,18.95282829182924
goals: 18.934727897469987,-30.952046592066974,36.19423791794574,-0.004512591701989609,-5.24650856812344,18.95280238353346
state: 18.642263333030595,-30.95319194918287,35.52582257803944,0.0,-3.8691489936478587,19.16987455943712
goals: 18.931671928032774,-30.993802836612602,36.474379072577996,-0.004513151725950186,-5.484893335332661,18.949736140182594
goals: 18.861840876471465,-31.65732773526582,37.22407102983733,-0.004515173635376916,-5.57105713516405,18.87990128641066
state: 18.642263333030595,-31.129062357985053,36.58104503085249,0.0,-4.572630628856562,19.16987455943712
goals: 18.741767865928274,-32.81194025940212,38.53645192790064,-0.004518673150710078,-5.728819903065486,18.759821316767184
goals: 18.618021673663176,-34.020525069127444,39.920819037162744,-0.004522313116692249,-5.904596421603496,18.63606737336274
state: 18.46639292422842,-33.23950726361115,40.274323615698165,-0.17587040880217542,-4.748501037658736,18.818133741832767
goals: 18.49629226621388,-35.22852203965798,41.31536972410348,-0.004525930793001493,-6.091144447793762,18.51432974128654
goals: 18.377607515915617,-36.42519647722473,42.70753406489046,-0.004529497551283942,-6.286628799838085,18.3956363728
state: 18.46639292422842,-35.52582257803944,42.73650933892863,0.0,-5.1002418552630875,18.642263333030595
goals: 18.26203285575173,-37.60907474043448,44.0952598380101,-0.0045330127382937945,-6.4904709009329355,18.28005272544286
goals: 18.185924387280583,-38.399002226348635,45.02697331939881,-0.004535352393749217,-6.632253332912089,18.203938005181424
state: 18.290522515426247,-37.636267483665534,44.84695424455473,0.0,-5.276112264065262,18.46639292422842
goals: 18.162496547239666,-38.64384411180934,45.31669889572587,-0.004536076826471208,-6.677135926590371,18.180508185907335
goals: 18.16165578944,-38.627619364295946,44.92920602601739,-0.004535187187719855,-6.305867765485248,18.17968350423042
state: 18.114652106624067,-37.81213789246772,45.022824653356906,-0.17587040880217542,-5.627853081669613,18.46639292422842
goals: 18.161649493712762,-38.56527263790243,43.82296001125467,-0.004532904255537179,-5.261968478127873,18.179722383814955
goals: 18.161642387571433,-38.508191160920184,42.58209291217826,-0.00453081442125513,-4.078182857181322,18.17976646118896
state: 18.114652106624067,-37.81213789246772,43.791731791741675,-0.17587040880217542,-5.276112264065262,18.46639292422842
goals: 18.161635250945046,-38.46526117878967,41.34441933423122,-0.004529241963156789,-2.88343926252359,18.179810943601463
goals: 18.161628100126556,-38.43693510826443,40.113067696861165,-0.004528202525268552,-1.6804136968464491,18.179855742156356
state: 18.114652106624067,-37.81213789246772,40.977805250906876,-0.17587040880217542,-3.3415377672413324,18.46639292422842
goals: 18.161622322742637,-38.42493900518409,39.12479222802669,-0.004527759763480412,-0.704134332040747,18.179892110327977
goals: 18.16162009477701,-38.422940561157404,38.74527566014157,-0.00452768477885886,-0.3266162085493261,18.179906178107558
state: 18.114652106624067,-37.81213789246772,39.92258279809381,-0.17587040880217542,-1.9345744968239293,18.46639292422842
goals: 18.161618010705844,-38.422404428252854,38.391084835963355,-0.004527663216614522,0.027038482380402126,18.17991935940562
goals: 18.161612397664083,-38.427412980375465,37.441099988245966,-0.0045278402530733765,0.9820318812909807,18.179954969145875
state: 18.114652106624067,-37.81213789246772,37.988008301269886,-0.17587040880217542,-0.7034816352087017,18.46639292422842
goals: 18.161605314187494,-38.44730093140967,36.25063035742652,-0.004528558134773145,2.1923894619649356,18.180000140405586
goals: 18.16159830975441,-38.48204986892365,35.082841868664765,-0.004529818108225055,3.3949268870664495,18.180045073790858
state: 17.93878169782189,-37.988008301269886,35.70169298684161,-0.17587040880217542,1.7587040880217542,18.46639292422842
goals: 18.16159141795467,-38.53108255560492,33.94316146847379,-0.004531599865268262,4.583639972775566,18.180089554246685
goals: 18.161584517869514,-38.59512545979385,32.811590100206885,-0.004533930796324716,5.779254244058813,18.180134367518843
state: 17.93878169782189,-38.16387871007206,33.591248081215504,-0.17587040880217542,4.045019402450034,18.46639292422842
goals: 18.161577676151346,-38.67359444817174,31.699159549319123,-0.00453679096290143,6.970153782153446,18.180179089172068
goals: 18.161570881436127,-38.766468930153,30.604003311306094,-0.004540181191971417,8.158184500976303,18.18022379844632
state: 17.93878169782189,-38.33974911887424,31.129062357985053,-0.17587040880217542,6.683075534482665,18.46639292422842
goals: 18.161564095453343,-38.87428086164218,29.520035634357004,-0.004544122826409128,9.34996410823579,18.1802687553194
goals: 18.161557349248795,-38.99656488799142,28.4523096962159,-0.004548601090927887,10.539974071545172,18.180313762767682
state: 17.93878169782189,-38.51561952767642,29.01861745235894,-0.17587040880217542,8.969390848910946,18.46639292422842
goals: 18.16155063568471,-39.13339430752693,27.399734132365396,-0.004553621180996979,11.729379053746579,18.18035887544302
goals: 18.16154392110144,-39.28553376453745,26.35715843799925,-0.004559214061865966,12.924094203928757,18.18040432958839
state: 17.93878169782189,-39.04323075408294,26.73230213793066,-0.17587040880217542,11.4315765721414,18.46639292422842
goals: 18.161537287510697,-39.4510326759139,25.337328753964915,-0.004565311118627188,14.109422798149636,18.18044957643092
goals: 18.16153062095432,-39.63274949234313,24.32280965717963,-0.004572021179966915,15.30565871015808,18.180495402271386
state: 17.93878169782189,-39.21910116288512,24.62185723230456,-0.17587040880217542,13.542021477767507,18.46639292422842
goals: 18.161524011724556,-39.82831607063645,23.32747788953253,-0.004579260708819834,16.496557054892275,18.18054119736385
goals: 18.161517429179632,-40.038520721763874,22.346711533150778,-0.004587062907746151,17.68752806118936,18.180587180164117
state: 17.93878169782189,-39.57084198048947,22.8631531442828,-0.17587040880217542,16.180077609800136,18.46639292422842
goals: 18.16151096649251,-40.260041801081364,21.394226997371845,-0.004595308410358538,18.861533675084917,18.180632700284384
goals: 18.16150486363291,-40.48315267735352,20.50442170749944,-0.004603637214167548,19.974449840085267,18.180676038429517
state: 17.93878169782189,-40.274323615698165,20.576837829854522,-0.17587040880217542,18.114652106624067,18.46639292422842
goals: 18.16150202507535,-40.59157285018424,20.093792898112046,-0.004607693317888801,20.493498821767737,18.180696315678368
goals: 18.161500634371528,-40.645773819859144,19.8933687089758,-0.004609723172018092,20.74812398031562,18.180706278437874
state: 17.93878169782189,-40.45019402450035,20.40096742105235,-0.17587040880217542,18.818133741832767,18.46639292422842
goals: 18.483764171645557,-40.733805240451176,19.972559831972866,-0.004601235421675008,20.75694919681979,18.502968668545186
goals: 19.433723298385882,-40.986045668590855,20.27613696663205,-0.004575347251565678,20.705568173263128,19.45292093183044
state: 17.93878169782189,-40.626064433302524,20.40096742105235,-0.17587040880217542,18.818133741832767,18.46639292422842
goals: 20.435984788992606,-41.266624432828095,20.61437124495338,-0.004547608215269901,20.64786612895575,20.45517498047806
goals: 21.446774402587454,-41.56474532383341,20.974388149904662,-0.004519192544445476,20.58592342829962,21.46595687866325
state: 18.114652106624067,-41.32954606851122,20.40096742105235,0.0,18.818133741832767,20.40096742105235
goals: 22.45484499903055,-41.87735668871442,21.35260702826652,-0.004490414686034999,20.520269596760038,22.47401956867091
goals: 23.453384936747035,-42.20221027407825,21.746399181770908,-0.004461479094887435,20.451285391295592,23.472551464476084
state: 19.873356194645822,-41.85715729491775,20.40096742105235,0.0,18.818133741832767,22.1596715090741
goals: 24.461025159037384,-42.54550910527594,22.163393898724134,-0.0044318482456706726,20.377543700814847,24.480183357611132
goals: 25.464701461723102,-42.903082219712,22.598647294044476,-0.004401905083512943,20.29981804709117,25.4838511482616
state: 22.687282735480625,-42.73650933892863,21.456189873865398,0.0,18.818133741832767,24.094246005898032
goals: 26.452725692813452,-43.27047382039373,23.046828925438845,-0.004372012924482672,20.21898359983555,26.471866787833708
goals: 26.963852126567875,-43.465071542525024,23.292171035237768,-0.004356334334533634,20.16821633246763,26.982988388331062
state: 25.149468458711084,-43.439990974137324,22.1596715090741,-0.17587040880217542,18.818133741832767,25.852950093919787
goals: 26.963855313244174,-43.340032834119285,23.772934094032703,-0.004351915100303345,19.562414565838097,26.982965958339154
goals: 26.963861306487544,-43.115788738860886,24.684938046699312,-0.004344006659490625,18.42616651898011,26.982924029288622
state: 25.501209276315436,-43.439990974137324,23.74250518829368,-0.17587040880217542,18.818133741832767,26.38056132032631
goals: 26.963867575204628,-42.89635697247167,25.649634152589528,-0.004336289153624074,17.242038647807032,26.982880519945017
goals: 26.963873822097987,-42.692913780308004,26.621751532724073,-0.004329152628910607,16.066478076601868,26.98283750302039
state: 25.852950093919787,-43.439990974137324,25.677079685117608,-0.17587040880217542,17.059429653811016,26.38056132032631
goals: 26.963880100017203,-42.50361146399206,27.609356321980385,-0.004322528176400706,14.889570972118879,26.98279460340671
goals: 26.963886437195804,-42.32776302758658,28.61693654255263,-0.004316388278201688,13.706142316231643,26.982751623481054
state: 26.20469091152414,-43.264120565335155,27.96339499954589,-0.17587040880217542,14.773114339382737,26.38056132032631
goals: 26.9638928504382,-42.16522486695929,29.647318958817166,-0.004310724797737817,12.513221740434469,26.982708447830742
goals: 26.963899265535137,-42.017986664905685,30.68858544632287,-0.0043056040064311475,11.324717051961505,26.98266557010935
state: 26.38056132032631,-43.264120565335155,29.722099087567646,0.0,12.31092861615228,26.38056132032631
goals: 26.963905697152693,-41.88560398246981,31.742971128288428,-0.004301007529094945,10.137948688640872,26.982622882050666
goals: 26.963912179592963,-41.76743369925007,32.816070772566086,-0.004296910507251534,8.946678762224646,26.982580149241645
state: 26.556431729128487,-43.08825015653298,32.1842848107981,-0.17587040880217542,9.848742892921823,26.38056132032631
goals: 26.963918696392437,-41.66389714616635,33.905168881022355,-0.004293325317778522,7.754044101763612,26.982537474623232
goals: 26.963925215312187,-41.575453074887236,35.004768626418944,-0.00429026584232622,6.566000286159553,26.98249506053935
state: 26.73230213793066,-42.73650933892863,34.11885930762203,0.0,7.562427578493542,26.38056132032631
goals: 26.96393177070311,-41.501585045497464,36.120556849559065,-0.004287712505080386,5.37634403469994,26.982452674905492
goals: 26.963938360457394,-41.442374382504546,37.25213856795246,-0.0042856667091346655,4.185551654382346,26.982410324771156
state: 26.90817254673284,-42.38476852132428,36.58104503085249,0.0,5.276112264065262,26.38056132032631
goals: 26.963945013773674,-41.397704427864284,38.40454767247231,-0.004284123288861562,2.9884725962942165,26.982367817390667
goals: 26.96395174476256,-41.367766785708596,39.580337198572984,-0.004283087989142579,1.7827454291155536,26.982325059727163
state: 27.084042955535015,-42.033027703719924,39.04323075408294,-0.17587040880217542,2.8139265408348066,26.38056132032631
goals: 26.96395759185697,-41.35405752284689,40.60966588976076,-0.004282612335641231,0.7397074759968322,26.982288109285992
goals: 26.963959818145604,-41.35181359458054,41.00349396147634,-0.004282533711904075,0.34363547636805075,26.9822740858334
state: 27.25991336433719,-42.38476852132428,40.45019402450035,-0.17587040880217542,1.231092861615228,26.38056132032631
goals: 26.963961793476077,-41.35118760141393,41.35380012002171,-0.004282510949654084,-0.007296675031146451,26.98226166369535
goals: 26.96396699058196,-41.35563283382802,42.2793354364826,-0.004282660824045228,-0.9283867582575869,26.982229071178025
state: 27.25991336433719,-42.38476852132428,41.68128688611557,-0.17587040880217542,0.17587040880217542,26.38056132032631
goals: 26.96397375647132,-41.37452630726075,43.49254237650888,-0.004283307303147236,-2.122700223788415,26.98218683000352
goals: 26.963980484224674,-41.40782664300377,44.70801756319158,-0.004284450294258494,-3.304875073677069,26.98214503036917
state: 27.25991336433719,-42.033027703719924,44.3193430181482,0.0,-2.286315314428281,26.38056132032631
goals: 26.963987222222062,-41.455483131634146,45.9342369374015,-0.004286088636923348,-4.483437958209365,26.982103360695007
goals: 26.963993958343117,-41.51723636696558,47.168803581236304,-0.0042882142712562625,-5.65625136567093,26.982061886811465
state: 27.25991336433719,-42.033027703719924,46.60565833257648,0.0,-4.572630628856562,26.38056132032631
goals: 26.9640002719704,-41.58774728625115,48.33364063947071,-0.0042906442063337805,-6.750577503647714,26.982023173170752
goals: 26.964003167858632,-41.62413175588404,48.87036559523826,-0.004291899140773831,-7.250917989337921,26.982005465650715
state: 27.25991336433719,-42.033027703719924,48.36436242059823,-0.17587040880217542,-6.15546430807614,26.38056132032631
goals: 26.470756020988816,-41.59464843648749,48.8432724643645,-0.004306477239205471,-7.253286102171357,26.48875729958086
goals: 25.48175451916073,-41.54521793789225,48.7836647406972,-0.004335381123313191,-7.243064426056339,25.49975439281823
state: 27.25991336433719,-42.033027703719924,48.36436242059823,-0.17587040880217542,-6.331334716878314,26.38056132032631
goals: 24.476019346323202,-41.5099572917049,48.74115382559367,-0.004364386822065848,-7.235768700259109,24.494017691863505
goals: 23.47482637458477,-41.48986690541436,48.71693448967799,-0.004392871575887481,-7.231594248369729,23.492823097712122
state: 26.90817254673284,-42.033027703719924,48.36436242059823,0.0,-6.15546430807614,24.62185723230456
goals: 22.466620761396285,-41.48476091019549,48.7107759495025,-0.004421160563658518,-7.230495633193665,22.484615746846924
goals: 21.462249430726573,-41.49476163039442,48.72282399956131,-0.0044489455697129,-7.2324968229059445,21.480242579381457
state: 24.44598682350238,-42.033027703719924,48.36436242059823,-0.17587040880217542,-6.331334716878314,23.214893961887157
goals: 20.456300496992977,-41.51987868061654,48.75309353760153,-0.004476375628963464,-7.237602856390137,20.474291697889132
goals: 19.450154583890523,-41.56012986983806,48.801614420603016,-0.004503410139455813,-7.245825848357125,19.46814372593551
state: 21.456189873865398,-42.033027703719924,48.36436242059823,-0.17587040880217542,-6.331334716878314,21.456189873865398
goals: 18.444012802742623,-41.61553360069982,48.8684222865542,-0.004530041692131242,-7.257183047004523,18.461999772455385
goals: 17.437327150091427,-41.686160750498566,48.95362117489289,-0.004556282680402801,-7.271707592351889,17.455311829711725
state: 19.16987455943712,-42.033027703719924,48.36436242059823,0.0,-6.331334716878314,19.873356194645822
goals: 16.432890017451246,-41.77181566511857,49.05699860872493,-0.004582059561977809,-7.289382796716327,16.45087229260107
goals: 15.429564148526255,-41.872562990885655,49.17866105489174,-0.004607401923295118,-7.31025043183163,15.447543899211476
state: 16.707688836206664,-42.033027703719924,48.89197364700476,0.0,-6.331334716878314,18.114652106624067
goals: 14.422271513937032,-41.989033237572826,49.31940422308999,-0.004632434625506345,-7.334475459976552,14.440248603048612
goals: 13.415316860059825,-42.12087314380138,49.47884109656206,-0.004657046940448967,-7.362024332960853,13.43329115708885
state: 14.59724393058056,-42.033027703719924,49.24371446460912,-0.17587040880217542,-6.331334716878314,16.531818427404488
goals: 12.412526335016471,-42.26754929367622,49.65637040851741,-0.004681146626308283,-7.392829387768865,12.430497716579827
goals: 11.404611651347178,-42.43052282564223,49.85381110428323,-0.004704954881042176,-7.42724798910015,11.422579962160421
state: 11.607446980943578,-42.033027703719924,49.41958487341129,-0.17587040880217542,-6.331334716878314,14.773114339382737
goals: 10.403044178937996,-42.60799814569903,50.069042876006954,-0.00472820017028018,-7.464955979897659,10.421009293949751
goals: 9.394526459774653,-42.80244469310516,50.30512226774156,-0.0047511894408916715,-7.506539825112804,9.412488206005655
state: 9.321131666515297,-42.033027703719924,49.595455282213464,0.0,-6.331334716878314,12.662669433756628
goals: 8.392230258390724,-43.011445561300775,50.559181996213894,-0.004773620832892115,-7.551549791520041,8.410188501042365
goals: 7.385351907341113,-43.237331669720554,50.83412797490865,-0.004795736047677168,-7.600560350405876,7.403306468173658
state: 7.034816352087017,-42.033027703719924,50.65067773502651,-0.17587040880217542,-6.50720512568049,10.552224528130523
goals: 6.378408369964874,-43.479328242368304,51.129098947679175,-0.0048174319182437125,-7.65348524527518,6.396359079667087
goals: 5.491223490242634,-43.705990195286134,51.40576805815633,-0.004836198021851658,-7.703448630422339,5.509170661290146
state: 5.1002418552630875,-42.56063893012645,51.00241855263087,0.0,-6.50720512568049,8.793520440108772
goals: 5.288248738607011,-43.75064214172477,51.349938430364624,-0.004840099801698724,-7.602957021760095,5.306200248773232
goals: 5.288243675856569,-43.688479028393395,50.45928454943196,-0.004837709170760094,-6.774466255059988,5.30623327180873
state: 4.22088981125221,-42.912379747730796,51.00241855263087,-0.17587040880217542,-6.50720512568049,7.034816352087017
goals: 5.288236562605267,-43.61295699263141,49.21477225270094,-0.004834806299198738,-5.605475995362308,5.306279842546676
goals: 5.288229367032302,-43.550806019103625,47.9642300558295,-0.00483241807407798,-4.417084773311276,5.3063271669160095
state: 3.693278584845684,-43.264120565335155,49.595455282213464,-0.17587040880217542,-5.979593899273965,5.627853081669613
goals: 5.2882221679353245,-43.503182710182784,46.72173200385377,-0.004830587661812126,-3.2222100315564575,5.306374741130862
goals: 5.288215036487933,-43.470581282954086,45.49967351566696,-0.004829333058693075,-2.0327529718933115,5.306422102574127
state: 3.693278584845684,-43.264120565335155,46.95739915018084,-0.17587040880217542,-3.693278584845684,5.627853081669613
goals: 5.288208465310526,-43.45356845746838,44.38154037558501,-0.004828675733221838,-0.9316326584968643,5.306465959002331
goals: 5.288205573382925,-43.45008580411877,43.89191138266237,-0.004828539659813445,-0.44548631945388734,5.30648532783557
state: 3.693278584845684,-43.264120565335155,45.550435879763434,-0.17587040880217542,-2.110444905626105,5.627853081669613
goals: 5.288203553619566,-43.4491157672777,43.550848312177436,-0.0048285005578270765,-0.1053932861809738,5.306498880514292
goals: 5.288199005689434,-43.451366518365155,42.785615909147765,-0.004828582144413955,0.6620898670985284,5.3065294747493
state: 3.693278584845684,-43.264120565335155,43.96760220054385,-0.17587040880217542,-1.0552224528130525,5.627853081669613
goals: 5.28819191129043,-43.46724713156602,41.599618559030866,-0.0048291826021788905,1.8639678291029758,5.306577419451901
goals: 5.28818484971942,-43.49821274772056,40.42862903530117,-0.0048303604741467675,3.0659229676716375,5.30662541909948
state: 3.8691489936478587,-43.264120565335155,41.32954606851122,-0.17587040880217542,1.4069632704174033,5.627853081669613
goals: 5.288177851145934,-43.54403145313262,39.277677129648346,-0.004832107563226059,4.262693577424071,5.306673274731577
goals: 5.288170926642734,-43.60439095889537,38.14851850972895,-0.0048344128687916165,5.452211701798908,5.306720914038389
state: 3.8691489936478587,-43.264120565335155,39.04323075408294,-0.17587040880217542,3.693278584845684,5.627853081669613
goals: 5.288164031601853,-43.679543348951576,37.033876480298844,-0.00483728725097185,6.64200611997439,5.306768649235011
goals: 5.288157173465316,-43.76938518549638,35.935023096072335,-0.004840728313162834,7.8307013394326495,5.306816436393385
state: 4.045019402450034,-43.264120565335155,36.93278584845684,-0.17587040880217542,6.331334716878314,5.627853081669613
goals: 5.288150282235554,-43.87501608838057,34.84094546089786,-0.0048447801286238676,9.030409876162185,5.306864775253099
goals: 5.2881435196201005,-43.993831544019486,33.77731546595479,-0.004849344935551665,10.212855325430018,5.306912537116762
state: 4.22088981125221,-43.6158613829395,34.470600125226376,-0.17587040880217542,8.793520440108772,5.627853081669613
goals: 5.2881367351276,-44.12830341336744,32.72043048154762,-0.004854520140868834,11.4042121778566,5.306960789553348
goals: 5.288129982225795,-44.277526447841666,31.67880279468705,-0.0048602738184482215,12.595062897858558,5.3070091642235955
state: 4.396760220054386,-43.791731791741675,32.1842848107981,-0.17587040880217542,11.07983575453705,5.627853081669613
goals: 5.288123328431544,-44.439743001942766,30.662746311103795,-0.004866541130300905,13.773335934218998,5.307057179990325
goals: 5.288116697469005,-44.61657347508927,29.660528462155543,-0.0048733878917519785,14.95238425498352,5.3071053903394665
state: 4.396760220054386,-44.143472609346034,30.24971031397417,-0.17587040880217542,13.190280660163156,5.627853081669613
goals: 5.288110079551118,-44.80832941716492,28.67078119585737,-0.004880829923107006,16.133887462018535,5.307153876361791
goals: 5.288103513618133,-45.013827992799776,27.699366775574497,-0.004888825273608905,17.31080045659651,5.30720236027886
state: 4.396760220054386,-44.67108383575256,28.139265408348066,-0.17587040880217542,15.652466383393612,5.627853081669613
goals: 5.288097912091228,-45.20127556947127,26.879091778296,-0.004896136284269876,18.318523029394242,5.307244031006909
goals: 5.288095342611259,-45.29102799398392,26.50546370603973,-0.004899642958871346,18.78190352563166,5.307263243194176
state: 4.396760220054386,-45.022824653356906,27.25991336433719,-0.17587040880217542,17.235300062613188,5.627853081669613
goals: 5.288091892153356,-45.41530494419627,26.006372864341998,-0.004904505005544178,19.405271316825026,5.307289140808499
goals: 5.288090436869525,-45.46901491714161,25.796786831743567,-0.004906608611366308,19.668567322065474,5.307300097733243
state: 4.572630628856562,-45.022824653356906,26.38056132032631,-0.17587040880217542,17.93878169782189,5.627853081669613
goals: 5.51029434401089,-45.49549276160022,25.782090764276653,-0.0049022729686126485,19.709730248722064,5.529505148091061
goals: 6.411261448434829,-45.57241629490208,25.877308396139302,-0.004882980738120288,19.69139170053098,6.430468117333258
state: 4.924371446460912,-45.19869506215908,26.38056132032631,0.0,18.290522515426247,5.627853081669613
goals: 7.414174537692933,-45.67181010263509,26.00040308290633,-0.004861064101703127,19.66764151837496,7.433376383761186
goals: 8.420736800509653,-45.78619115287332,26.142146868731857,-0.004838601882209058,19.64022949043447,8.439933574070904
state: 7.914168396097894,-45.550435879763434,26.38056132032631,-0.17587040880217542,18.290522515426247,7.386557169691368
goals: 9.426860629056522,-45.91521639427817,26.30215150025438,-0.0048156849447099186,19.60920102360161,9.446052100423866
goals: 10.43396890656774,-46.05914040131761,26.480774192814692,-0.0047922823522580935,19.574453411557677,10.453154838675658
state: 9.672872484119647,-45.7263062885656,26.38056132032631,-0.17587040880217542,18.290522515426247,8.969390848910946
goals: 11.440920320542729,-46.21788394100644,26.6779631076955,-0.004768421977806817,19.535959319491752,11.4601004824848
goals: 12.44520500042542,-46.39106169220138,26.893290011207625,-0.004744167163309196,19.493761784265153,12.464379176652807
state: 11.95918779854793,-46.25391751497214,26.38056132032631,-0.17587040880217542,18.290522515426247,10.728094936932699
goals: 13.439287186805416,-46.57716937771516,27.12493580426737,-0.00471971054514751,19.448175990556212,13.458455210929683
goals: 14.03209470705137,-46.695142758625565,27.2719055128493,-0.0047049147177504295,19.41915132454721,14.051258954746237
state: 14.069632704174033,-46.60565833257648,26.38056132032631,0.0,18.46639292422842,12.662669433756628
goals: 14.040415688993276,-46.594573963512026,27.68115071939294,-0.0047008621345509,18.90933692631681,14.059556794574748
goals: 14.040421709471062,-46.37986289335816,28.583433575437574,-0.00469280646921156,17.79234300131469,14.059512305235703
state: 14.245503112976209,-46.60565833257648,27.25991336433719,-0.17587040880217542,18.290522515426247,13.36615106896533
goals: 14.040428070558681,-46.16795917458169,29.54739109719625,-0.0046848763875024695,16.61648176203301,14.059465660653526
goals: 14.040434477284476,-45.969906329546546,30.529115261265574,-0.004677482741828756,15.43670475418029,14.05941904461488
state: 14.245503112976209,-46.60565833257648,29.19448786116112,0.0,16.531818427404488,13.36615106896533
goals: 14.040440903235663,-45.78658790813862,31.524531538416188,-0.004670654636654173,14.257970056866855,14.059372642247915
goals: 14.0404473435539,-45.61809531758445,32.532779797354145,-0.004664391775752626,13.081229208612593,14.059326479070982
state: 14.245503112976209,-46.60565833257648,31.4808031755894,-0.17587040880217542,14.245503112976209,13.36615106896533
goals: 14.040453852826987,-45.463124674332796,33.562416912490974,-0.004658642427127968,11.896621451465322,14.059280158173365
goals: 14.040460342415399,-45.32378666335351,34.59934693663829,-0.004653481840709277,10.720353417566617,14.059234302098623
state: 14.245503112976209,-46.42978792377431,33.41537767241333,-0.17587040880217542,11.607446980943578,13.36615106896533
goals: 14.040465384050494,-45.225877380296296,35.41196574048619,-0.004649860522932061,9.809825331609106,14.059198893696497
goals: 14.040466368912725,-45.20778437938332,35.57152553809196,-0.004649191663009476,9.632172533275,14.059191992932817
state: 14.245503112976209,-46.42978792377431,34.64647053402855,-0.17587040880217542,10.37635411932835,13.36615106896533
goals: 14.040462722418917,-45.275999541041294,34.98587472386496,-0.004651707465146508,10.28603850848116,14.059217379398376
goals: 14.040456305927606,-45.40733434825904,33.963060682361046,-0.0046565575669327225,11.440187356001525,14.059262283242473
state: 14.245503112976209,-46.42978792377431,34.64647053402855,-0.17587040880217542,10.200483710526175,13.36615106896533
goals: 14.040449794781638,-45.55548248210854,32.935377056977345,-0.0046620385702687474,12.616019114006496,14.059308162974206
goals: 14.040443277534905,-45.71894604617776,31.91723011384264,-0.004668098288737976,13.797629619971456,14.059354413684996
state: 14.245503112976209,-46.42978792377431,32.53602562840245,-0.17587040880217542,12.135058207350104,13.36615106896533
goals: 14.04043682762534,-45.895836737772285,30.920134328034116,-0.0046746698959014375,14.97161609613848,14.05940052149465
goals: 14.040430375094768,-46.08801202741217,29.93330608397443,-0.0046818258666825084,16.150619628591365,14.05944699359902
state: 14.421373521778381,-46.42978792377431,30.95319194918287,-0.17587040880217542,14.421373521778381,13.36615106896533
goals: 14.040423917770847,-46.295728207741426,28.95662201589012,-0.004689579798921924,17.335019875746745,14.059493858664034
goals: 14.040417682290162,-46.51108168959368,28.023998834804715,-0.004697639905657964,18.482996537459133,14.05953946592854
state: 14.421373521778381,-46.42978792377431,28.491006225952418,-0.17587040880217542,16.88355924500884,13.36615106896533
goals: 14.040414036973115,-46.64376185784314,27.483630458540258,-0.004702616439107607,19.156045081251904,14.059566293391534
goals: 14.04041278935172,-46.69032887974034,27.29951830345605,-0.004704364991168272,19.386724257985666,14.059575503718154
state: 14.421373521778381,-46.42978792377431,28.139265408348066,-0.17587040880217542,17.587040880217543,13.36615106896533
goals: 14.063455637283864,-46.38779245920314,26.889229329238532,-0.0047046198181607745,19.494475711589047,14.08262314280213
goals: 14.1347132041993,-45.43945558524652,25.712799555578435,-0.004704617371138454,19.722565210275384,14.153890758053969
state: 14.245503112976209,-46.25391751497214,26.02882050272196,-0.17587040880217542,18.114652106624067,13.542021477767507
goals: 14.222211675547156,-44.28976088595008,24.295357794709343,-0.00470454206872241,19.99030809717177,14.24140100763853
goals: 14.312050717706539,-43.12574633315016,22.870097085805785,-0.0047043813829896666,20.251549968643694,14.331251521724012
state: 14.421373521778381,-43.791731791741675,22.8631531442828,-0.17587040880217542,18.46639292422842,13.717891886569682
goals: 14.40347153580963,-41.95776856687172,21.449967348419605,-0.004704130892415497,20.503697581468273,14.422683390316571
goals: 14.49410476950664,-40.81578026433835,20.07114290452439,-0.0047037958892208855,20.740529403874895,14.513326980343427
state: 14.421373521778381,-41.5054164773134,20.225097012250174,-0.17587040880217542,18.818133741832767,13.89376229537186
goals: 14.554756057158038,-40.060171660670754,19.16412013286379,-0.004703523572022798,20.891940682637184,14.573984875697402
goals: 14.573038589580031,-39.833532484111736,18.893843963764425,-0.0047034263619184025,20.93557680441427,14.592269308601418
state: 14.245503112976209,-40.8019348421047,19.345744968239295,-0.17587040880217542,18.818133741832767,13.89376229537186
goals: 14.573041068041185,-39.73878745303901,19.242952873614446,-0.004699801478250036,20.49172286396461,14.592251625982689
goals: 14.573047179643451,-39.51438202981931,20.11023407594624,-0.004691233161951992,19.400036239572415,14.592208268785011
state: 14.421373521778381,-40.45019402450035,19.52161537704147,-0.17587040880217542,18.818133741832767,13.89376229537186
goals: 14.573053797796396,-39.28605036299641,21.059546444232243,-0.004682540185866175,18.22239220570762,14.592161703111435
goals: 14.573060448764773,-39.071796790255426,22.024016957573323,-0.004674406238269106,17.043668120864414,14.59211529674555
state: 14.421373521778381,-40.098453206896,20.576837829854522,0.0,17.76291128901972,13.89376229537186
goals: 14.5730671710981,-38.87056856363535,23.00929481885344,-0.004666786998510559,15.857162034205105,14.592068776374857
goals: 14.57307392132528,-38.68383407437118,24.00905121464924,-0.004659733949703076,14.670671150380173,14.592022437943061
state: 14.421373521778381,-39.21910116288512,22.687282735480625,-0.17587040880217542,15.652466383393612,13.89376229537186
goals: 14.573080738890164,-38.51065032897518,25.02915593426787,-0.004653207583877409,13.477382686602105,14.591976005273212
goals: 14.573087561926965,-38.35265488204593,26.060323734001358,-0.004647265946982807,12.288219441166476,14.591929892431747
state: 14.421373521778381,-38.86736034528077,24.97359804990891,0.0,13.36615106896533,13.89376229537186
goals: 14.573093004416274,-38.23749960264133,26.890066898298198,-0.004642942723440817,11.343320998436571,14.591893357397112
goals: 14.57309458224325,-38.205904407321235,27.13179910184836,-0.0046417576311956294,11.069993599846802,14.5918828056129
state: 14.421373521778381,-38.69148993647859,26.20469091152414,0.0,11.783317389745752,13.89376229537186
goals: 14.57309203476592,-38.2576393188968,26.739335614254326,-0.0046436940972780175,11.514191998559731,14.591899972638261
goals: 14.573085733998145,-38.39472736146161,25.774771839611624,-0.0046488319582135874,12.615843814631782,14.591942633291241
state: 14.421373521778381,-38.69148993647859,26.20469091152414,0.0,11.783317389745752,13.89376229537186
goals: 14.573078965519347,-38.55662302209328,24.74829857524325,-0.004654911953032003,13.804212738402251,14.59198879704561
goals: 14.573072220548324,-38.73321060269692,23.73556571948442,-0.004661558839356222,14.993533173528892,14.592035159618188
state: 14.421373521778381,-38.69148993647859,24.44598682350238,-0.17587040880217542,13.190280660163156,13.89376229537186
goals: 14.573065490578461,-38.924760624716235,22.73540162696531,-0.004668786661336032,16.185247286823394,14.592081789468631
goals: 14.573058782865557,-39.13111629090669,21.748991622177684,-0.004676593721192928,17.378012956550453,14.592128646573272
state: 14.421373521778381,-38.69148993647859,22.511412326678453,-0.17587040880217542,15.652466383393612,13.89376229537186
goals: 14.573052097959371,-39.352282341518574,20.77650479519249,-0.004684984743397925,18.57166583288924,14.592175736869063
goals: 14.573045515046177,-39.58537467068308,19.829352698527053,-0.004693854697709488,19.751910257468516,14.592222505090154
state: 14.421373521778381,-38.69148993647859,20.225097012250174,-0.17587040880217542,18.114652106624067,13.89376229537186
goals: 14.573041074518965,-39.75126722546818,19.19642492176169,-0.004700184009500053,20.55073058816861,14.592254281808305
goals: 14.573039613674428,-39.807377350319406,18.989268247238414,-0.004702327895935828,20.81399738726215,14.592264776907218
state: 14.59724393058056,-39.04323075408294,19.52161537704147,-0.17587040880217542,18.818133741832767,13.89376229537186
goals: 14.48277785813729,-39.81554887841922,18.8713859249896,-0.004705619751960812,20.94005553657982,14.502009159203245
goals: 13.690668055867228,-39.66101484603873,18.68668128568956,-0.004725512643641926,20.97026394592664,13.70990430263612
state: 14.421373521778381,-39.04323075408294,19.345744968239295,-0.17587040880217542,19.52161537704147,13.89376229537186
goals: 12.672864098779616,-39.47552015879926,18.465204646353094,-0.004750662944329785,21.006294665773268,12.692106517101152
goals: 11.661387405117337,-39.305667792524105,18.2626278568846,-0.004775197628440082,21.039067766581155,11.680635752918995
state: 14.421373521778381,-39.04323075408294,18.818133741832767,-0.17587040880217542,19.873356194645822,13.01441025136098
goals: 10.643571254254567,-39.14925805187595,18.076272361295878,-0.004799422027209475,21.069062714767977,10.662825364154632
goals: 9.623038344281433,-39.00697357949864,17.906903661033535,-0.004823241848113524,21.09619647536057,9.642298025961159
state: 13.190280660163156,-39.04323075408294,18.46639292422842,-0.17587040880217542,19.873356194645822,11.07983575453705
goals: 8.608898705472445,-38.87994488797807,17.75582111529352,-0.0048464451577477944,21.120299754577662,8.628163720135868
goals: 7.598007008458927,-38.767521194061736,17.62220846342562,-0.004869108712973417,21.141538176390675,7.617277136717993
state: 10.024613301724,-39.04323075408294,18.114652106624067,-0.17587040880217542,19.873356194645822,9.321131666515297
goals: 6.579671879306143,-38.6685529619347,17.504664270696786,-0.0048914675275704336,21.160164160168392,6.598946954433386
goals: 5.688821260043318,-38.59369755848621,17.415806468306585,-0.004910637661753161,21.17421047741646,5.708100494259206
state: 7.914168396097894,-38.86736034528077,17.76291128901972,-0.17587040880217542,19.873356194645822,7.738297987295717
goals: 5.490536565829932,-38.54637232921878,17.51385727934003,-0.0049135701055431765,21.028844232333224,5.5098096884608285
goals: 5.4905417511603885,-38.35350428177157,18.233048253937618,-0.0049058726668459235,20.116785211334577,5.509771772279271
state: 6.15546430807614,-38.86736034528077,17.76291128901972,0.0,19.873356194645822,5.979593899273965
goals: 5.490548484982335,-38.11661899680578,19.176226506841882,-0.004896444782220323,18.93672167481141,5.509722918863203
goals: 5.490555253712281,-37.893809583229526,20.134613297485036,-0.004887603446951997,17.755525471933012,5.509674237884306
state: 6.15546430807614,-38.69148993647859,18.114652106624067,0.0,18.46639292422842,5.627853081669613
goals: 5.490562115721221,-37.68341437387002,21.1165740814046,-0.004879278034587887,16.563169480000692,5.509625307088233
goals: 5.490568990046326,-37.48809152575926,22.110565719628518,-0.004871569188312671,15.373854995002814,5.509576699058263
state: 5.979593899273965,-37.988008301269886,20.928578647458874,-0.17587040880217542,16.531818427404488,5.627853081669613
goals: 5.490575920436009,-37.30664398207008,23.12286870347217,-0.004864425223722234,14.180104468805522,5.509528096266099
goals: 5.49058288424425,-37.139777396420385,24.150173038328443,-0.004857869897483213,12.985933549629692,5.5094796511956385
state: 5.803723490471789,-37.81213789246772,22.8631531442828,-0.17587040880217542,13.89376229537186,5.627853081669613
goals: 5.4905893579608325,-36.9983814125042,25.114099747221825,-0.004852325982336808,11.880610858046365,5.5094349558555065
goals: 5.490592270199938,-36.93904540041784,25.550487075682533,-0.0048500024314465226,11.38488751804778,5.509414953352423
state: 5.627853081669613,-37.28452666606119,24.44598682350238,0.0,12.135058207350104,5.627853081669613
goals: 5.490592065334459,-36.94309055742285,25.52003066626798,-0.004850159579563078,11.419389084429302,5.509416342409436
goals: 5.490586821645888,-37.05187089003167,24.73777071276477,-0.0048544117992495445,12.310429369555422,5.509452302374723
state: 5.627853081669613,-37.28452666606119,24.44598682350238,0.0,11.783317389745752,5.627853081669613
goals: 5.490579835190987,-37.210132012677995,23.704162322797668,-0.004860609629806626,13.502298880845437,5.509500539347198
goals: 5.490572899844681,-37.38246706844267,22.68805939275229,-0.004867373851004474,14.690736865330276,5.509548803671192
state: 5.627853081669613,-37.28452666606119,23.39076437068933,-0.17587040880217542,12.838539842558804,5.627853081669613
goals: 5.4905660021185865,-37.56910490133608,21.687491796961712,-0.004874717241755334,15.877942292684475,5.509597195593615
goals: 5.49055904996998,-37.77277819965062,20.689343935897938,-0.0048827519107433265,17.079763450710214,5.50964637643518
state: 5.627853081669613,-37.28452666606119,20.928578647458874,-0.17587040880217542,15.476595974591435,5.627853081669613
goals: 5.490552213300327,-37.988485682523184,19.718068683754435,-0.004891285161835336,18.266746184383695,5.509695153106911
goals: 5.490545421429117,-38.218094375429054,18.763456308465464,-0.004900395266192466,19.45096725123207,5.5097440296957805
state: 5.451982672867437,-37.460397074863366,19.16987455943712,-0.17587040880217542,17.76291128901972,5.627853081669613
goals: 5.490539368390987,-38.435730911585914,17.921494019949286,-0.004909055995537543,20.510566074694083,5.509787953560397
goals: 5.490536867100378,-38.52927420156838,17.576027782902162,-0.0049127861740016635,20.949575601220126,5.509806206986108
state: 5.451982672867437,-37.636267483665534,18.114652106624067,-0.17587040880217542,18.994004150634943,5.627853081669613
goals: 5.490535613782143,-38.576943712876414,17.403470444647414,-0.00491468884221542,21.16980245052992,5.509815376180954
goals: 5.5051920223579085,-38.100231399736266,16.831103580465893,-0.004915212852587256,21.265456277170085,5.524476257130198
state: 5.451982672867437,-37.81213789246772,17.059429653811016,-0.17587040880217542,19.873356194645822,5.627853081669613
goals: 5.538239378982302,-37.03152080434892,15.57102027150735,-0.004916194011670999,21.45682735753452,5.557532549509788
goals: 5.575089793105126,-35.85532988132226,14.194063779191618,-0.004917193350598227,21.657591105920247,5.5943923328231415
state: 5.276112264065262,-36.229304213248135,14.245503112976209,-0.17587040880217542,20.049226603448,5.627853081669613
goals: 5.613059819316059,-34.65997603974491,12.80528209127016,-0.004918119508900863,21.85101707631386,5.632371379192484
goals: 5.651466722638152,-33.46743885277611,11.430460334037615,-0.004918950580713801,22.0332997493278,5.6707867752289225
state: 5.1002418552630875,-33.76711849001768,11.4315765721414,-0.17587040880217542,20.40096742105235,5.627853081669613
goals: 5.690708208576703,-32.26565364346231,10.055805315417393,-0.0049196912849365105,22.206167620452785,5.710036306126042
goals: 5.720742680843626,-31.356887297886992,9.023553301407402,-0.004920185142184742,22.329651805652478,5.74007651821808
state: 5.1002418552630875,-31.656673584391577,9.145261257713123,-0.17587040880217542,20.7527082386567,5.627853081669613
goals: 5.728085190928447,-31.131058708869723,8.791119108739046,-0.004920089764961498,22.336257046756693,5.747419311734401
goals: 5.728089178113473,-30.97996825996166,9.316680269665616,-0.004913965736201261,21.659605437694328,5.747391203324203
state: 5.1002418552630875,-31.4808031755894,8.969390848910946,-0.17587040880217542,20.928578647458874,5.627853081669613
goals: 5.728096044434005,-30.73144507113797,10.229395974707485,-0.004903920218669523,20.49836654514784,5.747343156055226
goals: 5.728103092561973,-30.49154657491729,11.176184860082245,-0.004894255851347589,19.31167916489255,5.7472942945857595
state: 5.1002418552630875,-31.129062357985053,9.672872484119647,0.0,20.225097012250174,5.627853081669613
goals: 5.728110207644271,-30.264811195662553,12.141957920377285,-0.004885150986015613,18.119170726681958,5.747245423917563
goals: 5.7281173402442045,-30.052903947831137,13.119991560970787,-0.004876667096335212,16.929229839586124,5.747196876222869
state: 5.1002418552630875,-30.425580722776346,11.607446980943578,-0.17587040880217542,17.93878169782189,5.627853081669613
goals: 5.728124509809295,-29.855234543244237,14.112872773659424,-0.004868775337165336,15.738679223633527,5.747148508946168
goals: 5.728131760453362,-29.670773790263546,15.126756990379679,-0.004861430039978292,14.540334255257616,5.747100020017453
state: 5.1002418552630875,-30.073839905171997,13.89376229537186,-0.17587040880217542,15.476595974591435,5.627853081669613
goals: 5.728138905040783,-29.504010501477413,16.135232825561296,-0.004854805225140107,13.365095132583342,5.747052644159308
goals: 5.728143781416828,-29.398641132451242,16.82881755282239,-0.004850626988304783,12.566141037172157,5.747020531787409
state: 5.1002418552630875,-29.722099087567646,15.652466383393612,-0.17587040880217542,13.542021477767507,5.627853081669613
goals: 5.728144878381344,-29.375876884577863,16.985401861521865,-0.004849725031780164,12.386792480795602,5.747013333461035
goals: 5.728141279715761,-29.452031560851072,16.47122031532256,-0.004852737318694265,12.977128702621057,5.747037048674405
state: 5.1002418552630875,-29.722099087567646,16.00420720099796,-0.17587040880217542,13.01441025136098,5.627853081669613
goals: 5.728134340017108,-29.60945053268993,15.486235018906426,-0.004858974373943882,14.119532969619934,5.7470830582036205
goals: 5.728127141387188,-29.787593844219604,14.473787212505826,-0.0048660495449917174,15.310124086235227,5.747131181368897
state: 5.1002418552630875,-29.722099087567646,15.476595974591435,-0.17587040880217542,13.89376229537186,5.627853081669613
goals: 5.728119996880383,-29.979539940081985,13.478494546356238,-0.0048736930168645515,16.497362846929597,5.747179356607925
goals: 5.7281128121612745,-30.187972194524114,12.48738261335796,-0.004882016541173979,17.69690703303198,5.747228233716163
state: 5.1002418552630875,-29.722099087567646,13.01441025136098,-0.17587040880217542,16.00420720099796,5.627853081669613
goals: 5.728105755310054,-30.40792142098733,11.523650245670886,-0.004890826555497741,18.88058862585493,5.7472766763135805
goals: 5.728098696329367,-30.643217895159417,10.569473836570214,-0.004900281513471151,20.070061507786416,5.747325580326561
state: 5.276112264065262,-29.722099087567646,11.255706163339227,-0.17587040880217542,18.290522515426247,5.627853081669613
goals: 5.728091699724129,-30.891698027865576,9.633634510867337,-0.004910300179420063,21.254380964852285,5.747374508487366
goals: 5.728087136550279,-31.062026756674367,9.02868291379938,-0.00491718797080263,22.02966128984542,5.747406671477062
state: 5.276112264065262,-30.073839905171997,9.321131666515297,-0.17587040880217542,20.40096742105235,5.627853081669613
goals: 5.728085608578847,-31.120531003307768,8.827080025587298,-0.004919557570414996,22.28976842439365,5.747417486634902
goals: 5.90172944414249,-31.1493822884052,8.788730934714685,-0.004916479880936629,22.356960229315074,5.921063796794882
state: 5.276112264065262,-30.425580722776346,9.321131666515297,-0.17587040880217542,20.928578647458874,5.627853081669613
goals: 6.8049703637109324,-31.224633016185553,8.873856671986537,-0.004896957821226145,22.347040725542076,6.824300483209497
goals: 7.846184403346127,-31.324735728923407,8.987161178657672,-0.004873995491309334,22.33378782887447,7.86550947605159
state: 5.627853081669613,-30.601451131578518,9.321131666515297,-0.17587040880217542,20.928578647458874,6.50720512568049
goals: 8.896162987680938,-31.440206889885975,9.117954248334211,-0.0048503447164565195,22.31841459546065,8.915482789933833
goals: 9.941940329415939,-31.56976292316105,9.264820380121078,-0.004826296186347435,22.301053589695076,9.961254701233878
state: 7.562427578493542,-30.95319194918287,9.321131666515297,-0.17587040880217542,20.928578647458874,8.44177962250442
goals: 10.98505462313612,-31.71350535578532,9.42791617788239,-0.0048018212194364555,22.281649662019852,11.004363397930858
goals: 12.031531989492171,-31.87233826952664,9.60831518908805,-0.0047767798422407555,22.260033059051917,12.050834967609662
state: 10.37635411932835,-31.304932766787225,9.321131666515297,-0.17587040880217542,20.928578647458874,10.200483710526175
goals: 13.079200151793545,-32.046093641835945,9.805880496708653,-0.004751222766856157,22.236172785757216,13.098497143704776
goals: 14.129205946699457,-32.23510984298265,10.021056192597538,-0.004725121478032392,22.209963070810225,14.148496754503848
state: 12.662669433756628,-31.656673584391577,9.321131666515297,-0.17587040880217542,20.928578647458874,12.135058207350104
goals: 15.016532164324754,-32.406509332298185,10.216409818836938,-0.004702685298038664,22.185966677110414,15.035817601325528
goals: 15.197330222387599,-32.405666763136956,10.385660177161657,-0.004696632852469505,22.015865160532904,15.216607043083174
state: 14.773114339382737,-32.00841440199592,9.321131666515297,-0.17587040880217542,20.928578647458874,14.069632704174033
goals: 15.197335537532414,-32.201553375220385,11.112824255406776,-0.00468872671841074,21.084587695355665,15.216570073287574
goals: 15.197342405539631,-31.951754346618998,12.061691729799962,-0.0046790809089944495,19.885921193621474,15.216522702592522
state: 14.773114339382737,-31.832543993193752,10.903965345734875,-0.17587040880217542,20.928578647458874,14.59724393058056
goals: 15.197349219137408,-31.719307903027214,13.013180541389936,-0.004670134587367011,18.701985939677495,15.216476139012757
goals: 15.197356100722775,-31.49990638682457,13.98422603298094,-0.004661716227607739,17.511538933121624,15.216429532651532
state: 14.948984748184909,-31.832543993193752,12.838539842558804,-0.17587040880217542,18.46639292422842,14.59724393058056
goals: 15.197363055460983,-31.293674456514054,14.975675766118249,-0.004653825977161382,16.31385727091255,15.216382846825104
goals: 15.197369960236935,-31.10415676987602,15.969839663952637,-0.004646594559365394,15.130175687658287,15.216336895818113
state: 15.124855156987085,-31.832543993193752,14.948984748184909,-0.17587040880217542,16.00420720099796,14.59724393058056
goals: 15.197376956746963,-30.927412560470238,16.987015098231584,-0.004639867130570818,13.936256045196448,15.216290726088085
goals: 15.197383974507595,-30.76540208437507,18.016998593891948,-0.004633714461998382,12.744262074656385,15.216244798323737
state: 15.124855156987085,-31.4808031755894,17.059429653811016,0.0,13.717891886569682,14.59724393058056
goals: 15.197391006893259,-30.618201549943382,19.058696919405506,-0.004628135676004954,11.555363215918286,15.216199145126668
goals: 15.197398106510896,-30.48477700679549,20.119872004385474,-0.004623088269872978,10.360763588998509,15.216153417890288
state: 15.124855156987085,-31.304932766787225,19.16987455943712,0.0,11.255706163339227,14.59724393058056
goals: 15.197405230700408,-30.36602378147932,21.194132153245736,-0.004618603143678426,9.167750216024043,15.216107885027856
goals: 15.197412365778248,-30.262079473571617,22.27928321824415,-0.004614682764855527,7.978654844311752,15.216062623492553
state: 15.124855156987085,-30.777321540380697,21.632060282667577,0.0,8.793520440108772,14.59724393058056
goals: 15.197419514744288,-30.172775733561355,23.375629607670582,-0.004611318404120704,6.793004716061534,15.216017603231741
goals: 15.197426745979142,-30.09734930856552,24.493636925040065,-0.004608479317140021,5.599570974886918,15.215972387512993
state: 15.300725565789259,-30.601451131578518,23.91837559709586,-0.17587040880217542,6.50720512568049,14.59724393058056
goals: 15.197433979825934,-30.03668407157425,25.620944047812284,-0.004606197100624738,4.4115986163054215,15.21592746759254
goals: 15.197441259962735,-29.9903503177433,26.76424037301365,-0.004604454222556109,3.2219685384538197,15.215882563042438
state: 15.300725565789259,-30.601451131578518,26.38056132032631,-0.17587040880217542,4.22088981125221,14.59724393058056
goals: 15.197448699883635,-29.958033759686497,27.941509479531472,-0.004603237800994152,2.012382875077008,15.21583697422527
goals: 15.19745557030032,-29.941490945186874,29.036443792491642,-0.004602613422669833,0.900905748715736,15.215795134783841
state: 15.300725565789259,-30.601451131578518,28.66687663475459,-0.17587040880217542,1.9345744968239293,14.59724393058056
goals: 15.197458457743625,-29.93830474410314,29.498800605919037,-0.004602492209582941,0.4353627346641786,15.215777622846357
goals: 15.197460603740586,-29.937369554694794,29.843259409460668,-0.0046024558260131,0.08996874205496411,15.21576463467053
state: 15.300725565789259,-30.425580722776346,29.01861745235894,0.0,1.0552224528130525,14.59724393058056
goals: 15.197465433245451,-29.939701183918114,30.62100393713456,-0.0046025402115348595,-0.6854441556311247,15.21573548771022
goals: 15.197472833851487,-29.955073734916326,31.819535101770306,-0.0046031118285960754,-1.868602768103513,15.215691039356846
state: 15.300725565789259,-30.425580722776346,31.4808031755894,0.0,-0.8793520440108771,14.59724393058056
goals: 15.197480285721134,-29.984783018466786,33.034414255014404,-0.004604221144578659,-3.0537726366313396,15.215646536813097
goals: 15.19748773831346,-30.028550329620163,34.25726900573029,-0.004605858385236306,-4.232860075035031,15.21560227342384
state: 15.300725565789259,-30.425580722776346,33.76711849001768,-0.17587040880217542,-3.165667358439157,14.59724393058056
goals: 15.197493676626294,-30.073337105098986,35.237135529725336,-0.004607535825190152,-5.1679398226327775,15.215567170902785
goals: 15.122351855667743,-30.158497366442056,35.53525620313624,-0.004609832696602921,-5.380896665811032,15.14041591153545
state: 15.300725565789259,-30.425580722776346,35.17408176043509,-0.17587040880217542,-4.396760220054386,14.59724393058056
goals: 14.41781319844626,-30.861544223897017,36.32531764029458,-0.004627413237973852,-5.46787772644016,14.435872603217621
goals: 13.529130260400999,-31.767416890670127,37.348749444391665,-0.004649316854094241,-5.585394432542015,13.547183429228426
state: 15.300725565789259,-31.129062357985053,37.460397074863366,-0.17587040880217542,-4.572630628856562,14.421373521778381
goals: 12.666161388819749,-32.66796858614058,38.372236967607634,-0.004670297511747564,-5.708288897522674,12.684208084499577
goals: 11.814783651752517,-33.57716638613673,39.41168095264648,-0.0046907185660662355,-5.838494123877511,11.832823532572899
state: 14.948984748184909,-32.88776644600681,39.39497157168729,-0.17587040880217542,-4.748501037658736,12.662669433756628
goals: 10.976235694666608,-34.4933758299221,40.46536470006984,-0.004710563816078535,-5.975927941172837,10.994268421504067
goals: 10.161307516022323,-35.40404019685674,41.51885531711446,-0.004729596990133712,-6.118714709635676,10.179332844901415
state: 13.190280660163156,-34.99821135163291,41.5054164773134,-0.17587040880217542,-4.924371446460912,10.903965345734875
goals: 9.356662130499153,-36.32337721757349,42.58862448241043,-0.004748147284411834,-6.269107741475805,9.374679698437875
goals: 8.571912083952855,-37.239841783359026,43.66128876431934,-0.004766008846444787,-6.4252691900725445,8.58992162083094
state: 10.552224528130523,-36.75691543965466,43.791731791741675,-0.17587040880217542,-5.1002418552630875,9.321131666515297
goals: 7.797664626626109,-38.16382514686018,44.74905019574702,-0.0047834111447421016,-6.589009386430178,7.815665767287839
goals: 7.037168709806132,-39.091091926830835,45.847024013736316,-0.004800294102187831,-6.7596791148607345,7.055161120781522
state: 8.793520440108772,-38.69148993647859,45.90217669736778,-0.17587040880217542,-5.803723490471789,7.738297987295717
goals: 6.293740176880229,-40.01697745245635,46.949697390075826,-0.004816599606774727,-6.936430388879089,6.31172356624792
goals: 5.560641738481512,-40.94937371223228,48.0665127338695,-0.004832489382604276,-7.120813304849334,5.578615733563743
