RAMEL-ESPOL/ARCHIE/manipulator_master/src/datos.txt
Joint0,Joint1,Joint2,Joint3,Joint4,Joint5 
goals: 0.0,0.0,0.0,0.0,0.0,0.0
goals: 0.0,0.0,0.0,0.0,0.0,0.0
state: 0.0,0.0,0.0,0.17587040880217542,0.0,-0.5276112264065262
goals: 0.0,0.0,0.0,0.0,0.0,0.0
goals: 0.0,0.0,0.0,0.0,0.0,0.0
state: 0.0,0.0,0.0,0.17587040880217542,0.0,-0.5276112264065262
goals: 0.0,0.0,0.0,0.0,0.0,0.0
goals: 0.0,0.0,0.0,0.0,0.0,0.0
state: 0.0,0.0,0.0,0.17587040880217542,0.0,-0.5276112264065262
goals: 0.0,0.0,0.0,0.0,0.0,0.0
goals: 0.0,0.0,0.0,0.0,0.0,0.0
state: 0.0,0.0,0.0,0.17587040880217542,0.0,-0.5276112264065262
goals: 0.0,0.0,0.0,0.0,0.0,0.0
goals: 0.0,0.0,0.0,0.0,0.0,0.0
state: 0.0,0.0,0.0,0.17587040880217542,0.0,-0.5276112264065262
goals: 0.0,0.0,0.0,0.0,0.0,0.0
goals: 0.0,0.0,0.0,0.0,0.0,0.0
state: 0.0,0.0,0.0,0.17587040880217542,0.0,-0.5276112264065262
goals: 0.0,0.0,0.0,0.0,0.0,0.0
goals: 0.0,0.0,0.0,0.0,0.0,0.0
state: 0.0,0.0,0.0,0.17587040880217542,0.0,-0.5276112264065262
goals: 0.0,0.0,0.0,0.0,0.0,0.0
goals: 0.0,0.0,0.0,0.0,0.0,0.0
state: 0.0,0.0,0.0,0.17587040880217542,0.0,-0.5276112264065262
goals: 0.0,0.0,0.0,0.0,0.0,0.0
goals: 0.0,0.0,0.0,0.0,0.0,0.0
state: 0.0,0.0,0.0,0.17587040880217542,0.0,-0.5276112264065262
goals: 0.0,0.0,0.0,0.0,0.0,0.0
goals: 0.0,0.0,0.0,0.0,0.0,0.0
state: 0.0,0.0,0.0,0.17587040880217542,0.0,-0.5276112264065262
goals: 0.0,0.0,0.0,0.0,0.0,0.0
goals: 0.0,0.0,0.0,0.0,0.0,0.0
state: 0.0,0.0,0.0,0.17587040880217542,0.0,-0.5276112264065262
goals: 0.0,0.0,0.0,0.0,0.0,0.0
goals: 0.0,0.0,0.0,0.0,0.0,0.0
state: 0.0,0.0,0.0,0.17587040880217542,0.0,-0.5276112264065262
goals: 0.0,0.0,0.0,0.0,0.0,0.0
goals: 0.0,0.0,0.0,0.0,0.0,0.0
state: 0.0,0.0,0.0,0.17587040880217542,0.0,-0.5276112264065262
goals: 0.0,0.0,0.0,0.0,0.0,0.0
goals: 0.0,0.0,0.0,0.0,0.0,0.0
state: 0.0,0.0,0.0,0.17587040880217542,0.0,-0.5276112264065262
goals: 0.0,0.0,0.0,0.0,0.0,0.0
goals: 0.0,0.0,0.0,0.0,0.0,0.0
state: 0.0,0.0,0.0,0.17587040880217542,0.0,-0.5276112264065262
goals: 0.0,0.0,0.0,0.0,0.0,0.0
goals: 0.0,0.0,0.0,0.0,0.0,0.0
state: 0.0,0.0,0.0,0.17587040880217542,0.0,-0.5276112264065262
goals: 0.0,0.0,0.0,0.0,0.0,0.0
goals: 0.0,0.0,0.0,0.0,0.0,0.0
state: 0.0,0.0,0.0,0.17587040880217542,0.0,-0.5276112264065262
goals: 0.0,0.0,0.0,0.0,0.0,0.0
goals: 0.0,0.0,0.0,0.0,0.0,0.0
state: 0.0,0.0,0.0,0.17587040880217542,0.0,-0.5276112264065262
goals: 0.0,0.0,0.0,0.0,0.0,0.0
goals: 0.0,0.0,0.0,0.0,0.0,0.0
state: 0.0,0.0,0.0,0.17587040880217542,0.0,-0.5276112264065262
goals: 0.0,0.0,0.0,0.0,0.0,0.0
goals: 0.0,0.0,0.0,0.0,0.0,0.0
state: 0.0,0.0,0.0,0.17587040880217542,0.0,-0.5276112264065262
goals: 0.0,0.0,0.0,0.0,0.0,0.0
goals: 0.0,0.0,0.0,0.0,0.0,0.0
state: 0.0,0.0,0.0,0.17587040880217542,0.0,-0.5276112264065262
goals: 0.0,0.0,0.0,0.0,0.0,0.0
goals: 0.0,0.0,0.0,0.0,0.0,0.0
state: 0.0,0.0,0.0,0.17587040880217542,0.0,-0.5276112264065262
goals: 0.0,0.0,0.0,0.0,0.0,0.0
goals: 0.0,0.0,0.0,0.0,0.0,0.0
state: 0.0,0.0,0.0,0.17587040880217542,0.0,-0.5276112264065262
goals: 0.0,0.0,0.0,0.0,0.0,0.0
goals: 0.0,0.0,0.0,0.0,0.0,0.0
state: 0.0,0.0,0.0,0.17587040880217542,0.0,-0.5276112264065262
goals: 0.0,0.0,0.0,0.0,0.0,0.0
goals: 0.0,0.0,0.0,0.0,0.0,0.0
state: 0.0,0.0,0.0,0.17587040880217542,0.0,-0.5276112264065262
goals: 0.0,0.0,0.0,0.0,0.0,0.0
goals: 0.0,0.0,0.0,0.0,0.0,0.0
state: 0.0,0.0,0.0,0.0,0.0,-0.5276112264065262
goals: 0.0,0.0,0.0,0.0,0.0,0.0
goals: 0.0,0.0,0.0,0.0,0.0,0.0
state: 0.0,0.0,0.0,0.17587040880217542,0.0,-0.5276112264065262
goals: 0.0,0.0,0.0,0.0,0.0,0.0
goals: -5.061426803258977e-05,-2.5381168933320593e-05,1.5212669808900769e-05,2.951793382124246e-05,-4.425284325787645e-05,-5.548515137634322e-05
state: 0.0,0.0,0.0,0.17587040880217542,0.0,-0.5276112264065262
goals: -0.010065957972079896,-0.005047702746596306,0.0030254333588490435,0.005870405575675758,-0.008800823911787218,-0.011034659267800628
goals: -0.010065957972079896,-0.005047702746596306,0.0030254333588490435,0.005870405575675758,-0.008800823911787218,-0.011034659267800628
state: 0.0,-0.17587040880217542,0.0,0.17587040880217542,-0.17587040880217542,-0.5276112264065262
goals: -0.010065957972079896,-0.005047702746596306,0.0030254333588490435,0.005870405575675758,-0.008800823911787218,-0.011034659267800628
goals: -0.010065957972079896,-0.005047702746596306,0.0030254333588490435,0.005870405575675758,-0.008800823911787218,-0.011034659267800628
state: 0.0,-0.17587040880217542,0.0,0.17587040880217542,-0.17587040880217542,-0.5276112264065262
goals: -0.010065957972079896,-0.005047702746596306,0.0030254333588490435,0.005870405575675758,-0.008800823911787218,-0.011034659267800628
goals: -0.010065957972079896,-0.005047702746596306,0.0030254333588490435,0.005870405575675758,-0.008800823911787218,-0.011034659267800628
state: 0.0,-0.17587040880217542,0.0,0.17587040880217542,-0.17587040880217542,-0.5276112264065262
goals: -0.010065957972079896,-0.005047702746596306,0.0030254333588490435,0.005870405575675758,-0.008800823911787218,-0.011034659267800628
goals: -0.010065957972079896,-0.005047702746596306,0.0030254333588490435,0.005870405575675758,-0.008800823911787218,-0.011034659267800628
state: 0.0,-0.17587040880217542,0.0,0.17587040880217542,-0.17587040880217542,-0.5276112264065262
goals: -0.010065957972079896,-0.005047702746596306,0.0030254333588490435,0.005870405575675758,-0.008800823911787218,-0.011034659267800628
goals: -0.010065957972079896,-0.005047702746596306,0.0030254333588490435,0.005870405575675758,-0.008800823911787218,-0.011034659267800628
state: 0.0,-0.17587040880217542,0.0,0.17587040880217542,-0.17587040880217542,-0.5276112264065262
goals: -0.010065957972079896,-0.005047702746596306,0.0030254333588490435,0.005870405575675758,-0.008800823911787218,-0.011034659267800628
goals: -0.010065957972079896,-0.005047702746596306,0.0030254333588490435,0.005870405575675758,-0.008800823911787218,-0.011034659267800628
state: 0.0,-0.17587040880217542,0.0,0.17587040880217542,-0.17587040880217542,-0.5276112264065262
goals: -0.010065957972079896,-0.005047702746596306,0.0030254333588490435,0.005870405575675758,-0.008800823911787218,-0.011034659267800628
goals: -0.010065957972079896,-0.005047702746596306,0.0030254333588490435,0.005870405575675758,-0.008800823911787218,-0.011034659267800628
state: -0.17587040880217542,-0.17587040880217542,0.0,0.17587040880217542,-0.17587040880217542,-0.5276112264065262
goals: -0.010065957972079896,-0.005047702746596306,0.0030254333588490435,0.005870405575675758,-0.008800823911787218,-0.011034659267800628
goals: -0.010065957972079896,-0.005047702746596306,0.0030254333588490435,0.005870405575675758,-0.008800823911787218,-0.011034659267800628
state: 0.0,-0.17587040880217542,0.0,0.17587040880217542,-0.17587040880217542,-0.5276112264065262
goals: -0.010065957972079896,-0.005047702746596306,0.0030254333588490435,0.005870405575675758,-0.008800823911787218,-0.011034659267800628
goals: -0.010065957972079896,-0.005047702746596306,0.0030254333588490435,0.005870405575675758,-0.008800823911787218,-0.011034659267800628
state: 0.0,-0.17587040880217542,0.0,0.17587040880217542,-0.17587040880217542,-0.5276112264065262
goals: -0.010065957972079896,-0.005047702746596306,0.0030254333588490435,0.005870405575675758,-0.008800823911787218,-0.011034659267800628
goals: -0.010065957972079896,-0.005047702746596306,0.0030254333588490435,0.005870405575675758,-0.008800823911787218,-0.011034659267800628
state: -0.17587040880217542,-0.17587040880217542,0.0,0.17587040880217542,-0.17587040880217542,-0.5276112264065262
goals: -0.010065957972079896,-0.005047702746596306,0.0030254333588490435,0.005870405575675758,-0.008800823911787218,-0.011034659267800628
goals: -0.010065957972079896,-0.005047702746596306,0.0030254333588490435,0.005870405575675758,-0.008800823911787218,-0.011034659267800628
state: 0.0,-0.17587040880217542,0.0,0.17587040880217542,-0.17587040880217542,-0.5276112264065262
goals: -0.010065957972079896,-0.005047702746596306,0.0030254333588490435,0.005870405575675758,-0.008800823911787218,-0.011034659267800628
goals: -0.010065957972079896,-0.005047702746596306,0.0030254333588490435,0.005870405575675758,-0.008800823911787218,-0.011034659267800628
state: 0.0,-0.17587040880217542,0.0,0.17587040880217542,-0.17587040880217542,-0.5276112264065262
goals: -0.010065957972079896,-0.005047702746596306,0.0030254333588490435,0.005870405575675758,-0.008800823911787218,-0.011034659267800628
goals: -0.010065957972079896,-0.005047702746596306,0.0030254333588490435,0.005870405575675758,-0.008800823911787218,-0.011034659267800628
state: -0.17587040880217542,-0.17587040880217542,0.0,0.17587040880217542,-0.17587040880217542,-0.5276112264065262
goals: -0.010065957972079896,-0.005047702746596306,0.0030254333588490435,0.005870405575675758,-0.008800823911787218,-0.011034659267800628
goals: -0.010065957972079896,-0.005047702746596306,0.0030254333588490435,0.005870405575675758,-0.008800823911787218,-0.011034659267800628
state: -0.17587040880217542,-0.17587040880217542,0.0,0.17587040880217542,-0.17587040880217542,-0.5276112264065262
goals: -0.010065957972079896,-0.005047702746596306,0.0030254333588490435,0.005870405575675758,-0.008800823911787218,-0.011034659267800628
goals: -0.010065957972079896,-0.005047702746596306,0.0030254333588490435,0.005870405575675758,-0.008800823911787218,-0.011034659267800628
state: -0.17587040880217542,-0.17587040880217542,0.0,0.17587040880217542,-0.17587040880217542,-0.5276112264065262
goals: -0.010065957972079896,-0.005047702746596306,0.0030254333588490435,0.005870405575675758,-0.008800823911787218,-0.011034659267800628
goals: -0.010065957972079896,-0.005047702746596306,0.0030254333588490435,0.005870405575675758,-0.008800823911787218,-0.011034659267800628
state: -0.17587040880217542,-0.17587040880217542,0.0,0.17587040880217542,-0.17587040880217542,-0.5276112264065262
goals: -0.010065957972079896,-0.005047702746596306,0.0030254333588490435,0.005870405575675758,-0.008800823911787218,-0.011034659267800628
goals: -0.010065957972079896,-0.005047702746596306,0.0030254333588490435,0.005870405575675758,-0.008800823911787218,-0.011034659267800628
state: -0.17587040880217542,-0.17587040880217542,0.0,0.17587040880217542,-0.17587040880217542,-0.5276112264065262
goals: -0.010065957972079896,-0.005047702746596306,0.0030254333588490435,0.005870405575675758,-0.008800823911787218,-0.011034659267800628
goals: -0.010065957972079896,-0.005047702746596306,0.0030254333588490435,0.005870405575675758,-0.008800823911787218,-0.011034659267800628
state: -0.17587040880217542,-0.17587040880217542,0.0,0.17587040880217542,-0.17587040880217542,-0.5276112264065262
goals: -0.010065957972079896,-0.005047702746596306,0.0030254333588490435,0.005870405575675758,-0.008800823911787218,-0.011034659267800628
goals: -0.010065957972079896,-0.005047702746596306,0.0030254333588490435,0.005870405575675758,-0.008800823911787218,-0.011034659267800628
state: -0.17587040880217542,-0.17587040880217542,0.0,0.17587040880217542,-0.17587040880217542,-0.5276112264065262
goals: -0.010065957972079896,-0.005047702746596306,0.0030254333588490435,0.005870405575675758,-0.008800823911787218,-0.011034659267800628
goals: -0.010065957972079896,-0.005047702746596306,0.0030254333588490435,0.005870405575675758,-0.008800823911787218,-0.011034659267800628
state: -0.17587040880217542,-0.17587040880217542,0.0,0.0,-0.17587040880217542,-0.5276112264065262
goals: -0.010065957972079896,-0.005047702746596306,0.0030254333588490435,0.005870405575675758,-0.008800823911787218,-0.011034659267800628
goals: -0.010065957972079896,-0.005047702746596306,0.0030254333588490435,0.005870405575675758,-0.008800823911787218,-0.011034659267800628
state: -0.17587040880217542,-0.17587040880217542,0.0,0.17587040880217542,-0.17587040880217542,-0.5276112264065262
goals: -0.010065957972079896,-0.005047702746596306,0.0030254333588490435,0.005870405575675758,-0.008800823911787218,-0.011034659267800628
goals: -0.010065957972079896,-0.005047702746596306,0.0030254333588490435,0.005870405575675758,-0.008800823911787218,-0.011034659267800628
state: -0.17587040880217542,-0.17587040880217542,0.0,0.17587040880217542,-0.17587040880217542,-0.5276112264065262
goals: -0.010065957972079896,-0.005047702746596306,0.0030254333588490435,0.005870405575675758,-0.008800823911787218,-0.011034659267800628
goals: -0.010065957972079896,-0.005047702746596306,0.0030254333588490435,0.005870405575675758,-0.008800823911787218,-0.011034659267800628
state: 0.0,-0.17587040880217542,0.0,0.17587040880217542,-0.17587040880217542,-0.5276112264065262
goals: -0.010065957972079896,-0.005047702746596306,0.0030254333588490435,0.005870405575675758,-0.008800823911787218,-0.011034659267800628
goals: -0.010065957972079896,-0.005047702746596306,0.0030254333588490435,0.005870405575675758,-0.008800823911787218,-0.011034659267800628
state: -0.17587040880217542,-0.17587040880217542,0.0,0.17587040880217542,-0.17587040880217542,-0.5276112264065262
goals: -0.010065957972079896,-0.005047702746596306,0.0030254333588490435,0.005870405575675758,-0.008800823911787218,-0.011034659267800628
goals: -0.010065957972079896,-0.005047702746596306,0.0030254333588490435,0.005870405575675758,-0.008800823911787218,-0.011034659267800628
state: -0.17587040880217542,-0.17587040880217542,0.0,0.17587040880217542,-0.17587040880217542,-0.5276112264065262
goals: -0.010065957972079896,-0.005047702746596306,0.0030254333588490435,0.005870405575675758,-0.008800823911787218,-0.011034659267800628
goals: -0.010065957972079896,-0.005047702746596306,0.0030254333588490435,0.005870405575675758,-0.008800823911787218,-0.011034659267800628
state: -0.17587040880217542,-0.17587040880217542,0.0,0.17587040880217542,-0.17587040880217542,-0.5276112264065262
goals: -0.010060946318861444,-0.005037813988267512,0.0030165874134147844,0.005870405992257327,-0.008801866504863948,-0.01102964756500939
goals: 0.21988218602517748,0.44709156719629983,-0.4006703414198571,0.00588951013629832,-0.05723421470164574,0.21891579541973855
state: -360.18259722685525,-360.18259722685525,-360.18259722685525,-360.18259722685525,-360.18259722685525,-360.18259722685525
goals: 0.6869917869299171,1.3558995819992272,-1.2074844455927267,0.005928259246603813,-0.15920748176503552,0.6860303120941914
goals: 1.1658171453388195,2.2743242212783734,-2.0165722778396127,0.005967897770816973,-0.26852296380671065,1.1648610123751477
state: -0.17587040880217542,-0.17587040880217542,-0.5276112264065262,0.17587040880217542,-0.17587040880217542,-0.5276112264065262
goals: 1.65323936535591,3.1958401192374972,-2.82206177749182,0.006008162272034234,-0.3845274844621105,1.6522889778167853
goals: 2.1442908935092775,4.11085301489005,-3.6156091872973573,0.006048639217328765,-0.5059707569441542,2.143346600703783
state: 0.17587040880217542,0.8793520440108771,-1.4069632704174033,0.17587040880217542,-0.17587040880217542,0.0
goals: 2.6471516648061737,5.034277579293891,-4.410137053980748,0.006089998772264207,-0.634844527746646,2.646213924619935
goals: 3.154848235799827,5.952938311809445,-5.194279646402109,0.006131662902881836,-0.7693393367884088,3.1539174231359195
state: 1.4069632704174033,2.9897969496369825,-3.3415377672413324,0.17587040880217542,-0.5276112264065262,0.8793520440108771
goals: 3.6690656577704384,6.86973395098111,-5.970587469097219,0.006173766805930518,-0.9098033349095941,3.668142173250177
goals: 4.1922147850351905,7.788655003522119,-6.742445691851942,0.006216503601315012,-1.0568417393400718,4.19129906981069
state: 2.462185723230456,4.748501037658736,-4.748501037658736,0.17587040880217542,-0.7034816352087017,2.110444905626105
goals: 4.725266070485366,8.710970844000688,-7.510872860757942,0.0062599472361564434,-1.210705323225291,4.724358589023946
goals: 5.264363473850401,9.629697166146425,-8.270061891270762,0.006303778863938625,-1.37021703785086,5.263464636995539
state: 3.3415377672413324,6.858945943284841,-6.15546430807614,0.17587040880217542,-1.0552224528130525,2.9897969496369825
goals: 5.81183283283564,10.548549501179226,-9.023127402129214,0.006348183349076173,-1.5359776776343035,5.810943093031801
goals: 6.372691813256154,11.475427259576293,-9.77647115792181,0.006393561161427566,-1.7094846364544656,6.371811716580856
state: 4.396760220054386,8.793520440108772,-7.562427578493542,0.17587040880217542,-1.231092861615228,4.045019402450034
goals: 6.932516887314373,12.386337900999026,-10.510683027640058,0.0064387415373142074,-1.8861561938276223,6.931646733724198
goals: 7.506584815139779,13.305959040101326,-11.24573784302229,0.006484953241595048,-2.070694382851333,7.505725178106218
state: 5.803723490471789,10.552224528130523,-9.321131666515297,0.17587040880217542,-1.5828336792195785,5.276112264065262
goals: 8.091466995595436,14.228175864332375,-11.976644705044404,0.006531912341488561,-2.2619754436716026,8.090618397540892
goals: 8.684422755161776,15.14828725371162,-12.699684189959884,0.006579392623661273,-2.459017804703285,8.683585672904433
state: 6.683075534482665,12.486799024954456,-10.728094936932699,0.17587040880217542,-1.9345744968239293,6.331334716878314
goals: 9.283800863383872,16.06352131724753,-13.412759378534796,0.006627256959514397,-2.6611465682749613,9.282975743826674
goals: 9.896283628709542,16.983695537310158,-14.123530825015504,0.006676032296579894,-2.870518315453631,9.895471057837389
state: 7.914168396097894,14.421373521778381,-12.31092861615228,0.17587040880217542,-2.286315314428281,7.386557169691368
goals: 10.518251394659595,17.902878484192716,-14.827388735937134,0.006725422474596301,-3.0858115799162067,10.517451892005438
goals: 11.153179923163302,18.82573109421867,-15.527887897359582,0.006775695421994667,-3.308132320895876,11.152394088247295
state: 9.321131666515297,16.355948018602312,-13.717891886569682,0.17587040880217542,-2.638056132032631,8.617650031306594
goals: 11.794254301029602,19.74200156520386,-16.217288014865524,0.006826304399007957,-3.5349693702430875,11.793482590563194
goals: 12.449440172349275,20.662696889293773,-16.903904928969247,0.00687787046660514,-3.769013453461857,12.448683222722865
state: 10.552224528130523,18.114652106624067,-15.124855156987085,0.17587040880217542,-3.165667358439157,9.672872484119647
goals: 13.116399003710496,21.583959369007385,-17.58482498044414,0.006930199508289598,-4.009320638649235,13.115657406400707
goals: 13.793471546086813,22.50307948747036,-18.2580743210694,0.006983152439546554,-4.255155331188185,13.792745858550829
state: 11.95918779854793,20.049226603448,-16.707688836206664,0.17587040880217542,-3.5174081760435083,11.255706163339227
goals: 14.481548917376788,23.420886290735336,-18.924307697916102,0.007036790053838439,-4.506691769336638,14.480839721008246
goals: 15.183705280783048,24.340969680758178,-19.586134922775045,0.007091341243508581,-4.764909861909246,15.183013235752293
state: 13.01441025136098,21.983801100271926,-17.76291128901972,0.17587040880217542,-3.8691489936478587,12.486799024954456
goals: 15.896973245120575,25.258938060821304,-20.240409229097242,0.007146564318905722,-5.028564923327856,15.896298943544894
goals: 16.625815924983826,26.179990889369034,-20.890840576707827,0.007202792637773905,-5.299146190538452,16.625160074633193
state: 14.59724393058056,23.91837559709586,-18.994004150634943,0.17587040880217542,-4.748501037658736,13.89376229537186
goals: 17.366695643105434,27.099092674016813,-21.533875795389882,0.007259740270029047,-5.575171518180459,17.366058866592745
goals: 18.121728168509485,28.018365245659595,-22.171030982853647,0.007317556953562033,-5.85724650415745,18.121111145507502
state: 16.00420720099796,25.677079685117608,-20.576837829854522,0.17587040880217542,-4.924371446460912,15.300725565789259
goals: 18.89061933628708,28.936897567269874,-22.801694771773498,0.007376205993914736,-6.145071476293573,18.890022741598578
goals: 19.67709483109373,29.85848098968041,-23.42846169741072,0.007435955245523405,-6.439843017271967,19.676519442429424
state: 17.411170471415367,27.78752459074372,-21.983801100271926,0.17587040880217542,-5.627853081669613,16.707688836206664
goals: 20.476940553216007,30.777549980085297,-24.047556095766403,0.00749646783736252,-6.739771477565589,20.476387037202777
goals: 21.295394421816077,31.699475388979295,-24.662607227579798,0.007558122112891106,-7.046598122211213,21.29486359027352
state: 19.16987455943712,29.370358269963294,-23.039023553084977,0.17587040880217542,-6.15546430807614,17.93878169782189
goals: 22.129607777230266,32.62033312680122,-25.270994394228726,0.007620683612518509,-7.359019701339508,22.129100365125684
goals: 22.973101984100815,33.53258575398143,-25.867845926045863,0.007683650600258733,-7.674370808108183,22.97261854052208
state: 20.7527082386567,31.129062357985053,-24.094246005898032,0.17587040880217542,-6.683075534482665,19.345744968239295
goals: 23.82600520971489,34.4362076534665,-26.4533242128004,0.007747019495026514,-7.992463415750756,23.82554627933615
goals: 24.69488524583745,35.33778131292547,-27.031809560423962,0.007811261016708694,-8.315499295495671,24.694451556479823
state: 22.33554191787628,33.063636854808976,-25.325338867513256,0.17587040880217542,-7.562427578493542,20.928578647458874
goals: 25.580979595839022,36.23797218333744,-27.60377535025906,0.007876444401227894,-8.643670418129698,25.58057190816229
goals: 26.480526772372155,37.13243629307733,-28.166541842215622,0.007942271201424059,-8.975312758960657,26.48014573118443
state: 24.094246005898032,34.99821135163291,-26.556431729128487,0.17587040880217542,-7.914168396097894,22.511412326678453
goals: 27.38268212080137,38.01034747076296,-28.71351708662659,0.00800793386482848,-9.306192752641255,27.382328037294265
goals: 28.28492908151571,38.869635067430465,-29.24374336135254,0.008073242807084468,-9.635197629587605,28.284602173975127
state: 25.852950093919787,36.75691543965466,-27.78752459074372,0.17587040880217542,-8.793520440108772,24.094246005898032
goals: 29.183154278807372,39.70694866561127,-29.75552540618205,0.00813789774293758,-9.960672496619036,29.182854622046708
goals: 30.091354199598527,40.535590149357034,-30.257270784285335,0.008202897433799794,-10.28751078994458,30.091082277008155
state: 27.61165418194154,38.51561952767642,-28.842747043556763,0.17587040880217542,-9.321131666515297,25.325338867513256
goals: 30.98634671987816,41.33491590176951,-30.73681118259195,0.008266579624127036,-10.607238687573123,30.98610228872452
goals: 31.771758169911323,42.02256622959861,-31.145861491331637,0.008322156200701892,-10.885787891272646,31.77153798233558
state: 29.370358269963294,40.098453206896,-29.897969496369818,0.17587040880217542,-10.024613301724,26.90817254673284
goals: 31.904877151117685,42.15819889735413,-31.398603637841205,0.008330471362318534,-10.768669763866209,31.904649707698393
goals: 31.904881130610597,42.24868155134504,-32.25145913006299,0.00832569150199726,-10.00629692680204,31.90460089223075
state: 31.304932766787225,41.68128688611557,-31.129062357985053,0.17587040880217542,-10.903965345734875,28.31513581715024
goals: 31.904885585773012,42.34324090609868,-33.20991452274293,0.008320704002196344,-9.142400890199363,31.9045455958998
goals: 31.90489000348763,42.42966757632853,-34.16395912957007,0.008316152183178495,-8.27478295493315,31.90449007714225
state: 32.1842848107981,42.38476852132428,-31.4808031755894,0.17587040880217542,-11.07983575453705,29.370358269963294
goals: 31.904894427163786,42.50855943736449,-35.12274196238019,0.008312002593298572,-7.394891984510695,31.904433783505528
goals: 31.904898837300596,42.579252645755496,-36.08182924723477,0.008308288351256302,-6.506497909413926,31.90437695066824
state: 32.1842848107981,42.56063893012645,-33.591248081215504,0.17587040880217542,-9.848742892921823,29.546228678765473
goals: 31.9049032035847,42.64107671725173,-37.03435939572615,0.00830504295388656,-5.615791833791274,31.904319968786243
goals: 31.90490759081449,42.694666191773386,-37.99422599174968,0.008302231548433474,-4.709514713688222,31.90426198336598
state: 32.00841440199592,42.73650933892863,-35.52582257803944,0.17587040880217542,-8.090038804900068,29.546228678765473
goals: 31.904911958690494,42.739169828906384,-38.95238364890182,0.008299897429043211,-3.795860695081729,31.90420351197373
goals: 31.90491629334233,42.774249151221575,-39.90550517366733,0.008298057149806642,-2.87781849405348,31.90414473902796
state: 32.00841440199592,42.73650933892863,-37.460397074863366,0.17587040880217542,-6.15546430807614,29.546228678765473
goals: 31.904920550934396,42.799542595996144,-40.84362498547456,0.00829672872987473,-1.9649921284375356,31.904086272828373
goals: 31.904924768154956,42.81529965444278,-41.7745019937321,0.008295898385316856,-1.0498721800497857,31.904027625925032
state: 32.00841440199592,42.73650933892863,-39.57084198048947,0.0,-4.22088981125221,29.546228678765473
goals: 31.904928044410017,42.820932819893486,-42.498651420804805,0.008295598108955787,-0.3313559195472429,31.90398155064562
goals: 31.904928973566463,42.82145303514438,-42.70415849718953,0.008295569146006116,-0.12636905873314483,31.90396840071728
state: 32.00841440199592,42.912379747730796,-41.32954606851122,0.0,-2.462185723230456,29.546228678765473
goals: 31.904931294963685,42.82063344405952,-43.21782909400117,0.008295607320129798,0.3881211283602071,31.903935385520416
goals: 31.904935447050644,42.811459709164126,-44.137297998470814,0.008296077654236312,1.3167637662730138,31.903875752280715
state: 32.00841440199592,42.912379747730796,-42.73650933892863,0.0,-0.7034816352087017,29.546228678765473
goals: 31.90493964626892,42.79182425443009,-45.06789529377854,0.008297093855949773,2.266996514825246,31.903814670969147
goals: 31.904943819509935,42.76163362290783,-45.99314058113068,0.008298661525785192,3.222432432198218,31.9037531847335
state: 31.832543993193752,42.912379747730796,-43.6158613829395,0.17587040880217542,0.17587040880217542,29.546228678765473
goals: 31.904947961228906,42.72079230265694,-46.91150633107004,0.008300786561460261,4.1816395008771465,31.903691376952242
goals: 31.904952111980272,42.66863116472807,-47.831685437839894,0.008303505103139248,5.153979744039665,31.90362863419939
state: 32.00841440199592,42.912379747730796,-45.550435879763434,0.0,2.110444905626105,29.546228678765473
goals: 31.904956235203112,42.60532789519997,-48.74526974097621,0.008306809585404121,6.130867315156216,31.903565499756137
goals: 31.904960344606753,42.530488866794805,-49.65499422705108,0.00831072261331557,7.115430828071579,31.903501760999383
state: 32.00841440199592,42.56063893012645,-47.309139967785185,0.17587040880217542,4.045019402450034,29.546228678765473
goals: 31.904964375616117,42.44533946439078,-50.54628420113506,0.008315182415991247,8.091870203002959,31.90343843228146
goals: 31.904968357081767,42.349494220861935,-51.425268402364345,0.00832021170843737,9.066699646202101,31.90337508424128
state: 32.00841440199592,42.56063893012645,-49.24371446460912,0.0,5.979593899273965,29.546228678765473
goals: 31.904972302654734,42.242678825679945,-52.29470551489411,0.008325827844872784,10.042952152347446,31.903311511134167
goals: 31.90497619962503,42.12530585150857,-53.15155270181928,0.008332012414298635,11.017172311875468,31.90324792936828
state: 32.00841440199592,42.38476852132428,-51.00241855263087,0.17587040880217542,7.914168396097894,29.546228678765473
goals: 31.904980078939502,41.996441634325144,-54.002369193681226,0.008338818340944059,11.996853019337989,31.903183840264855
goals: 31.904983901116694,41.85745209951611,-54.83827032906367,0.008346177485573172,12.971743687948543,31.90311990528204
state: 32.00841440199592,42.20889811252209,-52.76112264065262,0.0,10.200483710526175,29.546228678765473
goals: 31.904987690075274,41.70760909604228,-55.66428819887879,0.00835413263207774,13.947604559649074,31.903055738507426
goals: 31.90499144085136,41.54717768764251,-56.47913702707601,0.008362674383170182,14.922884794652473,31.90299143265946
state: 31.832543993193752,41.85715729491775,-54.3439563198722,0.0,12.135058207350104,29.546228678765473
goals: 31.904995166988915,41.375618335578515,-57.28555675278175,0.008371836573872088,15.900863870817776,31.902926761593314
goals: 31.9049988471233,41.19400798235032,-58.07874368492492,0.00838156702960379,16.87566115458337,31.90286210491232
state: 32.00841440199592,41.85715729491775,-56.10266040789396,0.0,14.245503112976209,29.546228678765473
goals: 31.905002246775407,41.015280312555184,-58.80835457564523,0.008391174683015144,17.783999713596398,31.902801671813897
goals: 31.905003749409868,40.93287779438031,-59.12982811187758,0.008395614887928648,18.187875767333658,31.9027747420735
state: 32.00841440199592,41.32954606851122,-57.50962367831136,0.17587040880217542,16.180077609800136,29.546228678765473
goals: 31.905005531645614,40.83240520112623,-59.51028077906826,0.00840103783898472,18.66880102697902,31.90274262591561
goals: 31.905006129569365,40.79802745020998,-59.637710251704156,0.008402895645769176,18.83060825026181,31.902731808286905
state: 32.00841440199592,41.153675659709045,-58.91658694872876,0.17587040880217542,17.76291128901972,29.897969496369818
goals: 32.406006774886166,40.63235907557818,-59.542398283007465,0.008438110009347691,18.90099729890096,32.40372184077459
goals: 33.39900572583948,40.297421093006264,-59.3416934977843,0.00850744565654557,19.03529563181687,33.39670007111603
state: 31.832543993193752,40.8019348421047,-59.44419817513529,0.0,18.46639292422842,30.425580722776346
goals: 34.417186772035016,39.94248023768202,-59.128198758767304,0.008578028430782257,19.176809134048522,34.41485952473456
goals: 35.430876764139676,39.57743192058173,-58.90776016026084,0.008647781991200401,19.321486538136444,35.42852766986748
state: 32.1842848107981,40.626064433302524,-59.44419817513529,0.0,18.642263333030595,30.425580722776346
goals: 36.44419402793511,39.20077532968473,-58.679391195333885,0.008716989724106878,19.46984241459557,36.4418227453177
goals: 37.46540530577654,38.80920029647227,-58.44098374111936,0.008786206689483574,19.623079367048426,37.46301130822626
state: 34.11885930762203,40.098453206896,-59.44419817513529,-0.5276112264065262,18.642263333030595,30.601451131578518
goals: 38.47715382453767,38.409281116514656,-58.19644855312389,0.008854254008162933,19.778532669563887,38.47473697250844
goals: 39.49223745612613,37.995954759553605,-57.94260059420049,0.008921993538521272,19.93808118126699,39.489797324764204
state: 36.40517462205031,39.21910116288512,-58.91658694872876,-0.5276112264065262,18.994004150634943,32.00841440199592
goals: 40.495135045856564,37.57558407203525,-57.68326134136779,0.00898839282813665,20.099182447803326,40.49267157187079
goals: 41.485214657652804,37.148765513189836,-57.41873948266369,0.009053426130085734,20.261548627922586,41.48272780669341
state: 38.51561952767642,38.16387871007206,-58.38897572232224,-0.5276112264065262,19.873356194645822,34.11885930762203
goals: 42.470838298576545,36.71208578692436,-57.14684685346374,0.009117652727616993,20.426405420675984,42.46832784944047
goals: 43.45627417847124,36.26361864371637,-56.8662861643719,0.009181350979024613,20.594382079087957,43.45373981247715
state: 40.45019402450035,37.460397074863366,-57.861364495915716,-0.5276112264065262,20.049226603448,36.93278584845684
goals: 44.44022626555144,35.80386127034223,-56.57726113603729,0.00924443496653482,20.76518503821172,44.4376676991629
goals: 45.4172400099326,35.335390937775344,-56.28129597561044,0.009306558201850895,20.937760831026335,45.41465710120755
state: 42.38476852132428,36.40517462205031,-57.33375326950918,-0.5276112264065262,20.40096742105235,39.04323075408294
goals: 46.25838391372186,34.92242785669195,-56.01917114758399,0.009359627698202295,21.088660282617635,46.255779801248075
goals: 46.39652345502213,34.81735855182485,-55.8156189091756,0.009366516828507055,20.990187434813052,46.393925637298736
state: 44.49521342695038,35.52582257803944,-56.63027163430048,-0.35174081760435083,20.928578647458874,40.626064433302524
goals: 46.27577315178321,34.67497053830104,-54.977276930639725,0.009349376472873074,20.29422465435434,46.27323177731627
goals: 46.13778195904376,34.50407264733335,-54.01023177189596,0.009330214089884863,19.49806732166586,46.13530489795826
state: 46.078047106169954,34.822340942830735,-56.10266040789396,-0.5276112264065262,21.104449056261046,41.85715729491775
goals: 46.001515851344806,34.32673998636466,-53.0457432436517,0.009311732878980294,18.710901524962523,45.99910211539922
goals: 45.86672728714397,34.142937258293266,-52.08227842846401,0.009293880579233868,17.931229625541445,45.864376023181876
state: 46.25391751497214,34.470600125226376,-54.871567546278726,-0.35174081760435083,20.928578647458874,42.20889811252209
goals: 45.73184568851679,33.95063679342114,-51.10863980929371,0.009276439677859925,17.1498816615951,45.72955678728005
goals: 45.59830293909418,33.75197809647882,-50.13517707667224,0.009259586946782618,16.37506792294574,45.59607564448108
state: 46.078047106169954,34.11885930762203,-53.46460427586132,-0.35174081760435083,18.994004150634943,43.08825015653298
goals: 45.46571856489406,33.54658784711681,-49.15924169183519,0.009243261530091303,15.60451316330828,45.46355231264115
goals: 45.334151122042954,33.334716761230666,-48.181355713011015,0.009227459740299983,14.838488729074996,45.33204533614392
state: 45.7263062885656,33.41537767241333,-51.5300297790374,-0.35174081760435083,17.587040880217543,43.96760220054385
goals: 45.204063463764484,33.11731495176145,-47.205106918093,0.009212224360954783,14.079632318520648,45.2020173706889
goals: 45.074574623979984,32.89307389379195,-46.22398691326167,0.009197441702371781,13.322743998715664,45.07258786859271
state: 45.550435879763434,33.063636854808976,-49.41958487341129,-0.35174081760435083,15.828336792195788,44.84695424455473
goals: 44.94684744473949,32.664193923102395,-45.24694094062943,0.009183233166000141,12.574568759936577,44.9449191527906
goals: 44.87265151662194,32.52772063119601,-44.67510319692515,0.009175149357143838,12.139198946440093,44.870757159704304
state: 45.19869506215908,32.88776644600681,-47.66088078538953,-0.35174081760435083,14.773114339382737,44.84695424455473
goals: 44.83510630902072,32.45767386071293,-44.38452970299853,0.009171106235163613,11.918669510926772,44.83322911780897
goals: 44.813615319813984,32.4181522350948,-44.21197052219875,0.009168753207562583,11.785630403695654,44.81174846949812
state: 44.84695424455473,32.53602562840245,-45.550435879763434,-0.35174081760435083,12.662669433756628,44.84695424455473
goals: 44.96915345552769,32.8474986977471,-44.49373887430432,0.009176993453035541,11.638063533603262,44.96729697024689
goals: 45.3302886949031,33.835126726679064,-45.13710725478313,0.009196102368278855,11.293830032548751,45.328456487293344
state: 44.67108383575256,32.1842848107981,-44.84695424455473,-0.35174081760435083,11.95918779854793,44.84695424455473
goals: 45.71018502470978,34.86033694134534,-45.79792924316614,0.009216171234455357,10.929469385465548,45.708378662121596
goals: 46.09291979927426,35.87925704686779,-46.44763460977247,0.009236359635761261,10.56028250764522,46.09113977562705
state: 45.022824653356906,32.711896037204625,-44.49521342695038,-0.35174081760435083,11.783317389745752,44.84695424455473
goals: 46.34044097643082,36.53088504427196,-46.85946306476836,0.009249401165712145,10.320501023872314,46.33867813974482
goals: 46.418599877309724,36.733824828427835,-47.00087156421808,0.009253616036339807,10.258975448017326,46.41684138230154
state: 45.550435879763434,34.822340942830735,-45.37456547096125,-0.35174081760435083,11.255706163339227,45.022824653356906
goals: 46.418602766394436,36.6624816342645,-47.53440003957458,0.009257918794481965,10.86384711629611,46.41679746356478
goals: 46.41860727893814,36.5419426984463,-48.366281570976,0.009265201643258938,11.816267581555921,46.41672817718734
state: 46.25391751497214,36.229304213248135,-46.42978792377431,-0.35174081760435083,10.200483710526175,45.37456547096125
goals: 46.41861178702609,36.41019406680468,-49.19536223877349,0.009273180417615646,12.777096879010694,46.41665810627686
goals: 46.41861621653532,36.26944565043241,-50.00782715434046,0.009281725620272309,13.730310208973902,46.416588409736214
state: 46.42978792377431,36.40517462205031,-47.48501037658736,-0.35174081760435083,10.37635411932835,45.550435879763434
goals: 46.418620625317075,36.11797537745805,-50.814124457491516,0.00929094638893368,14.688077783106099,46.41651818888175
goals: 46.41862504718196,35.95439207584547,-51.62020645244723,0.00930093315367646,15.657743077648375,46.41644689032795
state: 46.42978792377431,36.40517462205031,-49.24371446460912,-0.35174081760435083,12.135058207350104,45.7263062885656
goals: 46.41862939833323,35.78176970714741,-52.41061447784913,0.009311503971297028,16.62077346972777,46.41637586491556
goals: 46.41863373201074,35.59810273718692,-53.19487281664961,0.00932278747862517,17.588698776449256,46.4163042525127
state: 46.42978792377431,36.05343380444596,-50.65067773502651,-0.35174081760435083,14.245503112976209,45.7263062885656
goals: 46.418638026840185,35.40428566057307,-53.96894362848752,0.009334735266429682,18.556586662852602,46.416232405806674
goals: 46.41864232297039,35.198425383940354,-54.73987718654588,0.00934747134265291,19.533380495467057,46.41615964678949
state: 46.25391751497214,35.70169298684161,-52.40938182304828,-0.35174081760435083,16.531818427404488,45.7263062885656
goals: 46.41864642040925,34.99070348114171,-55.471804817481214,0.009360370646688057,20.473030027194163,46.4160894060403
goals: 46.41864834398464,34.88929582583238,-55.81422825888409,0.009366685530398784,20.91686112295526,46.41605614109124
state: 46.42978792377431,35.349952169237255,-53.992215502267854,-0.35174081760435083,18.46639292422842,45.7263062885656
goals: 46.41864916076466,34.845476626779984,-55.95938985773104,0.009369417828907982,21.105841920448977,46.41604195959402
goals: 46.56359541803316,35.235096394087435,-56.21774869165339,0.009376224466133877,20.974591582427212,46.56099705013912
state: 46.42978792377431,34.99821135163291,-55.22330836388308,-0.35174081760435083,20.225097012250174,45.7263062885656
goals: 46.93358495989864,36.228397106941706,-56.84422158983548,0.009393125554580849,20.60779086253696,46.93101174985027
goals: 47.33399809457993,37.290198011179804,-57.506575571413485,0.009411363175119689,20.208373341707787,47.33145244831817
state: 46.42978792377431,34.99821135163291,-55.57504918148744,-0.35174081760435083,20.7527082386567,45.7263062885656
goals: 47.734989070885376,38.34005662682685,-58.154083040943476,0.009429577194768371,19.806051721893976,47.73247136147801
goals: 48.14344248494164,39.39584930522137,-58.79787575698795,0.009448084310120996,19.39408191936589,48.140953556788006
state: 46.95739915018084,36.40517462205031,-56.982012451904836,-0.35174081760435083,20.928578647458874,46.25391751497214
goals: 48.55645514920968,40.4497274629166,-59.433169062121365,0.009466756257791623,18.975527649120313,48.55399563824175
goals: 48.97770896579816,41.51070814256534,-60.065387930352095,0.009485762749742294,18.546797118763635,48.97527976646489
state: 47.83675119419172,38.51561952767642,-58.21310531352006,-0.35174081760435083,20.40096742105235,47.13326955898301
goals: 49.40278137679293,42.567316479117586,-60.68771027129514,0.00950490762384242,18.11254277795247,49.400383060208114
goals: 49.8335260076366,43.6239561335552,-61.3028188533569,0.009524278051620082,17.671043874740292,49.831159271247564
state: 48.540232829400416,40.626064433302524,-59.268327766333115,-0.35174081760435083,19.52161537704147,47.83675119419172
goals: 50.27563698498038,44.69402585954926,-61.91841978459716,0.009544133032823797,17.216608193811663,50.273302942161294
goals: 50.72271014179568,45.76149671918118,-62.52522581315204,0.009564188022485362,16.755976946405106,50.7204094292659
state: 49.41958487341129,42.56063893012645,-60.67529103675052,-0.35174081760435083,18.290522515426247,48.71610323820259
goals: 51.175463853858815,46.82784017711349,-63.124157096134525,0.009584478750906776,16.288598881941123,51.17319715292708
goals: 51.634863741962405,47.89501008919116,-63.716359767404064,0.009605051799917086,15.813666354754526,51.632631798483864
state: 50.29893691742217,45.022824653356906,-61.90638389836574,-0.35174081760435083,17.411170471415367,49.595455282213464
goals: 52.10197574933083,48.965070196857425,-64.30298748156312,0.009625958038669747,15.33026936281405,52.09977938282814
goals: 52.57359718343729,50.03037830089894,-64.87991423682968,0.00964705723679198,14.841923864391996,52.57143696038761
state: 51.17828896143304,46.95739915018084,-63.31334716878315,-0.35174081760435083,16.531818427404488,50.474807326224344
goals: 52.96784949466254,50.90950024859605,-65.35071036532851,0.009664690650146858,14.43362809640925,52.96571964473981
goals: 53.121827264431005,51.25006060972576,-65.53180884462326,0.009671576789404316,14.27417797148171,53.119709313866835
state: 52.2335114142461,49.24371446460912,-64.3685696215962,-0.35174081760435083,15.652466383393612,51.354159370235216
goals: 53.09917523075386,51.22844957038025,-65.36672878515779,0.009668885390133034,14.130707221320614,53.097069098336846
goals: 52.861610331487014,50.822501606483385,-64.48909824109161,0.00965112933920797,13.659006510424307,52.85954407917303
state: 53.112863458256975,51.17828896143304,-65.59966248321143,-0.35174081760435083,14.59724393058056,52.40938182304828
goals: 52.595616745554516,50.36122491545461,-63.49526911917538,0.0096313687429017,13.12643381125136,52.59359533493433
goals: 52.3321277797755,49.897155772237866,-62.4989337958254,0.009611922427877199,12.594147587210486,52.33015099388563
state: 53.112863458256975,51.17828896143304,-65.42379207440925,-0.35174081760435083,14.421373521778381,52.40938182304828
goals: 52.0715056445394,49.43103909216223,-61.50158911004887,0.009592816369521726,12.0628997886198,52.06957320725995
goals: 51.814813381240576,48.96494300393503,-60.50753336199649,0.009574126675558762,11.534920666473791,51.81292483571669
state: 52.40938182304828,50.12306650862,-64.19269921279403,-0.35174081760435083,12.838539842558804,52.40938182304828
goals: 51.55971766349899,48.49474578239534,-59.50787669052372,0.00955568260369773,11.005441906942586,51.55787295334065
goals: 51.3064749385352,48.020950495808066,-58.503629638610775,0.009537503440183701,10.474971003607315,51.30467396722613
state: 51.88177059664175,49.24371446460912,-62.258124715970105,-0.35174081760435083,11.783317389745752,52.2335114142461
goals: 51.055985709665116,47.545320281019556,-57.4984515594958,0.009519653716345045,9.945404240154309,51.05422822745575
goals: 50.807676410205495,47.06685875382242,-56.49015537646821,0.009502092207264183,9.415550879989134,50.80596226861037
state: 51.5300297790374,48.188492011796065,-59.971809401541805,-0.35174081760435083,10.552224528130523,51.88177059664175
goals: 50.56279573359795,46.588094113123795,-55.48397850741096,0.00948490632387745,8.888120235213133,50.56112456669944
goals: 50.32122157138225,46.10895914329501,-54.47967301334827,0.009468085640571415,8.36293157216244,50.31959303332761
state: 51.00241855263087,47.48501037658736,-57.861364495915716,-0.35174081760435083,9.497002075317472,51.354159370235216
goals: 50.08150948634837,45.62669486689085,-53.47137752041891,0.009451529002422077,7.836882385120455,50.079923486856664
goals: 49.872514675883316,45.20059367169014,-52.58256824009666,0.009437206182192034,7.374158655482247,49.87096596416625
state: 50.474807326224344,46.42978792377431,-55.57504918148744,-0.35174081760435083,8.617650031306594,50.826548143828695
goals: 49.78653037008095,45.02374458909677,-52.21422817474427,0.009431344501434652,7.18266124257242,49.78499705477245
goals: 49.73275798956719,44.91268652257714,-51.98307937696527,0.009427688070186763,7.062566491928565,49.731234319511096
state: 49.94719609981782,45.37456547096125,-53.46460427586132,-0.35174081760435083,7.562427578493542,50.29893691742217
goals: 49.72599853112668,44.90352189794514,-51.8996260883256,0.009426943955384062,6.988277322861371,49.72448073145092
goals: 50.03693889073965,45.62515012487513,-52.312528793498295,0.009443215369329,6.679575063683108,50.035444348401846
state: 49.595455282213464,44.84695424455473,-52.58525223185045,-0.35174081760435083,6.858945943284841,49.94719609981782
goals: 50.48618050601968,46.65458236434691,-52.895739070654834,0.009466718097571446,6.233386795295068,50.48471974119074
goals: 50.944633932271365,47.689376937756684,-53.4751300189814,0.00949069709624342,5.778017657564859,50.94320783634078
state: 49.595455282213464,45.022824653356906,-52.40938182304828,-0.35174081760435083,6.683075534482665,49.94719609981782
goals: 51.41066827285581,48.72531593389649,-54.048309826624646,0.009515068317058159,5.315293632274752,51.40927760778548
goals: 51.88868461536442,49.771511955439976,-54.620241437862106,0.009540062998362825,4.841065399222526,51.887330472306274
state: 50.474807326224344,46.95739915018084,-52.40938182304828,-0.35174081760435083,6.15546430807614,50.12306650862
goals: 52.37551842441963,50.82031645222062,-55.18665098402735,0.009565516581672718,4.358707407014391,52.37420164698959
goals: 52.84476453592242,51.81562176570919,-55.71776679888037,0.00959004933433492,3.8945536397010776,52.843483920451064
state: 51.5300297790374,48.89197364700476,-53.64047468466351,-0.35174081760435083,4.924371446460912,50.826548143828695
goals: 53.06457267469548,52.27666996924663,-55.9616875602258,0.009601540885873531,3.677442971395672,53.063309043610985
goals: 53.154541447250246,52.462616930974704,-56.100547929539935,0.009606349466569611,3.6303632511825343,53.15328143157758
state: 52.2335114142461,51.00241855263087,-54.871567546278726,-0.35174081760435083,3.8691489936478587,51.705900187839575
goals: 53.15454579218035,52.4297684805853,-56.75165737128328,0.009608245503490207,4.314321141854427,53.15323094263656
goals: 53.154551734256515,52.375234319077606,-57.64016895110634,0.009611397569540724,5.257366881165859,53.15316123829108
state: 53.112863458256975,52.2335114142461,-55.750919590289605,-0.35174081760435083,3.3415377672413324,52.2335114142461
goals: 53.1545576489791,52.30966513985822,-58.52211083718947,0.00961519336619145,6.204877944433402,53.15309109098269
goals: 53.15456351460809,52.233239208743505,-59.394009815217494,0.009619624873571413,7.153202851533015,53.15302076114391
state: 53.112863458256975,52.2335114142461,-56.63027163430048,-0.35174081760435083,3.5174081760435083,52.40938182304828
goals: 53.15456929350939,52.14657243760695,-60.25009361433932,0.009624658940818704,8.095953419753725,53.15295071451718
goals: 53.15457512451617,52.04741663799962,-61.11067990476326,0.009630429362713175,9.055695507703678,53.1528792627745
state: 53.28873386705915,52.2335114142461,-58.56484613112441,-0.35174081760435083,5.627853081669613,52.58525223185045
goals: 53.15458086711676,51.93801201464822,-61.954790942698125,0.009636809387464676,10.00921116691497,53.152808122677975
goals: 53.15458659366256,51.81704787405101,-62.792887815640704,0.00964387931958656,10.968272178360172,53.15273640652791
state: 53.112863458256975,51.88177059664175,-60.49942062794834,-0.35174081760435083,7.738297987295717,52.58525223185045
goals: 53.154592286704364,51.684800908739476,-63.62220063073504,0.009651627477952658,11.92983195665832,53.15266433030917
goals: 53.15459797818887,51.54040036093114,-64.44715730772026,0.009660109951011835,12.89918917931894,53.15259148398954
state: 53.112863458256975,51.88177059664175,-62.082254307167915,-0.35174081760435083,9.497002075317472,52.58525223185045
goals: 53.1546032874309,51.39450255896797,-65.21275750972255,0.009668703876048537,13.810687181271005,53.15252280654275
goals: 53.154605344710355,51.335021374693,-65.50834779372404,0.009672214307371538,14.16575864876108,53.152496004505224
state: 53.28873386705915,51.5300297790374,-63.84095839518968,-0.35174081760435083,11.607446980943578,52.58525223185045
goals: 53.0721116751599,51.36777710042594,-65.59423877773297,0.009668195749889153,14.218887605188279,53.06999857803406
goals: 52.283042033110995,51.797721941555515,-65.82153107933412,0.009622415667700496,14.016174953545365,52.280950745721036
state: 53.112863458256975,51.354159370235216,-65.24792166560708,-0.35174081760435083,13.542021477767507,52.58525223185045
goals: 51.25747757196166,52.34449109742093,-66.10894586737629,0.009562405217815382,13.756742906343945,51.25541413759859
goals: 50.22426449676067,52.88174717818813,-66.38958002289434,0.00950136618467508,13.500043241569253,50.222228557395496
state: 52.936993049454806,51.354159370235216,-65.42379207440925,-0.35174081760435083,13.717891886569682,52.58525223185045
goals: 49.188237722629594,53.406945091925145,-66.66221568736415,0.009439576756893891,13.247403570669249,49.18622878149875
goals: 48.14370575568993,53.9229227213504,-66.92843364638644,0.009376689411538828,12.997566386305506,48.14172345410492
state: 51.00241855263087,52.40938182304828,-65.95140330081578,0.5276112264065262,13.89376229537186,52.40938182304828
goals: 47.099362750408154,54.425394108625575,-67.18613399230247,0.00931322211508306,12.752718396744392,47.09740650072706
goals: 46.047068166034094,54.91829304878494,-67.43744429694732,0.009248675174562326,12.511052791655901,46.045137577408575
state: 48.89197364700476,53.46460427586132,-66.4790145272223,0.17587040880217542,13.36615106896533,51.00241855263087
goals: 44.990650755484666,55.39976044633375,-67.68151463714447,0.009183274960121515,12.273579039628299,44.988745334392455
goals: 43.93757405190821,55.86653846728859,-67.91681059955094,0.009117484671202335,12.042021110287273,43.935693127671826
state: 46.42978792377431,54.51982672867438,-67.18249616243101,0.17587040880217542,13.190280660163156,49.94719609981782
goals: 42.87476110368718,56.32446068866628,-68.14637584562708,0.009050483895304964,11.813588157714031,42.87290430634936
goals: 41.80370565314479,56.772702039089076,-68.36987622123065,0.008982353547865305,11.588771227715167,41.801872566043535
state: 44.67108383575256,55.39917877268526,-67.53423698003536,0.17587040880217542,12.662669433756628,48.540232829400416
goals: 40.736977533898724,57.20607935145957,-68.58482850669601,0.008913892089656563,11.370271169041395,40.73516746171903
goals: 39.66413818319441,57.628946851707695,-68.79349369125971,0.008844430423724169,11.155994018896687,39.66235065774327
state: 42.38476852132428,56.45440122549831,-68.23771861524406,0.35174081760435083,12.31092861615228,46.60565833257648
goals: 38.58536893136294,58.041157243494986,-68.99588141593063,0.008773972560723223,10.946096744456817,38.583603474445496
goals: 37.522586884700374,58.43465223663056,-69.18814434907314,0.008703961098393172,10.744791817544092,37.52084258243494
state: 40.274323615698165,57.33375326950918,-68.5894594328484,0.17587040880217542,11.783317389745752,44.67108383575256
goals: 36.91755337416471,58.65312577356656,-69.29449734356749,0.008663840086947911,10.632630076391964,36.91582085663354
goals: 36.82336805813165,58.5012645701916,-68.94256303958579,0.008656367778185384,10.432550581678434,36.82165054407974
state: 37.988008301269886,58.03723490471788,-69.11707065925494,0.17587040880217542,11.4315765721414,43.264120565335155
goals: 36.658241182495594,58.06883296081289,-67.99693938937149,0.008642301299635703,9.919347343414278,36.65656160300436
goals: 36.48595812753221,57.61109494948668,-66.99925494868694,0.008627768621425199,9.379389247873075,36.48431831831528
state: 36.58104503085249,58.56484613112441,-69.2929410680571,0.17587040880217542,10.728094936932699,40.626064433302524
goals: 36.314885594850885,57.149840168219946,-65.99717445512668,0.008613486010927355,8.838551968079871,36.31328547771911
goals: 36.14540123285448,56.686150424551435,-64.9929741429762,0.008599484562065732,8.298029955934359,36.14384064472353
state: 36.58104503085249,58.03723490471788,-68.5894594328484,0.35174081760435083,9.848742892921823,39.39497157168729
goals: 35.977933561633705,56.22130995011686,-63.989341328660736,0.008585798201972823,7.759226324663067,35.97641224055998
goals: 35.81228191639004,55.75488819173225,-62.98524901794812,0.008572408751442662,7.221544619161989,35.8107996479144
state: 36.05343380444596,56.982012451904836,-66.83075534482666,0.17587040880217542,8.617650031306594,38.16387871007206
goals: 35.647817998728975,55.28519342551646,-61.97698244512224,0.008559264767429943,6.6829617548892815,35.64637471834479
goals: 35.485322282736576,54.814541897751326,-60.96943904511288,0.00854642776416267,6.146058972545069,35.48391774226982
state: 35.70169298684161,55.92678999909178,-64.54444003039838,0.17587040880217542,7.562427578493542,37.108656257259014
goals: 35.325675913855385,54.345674586680026,-59.9683724629181,0.008533964181239646,5.613848997395249,35.32430965283525
goals: 35.166379319598356,53.8713425900667,-58.9582340160785,0.008521677931983988,5.078031881201686,35.16505147776151
state: 35.349952169237255,55.0474379550809,-62.60986553357445,0.17587040880217542,6.331334716878314,35.87756339564378
goals: 35.00926998089284,53.397068771546635,-57.95073185141503,0.008509710743109753,4.544793029856222,35.00798025693055
goals: 34.85276903227596,52.91815584114359,-56.93582884156348,0.008497941982447169,4.008792500036731,34.85151750938192
state: 35.17408176043509,53.992215502267854,-60.147679810343995,0.17587040880217542,5.1002418552630875,35.52582257803944
goals: 34.69773718389498,52.43726137666044,-55.91911683921483,0.00848643709044862,3.472964623845194,34.69652373811997
goals: 34.54501643382408,51.957129068489074,-54.9063187216349,0.008475256719696355,2.9402886438154727,34.543840733338904
state: 34.822340942830735,53.112863458256975,-58.03723490471788,0.17587040880217542,4.22088981125221,35.349952169237255
goals: 34.39315490540932,51.47328863284764,-53.88794252218776,0.008464293654739535,2.4057427800008093,34.39201697739836
goals: 34.24334041380486,50.98960303661477,-52.87206409176272,0.008453633097479929,1.8735399950468672,34.24223999063872
state: 34.470600125226376,52.2335114142461,-55.92678999909178,0.17587040880217542,3.165667358439157,34.99821135163291
goals: 34.09531854438854,50.50539023971716,-51.85717746845688,0.008443254919088712,1.3428563497419765,34.094255420328395
goals: 33.949285794488766,50.02143059146672,-50.844847717873826,0.008433170896220126,0.8144765729408859,33.94825971238364
state: 34.2947297164242,51.354159370235216,-53.992215502267854,0.17587040880217542,1.9345744968239293,34.64647053402855
goals: 33.819158122187176,49.58486272370244,-49.93333123870722,0.008424317875067392,0.33951935121785026,33.81816525795599
goals: 33.76437015225689,49.39953484224774,-49.54685212802325,0.008420628621178398,0.13836449971576448,33.76339133449566
state: 33.942988898819856,50.29893691742217,-51.705900187839575,0.17587040880217542,1.0552224528130525,34.2947297164242
goals: 33.7354047792444,49.30118881890718,-49.34187506300012,0.008418687435028868,0.03173154371255021,33.734433402330716
goals: 33.830154614841184,49.622760507528,-49.49816049139888,0.00842502136335551,-0.13354845193136883,33.82919477413628
state: 33.76711849001768,49.41958487341129,-49.94719609981782,0.17587040880217542,0.0,34.11885930762203
goals: 34.055282010841374,50.38070704191628,-49.90919269172309,0.008440103039877186,-0.48044788034247016,34.05434644964169
goals: 34.12172511225729,50.602908072689374,-50.047697301676855,0.008444556046325631,-0.5641398963793376,34.12079542622302
state: 33.591248081215504,49.41958487341129,-49.595455282213464,0.17587040880217542,-0.35174081760435083,33.942988898819856
goals: 34.1217271714727,50.604627663933805,-50.45819223047994,0.008444464547263478,-0.15536455947507719,34.12076887851213
goals: 34.12172895711816,50.60449858271026,-50.81414226441225,0.008444467950048015,0.2007145551102126,34.12074574528601
state: 33.942988898819856,50.29893691742217,-49.595455282213464,0.17587040880217542,-0.7034816352087017,33.942988898819856
goals: 34.12173338403875,50.59755944423756,-51.69644936217901,0.008444814448103593,1.0899607899226025,34.120687939450754
goals: 34.121738056997934,50.57974102426443,-52.627318777332285,0.008445716352892289,2.038648623522941,34.12062620950759
state: 33.942988898819856,50.29893691742217,-49.595455282213464,0.17587040880217542,-0.8793520440108771,33.942988898819856
goals: 34.12174268621448,50.551128124310786,-53.54868498472365,0.008447170388027128,2.9886277293359536,34.120564325955534
goals: 34.12174733737526,50.51105008833151,-54.473304242013526,0.008449211608218626,3.953325021045218,34.1205014044983
state: 33.942988898819856,50.474807326224344,-51.354159370235216,0.17587040880217542,0.5276112264065262,33.942988898819856
goals: 34.12175197459373,50.4594450911622,-55.39371016040597,0.008451844529866871,4.925335935030942,34.12043791721515
goals: 34.12175656608759,50.396555415796584,-56.30329188523134,0.008455058457775977,5.897807333640586,34.120374302337254
state: 33.942988898819856,50.474807326224344,-53.28873386705915,0.17587040880217542,2.462185723230456,33.942988898819856
goals: 34.121761070704984,50.32313115267732,-57.193650087574554,0.00845881695586378,6.861589797531206,34.120311151338
goals: 34.12176553905213,50.238517146290214,-58.07455270815981,0.00846315579613235,7.827106422924011,34.12024777406836
state: 33.942988898819856,50.29893691742217,-55.22330836388308,0.17587040880217542,4.396760220054386,33.942988898819856
goals: 34.12176996726508,50.142789118894825,-58.94498435588293,0.008468073761081673,8.793266096456861,34.12018423333359
goals: 34.12177435452993,50.036002201371474,-59.80454785240528,0.00847357102254568,9.759616508911419,34.12012055023615
state: 33.942988898819856,50.12306650862,-57.33375326950918,0.17587040880217542,6.331334716878314,33.942988898819856
goals: 34.12177870002297,49.9182349225605,-60.65285930689296,0.00847964688111649,10.725695240613978,34.120056746674834
goals: 34.12178301438743,49.789233049737526,-61.49177684595147,0.008486318188548602,11.693614650890723,34.11999267410504
state: 33.942988898819856,49.94719609981782,-58.74071653992659,0.17587040880217542,8.44177962250442,33.942988898819856
goals: 34.1217872925083,49.64917350257147,-62.32009202784685,0.008493579917011848,12.66198937834092,34.11992841486966
goals: 34.12179152713134,49.498386567273386,-63.136215675515146,0.00850141932922673,13.628899959692461,34.11986408767771
state: 33.942988898819856,49.595455282213464,-60.85116144555269,0.17587040880217542,10.552224528130523,33.942988898819856
goals: 34.121795628687245,49.34058685047836,-63.92285327434891,0.008509647130759714,14.573337273738005,34.11980108767557
goals: 34.1217977293194,49.255221699827246,-64.32418682788621,0.008514108266901134,15.060035977108106,34.11976855416459
state: 33.942988898819856,49.595455282213464,-62.433995124772274,0.17587040880217542,12.31092861615228,33.942988898819856
goals: 34.1217983626506,49.22887397363427,-64.44497421510464,0.00851548662107337,15.207171090271808,34.119758709573574
goals: 34.690818366779176,49.03301813500417,-64.33986233483435,0.008554490583437095,15.297952871746922,34.68876717297257
state: 33.942988898819856,49.24371446460912,-63.84095839518968,0.17587040880217542,14.59724393058056,33.942988898819856
goals: 35.71495895625763,48.67197393732558,-64.14289349815495,0.008624253229222492,15.462096778976514,35.71288684421165
goals: 36.766292566101065,48.28917677614703,-63.93316728788845,0.008695314065099609,15.63523872121379,36.76419852052388
state: 33.942988898819856,49.06784405580694,-64.01682880399184,0.17587040880217542,14.948984748184909,33.942988898819856
goals: 37.80839299430868,47.89746427709859,-63.71760624383626,0.008765193544101194,15.811461163117988,37.806276745529345
goals: 38.857305682959975,47.4907281382323,-63.49275798957283,0.008834966298058022,15.993421115098517,38.85516661889378
state: 35.52582257803944,48.540232829400416,-64.19269921279403,-0.35174081760435083,14.948984748184909,34.99821135163291
goals: 39.90599160371947,47.071455131756125,-63.259889184634815,0.0089041555390315,16.179897980685197,39.90382925924916
goals: 40.94968578128842,46.641516702217544,-63.01994471589452,0.008972448003809676,16.36996486142448,40.9474997993634
state: 37.81213789246772,47.83675119419172,-64.01682880399184,-0.35174081760435083,15.476595974591435,36.58104503085249
goals: 41.98674816384708,46.20166892319897,-62.773259809616086,0.009039742793405154,16.56320077939763,41.98453823162624
goals: 43.01038462212159,45.75502671596874,-62.52150860751274,0.009105612374039338,16.758164453689314,43.008150596787225
state: 39.746712389291645,46.95739915018084,-63.489217577585315,-0.35174081760435083,16.00420720099796,38.33974911887424
goals: 44.02418288016007,45.30031683811735,-62.263906824717935,0.009170303607541256,16.95534507150031,44.02192455007232
goals: 45.04036260488604,44.83205982963934,-61.99725241254323,0.00923459949431338,17.157020906496115,45.03807947108363
state: 41.85715729491775,46.078047106169954,-62.9616063511788,-0.35174081760435083,16.355948018602312,39.746712389291645
goals: 46.0498931039534,44.3543584528459,-61.72377517095517,0.00929792940260256,17.361318336337867,46.04758489194233
goals: 47.057510659194925,43.86498832729005,-61.44210041805385,0.009360594651429499,17.569087391017426,47.055176984087645
state: 43.791731791741675,45.022824653356906,-62.433995124772274,-0.35174081760435083,16.707688836206664,40.8019348421047
goals: 48.06247805945306,43.36424974839518,-61.152288205478136,0.009422550491055911,17.780087763554068,48.060118560244675
goals: 49.05929597348355,42.85493952603693,-60.85585627437412,0.009483464015086252,17.993039966329796,49.05691044013314
state: 46.078047106169954,44.143472609346034,-61.73051348956357,-0.35174081760435083,17.235300062613188,41.85715729491775
goals: 50.04658378405066,42.33795044326957,-60.55323921001047,0.009543262596560713,18.20748568029614,50.04417205695647
goals: 50.594708951906355,42.04548107592368,-60.381276186628035,0.009576231995363626,18.32803314754953,50.59228250837533
state: 48.188492011796065,43.08825015653298,-61.202902263157036,-0.35174081760435083,17.587040880217543,44.143472609346034
goals: 50.594825639560156,42.150889588051285,-59.974823859521706,0.009569741093059978,17.816172318412534,50.59244056786095
goals: 50.594820854157284,42.34084647218826,-59.20471003966997,0.00955806909207288,16.856101616548194,50.59251322879297
state: 49.595455282213464,42.033027703719924,-60.67529103675052,-0.35174081760435083,17.93878169782189,46.42978792377431
goals: 50.594815936266535,42.52384261952387,-58.4093260918412,0.009546862637125193,15.877721523539375,50.59258703674481
goals: 50.59481099219048,42.69556098271695,-57.605915098348994,0.009536380451649711,14.902592168993204,50.59266037063904
state: 50.474807326224344,42.033027703719924,-59.971809401541805,-0.5276112264065262,18.114652106624067,48.188492011796065
goals: 50.59480600705067,42.856509621116,-56.79223064032489,0.009526585128746578,13.92795907469932,50.59273344972553
goals: 50.59480095280427,43.00744167952301,-55.96383244244633,0.009517425201922692,12.94862882054456,50.59280667275204
state: 50.474807326224344,42.20889811252209,-58.74071653992659,-0.35174081760435083,16.180077609800136,49.595455282213464
goals: 50.59479588735881,43.146595457645006,-55.13038946560568,0.009509002118565096,11.976032067689877,50.59287919621844
goals: 50.59479074940972,43.27562367802819,-54.28200144840984,0.009501210757193115,10.998615832221198,50.59295189259795
state: 50.65067773502651,42.56063893012645,-57.157882860707005,-0.35174081760435083,14.59724393058056,49.94719609981782
goals: 50.594785555963966,43.39392580981526,-53.421636207308595,0.009494082936004043,10.019948461438139,50.59302450511938
goals: 50.59478033200291,43.5009194879584,-52.55363840143586,0.009487649460451995,9.044956979512177,50.59309667907052
state: 50.474807326224344,42.73650933892863,-55.22330836388308,-0.35174081760435083,12.31092861615228,49.94719609981782
goals: 50.59477505640296,43.59705141191969,-51.67471743777993,0.009481879576161133,8.069904093977799,50.593168702101394
goals: 50.59476972092083,43.6823986410064,-50.78370988377794,0.009476765256915718,7.093549312967754,50.59324067548696
state: 50.65067773502651,43.08825015653298,-53.64047468466351,-0.35174081760435083,10.024613301724,49.94719609981782
goals: 50.59476427648324,43.757500587762934,-49.8726138991697,0.009472271246165218,6.107351383695792,50.59331323643358
goals: 50.594758838894016,43.82074955567555,-48.9610492620422,0.009468491070018143,5.132537780717879,50.593384833285235
state: 50.474807326224344,43.439990974137324,-51.88177059664175,-0.35174081760435083,8.090038804900068,49.94719609981782
goals: 50.594753371964366,43.87282504596593,-48.04323170452409,0.009465381752666525,4.1626447349549895,50.59345595357313
goals: 50.59474789372867,43.91375857640184,-47.12246219399459,0.00946293953618311,3.2009416960121255,50.593526369205286
state: 50.474807326224344,43.6158613829395,-50.12306650862,-0.35174081760435083,5.979593899273965,49.94719609981782
goals: 50.59474345446628,43.93889712512526,-46.37574138977409,0.009461440396771124,2.429082344687452,50.59358281576336
goals: 50.395835017551484,43.991137592937456,-46.32827644637431,0.009450039936988383,2.3293619915860866,50.39468247188354
state: 50.65067773502651,43.791731791741675,-48.188492011796065,-0.35174081760435083,4.045019402450034,49.94719609981782
goals: 49.48928328341407,44.21424679804805,-46.4577804030194,0.009398352948376851,2.2356888902479968,49.48813912113551
goals: 48.45616902603961,44.458462432909556,-46.599161466460664,0.009338812799986879,2.1327774925814613,48.45503402804501
state: 50.474807326224344,43.791731791741675,-46.60565833257648,-0.35174081760435083,2.286315314428281,49.94719609981782
goals: 47.41903191220972,44.692947976860566,-46.73454194521375,0.009278361679574616,2.033595843192968,47.41790569985106
goals: 46.38410313302387,44.91634417561812,-46.86318523378502,0.009217364856335853,1.9387670586683994,46.382985277185995
state: 49.06784405580694,43.96760220054385,-46.60565833257648,-0.35174081760435083,2.286315314428281,49.77132569101564
goals: 45.34485867182999,45.13010174627398,-46.98597254635934,0.009155439772695976,1.8477211657012775,45.34374879855418
goals: 44.30920963390672,45.33265297588143,-47.10204715496913,0.009093061205499669,1.7611697317888118,44.308107312023495
state: 46.78152874137866,44.67108383575256,-46.60565833257648,-0.35174081760435083,1.9345744968239293,48.71610323820259
goals: 43.26636435229899,45.52612209145589,-47.21266697895165,0.00902957994590684,1.6782456787785083,43.26526923154162
goals: 42.223162391322845,45.70919054124812,-47.317115078494155,0.008965409428255161,1.599551121325929,42.22207407440582
state: 44.84695424455473,45.022824653356906,-46.60565833257648,-0.35174081760435083,1.7587040880217542,47.83675119419172
goals: 41.174963644292056,45.88265326695191,-47.41588100276255,0.008900263594004726,1.5247803475095236,41.17388176601075
goals: 40.130786477427336,46.04506019900781,-47.50817413956549,0.008834706574429033,1.4545934581283095,40.129710621743634
state: 42.56063893012645,45.37456547096125,-46.60565833257648,-0.35174081760435083,1.5828336792195785,46.60565833257648
goals: 39.07963015607192,46.19813416945377,-47.5950061071837,0.008768049747822582,1.388278477952679,39.078559974232256
goals: 38.03846383043474,46.33949806189283,-47.67505980113962,0.008701376753237603,1.3268966004815188,38.03739888933504
state: 40.977805250906876,45.550435879763434,-46.78152874137866,-0.35174081760435083,1.4069632704174033,44.84695424455473
goals: 36.99108355819193,46.47145497469169,-47.749668785426444,0.008633658415763348,1.2694771784855197,36.99002351423666
goals: 35.941718034277926,46.59339585831855,-47.818513684164884,0.00856516561396811,1.2163101874320106,35.94066252584479
state: 38.69148993647859,46.078047106169954,-46.95739915018084,-0.35174081760435083,1.231092861615228,43.264120565335155
goals: 34.886430409936935,46.705702952673484,-47.8818336913927,0.008495639308174967,1.167252328126525,34.8853790946727
goals: 33.821562546276766,46.80857507217784,-47.939761769857306,0.00842482960142775,1.122237523719063,33.82051509503046
state: 36.58104503085249,46.42978792377431,-47.309139967785185,-0.35174081760435083,1.231092861615228,40.8019348421047
goals: 32.77269640804344,46.899669511398834,-47.99099982105052,0.008354448953498617,1.0823120811557887,32.77165240907314
goals: 31.713366699360883,46.981396644131195,-48.0369225270523,0.008282732128016645,1.046438567126441,31.712325838021375
state: 34.470600125226376,46.60565833257648,-47.48501037658736,-0.35174081760435083,1.0552224528130525,38.33974911887424
goals: 30.656713273942206,47.05265669243402,-48.07692760579696,0.008210567392918722,1.0151153475528987,30.65567520020417
goals: 29.601624730383385,47.11360998674079,-48.1111194722958,0.008137888397874573,0.9882864370409074,29.60058910677862
state: 32.1842848107981,46.78152874137866,-47.48501037658736,-0.35174081760435083,1.0552224528130525,36.05343380444596
goals: 28.545104285171913,47.16445214470899,-48.13961996505712,0.00806449471599928,0.965877870367797,28.54407078903746
goals: 27.486104098027226,47.205194057729564,-48.16244516402504,0.007990316135932039,0.9478947791761159,27.485072415009984
state: 30.24971031397417,46.95739915018084,-47.83675119419172,-0.35174081760435083,1.0552224528130525,34.2947297164242
goals: 26.430189743493457,47.23564367795209,-48.179495533055444,0.00791574908480768,0.934430029083705,26.42915955815121
goals: 25.37616039415491,47.25591775022592,-48.190842518884374,0.007840719172221263,0.9254382481899902,25.37513140326039
state: 27.78752459074372,47.13326955898301,-47.83675119419172,-0.35174081760435083,0.7034816352087017,32.88776644600681
goals: 24.31700200735375,47.26611129261031,-48.19654327962752,0.0077647306211185265,0.9208811547364226,24.315973922791787
goals: 23.26285108316003,47.26612834910277,-48.19654615037351,0.007688516874721437,0.9208036608566882,23.26182361676961
state: 26.02882050272196,47.13326955898301,-47.83675119419172,-0.35174081760435083,0.8793520440108771,31.832543993193752
goals: 22.205938335508645,47.256001353235256,-48.190869246778846,0.0076115244975214855,0.9251909852402533,22.204911213461394
goals: 21.148677437644523,47.23570522135679,-48.17949654264662,0.0075339332572011706,0.9340523371395181,21.14765039315694
state: 23.566634779491505,47.13326955898301,-48.01262160299389,-0.35174081760435083,0.7034816352087017,28.66687663475459
goals: 20.092371912647003,47.20526701668311,-48.16243920424246,0.007455845888458852,0.9473719007930747,20.091344688277086
goals: 19.032544867144495,47.16451007595972,-48.13959218566651,0.0073769360373688074,0.9652210416206213,19.03151721315558
state: 21.632060282667577,47.13326955898301,-48.01262160299389,-0.35174081760435083,0.7034816352087017,25.852950093919787
goals: 17.973867979475557,47.11356644756404,-48.11102141346625,0.007297556431383904,0.9875339133045865,17.972839656772365
goals: 16.91919954308272,47.0526314287843,-48.07682644050179,0.007217932231259928,1.0142149331110795,16.918170325786072
state: 19.697485785843647,47.13326955898301,-48.01262160299389,-0.35174081760435083,0.8793520440108771,23.39076437068933
goals: 15.863350042409413,46.98142547230311,-48.03683837799394,0.0071376806686924655,1.045374471232366,15.862319710943162
goals: 14.805053102329127,46.89978668971941,-47.990951981246816,0.007056709657679959,1.0810691101461325,14.804021444628614
state: 17.411170471415367,47.13326955898301,-48.01262160299389,-0.35174081760435083,0.8793520440108771,21.280319465063226
goals: 13.751955139446217,46.80831783723434,-47.93948999246458,0.0069756132697018705,1.1210192550569498,13.75092196389178
goals: 13.071385607431667,46.74376233669984,-47.90313769365354,0.006922930014846201,1.1491861992838281,13.070351350572968
state: 15.652466383393612,47.13326955898301,-48.01262160299389,-0.35174081760435083,0.8793520440108771,18.994004150634943
goals: 13.044458772456158,46.7353130563372,-48.265053374717944,0.006921083577987816,1.5195497321451374,13.04340353818422
goals: 13.044461440597829,46.71407000770826,-49.15785367880773,0.006921973887606075,2.43359308391676,13.043354374530997
state: 13.190280660163156,46.95739915018084,-48.01262160299389,-0.35174081760435083,0.8793520440108771,17.059429653811016
goals: 13.044464200539625,46.68132933928688,-50.08276224210751,0.006923350316403247,3.3912423146432964,13.043302811108665
goals: 13.044466942902542,46.63755265218201,-51.00282966237811,0.006925194488078666,4.355086421015274,13.043250851653367
state: 12.838539842558804,46.78152874137866,-48.540232829400416,-0.35174081760435083,0.8793520440108771,15.300725565789259
goals: 13.044469678740258,46.58230534342084,-51.92138409168605,0.006927525891030234,5.3288881580679455,13.043198285093585
goals: 13.044472407413188,46.515283634893116,-52.83782733949143,0.006930358868263567,6.312353113371742,13.04314511829439
state: 13.01441025136098,46.78152874137866,-50.474807326224344,-0.35174081760435083,3.165667358439157,13.717891886569682
goals: 13.044475098556712,46.43713012916471,-53.741572388879476,0.006933668035457921,7.29425166745769,13.04309195034326
goals: 13.044477741531955,46.34834777234551,-54.62867370368881,0.006937434044007486,8.270135338059033,13.043039016087803
state: 13.01441025136098,46.60565833257648,-52.40938182304828,-0.35174081760435083,5.276112264065262,13.36615106896533
goals: 13.044480352562392,46.24857311618975,-55.50422485198393,0.006941674528858453,9.245461141480327,13.042986013404432
goals: 13.044482936804348,46.13766760046011,-56.369612904904606,0.006946397946873523,10.221754709096878,13.042932852211104
state: 12.838539842558804,46.25391751497214,-54.16808591107003,-0.35174081760435083,7.210686760889191,13.36615106896533
goals: 13.044485496640467,46.01555366190551,-57.22530310369401,0.006951610497269346,11.199558845402201,13.042879495322385
goals: 13.044488015523324,45.88316961491695,-58.06546202346549,0.006957275190194064,12.172101811125781,13.042826305670259
state: 13.01441025136098,46.078047106169954,-55.92678999909178,-0.35174081760435083,9.145261257713123,13.36615106896533
goals: 13.0444905279128,45.73874105055392,-58.90127662680913,0.006963471449472068,13.152344977784235,13.042772566513111
goals: 13.04449300046408,45.58423480880739,-59.72136310224262,0.00697011865907839,14.126937693918435,13.042719001907056
state: 13.01441025136098,45.90217669736778,-57.685494087113526,-0.35174081760435083,11.07983575453705,13.36615106896533
goals: 13.044495448637122,45.41888714633351,-60.53060150893118,0.00697725352711484,15.101523762031324,13.042665295299539
goals: 13.044497709848724,45.25500535654273,-61.27530249342806,0.006984346781452585,16.010106535336938,13.042615090998265
state: 13.01441025136098,45.550435879763434,-59.44419817513529,-0.35174081760435083,13.01441025136098,13.36615106896533
goals: 13.044498711527412,45.17892711263969,-61.60427955323989,0.006987646979372735,16.415161838612896,13.042592665756487
goals: 13.04449992185257,45.08411651580974,-62.00098725294422,0.006991766267109263,16.906680134613627,13.042565416366045
state: 12.838539842558804,45.37456547096125,-60.85116144555269,-0.35174081760435083,14.948984748184909,13.36615106896533
goals: 13.044500289419396,45.054693608232014,-62.12128649233628,0.0069930460876699765,17.056402281420667,13.04255710762393
goals: 13.586618885165906,44.98287519012369,-62.08307878711134,0.007035811737423923,17.09004183285584,13.584667444663847
state: 12.838539842558804,45.19869506215908,-61.554643080761394,-0.35174081760435083,16.180077609800136,13.36615106896533
goals: 14.609930999271826,44.8403765029975,-62.00179408963608,0.0071161512740100154,17.1513107985932,14.607964088405335
goals: 15.661259884893488,44.68300597757948,-61.91187491455862,0.007198226485337422,17.218819361464487,15.659276794857217
state: 13.01441025136098,45.19869506215908,-61.90638389836574,-0.35174081760435083,16.707688836206664,13.36615106896533
goals: 16.704317390112227,44.51584314704234,-61.816186645364226,0.007279186412202094,17.290351412929674,16.7023179554038
goals: 17.759270404248234,44.33555098887708,-61.712781859404565,0.007360588916547567,17.367297663331367,17.75725413478928
state: 14.421373521778381,44.67108383575256,-61.90638389836574,-0.35174081760435083,16.88355924500884,13.542021477767507
goals: 18.799223870282454,44.14672599211586,-61.60425939321185,0.007440356007420373,17.447658951052734,18.79719069987722
goals: 19.84361898961696,43.94595376330888,-61.488619202142196,0.007519981349232546,17.53285070757374,19.84156853436148
state: 16.531818427404488,44.49521342695038,-61.90638389836574,-0.5276112264065262,17.059429653811016,15.652466383393612
goals: 20.892578643697398,43.733010662329114,-61.365685511693975,0.007599463341280418,17.622920809729138,20.890510507466217
goals: 21.9437538360624,43.508203668234685,-61.23558583184942,0.007678614491286128,17.717689654361354,21.941667653265142
state: 18.818133741832767,44.143472609346034,-61.90638389836574,-0.35174081760435083,17.411170471415367,17.587040880217543
goals: 22.98175396441227,43.27493963732402,-61.10024744859465,0.007756279104057699,17.815676754165903,22.97964963324805
goals: 24.028749479784246,43.02823824624415,-60.95673056865202,0.00783411443272286,17.9189239424527,24.02662650751672
state: 20.928578647458874,43.791731791741675,-61.73051348956357,-0.5276112264065262,17.411170471415367,19.16987455943712
goals: 25.07912989855187,42.76914917442757,-60.805583680799586,0.007911689950334705,18.026929699732293,25.076987881369867
goals: 26.123591065058523,42.49993581036789,-60.648070136167185,0.007988315878132719,18.138693417755647,26.12142976440086
state: 23.039023553084977,43.08825015653298,-61.378772671959226,-0.5276112264065262,17.587040880217543,21.104449056261046
goals: 27.16816546497918,42.21906360205837,-60.48323429348039,0.008064434674644723,18.25479436529211,27.165984529463916
goals: 28.206847835964624,41.92816440950912,-60.311973872927254,0.00813960870723898,18.37449802034221,28.204647026033047
state: 25.325338867513256,42.73650933892863,-61.02703185435487,-0.5276112264065262,17.76291128901972,23.039023553084977
goals: 28.839297290805888,41.74533059437867,-60.20405291304465,0.008185128314335453,18.449450705375153,28.837084206771216
goals: 28.854244770709105,41.829890281042154,-59.86206951406213,0.008181547060016411,18.022908564769285,28.852060768168855
state: 27.25991336433719,42.033027703719924,-60.67529103675052,-0.35174081760435083,18.114652106624067,24.797727641106732
goals: 28.854241392050916,42.018846538874634,-59.106254067221194,0.008171681563523952,17.078136861569266,28.85212205612282
goals: 28.8542378616231,42.20408316474909,-58.31290956041028,0.008162042958365165,16.099555730403683,28.85218533800854
state: 28.66687663475459,41.68128688611557,-60.49942062794834,-0.35174081760435083,18.290522515426247,26.73230213793066
goals: 28.85423430465363,42.378339276240006,-57.51017392236426,0.008153005140953556,15.12256398237778,28.852248324058955
goals: 28.854230720347655,42.541626751914656,-56.698068709793226,0.008144562010874152,14.147171295634656,28.852311023787394
state: 28.66687663475459,41.68128688611557,-59.44419817513529,-0.35174081760435083,17.93878169782189,28.139265408348066
goals: 28.854227104838337,42.69408473051181,-55.87592360648305,0.008136701296073098,13.172568215222812,28.8523734989538
goals: 28.85422344109013,42.83630267651539,-55.04005813459972,0.008129388040775344,12.19448479883115,28.852436031531813
state: 28.842747043556763,41.85715729491775,-58.03723490471788,-0.35174081760435083,15.300725565789259,28.139265408348066
goals: 28.854219758553736,42.967085608807686,-54.197411067121685,0.008122679357345064,11.221054800543536,28.85249811061184
goals: 28.85421610497296,43.08507540248338,-53.3592078012644,0.008116640483520173,10.264861742461914,28.852558947337783
state: 28.66687663475459,42.38476852132428,-56.10266040789396,-0.35174081760435083,13.36615106896533,28.139265408348066
goals: 28.854212427994547,43.192279376762734,-52.513730221714965,0.008111164774350981,9.312180190074377,28.852619427730243
goals: 28.854208723461745,43.28887412047087,-51.66027053690671,0.008106240014371635,8.362125762990622,28.85267961714158
state: 28.66687663475459,42.73650933892863,-54.69569713747656,-0.35174081760435083,11.255706163339227,28.139265408348066
goals: 28.85420607036184,43.351179235334584,-51.04818570974353,0.008103068013324633,7.687735821977915,28.852722271219214
goals: 28.854206464898848,43.342028011507225,-51.14173727934624,0.00810353233693572,7.790438615253001,28.85271576851192
state: 28.66687663475459,42.912379747730796,-52.76112264065262,-0.35174081760435083,9.321131666515297,28.139265408348066
goals: 28.854209640904514,43.26426574435325,-51.887589171725985,0.008107484789458825,8.614052773543747,28.85266360098595
goals: 28.854213253034867,43.165398178640366,-52.73458425658439,0.00811251886179338,9.559915422683465,28.852603580842104
state: 28.842747043556763,43.08825015653298,-51.5300297790374,-0.35174081760435083,7.562427578493542,28.139265408348066
goals: 28.8542168690959,43.05502443086092,-53.58086709159392,0.008118150276597144,10.516572004019846,28.852542749231958
goals: 28.854220456021988,42.93398056608869,-54.41842975347862,0.008124339786731183,11.475178529216329,28.852481657916698
state: 28.66687663475459,43.08825015653298,-51.5300297790374,-0.35174081760435083,8.265909213702244,28.139265408348066
goals: 28.854223987543723,42.803278676319685,-55.24092378150583,0.008131039062917069,12.428374445555281,28.852420768599092
goals: 28.85422752525119,42.66060404114851,-56.062456126048694,0.00813837074331536,13.392581423789963,28.852359022662043
state: 28.842747043556763,42.912379747730796,-53.28873386705915,-0.35174081760435083,10.200483710526175,28.139265408348066
goals: 28.85423103842726,42.50701753437268,-56.87563149328099,0.008146284912457617,14.359343296309271,28.85229694982129
goals: 28.85423450479713,42.343594923164346,-57.67509937479357,0.008154730642450989,15.322233787541684,28.852234954373703
state: 28.842747043556763,42.56063893012645,-54.871567546278726,-0.35174081760435083,12.135058207350104,28.139265408348066
goals: 28.854237965575038,42.168410184835835,-58.47015713840766,0.008163812522596348,16.29247628797843,28.85217230391011
goals: 28.854241399365456,41.982472282536364,-59.25566418083865,0.008173483891767955,17.2639212311951,28.852109384064825
state: 28.66687663475459,42.20889811252209,-56.80614204310265,-0.35174081760435083,13.89376229537186,28.139265408348066
goals: 28.85424435797626,41.8124009834896,-59.92958782222467,0.008182358892743984,18.107916170307504,28.85205455617234
goals: 28.854245228592184,41.76059292217789,-60.12736527463233,0.00818506794183582,18.357501683635476,28.852038312541993
state: 28.66687663475459,41.85715729491775,-58.21310531352006,-0.35174081760435083,16.355948018602312,28.139265408348066
goals: 28.878085049481673,41.846426721222244,-60.263757383945176,0.008187301371843569,18.408061500229543,28.8758743963953
goals: 29.067665181218192,42.680665414830464,-60.75388983487457,0.008196906827866555,18.06396724982834,29.06547603410141
state: 28.491006225952418,41.68128688611557,-59.62006858393746,-0.35174081760435083,17.76291128901972,28.139265408348066
goals: 29.320378445028194,43.7805009919907,-61.393184646693726,0.008209755081713448,17.603442504235968,29.318218188194447
goals: 29.57534734453619,44.87624449791679,-62.02236294142833,0.008222773244998004,17.13689349491915,29.573216479231796
state: 28.842747043556763,41.85715729491775,-59.971809401541805,-0.35174081760435083,18.114652106624067,28.31513581715024
goals: 29.834952850400782,45.97782652248957,-62.64715860476108,0.008236089606607662,16.660123670490925,29.832852146719365
goals: 30.09809061650695,47.08015862355715,-63.26466586034507,0.008249654745340628,16.175315628241414,30.096020711972415
state: 29.370358269963294,43.96760220054385,-61.202902263157036,-0.35174081760435083,18.290522515426247,28.66687663475459
goals: 30.366415451361657,48.189732547560816,-63.878487929117156,0.008263561523747307,15.679580950323068,30.364377173017765
goals: 30.639042910433183,49.30239506767469,-64.48627080012466,0.008277772070598991,15.174718798182605,30.637036977249533
state: 29.722099087567646,46.25391751497214,-62.78573594237662,-0.35174081760435083,17.235300062613188,29.19448786116112
goals: 30.835160662990514,50.09378946459268,-64.91386951799967,0.008288047043419636,14.810935733294643,30.833178121236926
goals: 30.87374531523528,50.25576939151649,-64.96337819596718,0.008289711853986897,14.698466968839506,30.87177021386309
state: 30.425580722776346,48.540232829400416,-64.01682880399184,-0.35174081760435083,16.355948018602312,29.546228678765473
goals: 30.774749553843446,49.96334608903085,-64.24660604727703,0.008279179105138154,14.2741117510331,30.7728046532096
goals: 30.638149716939733,49.553788410577994,-63.24791304036897,0.008264799416920446,13.684967640308214,30.63624660965451
state: 30.601451131578518,50.12306650862,-64.54444003039838,-0.35174081760435083,15.300725565789259,29.546228678765473
goals: 30.504064980163662,49.144861839304575,-62.256543077088814,0.008250860228414597,13.102515638592998,30.502203039876694
goals: 30.369233162791716,48.72666409755891,-61.24839357326869,0.008237021339759322,12.51255522970011,30.36741276973025
state: 30.601451131578518,49.77132569101564,-64.3685696215962,-0.35174081760435083,14.948984748184909,29.546228678765473
goals: 30.236227106246123,48.307166934087185,-60.24263248630032,0.008223547217218246,11.926282787155133,30.23444785386297
goals: 30.10525742845135,47.887244174583934,-59.241137622670195,0.008210454107885668,11.344702304789656,30.10351884600907
state: 30.425580722776346,48.89197364700476,-62.78573594237662,-0.35174081760435083,13.190280660163156,29.546228678765473
goals: 29.975211062591512,47.463466581221226,-58.23557249330208,0.008197627489245327,10.762906459811969,29.973513027258498
goals: 29.846453889715608,47.03710711957048,-57.22884776056578,0.008185101757994431,10.182532972149124,29.84479616801835
state: 30.073839905171997,48.01262160299389,-60.67529103675052,-0.35174081760435083,11.607446980943578,29.546228678765473
goals: 29.71918567058402,46.60895228163343,-56.22268197067869,0.008172893573085812,9.604513908452784,29.717567968635517
goals: 29.593583631737502,46.179754978724176,-55.2186879820817,0.008161016390648245,9.02970922679212,29.592005600982493
state: 29.897969496369818,47.13326955898301,-58.56484613112441,-0.35174081760435083,10.552224528130523,29.546228678765473
goals: 29.46784802009177,45.74339188117384,-54.20247797992584,0.008149299876336476,8.449854327247909,29.466309884762953
goals: 29.34343024918448,45.30489921730251,-53.18573656620601,0.008137879895799753,7.871597675658564,29.341931777972402
state: 29.546228678765473,46.25391751497214,-56.45440122549831,-0.35174081760435083,9.321131666515297,29.546228678765473
goals: 29.237102395392025,44.92480332971217,-52.30785345843662,0.008128259719591479,7.373803710044624,29.2356379743658
goals: 29.195215503854424,44.7736977253528,-51.959718607054675,0.008124505683853896,7.1767718075977704,29.193764536464585
state: 29.370358269963294,45.37456547096125,-54.51982672867438,-0.35174081760435083,8.265909213702244,29.546228678765473
goals: 29.175619934101675,44.70379537698023,-51.784600369522266,0.008122703040694847,7.071554676559545,29.17417613394067
goals: 29.314771259524168,45.28012709967637,-52.11538221902742,0.008131371172242283,6.826013628617798,29.313343406692084
state: 29.19448786116112,44.67108383575256,-52.76112264065262,-0.35174081760435083,7.210686760889191,29.546228678765473
goals: 29.57180982209623,46.333260791436544,-52.714278290851915,0.00814743935589756,6.371792341355374,29.57041157124266
goals: 29.837666314812676,47.40715372981302,-53.31763599503704,0.008164137755580786,5.901274042087415,29.83629886638458
state: 29.01861745235894,44.84695424455473,-52.40938182304828,-0.35174081760435083,7.034816352087017,29.370358269963294
goals: 30.109088562139405,48.48773222156739,-53.917303441392924,0.008181270657508177,5.420380330054413,30.10775274057498
goals: 30.384294538001182,49.56741223733634,-54.509050723749006,0.008198731890409318,4.932465216834636,30.382990955008115
state: 29.722099087567646,46.60565833257648,-52.2335114142461,-0.35174081760435083,6.15546430807614,29.370358269963294
goals: 30.660502067272347,50.63519252048811,-55.087017929563984,0.008216348929725179,4.442669869467719,30.659230999062125
goals: 30.841014981752753,51.32461576521103,-55.4563707381175,0.008227913015463108,4.122611045224681,30.839765242854604
state: 30.24971031397417,48.71610323820259,-53.46460427586132,-0.35174081760435083,4.924371446460912,29.546228678765473
goals: 30.880361978643528,51.46969231472544,-55.61951615826225,0.008230652492540881,4.140682449367473,30.879110910869596
goals: 30.880365449833697,51.428434690046295,-56.337378971568974,0.00823268925501423,4.899802886195341,30.87906262692427
state: 30.601451131578518,50.65067773502651,-54.871567546278726,-0.35174081760435083,4.22088981125221,30.073839905171997
goals: 30.88036972952603,51.3674717088377,-57.220886500099276,0.008235703189891403,5.844273394489888,30.879002473376254
goals: 30.880373987671135,51.29546832474582,-58.09794688337974,0.008239268749850726,6.793337160406745,30.87894193043205
state: 30.777321540380697,51.354159370235216,-55.39917877268526,-0.35174081760435083,3.693278584845684,30.073839905171997
goals: 30.88037820640967,51.21267655012717,-58.964615886185534,0.008243375604262207,7.742797936370681,30.878881257367304
goals: 30.880382386388124,51.11911642634567,-59.82078447777677,0.00824802519976058,8.692526650277921,30.878820454569563
state: 30.777321540380697,51.17828896143304,-57.157882860707005,-0.35174081760435083,5.451982672867437,30.073839905171997
goals: 30.880386547188447,51.01431325039282,-60.67021397846512,0.008253243963198816,9.646759325442032,30.878759242102383
goals: 30.880390691765786,50.89807256080717,-61.51324279518812,0.00825904486370637,10.60602883026089,30.878697575873133
state: 30.777321540380697,51.17828896143304,-58.91658694872876,-0.35174081760435083,7.386557169691368,30.24971031397417
goals: 30.88039480012652,50.77091838692984,-62.34556572202531,0.008265405342196525,11.565505929480107,30.878635757013907
goals: 30.88039888972777,50.63229867928049,-63.17049369151558,0.008272356971733341,12.529053605112772,30.878573527306422
state: 30.777321540380697,50.826548143828695,-60.85116144555269,-0.35174081760435083,9.145261257713123,30.24971031397417
goals: 30.880402965153564,50.48195943389062,-63.98870500032476,0.008279916982396327,13.497604157791468,30.878510815814813
goals: 30.880406578943234,50.33827072976564,-64.71078190695478,0.008287162585354026,14.363369767182563,30.878454617600045
state: 30.777321540380697,50.474807326224344,-62.433995124772274,-0.35174081760435083,11.255706163339227,30.24971031397417
goals: 30.88040778200427,50.288240888058496,-64.95041058036719,0.008289689963162317,14.653028281844788,30.8784357843547
goals: 30.77560635331278,50.30726864525849,-65.02854734572628,0.008282975810182919,14.712130543123878,30.773631192100815
state: 30.777321540380697,50.29893691742217,-64.01682880399184,-0.35174081760435083,13.190280660163156,30.24971031397417
goals: 29.939873087859283,50.557845113015105,-65.16278968341629,0.008224032198112616,14.595742846569479,29.937913328124914
goals: 28.886979355344117,50.8629633108522,-65.32572792790668,0.008149285336234964,14.453496006236227,28.88503859966394
state: 30.777321540380697,50.12306650862,-64.54444003039838,-0.35174081760435083,13.89376229537186,30.24971031397417
goals: 27.81566933004261,51.161411382175416,-65.48454854252306,0.008072677403498773,14.313801182853476,27.813747458711255
goals: 26.752077369838407,51.44581905458042,-65.63538702032871,0.007996073022061297,14.180165801404835,26.750173801334633
state: 30.073839905171997,50.65067773502651,-65.0720512568049,-0.35174081760435083,13.89376229537186,30.24971031397417
goals: 25.68466136287541,51.71942504378682,-65.78002735563162,0.007918648102032586,14.05113442415173,25.682775722762457
goals: 24.614333796781242,51.98196635208376,-65.91838634650223,0.007840467961645775,13.926886915466563,24.61246569747608
state: 27.25991336433719,51.17828896143304,-65.24792166560708,0.17587040880217542,14.245503112976209,29.370358269963294
goals: 23.54180497684479,52.23326514588133,-66.05042482249067,0.007761585070743724,13.807561992508761,23.53995402276123
goals: 22.466719346177225,52.473403098094245,-66.17623797723986,0.007681974240381915,13.693173165077042,22.46488515162605
state: 25.325338867513256,51.705900187839575,-65.77553289201362,0.35174081760435083,14.245503112976209,29.19448786116112
goals: 21.388487892787936,52.70249189880656,-66.29593374557717,0.007601592267774993,13.583716654306288,21.386670085317412
goals: 20.31200619011368,52.91953854298527,-66.40904209784412,0.007520807883281396,13.479715730826806,20.310204329794324
state: 23.214893961887157,52.2335114142461,-65.95140330081578,0.17587040880217542,13.89376229537186,27.084042955535015
goals: 19.23457869650604,53.12516658754807,-66.51593497926831,0.0074394243446405835,13.380918630787074,19.23279239186324
goals: 18.151658892672597,53.32020250297815,-66.61708371459163,0.007357098541477869,13.286969959363192,18.149887822613426
state: 21.280319465063226,52.76112264065262,-66.12727370961795,0.17587040880217542,13.717891886569682,24.97359804990891
goals: 17.070601247750663,53.50332245865844,-66.71184195318536,0.007274392078123009,13.198547623476884,17.06884499436102
goals: 15.978634078991016,53.67660220142747,-66.80132049630318,0.007190326701365969,13.114685976472897,15.976892403602895
state: 18.994004150634943,53.112863458256975,-66.65488493602447,0.17587040880217542,13.542021477767507,22.687282735480625
goals: 14.892702035222664,53.83732752586782,-66.88415308373777,0.007106208834381805,13.03673391223912,14.890974479672533
goals: 14.085706598326677,53.949307373068166,-66.94177111615018,0.0070433670816455645,12.982328520117669,14.083989297504193
state: 16.88355924500884,53.64047468466351,-66.65488493602447,0.17587040880217542,13.36615106896533,20.576837829854522
goals: 13.981922334339684,53.8672953393794,-66.73595451305185,0.007034500740432018,12.858518378355399,13.980213132213503
goals: 13.924445615733589,53.46908821519218,-65.84066018053068,0.0070268714919779676,12.361428087995002,13.922765735718857
state: 14.421373521778381,53.81634509346568,-67.00662575362882,0.17587040880217542,13.190280660163156,18.114652106624067
goals: 13.86057650432316,53.020220109754725,-64.83490604142119,0.0070185190323566295,11.804538632135266,13.858929391541304
goals: 13.797537184263941,52.57050676441495,-63.83077413106298,0.007010407003492006,11.250116692088694,13.795922609305432
state: 13.89376229537186,53.64047468466351,-67.00662575362882,0.17587040880217542,13.190280660163156,16.707688836206664
goals: 13.735157574226847,52.118868717836186,-62.82574637860621,0.00700251159062515,10.696723649142056,13.733575395112627
goals: 13.67351888491864,51.66601444130139,-61.8213016548805,0.0069948414266925605,10.145129907099406,13.67196891736558
state: 13.36615106896533,52.76112264065262,-65.59966248321143,0.17587040880217542,11.95918779854793,15.652466383393612
goals: 13.612567846628684,51.211679072980324,-60.81675487517986,0.006987388133168343,9.594915240149302,13.611049933724145
goals: 13.551797179483609,50.7521179687818,-59.80377453844101,0.006980089759641856,9.041492764171547,13.550311433311023
state: 13.717891886569682,52.05764100544392,-63.84095839518968,0.17587040880217542,10.552224528130523,14.245503112976209
goals: 13.491748842613802,50.29147177082753,-58.791434613319765,0.006973011390944052,8.48979583457133,13.490295090345247
goals: 13.432156340913107,49.82778458684605,-57.77536418331015,0.006966120698342837,7.937409412830646,13.430734552112334
state: 13.36615106896533,51.17828896143304,-61.02703185435487,0.17587040880217542,9.321131666515297,13.89376229537186
goals: 13.373313262910134,49.363433687168325,-56.76070028262243,0.00695945063833701,7.387093278402721,13.371923249809068
goals: 13.314878348108035,48.895812957564544,-55.74168059417988,0.0069529616788117105,6.835691210199921,13.313520107464246
state: 13.190280660163156,50.12306650862,-59.268327766333115,0.17587040880217542,8.44177962250442,13.717891886569682
goals: 13.257481646245836,48.430099986529385,-54.72950196140476,0.006946721923928927,6.289222496590739,13.256154830714722
goals: 13.213096135333064,48.065543584449735,-53.938984926836305,0.00694198966248414,5.863259505587253,13.211793772892808
state: 13.36615106896533,49.06784405580694,-56.982012451904836,0.17587040880217542,7.210686760889191,13.542021477767507
goals: 13.197239364881812,47.93436110295202,-53.654903535394425,0.00694031905119501,5.710359753384889,13.195945771074536
goals: 13.210046166244716,48.05529972301041,-53.67811528820995,0.006941038349239819,5.612633566630457,13.208758087262943
state: 13.01441025136098,48.188492011796065,-55.0474379550809,0.17587040880217542,6.15546430807614,13.542021477767507
goals: 13.306551604911729,48.93794327537343,-54.16484834401987,0.006947461143204964,5.216728201072035,13.30528572230371
goals: 13.427609419043407,50.030846802650764,-54.760676436013306,0.006955618007709691,4.719659211082723,13.426371468417138
state: 13.190280660163156,47.83675119419172,-53.992215502267854,0.17587040880217542,5.803723490471789,13.36615106896533
goals: 13.551033690160056,51.129046896370355,-55.35179261716329,0.006964050105485151,4.212581879991911,13.54982430784532
goals: 13.676285137936727,52.22725898591461,-55.93533766746916,0.0069727276389441985,3.6979215301757167,13.675104828310324
state: 13.190280660163156,49.24371446460912,-53.992215502267854,0.17587040880217542,4.924371446460912,13.36615106896533
goals: 13.803521142700784,53.32646045046566,-56.511860994358614,0.006981667961248512,3.1752501987601343,13.802370438787735
goals: 13.92859098197794,54.39115753582346,-57.06312603748692,0.006990579811812477,2.6618248575339387,13.927469440040795
state: 13.542021477767507,51.354159370235216,-54.871567546278726,0.17587040880217542,3.693278584845684,13.542021477767507
goals: 13.99390345557028,54.94103497763559,-57.34508706250825,0.006995282564682471,2.3939119442476064,13.992797162614004
goals: 13.995590498299673,54.94235391170431,-57.74240921432938,0.006995924686362803,2.789915252041448,13.994461488242893
state: 13.717891886569682,53.46460427586132,-56.27853081669613,0.17587040880217542,3.165667358439157,13.36615106896533
goals: 13.99559351090948,54.90472855358664,-58.644579692130826,0.006997454267262901,3.729711086972437,13.994410578850648
goals: 13.995596583035704,54.85462217859332,-59.563510609949766,0.006999495132403057,4.698748378763281,13.994358021086683
state: 13.89376229537186,54.871567546278726,-57.157882860707005,0.17587040880217542,2.110444905626105,13.36615106896533
goals: 13.995599627224724,54.79292390873966,-60.472612734613506,0.00700201250112158,5.669548772254865,13.99430529557899
goals: 13.995602630898611,54.719948086981184,-61.367767085746515,0.0070049951364241836,6.637678944120596,13.9942526364831
state: 14.069632704174033,54.871567546278726,-58.74071653992659,0.17587040880217542,3.5174081760435083,13.36615106896533
goals: 13.995605592933146,54.63588956160546,-62.24831086273026,0.007008436908903384,7.602281245455341,13.994200084473066
goals: 13.995608529010374,54.54040499956337,-63.11858486429388,0.007012354024488685,8.568039808032196,13.994147377876818
state: 13.89376229537186,54.69569713747656,-60.49942062794834,0.17587040880217542,5.451982672867437,13.36615106896533
goals: 13.995611450085928,54.43309386092847,-63.981497444429145,0.007016765456832843,9.538263525765647,13.99409432838154
goals: 13.995614322418666,54.315317255257185,-64.82679557520348,0.007021617973963841,10.50133826117904,13.99404156449761
state: 13.89376229537186,54.51982672867438,-62.258124715970105,0.17587040880217542,7.386557169691368,13.36615106896533
goals: 13.995617180334905,54.18580537165365,-65.66431393392313,0.007026966904091626,11.468368502462518,13.99398847133085
goals: 13.995619254900818,54.08394464685661,-66.26984892932586,0.007031183228539571,12.175764221899616,13.993949557403699
state: 13.89376229537186,54.16808591107003,-64.01682880399184,0.17587040880217542,9.321131666515297,13.36615106896533
goals: 13.995620591775673,54.014756589366065,-66.65890869525246,0.007034051829254284,12.63401204482171,13.993924313551195
goals: 13.995621380544858,53.9726182853132,-66.88801484539636,0.007035800779457865,12.905256498725066,13.993909357733651
state: 13.89376229537186,54.16808591107003,-65.77553289201362,0.17587040880217542,11.4315765721414,13.36615106896533
