RAMEL-ESPOL/ARCHIE/manipulator_master/src/datos.txt
Joint0,Joint1,Joint2,Joint3,Joint4,Joint5 
goals: 0.0,0.0,0.0,0.0,0.0,0.0
state: 0.0,-0.17587040880217542,-0.35174081760435083,-0.35174081760435083,0.0,-0.5276112264065262
goals: 0.0,0.0,0.0,0.0,0.0,0.0
goals: 0.0,0.0,0.0,0.0,0.0,0.0
state: 0.0,-0.17587040880217542,-0.35174081760435083,-0.35174081760435083,0.0,-0.5276112264065262
goals: 0.0,0.0,0.0,0.0,0.0,0.0
goals: 0.0,0.0,0.0,0.0,0.0,0.0
state: 0.0,-0.17587040880217542,-0.35174081760435083,-0.35174081760435083,0.0,-0.5276112264065262
goals: 0.0,0.0,0.0,0.0,0.0,0.0
goals: 0.0,0.0,0.0,0.0,0.0,0.0
state: 0.0,-0.17587040880217542,-0.35174081760435083,-0.35174081760435083,0.0,-0.5276112264065262
goals: 0.0,0.0,0.0,0.0,0.0,0.0
goals: 0.0,0.0,0.0,0.0,0.0,0.0
state: 0.0,-0.17587040880217542,-0.35174081760435083,-0.35174081760435083,0.0,-0.5276112264065262
goals: 0.0,0.0,0.0,0.0,0.0,0.0
goals: 0.0,0.0,0.0,0.0,0.0,0.0
state: 0.0,-0.17587040880217542,-0.35174081760435083,-0.35174081760435083,0.0,-0.5276112264065262
goals: 0.0,0.0,0.0,0.0,0.0,0.0
goals: 0.0,0.0,0.0,0.0,0.0,0.0
state: 0.0,0.0,-0.35174081760435083,-0.35174081760435083,0.0,-0.5276112264065262
goals: 0.0,0.0,0.0,0.0,0.0,0.0
goals: 0.0,0.0,0.0,0.0,0.0,0.0
state: 0.0,0.0,-0.35174081760435083,-0.35174081760435083,0.0,-0.5276112264065262
goals: 0.0,0.0,0.0,0.0,0.0,0.0
goals: 0.0,0.0,0.0,0.0,0.0,0.0
state: 0.0,0.0,-0.35174081760435083,-0.35174081760435083,0.0,-0.5276112264065262
goals: 0.0,0.0,0.0,0.0,0.0,0.0
goals: 0.0,0.0,0.0,0.0,0.0,0.0
state: 0.0,0.0,-0.35174081760435083,-0.35174081760435083,0.0,-0.5276112264065262
goals: 0.0,0.0,0.0,0.0,0.0,0.0
goals: 0.0,0.0,0.0,0.0,0.0,0.0
state: 0.0,0.0,-0.35174081760435083,-0.35174081760435083,0.0,-0.5276112264065262
goals: 0.0,0.0,0.0,0.0,0.0,0.0
goals: 0.0,0.0,0.0,0.0,0.0,0.0
state: 0.0,0.0,-0.35174081760435083,-0.35174081760435083,0.0,-0.5276112264065262
goals: 0.0,0.0,0.0,0.0,0.0,0.0
goals: 0.0,0.0,0.0,0.0,0.0,0.0
state: 0.0,0.0,-0.17587040880217542,-0.35174081760435083,0.0,-0.5276112264065262
goals: 0.0,0.0,0.0,0.0,0.0,0.0
goals: 0.0,0.0,0.0,0.0,0.0,0.0
state: 0.0,0.0,-0.35174081760435083,-0.35174081760435083,0.0,-0.5276112264065262
goals: 0.0,0.0,0.0,0.0,0.0,0.0
goals: 0.0,0.0,0.0,0.0,0.0,0.0
state: 0.0,0.0,-0.35174081760435083,-0.35174081760435083,0.0,-0.5276112264065262
goals: 0.0,0.0,0.0,0.0,0.0,0.0
goals: 0.0,0.0,0.0,0.0,0.0,0.0
state: 0.0,0.0,-0.35174081760435083,-0.35174081760435083,0.0,-0.5276112264065262
goals: 0.0,0.0,0.0,0.0,0.0,0.0
goals: 0.0,0.0,0.0,0.0,0.0,0.0
state: 0.0,0.0,-0.35174081760435083,-0.35174081760435083,0.0,-0.5276112264065262
goals: 0.0,0.0,0.0,0.0,0.0,0.0
goals: 0.0,0.0,0.0,0.0,0.0,0.0
state: 0.0,0.0,-0.35174081760435083,-0.35174081760435083,0.0,-0.5276112264065262
goals: 0.0,0.0,0.0,0.0,0.0,0.0
goals: 0.0,0.0,0.0,0.0,0.0,0.0
state: 0.0,0.0,-0.35174081760435083,-0.35174081760435083,0.0,-0.5276112264065262
goals: 0.0,0.0,0.0,0.0,0.0,0.0
goals: 0.0,0.0,0.0,0.0,0.0,0.0
state: 0.0,0.0,-0.35174081760435083,-0.35174081760435083,0.0,-0.5276112264065262
goals: 0.0,0.0,0.0,0.0,0.0,0.0
goals: 0.0,0.0,0.0,0.0,0.0,0.0
state: 0.0,0.0,-0.17587040880217542,-0.35174081760435083,0.0,-0.5276112264065262
goals: 0.0,0.0,0.0,0.0,0.0,0.0
goals: 0.0,0.0,0.0,0.0,0.0,0.0
state: 0.0,0.0,-0.35174081760435083,-0.35174081760435083,0.0,-0.5276112264065262
goals: 0.0,0.0,0.0,0.0,0.0,0.0
goals: 0.0,0.0,0.0,0.0,0.0,0.0
state: 0.0,0.0,-0.35174081760435083,-0.35174081760435083,0.0,-0.5276112264065262
goals: 0.0,0.0,0.0,0.0,0.0,0.0
goals: 0.0,0.0,0.0,0.0,0.0,0.0
state: 0.0,0.0,-0.17587040880217542,-0.35174081760435083,0.0,-0.5276112264065262
goals: 0.0,0.0,0.0,0.0,0.0,0.0
goals: 0.0,0.0,0.0,0.0,0.0,0.0
state: 0.0,0.0,-0.17587040880217542,-0.35174081760435083,0.0,-0.5276112264065262
goals: 0.0,0.0,0.0,0.0,0.0,0.0
goals: 0.0,0.0,0.0,0.0,0.0,0.0
state: 0.0,0.0,-0.17587040880217542,-0.35174081760435083,0.0,-0.5276112264065262
goals: 0.0,0.0,0.0,0.0,0.0,0.0
goals: 0.0,0.0,0.0,0.0,0.0,0.0
state: 0.0,0.0,-0.17587040880217542,-0.35174081760435083,0.0,-0.5276112264065262
goals: 0.0,0.0,0.0,0.0,0.0,0.0
goals: 0.0,0.0,0.0,0.0,0.0,0.0
state: 0.0,0.0,-0.17587040880217542,-0.35174081760435083,0.0,-0.5276112264065262
goals: 0.0,0.0,0.0,0.0,0.0,0.0
goals: 0.0,0.0,0.0,0.0,0.0,0.0
state: 0.0,0.0,-0.17587040880217542,-0.35174081760435083,0.0,-0.5276112264065262
goals: 0.0,0.0,0.0,0.0,0.0,0.0
goals: 0.0,0.0,0.0,0.0,0.0,0.0
state: 0.0,0.0,-0.17587040880217542,-0.35174081760435083,0.0,-0.5276112264065262
goals: 0.0,0.0,0.0,0.0,0.0,0.0
goals: 0.0,0.0,0.0,0.0,0.0,0.0
state: 0.0,0.0,-0.17587040880217542,-0.35174081760435083,0.0,-0.5276112264065262
goals: 0.0,0.0,0.0,0.0,0.0,0.0
goals: 0.0,0.0,0.0,0.0,0.0,0.0
state: 0.0,0.0,-0.17587040880217542,-0.35174081760435083,0.0,-0.5276112264065262
goals: 0.0,0.0,0.0,0.0,0.0,0.0
goals: 0.0,0.0,0.0,0.0,0.0,0.0
state: 0.0,0.0,-0.17587040880217542,-0.35174081760435083,0.0,-0.5276112264065262
goals: 0.0,0.0,0.0,0.0,0.0,0.0
goals: 0.0,0.0,0.0,0.0,0.0,0.0
state: 0.0,0.0,-0.17587040880217542,-0.35174081760435083,0.0,-0.5276112264065262
goals: 0.0,0.0,0.0,0.0,0.0,0.0
goals: 0.0,0.0,0.0,0.0,0.0,0.0
state: 0.0,0.0,-0.17587040880217542,-0.35174081760435083,0.0,-0.5276112264065262
goals: 0.0,0.0,0.0,0.0,0.0,0.0
goals: 0.0,0.0,0.0,0.0,0.0,0.0
state: 0.0,0.0,-0.17587040880217542,-0.35174081760435083,0.0,-0.5276112264065262
goals: 0.0,0.0,0.0,0.0,0.0,0.0
goals: 0.0,0.0,0.0,0.0,0.0,0.0
state: 0.0,0.0,-0.17587040880217542,-0.35174081760435083,0.0,-0.5276112264065262
goals: 0.0,0.0,0.0,0.0,0.0,0.0
goals: 0.0,0.0,0.0,0.0,0.0,0.0
state: 0.0,0.0,-0.17587040880217542,-0.35174081760435083,0.0,-0.5276112264065262
goals: 0.0,0.0,0.0,0.0,0.0,0.0
goals: 0.0,0.0,0.0,0.0,0.0,0.0
state: 0.0,0.0,-0.17587040880217542,-0.35174081760435083,0.0,-0.5276112264065262
goals: 0.0,0.0,0.0,0.0,0.0,0.0
goals: 0.0,0.0,0.0,0.0,0.0,0.0
state: 0.0,0.0,-0.17587040880217542,-0.35174081760435083,0.0,-0.5276112264065262
goals: 0.0,0.0,0.0,0.0,0.0,0.0
goals: 0.0,0.0,0.0,0.0,0.0,0.0
state: 0.0,0.0,-0.17587040880217542,-0.35174081760435083,0.0,-0.5276112264065262
goals: 0.0,0.0,0.0,0.0,0.0,0.0
goals: 0.0,0.0,0.0,0.0,0.0,0.0
state: 0.0,0.0,-0.17587040880217542,-0.35174081760435083,0.0,-0.5276112264065262
goals: 0.0,0.0,0.0,0.0,0.0,0.0
goals: 0.0,0.0,0.0,0.0,0.0,0.0
state: 0.0,0.0,-0.17587040880217542,-0.35174081760435083,0.0,-0.5276112264065262
goals: 0.0,0.0,0.0,0.0,0.0,0.0
goals: 0.0,0.0,0.0,0.0,0.0,0.0
state: 0.0,0.0,-0.17587040880217542,-0.35174081760435083,0.0,-0.5276112264065262
goals: 0.0,0.0,0.0,0.0,0.0,0.0
goals: 0.0,0.0,0.0,0.0,0.0,0.0
state: 0.0,0.0,-0.17587040880217542,-0.35174081760435083,0.0,-0.5276112264065262
goals: 0.0,0.0,0.0,0.0,0.0,0.0
goals: 0.0,0.0,0.0,0.0,0.0,0.0
state: 0.0,0.0,-0.17587040880217542,-0.35174081760435083,0.0,-0.5276112264065262
goals: 0.0,0.0,0.0,0.0,0.0,0.0
goals: 0.0,0.0,0.0,0.0,0.0,0.0
state: 0.0,0.0,-0.17587040880217542,-0.35174081760435083,0.0,-0.5276112264065262
goals: 0.0,0.0,0.0,0.0,0.0,0.0
goals: 0.0,0.0,0.0,0.0,0.0,0.0
state: 0.0,0.0,-0.17587040880217542,-0.35174081760435083,0.0,-0.5276112264065262
goals: 0.0,0.0,0.0,0.0,0.0,0.0
goals: 0.0,0.0,0.0,0.0,0.0,0.0
state: 0.0,0.0,-0.17587040880217542,-0.35174081760435083,0.0,-0.5276112264065262
goals: 0.0,0.0,0.0,0.0,0.0,0.0
goals: 0.0,0.0,0.0,0.0,0.0,0.0
state: 0.0,0.0,-0.17587040880217542,-0.35174081760435083,0.0,-0.5276112264065262
goals: 0.0,0.0,0.0,0.0,0.0,0.0
goals: 0.0,0.0,0.0,0.0,0.0,0.0
state: 0.0,0.0,-0.17587040880217542,-0.35174081760435083,0.0,-0.5276112264065262
goals: 0.0,0.0,0.0,0.0,0.0,0.0
goals: 0.0,0.0,0.0,0.0,0.0,0.0
state: 0.0,0.0,-0.17587040880217542,-0.35174081760435083,0.0,-0.5276112264065262
goals: 0.0,0.0,0.0,0.0,0.0,0.0
goals: 0.0,0.0,0.0,0.0,0.0,0.0
state: 0.0,0.0,-0.17587040880217542,-0.35174081760435083,0.0,-0.5276112264065262
goals: 0.0,0.0,0.0,0.0,0.0,0.0
goals: 0.0,0.0,0.0,0.0,0.0,0.0
state: 0.0,0.0,0.0,-0.35174081760435083,0.0,-0.5276112264065262
goals: 0.0,0.0,0.0,0.0,0.0,0.0
goals: 0.0,0.0,0.0,0.0,0.0,0.0
state: 0.0,0.0,0.17587040880217542,-0.35174081760435083,0.0,-0.5276112264065262
goals: 0.0,0.0,0.0,0.0,0.0,0.0
goals: 0.0,0.0,0.0,0.0,0.0,0.0
state: 0.0,0.0,0.17587040880217542,-0.35174081760435083,0.0,-0.5276112264065262
goals: 0.0,0.0,0.0,0.0,0.0,0.0
goals: 0.0,0.0,0.0,0.0,0.0,0.0
state: 0.0,0.0,0.17587040880217542,-0.35174081760435083,0.0,-0.5276112264065262
goals: 0.0,0.0,0.0,0.0,0.0,0.0
goals: 0.0,0.0,0.0,0.0,0.0,0.0
state: 0.0,0.0,0.17587040880217542,-0.35174081760435083,0.0,-0.5276112264065262
goals: 0.0,0.0,0.0,0.0,0.0,0.0
goals: 0.0,0.0,0.0,0.0,0.0,0.0
state: 0.0,0.0,0.17587040880217542,-0.35174081760435083,0.0,-0.5276112264065262
goals: 0.0,0.0,0.0,0.0,0.0,0.0
goals: 0.0,0.0,0.0,0.0,0.0,0.0
state: 0.0,0.0,0.17587040880217542,-0.35174081760435083,0.0,-0.5276112264065262
goals: 0.0,0.0,0.0,0.0,0.0,0.0
goals: 0.0,0.0,0.0,0.0,0.0,0.0
state: 0.0,0.0,0.17587040880217542,-0.35174081760435083,0.0,-0.5276112264065262
goals: 0.0,0.0,0.0,0.0,0.0,0.0
goals: 0.0,0.0,0.0,0.0,0.0,0.0
state: 0.0,0.0,0.17587040880217542,-0.35174081760435083,0.0,-0.5276112264065262
goals: 0.0,0.0,0.0,0.0,0.0,0.0
goals: 0.0,0.0,0.0,0.0,0.0,0.0
state: 0.0,0.0,0.17587040880217542,-0.35174081760435083,0.0,-0.5276112264065262
goals: 0.0,0.0,0.0,0.0,0.0,0.0
goals: 0.0,0.0,0.0,0.0,0.0,0.0
state: 0.0,0.0,0.17587040880217542,-0.35174081760435083,0.0,-0.5276112264065262
goals: 0.0,0.0,0.0,0.0,0.0,0.0
goals: 0.0,0.0,0.0,0.0,0.0,0.0
state: 0.0,0.0,0.17587040880217542,-0.35174081760435083,0.0,-0.5276112264065262
goals: 0.0,0.0,0.0,0.0,0.0,0.0
goals: 0.0,0.0,0.0,0.0,0.0,0.0
state: 0.0,0.0,0.17587040880217542,-0.35174081760435083,0.0,-0.5276112264065262
goals: 0.0,0.0,0.0,0.0,0.0,0.0
goals: 0.0,0.0,0.0,0.0,0.0,0.0
state: 0.0,0.0,0.17587040880217542,-0.35174081760435083,0.0,-0.5276112264065262
goals: 0.0,0.0,0.0,0.0,0.0,0.0
goals: 0.0,0.0,0.0,0.0,0.0,0.0
state: 0.0,0.0,0.17587040880217542,-0.35174081760435083,0.0,-0.5276112264065262
goals: 0.0,0.0,0.0,0.0,0.0,0.0
goals: 0.0,0.0,0.0,0.0,0.0,0.0
state: 0.0,0.0,0.17587040880217542,-0.35174081760435083,0.0,-0.5276112264065262
goals: 0.0,0.0,0.0,0.0,0.0,0.0
goals: 0.0,0.0,0.0,0.0,0.0,0.0
state: 0.0,0.0,0.17587040880217542,-0.35174081760435083,0.0,-0.5276112264065262
goals: 0.0,0.0,0.0,0.0,0.0,0.0
goals: 0.0,0.0,0.0,0.0,0.0,0.0
state: 0.0,0.0,0.17587040880217542,-0.35174081760435083,0.0,-0.5276112264065262
goals: 0.0,0.0,0.0,0.0,0.0,0.0
goals: 0.0,0.0,0.0,0.0,0.0,0.0
state: 0.0,0.0,0.17587040880217542,-0.35174081760435083,0.0,-0.5276112264065262
goals: 0.0,0.0,0.0,0.0,0.0,0.0
goals: 0.0,0.0,0.0,0.0,0.0,0.0
state: 0.0,0.0,0.17587040880217542,-0.35174081760435083,0.0,-0.5276112264065262
goals: 0.0,0.0,0.0,0.0,0.0,0.0
goals: 0.0,0.0,0.0,0.0,0.0,0.0
state: 0.0,0.0,0.17587040880217542,-0.35174081760435083,0.0,-0.5276112264065262
goals: 0.0,0.0,0.0,0.0,0.0,0.0
goals: 0.0,0.0,0.0,0.0,0.0,0.0
state: -0.17587040880217542,0.0,0.17587040880217542,-0.35174081760435083,0.0,-0.5276112264065262
goals: 0.0,0.0,0.0,0.0,0.0,0.0
goals: 1.050226546983302e-05,2.021631974187689e-05,2.3453844380377244e-05,2.049173488244925e-05,2.4712903031833887e-05,-1.2524977535224377e-06
state: 0.0,0.0,0.17587040880217542,-0.35174081760435083,0.0,-0.5276112264065262
goals: 0.004234720602821392,0.008151618902613024,0.009457052699557154,0.008262671720070445,0.009964729983739222,-0.0005050318007161658
goals: 0.004234720602821392,0.008151618902613024,0.009457052699557154,0.008262671720070445,0.009964729983739222,-0.0005050318007161658
state: 0.0,0.0,0.17587040880217542,-0.35174081760435083,0.0,-0.5276112264065262
goals: 0.004234720602821392,0.008151618902613024,0.009457052699557154,0.008262671720070445,0.009964729983739222,-0.0005050318007161658
goals: 0.004234720602821392,0.008151618902613024,0.009457052699557154,0.008262671720070445,0.009964729983739222,-0.0005050318007161658
state: 0.0,0.0,0.17587040880217542,-0.35174081760435083,0.0,-0.5276112264065262
goals: 0.004234720602821392,0.008151618902613024,0.009457052699557154,0.008262671720070445,0.009964729983739222,-0.0005050318007161658
goals: 0.004234720602821392,0.008151618902613024,0.009457052699557154,0.008262671720070445,0.009964729983739222,-0.0005050318007161658
state: 0.0,0.0,0.17587040880217542,-0.35174081760435083,0.0,-0.5276112264065262
goals: 0.004234720602821392,0.008151618902613024,0.009457052699557154,0.008262671720070445,0.009964729983739222,-0.0005050318007161658
goals: 0.004234720602821392,0.008151618902613024,0.009457052699557154,0.008262671720070445,0.009964729983739222,-0.0005050318007161658
state: 0.0,0.0,0.17587040880217542,-0.35174081760435083,0.0,-0.5276112264065262
goals: 0.004234720602821392,0.008151618902613024,0.009457052699557154,0.008262671720070445,0.009964729983739222,-0.0005050318007161658
goals: 0.004234720602821392,0.008151618902613024,0.009457052699557154,0.008262671720070445,0.009964729983739222,-0.0005050318007161658
state: 0.0,0.0,0.17587040880217542,-0.35174081760435083,0.0,-0.5276112264065262
goals: 0.004234720602821392,0.008151618902613024,0.009457052699557154,0.008262671720070445,0.009964729983739222,-0.0005050318007161658
goals: 0.004234720602821392,0.008151618902613024,0.009457052699557154,0.008262671720070445,0.009964729983739222,-0.0005050318007161658
state: 0.0,0.0,0.17587040880217542,-0.35174081760435083,0.0,-0.5276112264065262
goals: 0.004234720602821392,0.008151618902613024,0.009457052699557154,0.008262671720070445,0.009964729983739222,-0.0005050318007161658
goals: 0.004234720602821392,0.008151618902613024,0.009457052699557154,0.008262671720070445,0.009964729983739222,-0.0005050318007161658
state: 0.0,0.0,0.17587040880217542,-0.35174081760435083,0.0,-0.5276112264065262
goals: 0.004234720602821392,0.008151618902613024,0.009457052699557154,0.008262671720070445,0.009964729983739222,-0.0005050318007161658
goals: 0.004234720602821392,0.008151618902613024,0.009457052699557154,0.008262671720070445,0.009964729983739222,-0.0005050318007161658
state: 0.0,0.0,0.17587040880217542,-0.35174081760435083,0.0,-0.5276112264065262
goals: 0.004234720602821392,0.008151618902613024,0.009457052699557154,0.008262671720070445,0.009964729983739222,-0.0005050318007161658
goals: 0.004234720602821392,0.008151618902613024,0.009457052699557154,0.008262671720070445,0.009964729983739222,-0.0005050318007161658
state: 0.0,0.0,0.17587040880217542,-0.35174081760435083,0.0,-0.5276112264065262
goals: 0.004234720602821392,0.008151618902613024,0.009457052699557154,0.008262671720070445,0.009964729983739222,-0.0005050318007161658
goals: 0.004234720602821392,0.008151618902613024,0.009457052699557154,0.008262671720070445,0.009964729983739222,-0.0005050318007161658
state: 0.0,0.0,0.17587040880217542,-0.35174081760435083,0.0,-0.5276112264065262
goals: 0.004234720602821392,0.008151618902613024,0.009457052699557154,0.008262671720070445,0.009964729983739222,-0.0005050318007161658
goals: 0.004234720602821392,0.008151618902613024,0.009457052699557154,0.008262671720070445,0.009964729983739222,-0.0005050318007161658
state: 0.0,0.0,0.17587040880217542,-0.35174081760435083,0.0,-0.5276112264065262
goals: 0.004234720602821392,0.008151618902613024,0.009457052699557154,0.008262671720070445,0.009964729983739222,-0.0005050318007161658
goals: 0.004234720602821392,0.008151618902613024,0.009457052699557154,0.008262671720070445,0.009964729983739222,-0.0005050318007161658
state: 0.0,0.0,0.17587040880217542,-0.35174081760435083,0.0,-0.5276112264065262
goals: 0.004234720602821392,0.008151618902613024,0.009457052699557154,0.008262671720070445,0.009964729983739222,-0.0005050318007161658
goals: 0.004234720602821392,0.008151618902613024,0.009457052699557154,0.008262671720070445,0.009964729983739222,-0.0005050318007161658
state: 0.0,0.0,0.17587040880217542,-0.35174081760435083,0.0,-0.5276112264065262
goals: 0.004234720602821392,0.008151618902613024,0.009457052699557154,0.008262671720070445,0.009964729983739222,-0.0005050318007161658
goals: 0.004234720602821392,0.008151618902613024,0.009457052699557154,0.008262671720070445,0.009964729983739222,-0.0005050318007161658
state: 0.0,0.0,0.17587040880217542,-0.35174081760435083,0.0,-0.5276112264065262
goals: 0.004234720602821392,0.008151618902613024,0.009457052699557154,0.008262671720070445,0.009964729983739222,-0.0005050318007161658
goals: 0.004234720602821392,0.008151618902613024,0.009457052699557154,0.008262671720070445,0.009964729983739222,-0.0005050318007161658
state: 0.0,0.0,0.17587040880217542,-0.35174081760435083,0.0,-0.5276112264065262
goals: 0.004234720602821392,0.008151618902613024,0.009457052699557154,0.008262671720070445,0.009964729983739222,-0.0005050318007161658
goals: 0.004234720602821392,0.008151618902613024,0.009457052699557154,0.008262671720070445,0.009964729983739222,-0.0005050318007161658
state: 0.0,0.0,0.17587040880217542,-0.35174081760435083,0.0,-0.5276112264065262
goals: 0.004234720602821392,0.008151618902613024,0.009457052699557154,0.008262671720070445,0.009964729983739222,-0.0005050318007161658
goals: 0.004234720602821392,0.008151618902613024,0.009457052699557154,0.008262671720070445,0.009964729983739222,-0.0005050318007161658
state: 0.0,0.0,0.17587040880217542,-0.35174081760435083,0.0,-0.5276112264065262
goals: 0.004234720602821392,0.008151618902613024,0.009457052699557154,0.008262671720070445,0.009964729983739222,-0.0005050318007161658
goals: 0.004234720602821392,0.008151618902613024,0.009457052699557154,0.008262671720070445,0.009964729983739222,-0.0005050318007161658
state: 0.0,0.0,0.17587040880217542,-0.35174081760435083,0.0,-0.5276112264065262
goals: 0.004234720602821392,0.008151618902613024,0.009457052699557154,0.008262671720070445,0.009964729983739222,-0.0005050318007161658
goals: 0.004234720602821392,0.008151618902613024,0.009457052699557154,0.008262671720070445,0.009964729983739222,-0.0005050318007161658
state: 0.0,0.0,0.17587040880217542,-0.35174081760435083,0.0,-0.5276112264065262
goals: 0.004234720602821392,0.008151618902613024,0.009457052699557154,0.008262671720070445,0.009964729983739222,-0.0005050318007161658
goals: 0.004234720602821392,0.008151618902613024,0.009457052699557154,0.008262671720070445,0.009964729983739222,-0.0005050318007161658
state: 0.0,0.0,0.17587040880217542,-0.35174081760435083,0.0,-0.5276112264065262
goals: 0.004234720602821392,0.008151618902613024,0.009457052699557154,0.008262671720070445,0.009964729983739222,-0.0005050318007161658
goals: 0.004234720602821392,0.008151618902613024,0.009457052699557154,0.008262671720070445,0.009964729983739222,-0.0005050318007161658
state: 0.0,0.0,0.17587040880217542,-0.35174081760435083,0.0,-0.5276112264065262
goals: 0.004234720602821392,0.008151618902613024,0.009457052699557154,0.008262671720070445,0.009964729983739222,-0.0005050318007161658
goals: 0.004234720602821392,0.008151618902613024,0.009457052699557154,0.008262671720070445,0.009964729983739222,-0.0005050318007161658
state: 0.0,0.0,0.17587040880217542,-0.35174081760435083,0.0,-0.5276112264065262
goals: 0.004234720602821392,0.008151618902613024,0.009457052699557154,0.008262671720070445,0.009964729983739222,-0.0005050318007161658
goals: 0.004234720602821392,0.008151618902613024,0.009457052699557154,0.008262671720070445,0.009964729983739222,-0.0005050318007161658
state: 0.0,0.0,0.17587040880217542,-0.35174081760435083,0.0,-0.5276112264065262
goals: 0.004234720602821392,0.008151618902613024,0.009457052699557154,0.008262671720070445,0.009964729983739222,-0.0005050318007161658
goals: 0.004234720602821392,0.008151618902613024,0.009457052699557154,0.008262671720070445,0.009964729983739222,-0.0005050318007161658
state: -0.17587040880217542,0.0,0.17587040880217542,-0.35174081760435083,0.0,-0.5276112264065262
goals: 0.004234720602821392,0.008151618902613024,0.009457052699557154,0.008262671720070445,0.009964729983739222,-0.0005050318007161658
goals: 0.004234720602821392,0.008151618902613024,0.009457052699557154,0.008262671720070445,0.009964729983739222,-0.0005050318007161658
state: 0.0,0.0,0.17587040880217542,-0.35174081760435083,0.0,-0.5276112264065262
goals: 0.004234720602821392,0.008151618902613024,0.009457052699557154,0.008262671720070445,0.009964729983739222,-0.0005050318007161658
goals: 0.004234720602821392,0.008151618902613024,0.009457052699557154,0.008262671720070445,0.009964729983739222,-0.0005050318007161658
state: 0.0,0.0,0.17587040880217542,-0.35174081760435083,0.0,-0.5276112264065262
goals: 0.004234720602821392,0.008151618902613024,0.009457052699557154,0.008262671720070445,0.009964729983739222,-0.0005050318007161658
goals: 0.004234720602821392,0.008151618902613024,0.009457052699557154,0.008262671720070445,0.009964729983739222,-0.0005050318007161658
state: 0.0,0.0,0.17587040880217542,-0.35174081760435083,0.0,-0.5276112264065262
goals: 0.004234720602821392,0.008151618902613024,0.009457052699557154,0.008262671720070445,0.009964729983739222,-0.0005050318007161658
goals: 0.004234720602821392,0.008151618902613024,0.009457052699557154,0.008262671720070445,0.009964729983739222,-0.0005050318007161658
state: 0.0,0.0,0.17587040880217542,-0.35174081760435083,0.0,-0.5276112264065262
goals: 0.004234720602821392,0.008151618902613024,0.009457052699557154,0.008262671720070445,0.009964729983739222,-0.0005050318007161658
goals: 0.004234720602821392,0.008151618902613024,0.009457052699557154,0.008262671720070445,0.009964729983739222,-0.0005050318007161658
state: -0.17587040880217542,0.0,0.17587040880217542,-0.35174081760435083,0.0,-0.5276112264065262
goals: 0.004234720602821392,0.008151618902613024,0.009457052699557154,0.008262671720070445,0.009964729983739222,-0.0005050318007161658
goals: 0.004234720602821392,0.008151618902613024,0.009457052699557154,0.008262671720070445,0.009964729983739222,-0.0005050318007161658
state: 0.0,0.0,0.17587040880217542,-0.35174081760435083,0.0,-0.5276112264065262
goals: 0.004234720602821392,0.008151618902613024,0.009457052699557154,0.008262671720070445,0.009964729983739222,-0.0005050318007161658
goals: 0.004234720602821392,0.008151618902613024,0.009457052699557154,0.008262671720070445,0.009964729983739222,-0.0005050318007161658
state: -0.17587040880217542,0.0,0.17587040880217542,-0.35174081760435083,0.0,-0.5276112264065262
goals: 0.004234720602821392,0.008151618902613024,0.009457052699557154,0.008262671720070445,0.009964729983739222,-0.0005050318007161658
goals: 0.004234720602821392,0.008151618902613024,0.009457052699557154,0.008262671720070445,0.009964729983739222,-0.0005050318007161658
state: -0.17587040880217542,0.0,0.17587040880217542,-0.35174081760435083,0.0,-0.5276112264065262
goals: 0.004234720602821392,0.008151618902613024,0.009457052699557154,0.008262671720070445,0.009964729983739222,-0.0005050318007161658
goals: 0.004234720602821392,0.008151618902613024,0.009457052699557154,0.008262671720070445,0.009964729983739222,-0.0005050318007161658
state: 0.0,0.0,0.17587040880217542,-0.35174081760435083,0.17587040880217542,-0.7034816352087017
goals: 0.004234720602821392,0.008151618902613024,0.009457052699557154,0.008262671720070445,0.009964729983739222,-0.0005050318007161658
goals: 0.004234720602821392,0.008151618902613024,0.009457052699557154,0.008262671720070445,0.009964729983739222,-0.0005050318007161658
state: 0.0,0.0,0.0,-0.35174081760435083,0.0,-0.7034816352087017
goals: 0.004234720602821392,0.008151618902613024,0.009457052699557154,0.008262671720070445,0.009964729983739222,-0.0005050318007161658
goals: 0.004234720602821392,0.008151618902613024,0.009457052699557154,0.008262671720070445,0.009964729983739222,-0.0005050318007161658
state: 0.35174081760435083,0.7034816352087017,0.7034816352087017,0.17587040880217542,0.5276112264065262,-0.7034816352087017
goals: 0.004234720602821392,0.008151618902613024,0.009457052699557154,0.008262671720070445,0.009964729983739222,-0.0005050318007161658
goals: 0.004234720602821392,0.008151618902613024,0.009457052699557154,0.008262671720070445,0.009964729983739222,-0.0005050318007161658
state: 0.17587040880217542,0.7034816352087017,0.5276112264065262,0.17587040880217542,0.0,-0.7034816352087017
goals: 0.004234720602821392,0.008151618902613024,0.009457052699557154,0.008262671720070445,0.009964729983739222,-0.0005050318007161658
goals: 0.004234720602821392,0.008151618902613024,0.009457052699557154,0.008262671720070445,0.009964729983739222,-0.0005050318007161658
state: 0.0,0.5276112264065262,0.5276112264065262,0.17587040880217542,-0.5276112264065262,-0.7034816352087017
goals: 0.004234720602821392,0.008151618902613024,0.009457052699557154,0.008262671720070445,0.009964729983739222,-0.0005050318007161658
goals: 0.004234720602821392,0.008151618902613024,0.009457052699557154,0.008262671720070445,0.009964729983739222,-0.0005050318007161658
state: 0.0,0.5276112264065262,0.5276112264065262,0.17587040880217542,-0.35174081760435083,-0.5276112264065262
goals: 0.004234720602821392,0.008151618902613024,0.009457052699557154,0.008262671720070445,0.009964729983739222,-0.0005050318007161658
goals: 0.004234720602821392,0.008151618902613024,0.009457052699557154,0.008262671720070445,0.009964729983739222,-0.0005050318007161658
state: 0.0,0.5276112264065262,0.5276112264065262,0.17587040880217542,-0.35174081760435083,-0.7034816352087017
goals: 0.004234720602821392,0.008151618902613024,0.009457052699557154,0.008262671720070445,0.009964729983739222,-0.0005050318007161658
goals: 0.004234720602821392,0.008151618902613024,0.009457052699557154,0.008262671720070445,0.009964729983739222,-0.0005050318007161658
state: 0.0,0.5276112264065262,0.5276112264065262,0.17587040880217542,-0.35174081760435083,-0.5276112264065262
goals: 0.004234720602821392,0.008151618902613024,0.009457052699557154,0.008262671720070445,0.009964729983739222,-0.0005050318007161658
goals: 0.004234720602821392,0.008151618902613024,0.009457052699557154,0.008262671720070445,0.009964729983739222,-0.0005050318007161658
state: 0.0,0.35174081760435083,0.5276112264065262,0.17587040880217542,-0.35174081760435083,-0.5276112264065262
goals: 0.004234720602821392,0.008151618902613024,0.009457052699557154,0.008262671720070445,0.009964729983739222,-0.0005050318007161658
goals: 0.004234720602821392,0.008151618902613024,0.009457052699557154,0.008262671720070445,0.009964729983739222,-0.0005050318007161658
state: 0.0,0.35174081760435083,0.35174081760435083,0.17587040880217542,-0.35174081760435083,-0.7034816352087017
goals: 0.004234720602821392,0.008151618902613024,0.009457052699557154,0.008262671720070445,0.009964729983739222,-0.0005050318007161658
goals: 0.004234720602821392,0.008151618902613024,0.009457052699557154,0.008262671720070445,0.009964729983739222,-0.0005050318007161658
state: 0.0,0.17587040880217542,0.35174081760435083,0.17587040880217542,-0.35174081760435083,-0.7034816352087017
goals: 0.004234720602821392,0.008151618902613024,0.009457052699557154,0.008262671720070445,0.009964729983739222,-0.0005050318007161658
goals: 0.004234720602821392,0.008151618902613024,0.009457052699557154,0.008262671720070445,0.009964729983739222,-0.0005050318007161658
state: 0.0,0.17587040880217542,0.5276112264065262,0.17587040880217542,-0.35174081760435083,-0.5276112264065262
goals: 0.004234720602821392,0.008151618902613024,0.009457052699557154,0.008262671720070445,0.009964729983739222,-0.0005050318007161658
goals: 0.004234720602821392,0.008151618902613024,0.009457052699557154,0.008262671720070445,0.009964729983739222,-0.0005050318007161658
state: 0.0,0.17587040880217542,0.5276112264065262,0.17587040880217542,-0.35174081760435083,-0.7034816352087017
goals: 0.005148748488072822,0.009157517832453164,0.008739034578322938,0.008262441558646349,0.009676908223354378,0.00040901566658999277
goals: 1.1879220909350956,1.3108141287613737,-0.9203931143343046,0.007964607322652329,-0.3627711440214912,1.1832076977478814
state: 0.0,0.35174081760435083,0.17587040880217542,0.17587040880217542,-0.35174081760435083,-0.5276112264065262
goals: 2.3743945818724823,2.6165416981017575,-1.8524311435729868,0.00766584160382477,-0.7363840353785797,2.369705607569775
goals: 4.751471613044485,5.086135749940057,-3.560093471091515,0.007064480928067282,-1.4981741978840326,4.7468268251011825
state: 2.9897969496369825,3.165667358439157,-2.286315314428281,0.17587040880217542,-0.35174081760435083,1.0552224528130525
goals: 8.478654182790425,8.708480813564025,-5.973573770535842,0.006116814581471573,-2.706838908728378,8.47406542228382
goals: 11.867131948746774,11.720638350825103,-7.88214923665495,0.005249958469027169,-3.8102658022752705,11.862576973266382
state: 9.848742892921823,10.552224528130523,-6.15546430807614,0.35174081760435083,-2.9897969496369825,4.22088981125221
goals: 13.501523289063618,13.056946017143963,-8.689693733762091,0.004829677953813163,-4.338966272764013,13.496976501269959
goals: 15.126094675374665,14.382675760233996,-9.48992250774996,0.00441187538889062,-4.8644051871065965,15.121555847359478
state: 14.069632704174033,13.717891886569682,-8.969390848910946,-0.17587040880217542,-4.22088981125221,9.497002075317472
goals: 15.196070978630326,14.48891685081815,-11.531033072379858,0.004391000455971563,-2.9295330407973204,15.191464602877282
goals: 15.196069240836229,14.540198588463602,-13.625317884307657,0.004387996543347908,-0.8865299672750567,15.191392009228021
state: 15.476595974591435,14.421373521778381,-12.486799024954456,0.17587040880217542,-2.638056132032631,12.31092861615228
goals: 15.196066381885453,14.50886097082433,-16.677565847610516,0.0043866047280081,2.1970556125157525,15.19128240154238
goals: 15.1960621077721,14.321384015663732,-20.79695340579343,0.004388811723297759,6.503920124245012,15.191129114897528
state: 15.476595974591435,14.421373521778381,-18.114652106624067,-0.35174081760435083,2.638056132032631,14.069632704174033
goals: 15.196057034579521,13.890943856271134,-25.108155548249947,0.004397728450801524,11.245562424305268,15.190959696878348
goals: 15.196052674772416,13.372752637734582,-28.455353324711478,0.004409890774960159,15.110951417834622,15.19082080705626
state: 15.476595974591435,13.89376229537186,-27.084042955535015,-0.35174081760435083,12.135058207350104,14.59724393058056
goals: 15.196050353127358,13.023745360225805,-30.090530545185786,0.004418628575143176,17.095135915057245,15.190748925746268
goals: 15.196048295670199,12.696658775744076,-31.50377632410517,0.004426922766062702,18.83546827778971,15.190685730380656
state: 15.300725565789259,13.190280660163156,-30.777321540380697,-0.35174081760435083,17.587040880217543,14.59724393058056
goals: 15.196046241386297,12.37007666335561,-32.91484242617383,0.004435204164687913,20.57311649157921,15.190622632482507
goals: 15.196045900862734,12.315941543695182,-33.14874449669935,0.004436576911352612,20.8611536816545,15.19061217320707
state: 15.300725565789259,12.486799024954456,-33.23950726361115,-0.35174081760435083,20.7527082386567,14.59724393058056
goals: 15.196045900862734,12.315941543695182,-33.14874449669935,0.004436576911352612,20.8611536816545,15.19061217320707
goals: 15.196045900862734,12.315941543695182,-33.14874449669935,0.004436576911352612,20.8611536816545,15.19061217320707
state: 15.300725565789259,12.31092861615228,-33.23950726361115,-0.35174081760435083,20.7527082386567,14.59724393058056
goals: 15.196045900862734,12.315941543695182,-33.14874449669935,0.004436576911352612,20.8611536816545,15.19061217320707
goals: 15.196045900862734,12.315941543695182,-33.14874449669935,0.004436576911352612,20.8611536816545,15.19061217320707
state: 15.124855156987085,12.31092861615228,-33.23950726361115,-0.35174081760435083,20.7527082386567,14.59724393058056
goals: 15.196045900862734,12.315941543695182,-33.14874449669935,0.004436576911352612,20.8611536816545,15.19061217320707
goals: 15.196018110014393,12.315919002084732,-33.14868381367144,0.004436587525163443,20.861115501410666,15.190584389310153
state: 15.124855156987085,12.31092861615228,-33.23950726361115,-0.35174081760435083,20.7527082386567,14.59724393058056
goals: 14.963079038658918,12.12697832128901,-32.64004701365395,0.0045255510288437365,20.54109394489782,14.957703583815295
goals: 14.733026581182655,11.940379020101096,-32.137713312716684,0.0046134120842186745,20.225038140722276,14.727708670160878
state: 15.124855156987085,12.135058207350104,-33.23950726361115,-0.35174081760435083,20.7527082386567,14.59724393058056
goals: 14.5016368663942,11.752695047692098,-31.632459628128267,0.00470178386153958,19.907145155845292,14.496376833687094
goals: 14.269508816802412,11.5644121998794,-31.12559374405128,0.004790437621829729,19.588237815361865,14.264306847092232
state: 14.59724393058056,11.783317389745752,-33.063636854808976,-0.35174081760435083,20.576837829854522,14.59724393058056
goals: 14.03848074855922,11.377021564882938,-30.62112973695427,0.004878671280012556,19.27084167581722,14.0333365667038
goals: 13.806563664657316,11.18890983478286,-30.114724509446358,0.004967244468817557,18.952224168928705,13.80147749302924
state: 14.069632704174033,11.255706163339227,-32.1842848107981,-0.35174081760435083,20.049226603448,14.245503112976209
goals: 13.57523511842134,11.001275477184645,-29.60960439015728,0.0050555928847988985,18.634415219998374,13.570206809807631
goals: 13.344813271457216,10.814376558157145,-29.106464104536855,0.005143595016477058,18.317851932908194,13.339842599062031
state: 13.717891886569682,10.903965345734875,-31.129062357985053,-0.35174081760435083,18.994004150634943,13.89376229537186
goals: 12.856133524327735,10.418000443251017,-28.03940179778463,0.005330230355191422,17.646483010542976,12.85128508709846
goals: 12.305380721178315,9.97127585998691,-26.836799152532883,0.0055405724791846266,16.88983549627208,12.300670045664491
state: 12.838539842558804,10.200483710526175,-28.491006225952418,-0.35174081760435083,17.76291128901972,13.190280660163156
goals: 11.753978519468376,9.524024538956498,-25.63277850555289,0.005751162619841125,16.132295810769786,11.749405768106323
goals: 11.137445923018795,9.02394489225708,-24.28654163279558,0.005986627196883081,15.285277232011879,11.133027387100825
state: 11.607446980943578,9.321131666515297,-25.852950093919787,-0.35174081760435083,16.355948018602312,11.95918779854793
goals: 10.416952097188695,8.439540596449998,-22.713299016732556,0.0062617963849152984,14.295432315663865,10.412713780898926
goals: 9.695035913945798,7.853982603341969,-21.136950595710683,0.0065375087961096565,13.303633304493927,9.690978173063446
state: 10.200483710526175,7.914168396097894,-22.687282735480625,-0.35174081760435083,14.421373521778381,10.903965345734875
goals: 8.89001902770868,7.201020274383513,-19.379146674741015,0.0068449588185756725,12.197667029907116,8.886162648501802
goals: 8.053538276604113,6.522537091349664,-17.55263946819012,0.007164425441097847,11.048474365903543,8.04989112923873
state: 8.617650031306594,6.683075534482665,-19.345744968239295,-0.35174081760435083,12.135058207350104,9.321131666515297
goals: 7.219941494341173,5.846393142490484,-15.732429585117064,0.007482790625500764,9.90324382037267,7.216502857440122
goals: 6.391797390945811,5.174671950412322,-13.924125961971082,0.007799073336518339,8.765504395881361,6.388565900611552
state: 7.034816352087017,5.451982672867437,-15.476595974591435,-0.35174081760435083,9.672872484119647,7.914168396097894
goals: 5.588798793680565,4.523346688564029,-12.170729099199894,0.008105752539141501,7.662310932118054,5.585768160180133
goals: 4.8971467408871385,3.9623364253732647,-10.660464269812332,0.008369906549828141,6.712090064436832,4.894289112721842
state: 5.276112264065262,4.22088981125221,-11.783317389745752,-0.35174081760435083,7.386557169691368,6.50720512568049
goals: 4.207883467718512,3.4032637403052037,-9.155415487768114,0.008633148243814514,5.765151003320936,4.205198247374591
goals: 3.5760795759097705,2.890797296813808,-7.77583280162533,0.008874445195532743,4.897152072566399,3.573552390872189
state: 4.045019402450034,3.165667358439157,-8.969390848910946,-0.35174081760435083,5.451982672867437,5.276112264065262
goals: 3.025136309954446,2.4439182260607457,-6.572814269113644,0.009084860060601264,4.140242892430488,3.0227469342734383
goals: 2.472486554452402,1.9956549937977581,-5.3660695116399735,0.009295926663861179,3.380989264719784,2.470235414978138
state: 2.9897969496369825,2.110444905626105,-6.50720512568049,-0.35174081760435083,3.8691489936478587,3.693278584845684
goals: 1.9191484860527277,1.5468334597148048,-4.157821780587741,0.009507256145850046,2.6207900036141063,1.917035754955307
goals: 1.6822058796907964,1.354645446364235,-3.6404430154607006,0.009597748669540631,2.2952682212402054,1.6801524158721417
state: 1.7587040880217542,1.231092861615228,-4.045019402450034,-0.35174081760435083,2.286315314428281,1.9345744968239293
goals: 1.450260264653243,1.1665105741945943,-3.1339754884619673,0.009686332754885127,1.9766115170698153,1.448264818198523
goals: 1.2196168358165171,0.9794319264954793,-2.6303513651840524,0.009774419512554212,1.659743811423518,1.217679081005366
state: 1.5828336792195785,1.0552224528130525,-3.5174081760435083,-0.35174081760435083,1.7587040880217542,1.7587040880217542
goals: 0.9885565974628611,0.7920151977976174,-2.125817112670734,0.009862665457064636,1.3423034752193614,0.986676638553293
goals: 0.7566336028294575,0.6038986734067975,-1.619398978716779,0.00995124090328133,1.0236778479177118,0.7548116556257041
state: 0.8793520440108771,0.5276112264065262,-2.638056132032631,-0.35174081760435083,1.4069632704174033,1.231092861615228
goals: 0.5252475524631914,0.41621767327041875,-1.1141532956197597,0.010039611281095338,0.7057898973790461,0.523483482657514
goals: 0.2946659861982985,0.22918920331250392,-0.610664253075166,0.010127674412366736,0.3890071811525683,0.29295959256228926
state: 0.35174081760435083,0.35174081760435083,-1.231092861615228,-0.35174081760435083,0.8793520440108771,0.7034816352087017
goals: 0.06339273942446089,0.04159970001014953,-0.10566488356542704,0.010216001708516722,0.07127420496414427,0.061744194970572625
goals: 0.010822998834951858,-0.0010404741711867087,0.009124380749929103,0.0102360790114921,-0.0009483299289302086,0.009187603833236892
state: 0.17587040880217542,0.0,-0.17587040880217542,-0.35174081760435083,-0.17587040880217542,0.35174081760435083
goals: 0.010822998834951858,-0.0010404741711867087,0.009124380749929103,0.0102360790114921,-0.0009483299289302086,0.009187603833236892
goals: 0.010822998834951858,-0.0010404741711867087,0.009124380749929103,0.0102360790114921,-0.0009483299289302086,0.009187603833236892
state: 0.0,-0.17587040880217542,-0.17587040880217542,-0.35174081760435083,-0.5276112264065262,0.35174081760435083
goals: 0.010822998834951858,-0.0010404741711867087,0.009124380749929103,0.0102360790114921,-0.0009483299289302086,0.009187603833236892
goals: 0.010822998834951858,-0.0010404741711867087,0.009124380749929103,0.0102360790114921,-0.0009483299289302086,0.009187603833236892
state: 0.0,-0.17587040880217542,-0.17587040880217542,-0.35174081760435083,-0.35174081760435083,0.35174081760435083
goals: 0.010822998834951858,-0.0010404741711867087,0.009124380749929103,0.0102360790114921,-0.0009483299289302086,0.009187603833236892
goals: 0.010822998834951858,-0.0010404741711867087,0.009124380749929103,0.0102360790114921,-0.0009483299289302086,0.009187603833236892
state: 0.0,-0.17587040880217542,-0.17587040880217542,-0.35174081760435083,-0.5276112264065262,0.35174081760435083
goals: 0.010822998834951858,-0.0010404741711867087,0.009124380749929103,0.0102360790114921,-0.0009483299289302086,0.009187603833236892
goals: 0.010822998834951858,-0.0010404741711867087,0.009124380749929103,0.0102360790114921,-0.0009483299289302086,0.009187603833236892
state: 0.0,-0.17587040880217542,-0.17587040880217542,-0.35174081760435083,-0.35174081760435083,0.35174081760435083
goals: 0.010822998834951858,-0.0010404741711867087,0.009124380749929103,0.0102360790114921,-0.0009483299289302086,0.009187603833236892
goals: 0.010822998834951858,-0.0010404741711867087,0.009124380749929103,0.0102360790114921,-0.0009483299289302086,0.009187603833236892
state: 0.0,-0.17587040880217542,-0.17587040880217542,-0.35174081760435083,-0.35174081760435083,0.35174081760435083
goals: 0.010822998834951858,-0.0010404741711867087,0.009124380749929103,0.0102360790114921,-0.0009483299289302086,0.009187603833236892
goals: 0.010822998834951858,-0.0010404741711867087,0.009124380749929103,0.0102360790114921,-0.0009483299289302086,0.009187603833236892
state: 0.0,-0.17587040880217542,-0.17587040880217542,-0.35174081760435083,-0.35174081760435083,0.35174081760435083
goals: 0.010822998834951858,-0.0010404741711867087,0.009124380749929103,0.0102360790114921,-0.0009483299289302086,0.009187603833236892
goals: 0.010822998834951858,-0.0010404741711867087,0.009124380749929103,0.0102360790114921,-0.0009483299289302086,0.009187603833236892
state: 0.0,-0.17587040880217542,-0.17587040880217542,-0.35174081760435083,-0.35174081760435083,0.35174081760435083
goals: 0.010822998834951858,-0.0010404741711867087,0.009124380749929103,0.0102360790114921,-0.0009483299289302086,0.009187603833236892
goals: 0.010822998834951858,-0.0010404741711867087,0.009124380749929103,0.0102360790114921,-0.0009483299289302086,0.009187603833236892
state: 0.0,-0.17587040880217542,-0.17587040880217542,-0.35174081760435083,-0.35174081760435083,0.35174081760435083
goals: 0.010822998834951858,-0.0010404741711867087,0.009124380749929103,0.0102360790114921,-0.0009483299289302086,0.009187603833236892
goals: 0.010822998834951858,-0.0010404741711867087,0.009124380749929103,0.0102360790114921,-0.0009483299289302086,0.009187603833236892
state: 0.0,-0.17587040880217542,-0.17587040880217542,-0.35174081760435083,-0.35174081760435083,0.35174081760435083
goals: 0.010822998834951858,-0.0010404741711867087,0.009124380749929103,0.0102360790114921,-0.0009483299289302086,0.009187603833236892
goals: 0.010822998834951858,-0.0010404741711867087,0.009124380749929103,0.0102360790114921,-0.0009483299289302086,0.009187603833236892
state: 0.0,-0.17587040880217542,-0.17587040880217542,-0.35174081760435083,-0.35174081760435083,0.35174081760435083
goals: 0.010822998834951858,-0.0010404741711867087,0.009124380749929103,0.0102360790114921,-0.0009483299289302086,0.009187603833236892
goals: 0.010822998834951858,-0.0010404741711867087,0.009124380749929103,0.0102360790114921,-0.0009483299289302086,0.009187603833236892
state: 0.0,-0.35174081760435083,-0.17587040880217542,-0.35174081760435083,-0.35174081760435083,0.35174081760435083
goals: 0.010822998834951858,-0.0010404741711867087,0.009124380749929103,0.0102360790114921,-0.0009483299289302086,0.009187603833236892
goals: 0.010822998834951858,-0.0010404741711867087,0.009124380749929103,0.0102360790114921,-0.0009483299289302086,0.009187603833236892
state: 0.0,-0.17587040880217542,-0.17587040880217542,-0.35174081760435083,-0.35174081760435083,0.35174081760435083
goals: 0.010822998834951858,-0.0010404741711867087,0.009124380749929103,0.0102360790114921,-0.0009483299289302086,0.009187603833236892
goals: 0.010822998834951858,-0.0010404741711867087,0.009124380749929103,0.0102360790114921,-0.0009483299289302086,0.009187603833236892
state: 0.0,-0.35174081760435083,-0.17587040880217542,-0.35174081760435083,-0.35174081760435083,0.35174081760435083
goals: 0.010822998834951858,-0.0010404741711867087,0.009124380749929103,0.0102360790114921,-0.0009483299289302086,0.009187603833236892
goals: 0.010822998834951858,-0.0010404741711867087,0.009124380749929103,0.0102360790114921,-0.0009483299289302086,0.009187603833236892
state: 0.0,-0.35174081760435083,-0.17587040880217542,-0.35174081760435083,-0.35174081760435083,0.35174081760435083
goals: 0.010822998834951858,-0.0010404741711867087,0.009124380749929103,0.0102360790114921,-0.0009483299289302086,0.009187603833236892
goals: 0.010822998834951858,-0.0010404741711867087,0.009124380749929103,0.0102360790114921,-0.0009483299289302086,0.009187603833236892
state: 0.0,-0.17587040880217542,-0.17587040880217542,-0.35174081760435083,-0.35174081760435083,0.35174081760435083
goals: 0.010822998834951858,-0.0010404741711867087,0.009124380749929103,0.0102360790114921,-0.0009483299289302086,0.009187603833236892
goals: 0.010822998834951858,-0.0010404741711867087,0.009124380749929103,0.0102360790114921,-0.0009483299289302086,0.009187603833236892
state: 0.0,-0.35174081760435083,-0.17587040880217542,-0.35174081760435083,-0.35174081760435083,0.35174081760435083
goals: 0.010822998834951858,-0.0010404741711867087,0.009124380749929103,0.0102360790114921,-0.0009483299289302086,0.009187603833236892
goals: 0.010822998834951858,-0.0010404741711867087,0.009124380749929103,0.0102360790114921,-0.0009483299289302086,0.009187603833236892
state: 0.0,-0.17587040880217542,-0.17587040880217542,-0.35174081760435083,-0.35174081760435083,0.35174081760435083
goals: 0.010822998834951858,-0.0010404741711867087,0.009124380749929103,0.0102360790114921,-0.0009483299289302086,0.009187603833236892
goals: 0.010822998834951858,-0.0010404741711867087,0.009124380749929103,0.0102360790114921,-0.0009483299289302086,0.009187603833236892
state: 0.0,-0.35174081760435083,-0.17587040880217542,-0.35174081760435083,-0.35174081760435083,0.35174081760435083
goals: 0.010822998834951858,-0.0010404741711867087,0.009124380749929103,0.0102360790114921,-0.0009483299289302086,0.009187603833236892
goals: 0.010822998834951858,-0.0010404741711867087,0.009124380749929103,0.0102360790114921,-0.0009483299289302086,0.009187603833236892
state: 0.0,-0.17587040880217542,-0.17587040880217542,-0.35174081760435083,-0.35174081760435083,0.35174081760435083
goals: 0.010822998834951858,-0.0010404741711867087,0.009124380749929103,0.0102360790114921,-0.0009483299289302086,0.009187603833236892
goals: 0.010822998834951858,-0.0010404741711867087,0.009124380749929103,0.0102360790114921,-0.0009483299289302086,0.009187603833236892
state: 0.0,-0.17587040880217542,-0.17587040880217542,-0.35174081760435083,-0.35174081760435083,0.35174081760435083
goals: 0.010822998834951858,-0.0010404741711867087,0.009124380749929103,0.0102360790114921,-0.0009483299289302086,0.009187603833236892
goals: 0.010822998834951858,-0.0010404741711867087,0.009124380749929103,0.0102360790114921,-0.0009483299289302086,0.009187603833236892
state: 0.0,-0.17587040880217542,-0.17587040880217542,-0.35174081760435083,-0.35174081760435083,0.35174081760435083
goals: 0.010822998834951858,-0.0010404741711867087,0.009124380749929103,0.0102360790114921,-0.0009483299289302086,0.009187603833236892
goals: 0.010822998834951858,-0.0010404741711867087,0.009124380749929103,0.0102360790114921,-0.0009483299289302086,0.009187603833236892
state: 0.0,-0.17587040880217542,-0.17587040880217542,-0.35174081760435083,-0.17587040880217542,0.35174081760435083
goals: 0.010822998834951858,-0.0010404741711867087,0.009124380749929103,0.0102360790114921,-0.0009483299289302086,0.009187603833236892
goals: 0.010822998834951858,-0.0010404741711867087,0.009124380749929103,0.0102360790114921,-0.0009483299289302086,0.009187603833236892
state: 0.0,-0.17587040880217542,0.0,-0.35174081760435083,-0.35174081760435083,0.35174081760435083
goals: 0.010822998834951858,-0.0010404741711867087,0.009124380749929103,0.0102360790114921,-0.0009483299289302086,0.009187603833236892
goals: 0.010822998834951858,-0.0010404741711867087,0.009124380749929103,0.0102360790114921,-0.0009483299289302086,0.009187603833236892
state: 0.0,-0.17587040880217542,0.17587040880217542,-0.35174081760435083,-0.35174081760435083,0.35174081760435083
goals: 0.010822998834951858,-0.0010404741711867087,0.009124380749929103,0.0102360790114921,-0.0009483299289302086,0.009187603833236892
goals: 0.010822998834951858,-0.0010404741711867087,0.009124380749929103,0.0102360790114921,-0.0009483299289302086,0.009187603833236892
state: 0.0,-0.17587040880217542,0.17587040880217542,-0.35174081760435083,-0.35174081760435083,0.35174081760435083
goals: 0.010822998834951858,-0.0010404741711867087,0.009124380749929103,0.0102360790114921,-0.0009483299289302086,0.009187603833236892
goals: 0.010822998834951858,-0.0010404741711867087,0.009124380749929103,0.0102360790114921,-0.0009483299289302086,0.009187603833236892
state: 0.0,-0.35174081760435083,0.17587040880217542,-0.35174081760435083,-0.35174081760435083,0.35174081760435083
goals: 0.010822998834951858,-0.0010404741711867087,0.009124380749929103,0.0102360790114921,-0.0009483299289302086,0.009187603833236892
goals: 0.010822998834951858,-0.0010404741711867087,0.009124380749929103,0.0102360790114921,-0.0009483299289302086,0.009187603833236892
state: 0.0,-0.35174081760435083,0.17587040880217542,-0.35174081760435083,-0.35174081760435083,0.35174081760435083
goals: 0.010822998834951858,-0.0010404741711867087,0.009124380749929103,0.0102360790114921,-0.0009483299289302086,0.009187603833236892
goals: 0.010822998834951858,-0.0010404741711867087,0.009124380749929103,0.0102360790114921,-0.0009483299289302086,0.009187603833236892
state: 0.0,-0.17587040880217542,0.17587040880217542,-0.35174081760435083,-0.35174081760435083,0.35174081760435083
goals: 0.010822998834951858,-0.0010404741711867087,0.009124380749929103,0.0102360790114921,-0.0009483299289302086,0.009187603833236892
goals: 0.010822998834951858,-0.0010404741711867087,0.009124380749929103,0.0102360790114921,-0.0009483299289302086,0.009187603833236892
state: 0.0,-0.17587040880217542,0.17587040880217542,-0.35174081760435083,-0.35174081760435083,0.35174081760435083
goals: 0.010822998834951858,-0.0010404741711867087,0.009124380749929103,0.0102360790114921,-0.0009483299289302086,0.009187603833236892
goals: 0.010822998834951858,-0.0010404741711867087,0.009124380749929103,0.0102360790114921,-0.0009483299289302086,0.009187603833236892
goals: 0.010822998834951858,-0.0010404741711867087,0.009124380749929103,0.0102360790114921,-0.0009483299289302086,0.009187603833236892
goals: 0.010822998834951858,-0.0010404741711867087,0.009124380749929103,0.0102360790114921,-0.0009483299289302086,0.009187603833236892
goals: 0.010822998834951858,-0.0010404741711867087,0.009124380749929103,0.0102360790114921,-0.0009483299289302086,0.009187603833236892
goals: 0.010822998834951858,-0.0010404741711867087,0.009124380749929103,0.0102360790114921,-0.0009483299289302086,0.009187603833236892
goals: 0.010822998834951858,-0.0010404741711867087,0.009124380749929103,0.0102360790114921,-0.0009483299289302086,0.009187603833236892
goals: 0.010822998834951858,-0.0010404741711867087,0.009124380749929103,0.0102360790114921,-0.0009483299289302086,0.009187603833236892
